; G-Code generated by Simplify3D(R) Version 4.1.2
; Apr 6, 2020 at 11:42:46 AM
; Settings Summary
;   processName,Process1
;   applyToModels,FORCE bracket,FORCE bracket(2)
;   profileName,MakerBot Replicator 2 HBP (modified)
;   profileVersion,2020-03-12 10:48:50
;   baseProfile,MakerBot Replicator 2(2)
;   printMaterial,PLA
;   printQuality,Medium
;   printExtruders,
;   extruderName,Primary Extruder
;   extruderToolheadNumber,0
;   extruderDiameter,0.4
;   extruderAutoWidth,0
;   extruderWidth,0.4
;   extrusionMultiplier,1
;   extruderUseRetract,1
;   extruderRetractionDistance,1.9
;   extruderExtraRestartDistance,0
;   extruderRetractionZLift,0.5
;   extruderRetractionSpeed,1200
;   extruderUseCoasting,0
;   extruderCoastingDistance,0.2
;   extruderUseWipe,0
;   extruderWipeDistance,5
;   primaryExtruder,0
;   layerHeight,0.2
;   topSolidLayers,3
;   bottomSolidLayers,3
;   perimeterOutlines,3
;   printPerimetersInsideOut,1
;   startPointOption,3
;   startPointOriginX,0
;   startPointOriginY,150
;   sequentialIslands,0
;   spiralVaseMode,0
;   firstLayerHeightPercentage,100
;   firstLayerWidthPercentage,115
;   firstLayerUnderspeed,0.5
;   useRaft,0
;   raftExtruder,0
;   raftTopLayers,2
;   raftBaseLayers,1
;   raftOffset,1
;   raftSeparationDistance,0.14
;   raftTopInfill,90
;   aboveRaftSpeedMultiplier,0.3
;   useSkirt,0
;   skirtExtruder,0
;   skirtLayers,1
;   skirtOutlines,5
;   skirtOffset,0
;   usePrimePillar,0
;   primePillarExtruder,999
;   primePillarWidth,12
;   primePillarLocation,7
;   primePillarSpeedMultiplier,1
;   useOozeShield,0
;   oozeShieldExtruder,999
;   oozeShieldOffset,2
;   oozeShieldOutlines,1
;   oozeShieldSidewallShape,1
;   oozeShieldSidewallAngle,30
;   oozeShieldSpeedMultiplier,1
;   infillExtruder,0
;   internalInfillPattern,Rectilinear
;   externalInfillPattern,Rectilinear
;   infillPercentage,15
;   outlineOverlapPercentage,25
;   infillExtrusionWidthPercentage,100
;   minInfillLength,5
;   infillLayerInterval,1
;   internalInfillAngles,45,-45
;   overlapInternalInfillAngles,0
;   externalInfillAngles,45,-45
;   generateSupport,1
;   supportExtruder,0
;   supportInfillPercentage,5
;   supportExtraInflation,0.5
;   supportBaseLayers,0
;   denseSupportExtruder,0
;   denseSupportLayers,2
;   denseSupportInfillPercentage,90
;   supportLayerInterval,1
;   supportHorizontalPartOffset,0.3
;   supportUpperSeparationLayers,1
;   supportLowerSeparationLayers,1
;   supportType,1
;   supportGridSpacing,2
;   maxOverhangAngle,45
;   supportAngles,45,-45
;   temperatureName,Primary Extruder,Heated Build Platform
;   temperatureNumber,0,0
;   temperatureSetpointCount,1,1
;   temperatureSetpointLayers,1,1
;   temperatureSetpointTemperatures,230,60
;   temperatureStabilizeAtStartup,1,1
;   temperatureHeatedBed,0,1
;   fanLayers,1,2
;   fanSpeeds,0,100
;   blipFanToFullPower,1
;   adjustSpeedForCooling,1
;   minSpeedLayerTime,15
;   minCoolingSpeedSlowdown,20
;   increaseFanForCooling,1
;   minFanLayerTime,45
;   maxCoolingFanSpeed,100
;   increaseFanForBridging,1
;   bridgingFanSpeed,100
;   use5D,1
;   relativeEdistances,1
;   allowEaxisZeroing,0
;   independentExtruderAxes,1
;   includeM10123,0
;   stickySupport,1
;   applyToolheadOffsets,0
;   gcodeXoffset,0
;   gcodeYoffset,0
;   gcodeZoffset,0
;   overrideMachineDefinition,1
;   machineTypeOverride,0
;   strokeXoverride,280
;   strokeYoverride,150
;   strokeZoverride,150
;   originOffsetXoverride,140
;   originOffsetYoverride,75
;   originOffsetZoverride,0
;   homeXdirOverride,1
;   homeYdirOverride,1
;   homeZdirOverride,-1
;   flipXoverride,1
;   flipYoverride,-1
;   flipZoverride,1
;   toolheadOffsets,0,0|0,0|0,0|0,0|0,0|0,0
;   overrideFirmwareConfiguration,1
;   firmwareTypeOverride,MakerBot/Sailfish Firmware
;   GPXconfigOverride,r2h
;   baudRateOverride,115200
;   overridePrinterModels,1
;   printerModelsOverride,MakerBot_Replicator2.stl
;   startingGcode,; **** Replicator 2 start.gcode ****,M73 P0 ; enable build progress,G162 X Y F3000 ; home XY maximum,G161 Z F1200 ; home Z minimum,G92 Z-5 ; set Z to -5,G1 Z0 ; move Z to 0,G161 Z F100 ; home Z slowly,M132 X Y Z A B ; recall home offsets,G1 X-145 Y-75 Z30 F9000 ; move to wait position off table,G130 X20 Y20 Z20 A20 B20 ; lower stepper Vrefs while heating,M126 S[fan_speed_pwm],M140 S[bed0_temperature] T0,M134 T0 ; stabilize bed temperature,M104 S[extruder0_temperature] T0,M133 T0 ; stabilize extruder temperature,G130 X127 Y127 Z40 A127 B127 ; default stepper Vrefs,G92 A0 ; zero extruder,G1 Z0.4 ; position nozzle,G1 E25 F300 ; purge nozzle,G1 X-140 Y-70 Z0.15 F1200 ; slow wipe,G1 X-135 Y-65 Z0.5 F1200 ; lift,G92 A0 ; zero extruder,M73 P1 ;@body (notify GPX body has started),; **** end of start.gcode ****
;   layerChangeGcode,
;   retractionGcode,
;   toolChangeGcode,
;   endingGcode,; **** Replicator 2 end.gcode ****,M73 P100 ; end build progress,G1 Z155 F1000 ; send Z axis to bottom of machine,M104 S0 T0 ; cool down extruder,M140 S0 T0 ; cool down HBP,M127 ; stop blower fan,G162 X Y F3000 ; home XY maximum,M18 ; disable stepper,M0 ; stop codes,M72 P1 ; play Ta-Da song,; **** end of end.gcode ****
;   exportFileFormat,gcode
;   celebration,0
;   celebrationSong,Random Song
;   postProcessing,
;   defaultSpeed,4800
;   outlineUnderspeed,0.5
;   solidInfillUnderspeed,1
;   supportUnderspeed,1
;   rapidXYspeed,9000
;   rapidZspeed,1200
;   minBridgingArea,50
;   bridgingExtraInflation,0
;   bridgingExtrusionMultiplier,1
;   bridgingSpeedMultiplier,0.8
;   useFixedBridgingAngle,0
;   fixedBridgingAngle,0
;   applyBridgingToPerimeters,0
;   filamentDiameters,1.75|1.75|1.75|1.75|1.75|1.75
;   filamentPricesPerKg,46|46|46|46|46|46
;   filamentDensities,1.25|1.25|1.25|1.25|1.25|1.25
;   useMinPrintHeight,0
;   minPrintHeight,0
;   useMaxPrintHeight,0
;   maxPrintHeight,4.84
;   useDiaphragm,0
;   diaphragmLayerInterval,20
;   robustSlicing,1
;   mergeAllIntoSolid,0
;   onlyRetractWhenCrossingOutline,0
;   retractBetweenLayers,0
;   useRetractionMinTravel,1
;   retractionMinTravel,7
;   retractWhileWiping,1
;   onlyWipeOutlines,1
;   avoidCrossingOutline,0
;   maxMovementDetourFactor,3
;   toolChangeRetractionDistance,12
;   toolChangeExtraRestartDistance,-0.5
;   toolChangeRetractionSpeed,600
;   externalThinWallType,0
;   internalThinWallType,0
;   thinWallAllowedOverlapPercentage,10
;   singleExtrusionMinLength,1
;   singleExtrusionMinPrintingWidthPercentage,50
;   singleExtrusionMaxPrintingWidthPercentage,200
;   singleExtrusionEndpointExtension,0.2
;   horizontalSizeCompensation,0
G90
M83
; **** Replicator 2 start.gcode ****
M73 P0 ; enable build progress
G162 X Y F3000 ; home XY maximum
G161 Z F1200 ; home Z minimum
G92 Z-5 ; set Z to -5
G1 Z0 ; move Z to 0
G161 Z F100 ; home Z slowly
M132 X Y Z A B ; recall home offsets
G1 X-145 Y-75 Z30 F9000 ; move to wait position off table
G130 X20 Y20 Z20 A20 B20 ; lower stepper Vrefs while heating
M127
M140 S60 T0
M134 T0 ; stabilize bed temperature
M104 S230 T0
M133 T0 ; stabilize extruder temperature
G130 X127 Y127 Z40 A127 B127 ; default stepper Vrefs
G92 A0 ; zero extruder
G1 Z0.4 ; position nozzle
G1 E25 F300 ; purge nozzle
G1 X-140 Y-70 Z0.15 F1200 ; slow wipe
G1 X-135 Y-65 Z0.5 F1200 ; lift
G92 A0 ; zero extruder
M73 P1 ;@body (notify GPX body has started)
; **** end of start.gcode ****
; process Process1
; layer 1, Z = 0.200
M135 T0
G1 E-1.9000 F1200
; feature inner perimeter
; tool H0.200 W0.460
G1 Z0.500 F1200
G1 X-40.662 Y47.287 F9000
G1 Z0.200 F1200
G1 E1.9000 F1200
G1 X-48.365 Y47.287 E0.2946 F1800
G1 X-48.365 Y19.125 E1.0771
G1 X-76.350 Y19.125 E1.0704
G1 X-76.350 Y11.334 E0.2980
G1 X76.350 Y11.334 E5.8406
G1 X76.350 Y19.125 E0.2980
G1 X-40.662 Y19.125 E4.4756
G1 X-40.662 Y47.287 E1.0771
G1 X-40.202 Y47.747 F9000
G1 X-48.825 Y47.747 E0.3298 F1800
G1 X-48.825 Y19.585 E1.0771
G1 X-76.810 Y19.585 E1.0704
G1 X-76.810 Y10.874 E0.3332
G1 X76.810 Y10.874 E5.8758
G1 X76.810 Y19.585 E0.3332
G1 X-40.202 Y19.585 E4.4756
G1 X-40.202 Y47.747 E1.0771
; feature outer perimeter
G1 X-39.742 Y48.207 F9000
G1 X-49.285 Y48.207 E0.3650 F1200
G1 X-49.285 Y20.045 E1.0771
G1 X-77.270 Y20.045 E1.0704
G1 X-77.270 Y10.414 E0.3684
G1 X77.270 Y10.414 E5.9110
G1 X77.270 Y20.045 E0.3684
G1 X-39.742 Y20.045 E4.4756
G1 X-39.742 Y48.207 E1.0771
; feature inner perimeter
G1 X-42.182 Y45.845 F9000
G1 X-41.759 Y45.329 E0.0255 F1800
G1 X-41.444 Y44.740 E0.0255
G1 X-41.250 Y44.101 E0.0255
G1 X-41.185 Y43.437 E0.0255
G1 X-41.250 Y42.772 E0.0255
G1 X-41.444 Y42.134 E0.0255
G1 X-41.759 Y41.545 E0.0255
G1 X-42.182 Y41.029 E0.0255
G1 X-42.698 Y40.605 E0.0255
G1 X-43.287 Y40.290 E0.0255
G1 X-43.926 Y40.097 E0.0255
G1 X-44.590 Y40.031 E0.0255
G1 X-45.255 Y40.097 E0.0255
G1 X-45.894 Y40.290 E0.0255
G1 X-46.482 Y40.605 E0.0255
G1 X-46.998 Y41.029 E0.0255
G1 X-47.422 Y41.545 E0.0255
G1 X-47.737 Y42.134 E0.0255
G1 X-47.930 Y42.772 E0.0255
G1 X-47.996 Y43.437 E0.0255
G1 X-47.930 Y44.101 E0.0255
G1 X-47.737 Y44.740 E0.0255
G1 X-47.422 Y45.329 E0.0255
G1 X-46.998 Y45.845 E0.0255
G1 X-46.482 Y46.268 E0.0255
G1 X-45.894 Y46.583 E0.0255
G1 X-45.255 Y46.777 E0.0255
G1 X-44.590 Y46.842 E0.0255
G1 X-43.926 Y46.777 E0.0255
G1 X-43.287 Y46.583 E0.0255
G1 X-42.698 Y46.268 E0.0255
G1 X-42.182 Y45.845 E0.0255
G1 X-42.509 Y45.518 F9000
G1 X-42.143 Y45.072 E0.0221 F1800
G1 X-41.871 Y44.563 E0.0221
G1 X-41.704 Y44.011 E0.0221
G1 X-41.647 Y43.437 E0.0221
G1 X-41.704 Y42.863 E0.0221
G1 X-41.871 Y42.310 E0.0221
G1 X-42.143 Y41.802 E0.0221
G1 X-42.509 Y41.356 E0.0221
G1 X-42.955 Y40.989 E0.0221
G1 X-43.464 Y40.717 E0.0221
G1 X-44.016 Y40.550 E0.0221
G1 X-44.590 Y40.493 E0.0221
G1 X-45.165 Y40.550 E0.0221
G1 X-45.717 Y40.717 E0.0221
G1 X-46.226 Y40.989 E0.0221
G1 X-46.672 Y41.356 E0.0221
G1 X-47.038 Y41.802 E0.0221
G1 X-47.310 Y42.310 E0.0221
G1 X-47.477 Y42.863 E0.0221
G1 X-47.534 Y43.437 E0.0221
G1 X-47.477 Y44.011 E0.0221
G1 X-47.310 Y44.563 E0.0221
G1 X-47.038 Y45.072 E0.0221
G1 X-46.672 Y45.518 E0.0221
G1 X-46.226 Y45.884 E0.0221
G1 X-45.717 Y46.156 E0.0221
G1 X-45.165 Y46.324 E0.0221
G1 X-44.590 Y46.380 E0.0221
G1 X-44.016 Y46.324 E0.0221
G1 X-43.464 Y46.156 E0.0221
G1 X-42.955 Y45.884 E0.0221
G1 X-42.509 Y45.518 E0.0221
; feature outer perimeter
G1 X-42.836 Y45.191 F9000
G1 X-42.527 Y44.815 E0.0186 F1200
G1 X-42.298 Y44.386 E0.0186
G1 X-42.157 Y43.921 E0.0186
G1 X-42.109 Y43.437 E0.0186
G1 X-42.157 Y42.953 E0.0186
G1 X-42.298 Y42.487 E0.0186
G1 X-42.527 Y42.058 E0.0186
G1 X-42.836 Y41.682 E0.0186
G1 X-43.212 Y41.374 E0.0186
G1 X-43.641 Y41.145 E0.0186
G1 X-44.106 Y41.003 E0.0186
G1 X-44.590 Y40.956 E0.0186
G1 X-45.074 Y41.003 E0.0186
G1 X-45.540 Y41.145 E0.0186
G1 X-45.969 Y41.374 E0.0186
G1 X-46.345 Y41.682 E0.0186
G1 X-46.653 Y42.058 E0.0186
G1 X-46.883 Y42.487 E0.0186
G1 X-47.024 Y42.953 E0.0186
G1 X-47.071 Y43.437 E0.0186
G1 X-47.024 Y43.921 E0.0186
G1 X-46.883 Y44.386 E0.0186
G1 X-46.653 Y44.815 E0.0186
G1 X-46.345 Y45.191 E0.0186
G1 X-45.969 Y45.500 E0.0186
G1 X-45.540 Y45.729 E0.0186
G1 X-45.074 Y45.870 E0.0186
G1 X-44.590 Y45.918 E0.0186
G1 X-44.106 Y45.870 E0.0186
G1 X-43.641 Y45.729 E0.0186
G1 X-43.212 Y45.500 E0.0186
G1 X-42.836 Y45.191 E0.0186
; feature solid layer
G1 X-42.832 Y46.942 F9000
G1 X-42.970 Y46.805 E0.0074 F2400
G1 X-42.546 Y46.578 E0.0184
G1 X-42.182 Y46.942 E0.0197
G1 X-41.531 Y46.942 E0.0249
G1 X-42.182 Y46.291 E0.0352
G1 X-41.937 Y46.090 E0.0121
G1 X-41.845 Y45.978 E0.0056
G1 X-41.007 Y46.815 E0.0453
G1 X-41.007 Y46.165 E0.0249
G1 X-41.552 Y45.620 E0.0294
G1 X-41.470 Y45.521 E0.0049
G1 X-41.307 Y45.215 E0.0133
G1 X-41.007 Y45.514 E0.0162
G1 X-41.007 Y44.864 E0.0249
G1 X-41.095 Y44.777 E0.0047
G1 X-41.007 Y42.262 F9000
G1 X-41.061 Y42.208 E0.0029 F2400
G1 X-47.958 Y41.816 F9000
G1 X-48.020 Y41.754 E0.0034 F2400
G1 X-48.020 Y41.104 E0.0249
G1 X-47.732 Y41.392 E0.0156
G1 X-47.710 Y41.352 E0.0017
G1 X-47.445 Y41.029 E0.0160
G1 X-48.020 Y40.453 E0.0311
G1 X-48.020 Y39.802 E0.0249
G1 X-47.131 Y40.691 E0.0481
G1 X-46.774 Y40.398 E0.0177
G1 X-48.020 Y39.152 E0.0674
G1 X-48.020 Y38.501 E0.0249
G1 X-46.368 Y40.153 E0.0893
G1 X-46.026 Y39.970 E0.0148
G1 X-45.930 Y39.941 E0.0038
G1 X-48.020 Y37.851 E0.1131
G1 X-48.020 Y37.200 E0.0249
G1 X-45.431 Y39.790 E0.1401
G1 X-45.322 Y39.757 E0.0043
G1 X-44.859 Y39.711 E0.0178
G1 X-48.020 Y36.550 E0.1710
G1 X-48.020 Y35.899 E0.0249
G1 X-44.196 Y39.723 E0.2069
G1 X-43.858 Y39.757 E0.0130
G1 X-43.362 Y39.907 E0.0199
G1 X-48.020 Y35.249 E0.2520
G1 X-48.020 Y34.598 E0.0249
G1 X-41.007 Y41.611 E0.3793
G1 X-41.007 Y40.960 E0.0249
G1 X-48.020 Y33.948 E0.3793
G1 X-48.020 Y33.297 E0.0249
G1 X-41.007 Y40.310 E0.3793
G1 X-41.007 Y39.659 E0.0249
G1 X-48.020 Y32.647 E0.3793
G1 X-48.020 Y31.996 E0.0249
G1 X-41.007 Y39.009 E0.3793
G1 X-41.007 Y38.358 E0.0249
G1 X-48.020 Y31.345 E0.3793
G1 X-48.020 Y30.695 E0.0249
G1 X-41.007 Y37.708 E0.3793
G1 X-41.007 Y37.057 E0.0249
G1 X-48.020 Y30.044 E0.3793
G1 X-48.020 Y29.394 E0.0249
G1 X-41.007 Y36.407 E0.3793
G1 X-41.007 Y35.756 E0.0249
G1 X-48.020 Y28.743 E0.3793
G1 X-48.020 Y28.093 E0.0249
G1 X-41.007 Y35.106 E0.3793
G1 X-41.007 Y34.455 E0.0249
G1 X-48.020 Y27.442 E0.3793
G1 X-48.020 Y26.792 E0.0249
G1 X-41.007 Y33.805 E0.3793
G1 X-41.007 Y33.154 E0.0249
G1 X-48.020 Y26.141 E0.3793
G1 X-48.020 Y25.491 E0.0249
G1 X-41.007 Y32.503 E0.3793
G1 X-41.007 Y31.853 E0.0249
G1 X-48.020 Y24.840 E0.3793
G1 X-48.020 Y24.189 E0.0249
G1 X-41.007 Y31.202 E0.3793
G1 X-41.007 Y30.552 E0.0249
G1 X-48.020 Y23.539 E0.3793
G1 X-48.020 Y22.888 E0.0249
G1 X-41.007 Y29.901 E0.3793
G1 X-41.007 Y29.251 E0.0249
G1 X-48.020 Y22.238 E0.3793
G1 X-48.020 Y21.587 E0.0249
G1 X-41.007 Y28.600 E0.3793
G1 X-41.007 Y27.950 E0.0249
G1 X-48.020 Y20.937 E0.3793
G1 X-48.020 Y20.286 E0.0249
G1 X-41.007 Y27.299 E0.3793
G1 X-41.007 Y26.649 E0.0249
G1 X-48.020 Y19.636 E0.3793
G1 E-1.9000 F1200
G1 Z0.700 F1200
G1 X-48.020 Y45.007 F9000
G1 Z0.200 F1200
G1 E1.9000 F1200
G1 X-47.945 Y45.082 E0.0041 F2400
G1 X-47.710 Y45.521 E0.0191
G1 X-47.244 Y46.090 E0.0281
G1 X-46.675 Y46.557 E0.0281
G1 X-46.235 Y46.792 E0.0191
G1 X-46.085 Y46.942 E0.0081
G1 X-46.736 Y46.942 E0.0249
G1 X-48.020 Y45.657 E0.0695
G1 X-48.020 Y46.308 E0.0249
G1 X-47.386 Y46.942 E0.0343
G1 E-1.9000 F1200
G1 Z0.700 F1200
G1 X-76.005 Y18.323 F9000
G1 Z0.200 F1200
G1 E1.9000 F1200
G1 X-75.548 Y18.780 E0.0247 F2400
G1 X-74.897 Y18.780 E0.0249
G1 X-76.005 Y17.673 E0.0599
G1 X-76.005 Y17.022 E0.0249
G1 X-74.247 Y18.780 E0.0951
G1 X-73.596 Y18.780 E0.0249
G1 X-76.005 Y16.371 E0.1303
G1 X-76.005 Y15.721 E0.0249
G1 X-72.945 Y18.780 E0.1655
G1 X-72.295 Y18.780 E0.0249
G1 X-76.005 Y15.070 E0.2007
G1 X-76.005 Y14.420 E0.0249
G1 X-71.644 Y18.780 E0.2359
G1 X-70.994 Y18.780 E0.0249
G1 X-76.005 Y13.769 E0.2711
G1 X-76.005 Y13.119 E0.0249
G1 X-70.343 Y18.780 E0.3063
G1 X-69.693 Y18.780 E0.0249
G1 X-76.005 Y12.468 E0.3414
G1 X-76.005 Y11.818 E0.0249
G1 X-69.042 Y18.780 E0.3766
G1 X-68.392 Y18.780 E0.0249
G1 X-75.493 Y11.679 E0.3841
G1 X-74.842 Y11.679 E0.0249
G1 X-67.741 Y18.780 E0.3841
G1 X-67.091 Y18.780 E0.0249
G1 X-74.192 Y11.679 E0.3841
G1 X-73.541 Y11.679 E0.0249
G1 X-66.440 Y18.780 E0.3841
G1 X-65.790 Y18.780 E0.0249
G1 X-72.890 Y11.679 E0.3841
G1 X-72.240 Y11.679 E0.0249
G1 X-65.139 Y18.780 E0.3841
G1 X-64.488 Y18.780 E0.0249
G1 X-71.589 Y11.679 E0.3841
G1 X-70.939 Y11.679 E0.0249
G1 X-63.838 Y18.780 E0.3841
G1 X-63.187 Y18.780 E0.0249
G1 X-70.288 Y11.679 E0.3841
G1 X-69.638 Y11.679 E0.0249
G1 X-62.537 Y18.780 E0.3841
G1 X-61.886 Y18.780 E0.0249
G1 X-68.987 Y11.679 E0.3841
G1 X-68.337 Y11.679 E0.0249
G1 X-61.236 Y18.780 E0.3841
G1 X-60.585 Y18.780 E0.0249
G1 X-67.686 Y11.679 E0.3841
G1 X-67.036 Y11.679 E0.0249
G1 X-59.935 Y18.780 E0.3841
G1 X-59.284 Y18.780 E0.0249
G1 X-66.385 Y11.679 E0.3841
G1 X-65.735 Y11.679 E0.0249
G1 X-58.634 Y18.780 E0.3841
G1 X-57.983 Y18.780 E0.0249
G1 X-65.084 Y11.679 E0.3841
G1 X-64.433 Y11.679 E0.0249
G1 X-57.333 Y18.780 E0.3841
G1 X-56.682 Y18.780 E0.0249
G1 X-63.783 Y11.679 E0.3841
G1 X-63.132 Y11.679 E0.0249
G1 X-56.031 Y18.780 E0.3841
G1 X-55.381 Y18.780 E0.0249
G1 X-62.482 Y11.679 E0.3841
G1 X-61.831 Y11.679 E0.0249
G1 X-54.730 Y18.780 E0.3841
