; G-Code generated by Simplify3D(R) Version 4.1.2
; Apr 6, 2020 at 11:43:42 AM
; Settings Summary
;   processName,Process1
;   applyToModels,FORCE bracket,FORCE bracket(2),FORCE bracket(3),FORCE bracket(2)(2)
;   profileName,MakerBot Replicator 2 HBP (modified)
;   profileVersion,2020-03-12 10:48:50
;   baseProfile,MakerBot Replicator 2(2)
;   printMaterial,PLA
;   printQuality,Medium
;   printExtruders,
;   extruderName,Primary Extruder
;   extruderToolheadNumber,0
;   extruderDiameter,0.4
;   extruderAutoWidth,0
;   extruderWidth,0.4
;   extrusionMultiplier,1
;   extruderUseRetract,1
;   extruderRetractionDistance,1.9
;   extruderExtraRestartDistance,0
;   extruderRetractionZLift,0.5
;   extruderRetractionSpeed,1200
;   extruderUseCoasting,0
;   extruderCoastingDistance,0.2
;   extruderUseWipe,0
;   extruderWipeDistance,5
;   primaryExtruder,0
;   layerHeight,0.2
;   topSolidLayers,3
;   bottomSolidLayers,3
;   perimeterOutlines,3
;   printPerimetersInsideOut,1
;   startPointOption,3
;   startPointOriginX,0
;   startPointOriginY,150
;   sequentialIslands,0
;   spiralVaseMode,0
;   firstLayerHeightPercentage,100
;   firstLayerWidthPercentage,115
;   firstLayerUnderspeed,0.5
;   useRaft,0
;   raftExtruder,0
;   raftTopLayers,2
;   raftBaseLayers,1
;   raftOffset,1
;   raftSeparationDistance,0.14
;   raftTopInfill,90
;   aboveRaftSpeedMultiplier,0.3
;   useSkirt,0
;   skirtExtruder,0
;   skirtLayers,1
;   skirtOutlines,5
;   skirtOffset,0
;   usePrimePillar,0
;   primePillarExtruder,999
;   primePillarWidth,12
;   primePillarLocation,7
;   primePillarSpeedMultiplier,1
;   useOozeShield,0
;   oozeShieldExtruder,999
;   oozeShieldOffset,2
;   oozeShieldOutlines,1
;   oozeShieldSidewallShape,1
;   oozeShieldSidewallAngle,30
;   oozeShieldSpeedMultiplier,1
;   infillExtruder,0
;   internalInfillPattern,Rectilinear
;   externalInfillPattern,Rectilinear
;   infillPercentage,15
;   outlineOverlapPercentage,25
;   infillExtrusionWidthPercentage,100
;   minInfillLength,5
;   infillLayerInterval,1
;   internalInfillAngles,45,-45
;   overlapInternalInfillAngles,0
;   externalInfillAngles,45,-45
;   generateSupport,1
;   supportExtruder,0
;   supportInfillPercentage,5
;   supportExtraInflation,0.5
;   supportBaseLayers,0
;   denseSupportExtruder,0
;   denseSupportLayers,2
;   denseSupportInfillPercentage,90
;   supportLayerInterval,1
;   supportHorizontalPartOffset,0.3
;   supportUpperSeparationLayers,1
;   supportLowerSeparationLayers,1
;   supportType,1
;   supportGridSpacing,2
;   maxOverhangAngle,45
;   supportAngles,45,-45
;   temperatureName,Primary Extruder,Heated Build Platform
;   temperatureNumber,0,0
;   temperatureSetpointCount,1,1
;   temperatureSetpointLayers,1,1
;   temperatureSetpointTemperatures,230,60
;   temperatureStabilizeAtStartup,1,1
;   temperatureHeatedBed,0,1
;   fanLayers,1,2
;   fanSpeeds,0,100
;   blipFanToFullPower,1
;   adjustSpeedForCooling,1
;   minSpeedLayerTime,15
;   minCoolingSpeedSlowdown,20
;   increaseFanForCooling,1
;   minFanLayerTime,45
;   maxCoolingFanSpeed,100
;   increaseFanForBridging,1
;   bridgingFanSpeed,100
;   use5D,1
;   relativeEdistances,1
;   allowEaxisZeroing,0
;   independentExtruderAxes,1
;   includeM10123,0
;   stickySupport,1
;   applyToolheadOffsets,0
;   gcodeXoffset,0
;   gcodeYoffset,0
;   gcodeZoffset,0
;   overrideMachineDefinition,1
;   machineTypeOverride,0
;   strokeXoverride,280
;   strokeYoverride,150
;   strokeZoverride,150
;   originOffsetXoverride,140
;   originOffsetYoverride,75
;   originOffsetZoverride,0
;   homeXdirOverride,1
;   homeYdirOverride,1
;   homeZdirOverride,-1
;   flipXoverride,1
;   flipYoverride,-1
;   flipZoverride,1
;   toolheadOffsets,0,0|0,0|0,0|0,0|0,0|0,0
;   overrideFirmwareConfiguration,1
;   firmwareTypeOverride,MakerBot/Sailfish Firmware
;   GPXconfigOverride,r2h
;   baudRateOverride,115200
;   overridePrinterModels,1
;   printerModelsOverride,MakerBot_Replicator2.stl
;   startingGcode,; **** Replicator 2 start.gcode ****,M73 P0 ; enable build progress,G162 X Y F3000 ; home XY maximum,G161 Z F1200 ; home Z minimum,G92 Z-5 ; set Z to -5,G1 Z0 ; move Z to 0,G161 Z F100 ; home Z slowly,M132 X Y Z A B ; recall home offsets,G1 X-145 Y-75 Z30 F9000 ; move to wait position off table,G130 X20 Y20 Z20 A20 B20 ; lower stepper Vrefs while heating,M126 S[fan_speed_pwm],M140 S[bed0_temperature] T0,M134 T0 ; stabilize bed temperature,M104 S[extruder0_temperature] T0,M133 T0 ; stabilize extruder temperature,G130 X127 Y127 Z40 A127 B127 ; default stepper Vrefs,G92 A0 ; zero extruder,G1 Z0.4 ; position nozzle,G1 E25 F300 ; purge nozzle,G1 X-140 Y-70 Z0.15 F1200 ; slow wipe,G1 X-135 Y-65 Z0.5 F1200 ; lift,G92 A0 ; zero extruder,M73 P1 ;@body (notify GPX body has started),; **** end of start.gcode ****
;   layerChangeGcode,
;   retractionGcode,
;   toolChangeGcode,
;   endingGcode,; **** Replicator 2 end.gcode ****,M73 P100 ; end build progress,G1 Z155 F1000 ; send Z axis to bottom of machine,M104 S0 T0 ; cool down extruder,M140 S0 T0 ; cool down HBP,M127 ; stop blower fan,G162 X Y F3000 ; home XY maximum,M18 ; disable stepper,M0 ; stop codes,M72 P1 ; play Ta-Da song,; **** end of end.gcode ****
;   exportFileFormat,gcode
;   celebration,0
;   celebrationSong,Random Song
;   postProcessing,
;   defaultSpeed,4800
;   outlineUnderspeed,0.5
;   solidInfillUnderspeed,1
;   supportUnderspeed,1
;   rapidXYspeed,9000
;   rapidZspeed,1200
;   minBridgingArea,50
;   bridgingExtraInflation,0
;   bridgingExtrusionMultiplier,1
;   bridgingSpeedMultiplier,0.8
;   useFixedBridgingAngle,0
;   fixedBridgingAngle,0
;   applyBridgingToPerimeters,0
;   filamentDiameters,1.75|1.75|1.75|1.75|1.75|1.75
;   filamentPricesPerKg,46|46|46|46|46|46
;   filamentDensities,1.25|1.25|1.25|1.25|1.25|1.25
;   useMinPrintHeight,0
;   minPrintHeight,0
;   useMaxPrintHeight,0
;   maxPrintHeight,4.84
;   useDiaphragm,0
;   diaphragmLayerInterval,20
;   robustSlicing,1
;   mergeAllIntoSolid,0
;   onlyRetractWhenCrossingOutline,0
;   retractBetweenLayers,0
;   useRetractionMinTravel,1
;   retractionMinTravel,7
;   retractWhileWiping,1
;   onlyWipeOutlines,1
;   avoidCrossingOutline,0
;   maxMovementDetourFactor,3
;   toolChangeRetractionDistance,12
;   toolChangeExtraRestartDistance,-0.5
;   toolChangeRetractionSpeed,600
;   externalThinWallType,0
;   internalThinWallType,0
;   thinWallAllowedOverlapPercentage,10
;   singleExtrusionMinLength,1
;   singleExtrusionMinPrintingWidthPercentage,50
;   singleExtrusionMaxPrintingWidthPercentage,200
;   singleExtrusionEndpointExtension,0.2
;   horizontalSizeCompensation,0
G90
M83
; **** Replicator 2 start.gcode ****
M73 P0 ; enable build progress
G162 X Y F3000 ; home XY maximum
G161 Z F1200 ; home Z minimum
G92 Z-5 ; set Z to -5
G1 Z0 ; move Z to 0
G161 Z F100 ; home Z slowly
M132 X Y Z A B ; recall home offsets
G1 X-145 Y-75 Z30 F9000 ; move to wait position off table
G130 X20 Y20 Z20 A20 B20 ; lower stepper Vrefs while heating
M127
M140 S60 T0
M134 T0 ; stabilize bed temperature
M104 S230 T0
M133 T0 ; stabilize extruder temperature
G130 X127 Y127 Z40 A127 B127 ; default stepper Vrefs
G92 A0 ; zero extruder
G1 Z0.4 ; position nozzle
G1 E25 F300 ; purge nozzle
G1 X-140 Y-70 Z0.15 F1200 ; slow wipe
G1 X-135 Y-65 Z0.5 F1200 ; lift
G92 A0 ; zero extruder
M73 P1 ;@body (notify GPX body has started)
; **** end of start.gcode ****
; process Process1
; layer 1, Z = 0.200
M135 T0
G1 E-1.9000 F1200
; feature inner perimeter
; tool H0.200 W0.460
G1 Z0.500 F1200
G1 X-39.165 Y48.533 F9000
G1 Z0.200 F1200
G1 E1.9000 F1200
G1 X-46.867 Y48.533 E0.2946 F1800
G1 X-46.867 Y20.371 E1.0771
G1 X-74.852 Y20.371 E1.0704
G1 X-74.852 Y12.581 E0.2980
G1 X77.848 Y12.581 E5.8406
G1 X77.848 Y20.371 E0.2980
G1 X-39.165 Y20.371 E4.4756
G1 X-39.165 Y48.533 E1.0771
G1 X-38.705 Y48.993 F9000
G1 X-47.327 Y48.993 E0.3298 F1800
G1 X-47.327 Y20.831 E1.0771
G1 X-75.312 Y20.831 E1.0704
G1 X-75.312 Y12.121 E0.3332
G1 X78.308 Y12.121 E5.8758
G1 X78.308 Y20.831 E0.3332
G1 X-38.705 Y20.831 E4.4756
G1 X-38.705 Y48.993 E1.0771
; feature outer perimeter
G1 X-38.245 Y49.453 F9000
G1 X-47.787 Y49.453 E0.3650 F1200
G1 X-47.787 Y21.291 E1.0771
G1 X-75.772 Y21.291 E1.0704
G1 X-75.772 Y11.661 E0.3684
G1 X78.768 Y11.661 E5.9110
G1 X78.768 Y21.291 E0.3684
G1 X-38.245 Y21.291 E4.4756
G1 X-38.245 Y49.453 E1.0771
; feature inner perimeter
G1 X-40.684 Y47.091 F9000
G1 X-40.261 Y46.575 E0.0255 F1800
G1 X-39.946 Y45.986 E0.0255
G1 X-39.752 Y45.347 E0.0255
G1 X-39.687 Y44.683 E0.0255
G1 X-39.752 Y44.018 E0.0255
G1 X-39.946 Y43.380 E0.0255
G1 X-40.261 Y42.791 E0.0255
G1 X-40.684 Y42.275 E0.0255
G1 X-41.200 Y41.851 E0.0255
G1 X-41.789 Y41.536 E0.0255
G1 X-42.428 Y41.343 E0.0255
G1 X-43.093 Y41.277 E0.0255
G1 X-43.757 Y41.343 E0.0255
G1 X-44.396 Y41.536 E0.0255
G1 X-44.985 Y41.851 E0.0255
G1 X-45.501 Y42.275 E0.0255
G1 X-45.924 Y42.791 E0.0255
G1 X-46.239 Y43.380 E0.0255
G1 X-46.433 Y44.018 E0.0255
G1 X-46.498 Y44.683 E0.0255
G1 X-46.433 Y45.347 E0.0255
G1 X-46.239 Y45.986 E0.0255
G1 X-45.924 Y46.575 E0.0255
G1 X-45.501 Y47.091 E0.0255
G1 X-44.985 Y47.514 E0.0255
G1 X-44.396 Y47.829 E0.0255
G1 X-43.757 Y48.023 E0.0255
G1 X-43.093 Y48.088 E0.0255
G1 X-42.428 Y48.023 E0.0255
G1 X-41.789 Y47.829 E0.0255
G1 X-41.200 Y47.514 E0.0255
G1 X-40.684 Y47.091 E0.0255
G1 X-41.011 Y46.764 F9000
G1 X-40.645 Y46.318 E0.0221 F1800
G1 X-40.373 Y45.809 E0.0221
G1 X-40.206 Y45.257 E0.0221
G1 X-40.149 Y44.683 E0.0221
G1 X-40.206 Y44.109 E0.0221
G1 X-40.373 Y43.556 E0.0221
G1 X-40.645 Y43.048 E0.0221
G1 X-41.011 Y42.602 E0.0221
G1 X-41.457 Y42.236 E0.0221
G1 X-41.966 Y41.964 E0.0221
G1 X-42.518 Y41.796 E0.0221
G1 X-43.093 Y41.739 E0.0221
G1 X-43.667 Y41.796 E0.0221
G1 X-44.219 Y41.964 E0.0221
G1 X-44.728 Y42.236 E0.0221
G1 X-45.174 Y42.602 E0.0221
G1 X-45.540 Y43.048 E0.0221
G1 X-45.812 Y43.556 E0.0221
G1 X-45.979 Y44.109 E0.0221
G1 X-46.036 Y44.683 E0.0221
G1 X-45.979 Y45.257 E0.0221
G1 X-45.812 Y45.809 E0.0221
G1 X-45.540 Y46.318 E0.0221
G1 X-45.174 Y46.764 E0.0221
G1 X-44.728 Y47.130 E0.0221
G1 X-44.219 Y47.402 E0.0221
G1 X-43.667 Y47.570 E0.0221
G1 X-43.093 Y47.626 E0.0221
G1 X-42.518 Y47.570 E0.0221
G1 X-41.966 Y47.402 E0.0221
G1 X-41.457 Y47.130 E0.0221
G1 X-41.011 Y46.764 E0.0221
; feature outer perimeter
G1 X-41.338 Y46.437 F9000
G1 X-41.030 Y46.061 E0.0186 F1200
G1 X-40.800 Y45.632 E0.0186
G1 X-40.659 Y45.167 E0.0186
G1 X-40.611 Y44.683 E0.0186
G1 X-40.659 Y44.199 E0.0186
G1 X-40.800 Y43.733 E0.0186
G1 X-41.030 Y43.304 E0.0186
G1 X-41.338 Y42.928 E0.0186
G1 X-41.714 Y42.620 E0.0186
G1 X-42.143 Y42.391 E0.0186
G1 X-42.608 Y42.249 E0.0186
G1 X-43.093 Y42.202 E0.0186
G1 X-43.577 Y42.249 E0.0186
G1 X-44.042 Y42.391 E0.0186
G1 X-44.471 Y42.620 E0.0186
G1 X-44.847 Y42.928 E0.0186
G1 X-45.156 Y43.304 E0.0186
G1 X-45.385 Y43.733 E0.0186
G1 X-45.526 Y44.199 E0.0186
G1 X-45.574 Y44.683 E0.0186
G1 X-45.526 Y45.167 E0.0186
G1 X-45.385 Y45.632 E0.0186
G1 X-45.155 Y46.061 E0.0186
G1 X-44.847 Y46.437 E0.0186
G1 X-44.471 Y46.746 E0.0186
G1 X-44.042 Y46.975 E0.0186
G1 X-43.577 Y47.116 E0.0186
G1 X-43.093 Y47.164 E0.0186
G1 X-42.608 Y47.116 E0.0186
G1 X-42.143 Y46.975 E0.0186
G1 X-41.714 Y46.746 E0.0186
G1 X-41.338 Y46.437 E0.0186
; feature solid layer
G1 X-41.153 Y48.188 F9000
G1 X-41.353 Y47.987 E0.0108 F2400
G1 X-41.008 Y47.803 E0.0150
G1 X-40.942 Y47.748 E0.0033
G1 X-40.502 Y48.188 E0.0238
G1 X-39.852 Y48.188 E0.0249
G1 X-40.584 Y47.455 E0.0396
G1 X-40.439 Y47.336 E0.0072
G1 X-40.265 Y47.124 E0.0105
G1 X-39.510 Y47.879 E0.0409
G1 X-39.510 Y47.229 E0.0249
G1 X-39.972 Y46.766 E0.0250
G1 X-39.745 Y46.342 E0.0184
G1 X-39.510 Y46.578 E0.0128
G1 X-39.510 Y45.928 E0.0249
G1 X-39.554 Y45.883 E0.0024
G1 X-39.510 Y43.326 F9000
G1 X-39.669 Y43.166 E0.0086 F2400
G1 X-46.397 Y42.944 F9000
G1 X-46.522 Y42.818 E0.0068 F2400
G1 X-46.522 Y42.168 E0.0249
G1 X-46.158 Y42.532 E0.0197
G1 X-45.865 Y42.175 E0.0177
G1 X-46.522 Y41.517 E0.0356
G1 X-46.522 Y40.866 E0.0249
G1 X-45.534 Y41.855 E0.0535
G1 X-45.177 Y41.563 E0.0176
G1 X-46.522 Y40.216 E0.0729
G1 X-46.522 Y39.565 E0.0249
G1 X-44.752 Y41.336 E0.0958
G1 X-44.528 Y41.216 E0.0097
G1 X-44.293 Y41.145 E0.0094
G1 X-46.522 Y38.915 E0.1206
G1 X-46.522 Y38.264 E0.0249
G1 X-43.788 Y40.999 E0.1479
G1 X-43.195 Y40.941 E0.0228
G1 X-46.522 Y37.614 E0.1800
G1 X-46.522 Y36.963 E0.0249
G1 X-42.496 Y40.989 E0.2178
G1 X-42.361 Y41.003 E0.0052
G1 X-41.657 Y41.216 E0.0281
G1 X-41.576 Y41.259 E0.0035
G1 X-46.522 Y36.313 E0.2676
G1 X-46.522 Y35.662 E0.0249
G1 X-39.510 Y42.675 E0.3793
G1 X-39.510 Y42.025 E0.0249
G1 X-46.522 Y35.012 E0.3793
G1 X-46.522 Y34.361 E0.0249
G1 X-39.510 Y41.374 E0.3793
G1 X-39.510 Y40.723 E0.0249
G1 X-46.522 Y33.711 E0.3793
G1 X-46.522 Y33.060 E0.0249
G1 X-39.510 Y40.073 E0.3793
G1 X-39.510 Y39.422 E0.0249
G1 X-46.522 Y32.409 E0.3793
G1 X-46.522 Y31.759 E0.0249
G1 X-39.510 Y38.772 E0.3793
G1 X-39.510 Y38.121 E0.0249
G1 X-46.522 Y31.108 E0.3793
G1 X-46.522 Y30.458 E0.0249
G1 X-39.510 Y37.471 E0.3793
G1 X-39.510 Y36.820 E0.0249
G1 X-46.522 Y29.807 E0.3793
G1 X-46.522 Y29.157 E0.0249
G1 X-39.510 Y36.170 E0.3793
G1 X-39.510 Y35.519 E0.0249
G1 X-46.522 Y28.506 E0.3793
G1 X-46.522 Y27.856 E0.0249
G1 X-39.510 Y34.869 E0.3793
G1 X-39.510 Y34.218 E0.0249
G1 X-46.522 Y27.205 E0.3793
G1 X-46.522 Y26.555 E0.0249
G1 X-39.510 Y33.568 E0.3793
G1 X-39.510 Y32.917 E0.0249
G1 X-46.522 Y25.904 E0.3793
G1 X-46.522 Y25.254 E0.0249
G1 X-39.510 Y32.266 E0.3793
G1 X-39.510 Y31.616 E0.0249
G1 X-46.522 Y24.603 E0.3793
G1 X-46.522 Y23.952 E0.0249
G1 X-39.510 Y30.965 E0.3793
G1 X-39.510 Y30.315 E0.0249
G1 X-46.522 Y23.302 E0.3793
G1 X-46.522 Y22.651 E0.0249
G1 X-39.510 Y29.664 E0.3793
G1 X-39.510 Y29.014 E0.0249
G1 X-46.522 Y22.001 E0.3793
G1 X-46.522 Y21.350 E0.0249
G1 X-39.510 Y28.363 E0.3793
G1 X-39.510 Y27.713 E0.0249
G1 X-46.522 Y20.700 E0.3793
G1 E-1.9000 F1200
G1 Z0.700 F1200
G1 X-46.522 Y48.022 F9000
G1 Z0.200 F1200
G1 E1.9000 F1200
G1 X-46.357 Y48.188 E0.0089 F2400
G1 X-45.706 Y48.188 E0.0249
G1 X-46.522 Y47.372 E0.0441
G1 X-46.522 Y46.721 E0.0249
G1 X-45.056 Y48.188 E0.0793
G1 X-44.407 Y48.186 E0.0250
G1 E-1.9000 F1200
G1 Z0.700 F1200
G1 X-74.507 Y19.387 F9000
G1 Z0.200 F1200
G1 E1.9000 F1200
G1 X-73.868 Y20.026 E0.0346 F2400
G1 X-73.217 Y20.026 E0.0249
G1 X-74.507 Y18.737 E0.0698
G1 X-74.507 Y18.086 E0.0249
G1 X-72.567 Y20.026 E0.1050
G1 X-71.916 Y20.026 E0.0249
G1 X-74.507 Y17.436 E0.1401
G1 X-74.507 Y16.785 E0.0249
G1 X-71.266 Y20.026 E0.1753
G1 X-70.615 Y20.026 E0.0249
G1 X-74.507 Y16.134 E0.2105
G1 X-74.507 Y15.484 E0.0249
G1 X-69.965 Y20.026 E0.2457
G1 X-69.314 Y20.026 E0.0249
G1 X-74.507 Y14.833 E0.2809
G1 X-74.507 Y14.183 E0.0249
G1 X-68.664 Y20.026 E0.3161
G1 X-68.013 Y20.026 E0.0249
G1 X-74.507 Y13.532 E0.3513
G1 X-74.507 Y12.926 E0.0232
G1 X-74.463 Y12.926 E0.0017
G1 X-67.362 Y20.026 E0.3841
G1 X-66.712 Y20.026 E0.0249
G1 X-73.813 Y12.926 E0.3841
G1 X-73.162 Y12.926 E0.0249
G1 X-66.061 Y20.026 E0.3841
G1 X-65.411 Y20.026 E0.0249
G1 X-72.512 Y12.926 E0.3841
G1 X-71.861 Y12.926 E0.0249
G1 X-64.760 Y20.026 E0.3841
G1 X-64.110 Y20.026 E0.0249
G1 X-71.211 Y12.926 E0.3841
G1 X-70.560 Y12.926 E0.0249
G1 X-63.459 Y20.026 E0.3841
G1 X-62.809 Y20.026 E0.0249
G1 X-69.910 Y12.926 E0.3841
G1 X-69.259 Y12.926 E0.0249
G1 X-62.158 Y20.026 E0.3841
G1 X-61.508 Y20.026 E0.0249
G1 X-68.609 Y12.926 E0.3841
G1 X-67.958 Y12.926 E0.0249
G1 X-60.857 Y20.026 E0.3841
G1 X-60.207 Y20.026 E0.0249
G1 X-67.307 Y12.926 E0.3841
G1 X-66.657 Y12.926 E0.0249
G1 X-59.556 Y20.026 E0.3841
G1 X-58.905 Y20.026 E0.0249
G1 X-66.006 Y12.926 E0.3841
G1 X-65.356 Y12.926 E0.0249
G1 X-58.255 Y20.026 E0.3841
G1 X-57.604 Y20.026 E0.0249
G1 X-64.705 Y12.926 E0.3841
G1 X-64.055 Y12.926 E0.0249
G1 X-56.954 Y20.026 E0.3841
G1 X-56.303 Y20.026 E0.0249
G1 X-63.404 Y12.926 E0.3841
G1 X-62.754 Y12.926 E0.0249
G1 X-55.653 Y20.026 E0.3841
G1 X-55.002 Y20.026 E0.0249
G1 X-62.103 Y12.926 E0.3841
G1 X-61.453 Y12.926 E0.0249
G1 X-54.352 Y20.026 E0.3841
G1 X-53.701 Y20.026 E0.0249
G1 X-60.802 Y12.926 E0.3841
G1 X-60.152 Y12.926 E0.0249
G1 X-53.051 Y20.026 E0.3841
G1 X-52.400 Y20.026 E0.0249
G1 X-59.501 Y12.926 E0.3841
