; G-Code generated by Simplify3D(R) Version 4.1.2
; Apr 6, 2020 at 11:44:44 AM
; Settings Summary
;   processName,Process1
;   applyToModels,SithLong,SithLong(2),SithLong(3),SithLong(2)(2)
;   profileName,MakerBot Replicator 2 HBP (modified)
;   profileVersion,2020-03-12 10:48:50
;   baseProfile,MakerBot Replicator 2(2)
;   printMaterial,PLA
;   printQuality,Medium
;   printExtruders,
;   extruderName,Primary Extruder
;   extruderToolheadNumber,0
;   extruderDiameter,0.4
;   extruderAutoWidth,0
;   extruderWidth,0.4
;   extrusionMultiplier,1
;   extruderUseRetract,1
;   extruderRetractionDistance,1.9
;   extruderExtraRestartDistance,0
;   extruderRetractionZLift,0.5
;   extruderRetractionSpeed,1200
;   extruderUseCoasting,0
;   extruderCoastingDistance,0.2
;   extruderUseWipe,0
;   extruderWipeDistance,5
;   primaryExtruder,0
;   layerHeight,0.2
;   topSolidLayers,3
;   bottomSolidLayers,3
;   perimeterOutlines,3
;   printPerimetersInsideOut,1
;   startPointOption,3
;   startPointOriginX,0
;   startPointOriginY,150
;   sequentialIslands,0
;   spiralVaseMode,0
;   firstLayerHeightPercentage,100
;   firstLayerWidthPercentage,115
;   firstLayerUnderspeed,0.5
;   useRaft,0
;   raftExtruder,0
;   raftTopLayers,2
;   raftBaseLayers,1
;   raftOffset,1
;   raftSeparationDistance,0.14
;   raftTopInfill,90
;   aboveRaftSpeedMultiplier,0.3
;   useSkirt,0
;   skirtExtruder,0
;   skirtLayers,1
;   skirtOutlines,5
;   skirtOffset,0
;   usePrimePillar,0
;   primePillarExtruder,999
;   primePillarWidth,12
;   primePillarLocation,7
;   primePillarSpeedMultiplier,1
;   useOozeShield,0
;   oozeShieldExtruder,999
;   oozeShieldOffset,2
;   oozeShieldOutlines,1
;   oozeShieldSidewallShape,1
;   oozeShieldSidewallAngle,30
;   oozeShieldSpeedMultiplier,1
;   infillExtruder,0
;   internalInfillPattern,Rectilinear
;   externalInfillPattern,Rectilinear
;   infillPercentage,15
;   outlineOverlapPercentage,25
;   infillExtrusionWidthPercentage,100
;   minInfillLength,5
;   infillLayerInterval,1
;   internalInfillAngles,45,-45
;   overlapInternalInfillAngles,0
;   externalInfillAngles,45,-45
;   generateSupport,1
;   supportExtruder,0
;   supportInfillPercentage,5
;   supportExtraInflation,0.5
;   supportBaseLayers,0
;   denseSupportExtruder,0
;   denseSupportLayers,2
;   denseSupportInfillPercentage,90
;   supportLayerInterval,1
;   supportHorizontalPartOffset,0.3
;   supportUpperSeparationLayers,1
;   supportLowerSeparationLayers,1
;   supportType,1
;   supportGridSpacing,2
;   maxOverhangAngle,45
;   supportAngles,45,-45
;   temperatureName,Primary Extruder,Heated Build Platform
;   temperatureNumber,0,0
;   temperatureSetpointCount,1,1
;   temperatureSetpointLayers,1,1
;   temperatureSetpointTemperatures,230,60
;   temperatureStabilizeAtStartup,1,1
;   temperatureHeatedBed,0,1
;   fanLayers,1,2
;   fanSpeeds,0,100
;   blipFanToFullPower,1
;   adjustSpeedForCooling,1
;   minSpeedLayerTime,15
;   minCoolingSpeedSlowdown,20
;   increaseFanForCooling,1
;   minFanLayerTime,45
;   maxCoolingFanSpeed,100
;   increaseFanForBridging,1
;   bridgingFanSpeed,100
;   use5D,1
;   relativeEdistances,1
;   allowEaxisZeroing,0
;   independentExtruderAxes,1
;   includeM10123,0
;   stickySupport,1
;   applyToolheadOffsets,0
;   gcodeXoffset,0
;   gcodeYoffset,0
;   gcodeZoffset,0
;   overrideMachineDefinition,1
;   machineTypeOverride,0
;   strokeXoverride,280
;   strokeYoverride,150
;   strokeZoverride,150
;   originOffsetXoverride,140
;   originOffsetYoverride,75
;   originOffsetZoverride,0
;   homeXdirOverride,1
;   homeYdirOverride,1
;   homeZdirOverride,-1
;   flipXoverride,1
;   flipYoverride,-1
;   flipZoverride,1
;   toolheadOffsets,0,0|0,0|0,0|0,0|0,0|0,0
;   overrideFirmwareConfiguration,1
;   firmwareTypeOverride,MakerBot/Sailfish Firmware
;   GPXconfigOverride,r2h
;   baudRateOverride,115200
;   overridePrinterModels,1
;   printerModelsOverride,MakerBot_Replicator2.stl
;   startingGcode,; **** Replicator 2 start.gcode ****,M73 P0 ; enable build progress,G162 X Y F3000 ; home XY maximum,G161 Z F1200 ; home Z minimum,G92 Z-5 ; set Z to -5,G1 Z0 ; move Z to 0,G161 Z F100 ; home Z slowly,M132 X Y Z A B ; recall home offsets,G1 X-145 Y-75 Z30 F9000 ; move to wait position off table,G130 X20 Y20 Z20 A20 B20 ; lower stepper Vrefs while heating,M126 S[fan_speed_pwm],M140 S[bed0_temperature] T0,M134 T0 ; stabilize bed temperature,M104 S[extruder0_temperature] T0,M133 T0 ; stabilize extruder temperature,G130 X127 Y127 Z40 A127 B127 ; default stepper Vrefs,G92 A0 ; zero extruder,G1 Z0.4 ; position nozzle,G1 E25 F300 ; purge nozzle,G1 X-140 Y-70 Z0.15 F1200 ; slow wipe,G1 X-135 Y-65 Z0.5 F1200 ; lift,G92 A0 ; zero extruder,M73 P1 ;@body (notify GPX body has started),; **** end of start.gcode ****
;   layerChangeGcode,
;   retractionGcode,
;   toolChangeGcode,
;   endingGcode,; **** Replicator 2 end.gcode ****,M73 P100 ; end build progress,G1 Z155 F1000 ; send Z axis to bottom of machine,M104 S0 T0 ; cool down extruder,M140 S0 T0 ; cool down HBP,M127 ; stop blower fan,G162 X Y F3000 ; home XY maximum,M18 ; disable stepper,M0 ; stop codes,M72 P1 ; play Ta-Da song,; **** end of end.gcode ****
;   exportFileFormat,gcode
;   celebration,0
;   celebrationSong,Random Song
;   postProcessing,
;   defaultSpeed,4800
;   outlineUnderspeed,0.5
;   solidInfillUnderspeed,1
;   supportUnderspeed,1
;   rapidXYspeed,9000
;   rapidZspeed,1200
;   minBridgingArea,50
;   bridgingExtraInflation,0
;   bridgingExtrusionMultiplier,1
;   bridgingSpeedMultiplier,0.8
;   useFixedBridgingAngle,0
;   fixedBridgingAngle,0
;   applyBridgingToPerimeters,0
;   filamentDiameters,1.75|1.75|1.75|1.75|1.75|1.75
;   filamentPricesPerKg,46|46|46|46|46|46
;   filamentDensities,1.25|1.25|1.25|1.25|1.25|1.25
;   useMinPrintHeight,0
;   minPrintHeight,0
;   useMaxPrintHeight,0
;   maxPrintHeight,4.84
;   useDiaphragm,0
;   diaphragmLayerInterval,20
;   robustSlicing,1
;   mergeAllIntoSolid,0
;   onlyRetractWhenCrossingOutline,0
;   retractBetweenLayers,0
;   useRetractionMinTravel,1
;   retractionMinTravel,7
;   retractWhileWiping,1
;   onlyWipeOutlines,1
;   avoidCrossingOutline,0
;   maxMovementDetourFactor,3
;   toolChangeRetractionDistance,12
;   toolChangeExtraRestartDistance,-0.5
;   toolChangeRetractionSpeed,600
;   externalThinWallType,0
;   internalThinWallType,0
;   thinWallAllowedOverlapPercentage,10
;   singleExtrusionMinLength,1
;   singleExtrusionMinPrintingWidthPercentage,50
;   singleExtrusionMaxPrintingWidthPercentage,200
;   singleExtrusionEndpointExtension,0.2
;   horizontalSizeCompensation,0
G90
M83
; **** Replicator 2 start.gcode ****
M73 P0 ; enable build progress
G162 X Y F3000 ; home XY maximum
G161 Z F1200 ; home Z minimum
G92 Z-5 ; set Z to -5
G1 Z0 ; move Z to 0
G161 Z F100 ; home Z slowly
M132 X Y Z A B ; recall home offsets
G1 X-145 Y-75 Z30 F9000 ; move to wait position off table
G130 X20 Y20 Z20 A20 B20 ; lower stepper Vrefs while heating
M127
M140 S60 T0
M134 T0 ; stabilize bed temperature
M104 S230 T0
M133 T0 ; stabilize extruder temperature
G130 X127 Y127 Z40 A127 B127 ; default stepper Vrefs
G92 A0 ; zero extruder
G1 Z0.4 ; position nozzle
G1 E25 F300 ; purge nozzle
G1 X-140 Y-70 Z0.15 F1200 ; slow wipe
G1 X-135 Y-65 Z0.5 F1200 ; lift
G92 A0 ; zero extruder
M73 P1 ;@body (notify GPX body has started)
; **** end of start.gcode ****
; process Process1
; layer 1, Z = 0.200
M135 T0
G1 E-1.9000 F1200
; feature inner perimeter
; tool H0.200 W0.460
G1 Z0.500 F1200
G1 X-57.520 Y-6.464 F9000
G1 Z0.200 F1200
G1 E1.9000 F1200
G1 X-58.624 Y-6.639 E0.0428 F1800
G1 X-59.538 Y-7.105 E0.0392
G1 X-60.264 Y-7.831 E0.0393
G1 X-60.730 Y-8.745 E0.0392
G1 X-60.905 Y-9.849 E0.0428
G1 X-60.905 Y-10.782 E0.0357
G1 X-60.730 Y-11.886 E0.0428
G1 X-60.264 Y-12.801 E0.0392
G1 X-59.538 Y-13.526 E0.0393
G1 X-58.624 Y-13.992 E0.0392
G1 X-57.520 Y-14.167 E0.0428
G1 X58.284 Y-14.167 E4.4294
G1 X58.284 Y-6.464 E0.2946
G1 X-57.520 Y-6.464 E4.4294
G1 X-57.556 Y-6.004 F9000
G1 X-58.768 Y-6.196 E0.0469 F1800
G1 X-59.812 Y-6.728 E0.0448
G1 X-60.641 Y-7.557 E0.0448
G1 X-61.173 Y-8.601 E0.0448
G1 X-61.365 Y-9.813 E0.0469
G1 X-61.365 Y-10.819 E0.0385
G1 X-61.173 Y-12.030 E0.0469
G1 X-60.641 Y-13.075 E0.0448
G1 X-59.812 Y-13.903 E0.0448
G1 X-58.768 Y-14.435 E0.0448
G1 X-57.556 Y-14.627 E0.0469
G1 X58.744 Y-14.627 E4.4484
G1 X58.744 Y-6.004 E0.3298
G1 X-57.556 Y-6.004 E4.4484
; feature outer perimeter
G1 X-57.592 Y-5.544 F9000
G1 X-58.912 Y-5.753 E0.0511 F1200
G1 X-60.086 Y-6.351 E0.0504
G1 X-61.017 Y-7.283 E0.0504
G1 X-61.611 Y-8.448 E0.0500
G1 X-61.616 Y-8.457 E0.0004
G1 X-61.825 Y-9.777 E0.0511
G1 X-61.825 Y-10.855 E0.0412
G1 X-61.616 Y-12.174 E0.0511
G1 X-61.017 Y-13.348 E0.0504
G1 X-60.086 Y-14.280 E0.0504
G1 X-58.912 Y-14.878 E0.0504
G1 X-57.592 Y-15.087 E0.0511
G1 X59.204 Y-15.087 E4.4674
G1 X59.204 Y-5.544 E0.3650
G1 X-57.592 Y-5.544 E4.4674
G1 E-1.9000 F1200
; feature inner perimeter
G1 Z0.700 F1200
G1 X-30.395 Y-9.728 F9000
G1 Z0.200 F1200
G1 E1.9000 F1200
G1 X-30.201 Y-9.089 E0.0255 F1800
G1 X-29.886 Y-8.500 E0.0255
G1 X-29.463 Y-7.984 E0.0255
G1 X-28.947 Y-7.561 E0.0255
G1 X-28.358 Y-7.246 E0.0255
G1 X-27.719 Y-7.052 E0.0255
G1 X-27.055 Y-6.987 E0.0255
G1 X-26.390 Y-7.052 E0.0255
G1 X-25.751 Y-7.246 E0.0255
G1 X-25.163 Y-7.561 E0.0255
G1 X-24.646 Y-7.984 E0.0255
G1 X-24.223 Y-8.500 E0.0255
G1 X-23.908 Y-9.089 E0.0255
G1 X-23.714 Y-9.728 E0.0255
G1 X-23.649 Y-10.392 E0.0255
G1 X-23.714 Y-11.057 E0.0255
G1 X-23.908 Y-11.695 E0.0255
G1 X-24.223 Y-12.284 E0.0255
G1 X-24.646 Y-12.800 E0.0255
G1 X-25.163 Y-13.224 E0.0255
G1 X-25.751 Y-13.539 E0.0255
G1 X-26.390 Y-13.732 E0.0255
G1 X-27.055 Y-13.798 E0.0255
G1 X-27.719 Y-13.732 E0.0255
G1 X-28.358 Y-13.539 E0.0255
G1 X-28.947 Y-13.224 E0.0255
G1 X-29.463 Y-12.800 E0.0255
G1 X-29.886 Y-12.284 E0.0255
G1 X-30.201 Y-11.695 E0.0255
G1 X-30.395 Y-11.057 E0.0255
G1 X-30.460 Y-10.392 E0.0255
G1 X-30.395 Y-9.728 E0.0255
G1 X-29.941 Y-9.818 F9000
G1 X-29.774 Y-9.266 E0.0221 F1800
G1 X-29.502 Y-8.757 E0.0221
G1 X-29.136 Y-8.311 E0.0221
G1 X-28.690 Y-7.945 E0.0221
G1 X-28.181 Y-7.673 E0.0221
G1 X-27.629 Y-7.505 E0.0221
G1 X-27.055 Y-7.449 E0.0221
G1 X-26.480 Y-7.505 E0.0221
G1 X-25.928 Y-7.673 E0.0221
G1 X-25.419 Y-7.945 E0.0221
G1 X-24.973 Y-8.311 E0.0221
G1 X-24.607 Y-8.757 E0.0221
G1 X-24.335 Y-9.266 E0.0221
G1 X-24.168 Y-9.818 E0.0221
G1 X-24.111 Y-10.392 E0.0221
G1 X-24.168 Y-10.966 E0.0221
G1 X-24.335 Y-11.519 E0.0221
G1 X-24.607 Y-12.027 E0.0221
G1 X-24.973 Y-12.473 E0.0221
G1 X-25.419 Y-12.840 E0.0221
G1 X-25.928 Y-13.112 E0.0221
G1 X-26.480 Y-13.279 E0.0221
G1 X-27.055 Y-13.336 E0.0221
G1 X-27.629 Y-13.279 E0.0221
G1 X-28.181 Y-13.112 E0.0221
G1 X-28.690 Y-12.840 E0.0221
G1 X-29.136 Y-12.473 E0.0221
G1 X-29.502 Y-12.027 E0.0221
G1 X-29.774 Y-11.519 E0.0221
G1 X-29.941 Y-10.966 E0.0221
G1 X-29.998 Y-10.392 E0.0221
G1 X-29.941 Y-9.818 E0.0221
; feature outer perimeter
G1 X-29.488 Y-9.908 F9000
G1 X-29.347 Y-9.443 E0.0186 F1200
G1 X-29.118 Y-9.014 E0.0186
G1 X-28.809 Y-8.638 E0.0186
G1 X-28.433 Y-8.329 E0.0186
G1 X-28.004 Y-8.100 E0.0186
G1 X-27.539 Y-7.959 E0.0186
G1 X-27.055 Y-7.911 E0.0186
G1 X-26.571 Y-7.959 E0.0186
G1 X-26.105 Y-8.100 E0.0186
G1 X-25.676 Y-8.329 E0.0186
G1 X-25.300 Y-8.638 E0.0186
G1 X-24.992 Y-9.014 E0.0186
G1 X-24.762 Y-9.443 E0.0186
G1 X-24.621 Y-9.908 E0.0186
G1 X-24.573 Y-10.392 E0.0186
G1 X-24.621 Y-10.876 E0.0186
G1 X-24.762 Y-11.342 E0.0186
G1 X-24.992 Y-11.771 E0.0186
G1 X-25.300 Y-12.147 E0.0186
G1 X-25.676 Y-12.455 E0.0186
G1 X-26.105 Y-12.684 E0.0186
G1 X-26.571 Y-12.826 E0.0186
G1 X-27.055 Y-12.873 E0.0186
G1 X-27.539 Y-12.826 E0.0186
G1 X-28.004 Y-12.684 E0.0186
G1 X-28.433 Y-12.455 E0.0186
G1 X-28.809 Y-12.147 E0.0186
G1 X-29.118 Y-11.771 E0.0186
G1 X-29.347 Y-11.342 E0.0186
G1 X-29.488 Y-10.876 E0.0186
G1 X-29.536 Y-10.392 E0.0186
G1 X-29.488 Y-9.908 E0.0186
G1 E-1.9000 F1200
; feature inner perimeter
G1 Z0.700 F1200
G1 X-19.886 Y-10.292 F9000
G1 Z0.200 F1200
G1 E1.9000 F1200
G1 X-19.822 Y-9.643 E0.0249 F1800
G1 X-19.583 Y-8.855 E0.0315
G1 X-19.225 Y-8.185 E0.0290
G1 X-18.775 Y-7.637 E0.0271
G1 X-18.227 Y-7.187 E0.0271
G1 X-17.593 Y-6.848 E0.0275
G1 X-16.781 Y-6.602 E0.0324
G1 X-16.122 Y-6.537 E0.0253
G1 X-15.463 Y-6.602 E0.0253
G1 X-14.651 Y-6.848 E0.0324
G1 X-14.017 Y-7.187 E0.0275
G1 X-13.469 Y-7.637 E0.0271
G1 X-13.019 Y-8.185 E0.0271
G1 X-12.661 Y-8.855 E0.0290
G1 X-12.422 Y-9.643 E0.0315
G1 X-12.358 Y-10.292 E0.0249
G1 X-12.422 Y-10.941 E0.0249
G1 X-12.658 Y-11.716 E0.0310
G1 X-13.020 Y-12.394 E0.0294
G1 X-13.470 Y-12.942 E0.0271
G1 X-14.018 Y-13.392 E0.0271
G1 X-14.687 Y-13.750 E0.0290
G1 X-15.469 Y-13.987 E0.0312
G1 X-16.122 Y-14.051 E0.0251
G1 X-16.776 Y-13.987 E0.0251
G1 X-17.557 Y-13.750 E0.0312
G1 X-18.226 Y-13.392 E0.0290
G1 X-18.774 Y-12.942 E0.0271
G1 X-19.224 Y-12.394 E0.0271
G1 X-19.586 Y-11.716 E0.0294
G1 X-19.822 Y-10.941 E0.0310
G1 X-19.886 Y-10.292 E0.0249
G1 X-19.423 Y-10.292 F9000
G1 X-19.368 Y-9.733 E0.0215 F1800
G1 X-19.156 Y-9.031 E0.0280
G1 X-18.840 Y-8.442 E0.0256
G1 X-18.448 Y-7.964 E0.0237
G1 X-17.970 Y-7.571 E0.0237
G1 X-17.416 Y-7.275 E0.0240
G1 X-16.691 Y-7.055 E0.0290
G1 X-16.122 Y-6.999 E0.0219
G1 X-15.553 Y-7.055 E0.0219
G1 X-14.828 Y-7.275 E0.0290
G1 X-14.274 Y-7.571 E0.0240
G1 X-13.796 Y-7.964 E0.0237
G1 X-13.404 Y-8.442 E0.0237
G1 X-13.089 Y-9.031 E0.0256
G1 X-12.876 Y-9.733 E0.0280
G1 X-12.821 Y-10.292 E0.0215
G1 X-12.876 Y-10.850 E0.0215
G1 X-13.085 Y-11.539 E0.0275
G1 X-13.404 Y-12.137 E0.0259
G1 X-13.797 Y-12.615 E0.0237
G1 X-14.275 Y-13.008 E0.0237
G1 X-14.864 Y-13.323 E0.0256
G1 X-15.559 Y-13.533 E0.0278
G1 X-16.122 Y-13.589 E0.0216
G1 X-16.685 Y-13.533 E0.0216
G1 X-17.380 Y-13.323 E0.0278
G1 X-17.969 Y-13.008 E0.0256
G1 X-18.447 Y-12.615 E0.0237
G1 X-18.840 Y-12.137 E0.0237
G1 X-19.159 Y-11.539 E0.0259
G1 X-19.368 Y-10.850 E0.0275
G1 X-19.423 Y-10.292 E0.0215
; feature outer perimeter
G1 X-18.961 Y-10.292 F9000
G1 X-18.915 Y-9.823 E0.0180 F1200
G1 X-18.729 Y-9.208 E0.0246
G1 X-18.456 Y-8.699 E0.0221
G1 X-18.121 Y-8.291 E0.0202
G1 X-17.713 Y-7.956 E0.0202
G1 X-17.239 Y-7.702 E0.0206
G1 X-16.601 Y-7.509 E0.0255
G1 X-16.122 Y-7.462 E0.0184
G1 X-15.643 Y-7.509 E0.0184
G1 X-15.005 Y-7.702 E0.0255
G1 X-14.531 Y-7.956 E0.0206
G1 X-14.123 Y-8.291 E0.0202
G1 X-13.788 Y-8.699 E0.0202
G1 X-13.516 Y-9.208 E0.0221
G1 X-13.329 Y-9.823 E0.0246
G1 X-13.283 Y-10.292 E0.0180
G1 X-13.329 Y-10.760 E0.0180
G1 X-13.512 Y-11.362 E0.0241
G1 X-13.788 Y-11.880 E0.0225
G1 X-14.123 Y-12.288 E0.0202
G1 X-14.532 Y-12.623 E0.0202
G1 X-15.041 Y-12.896 E0.0221
G1 X-15.649 Y-13.080 E0.0243
G1 X-16.122 Y-13.127 E0.0182
G1 X-16.595 Y-13.080 E0.0182
G1 X-17.203 Y-12.896 E0.0243
G1 X-17.712 Y-12.623 E0.0221
G1 X-18.121 Y-12.288 E0.0202
G1 X-18.456 Y-11.880 E0.0202
G1 X-18.732 Y-11.362 E0.0225
G1 X-18.915 Y-10.760 E0.0241
G1 X-18.961 Y-10.292 E0.0180
; feature solid layer
G1 X-18.376 Y-13.822 F9000
G1 X-18.298 Y-13.745 E0.0042 F2400
G1 X-18.419 Y-13.680 E0.0052
G1 X-18.675 Y-13.470 E0.0127
G1 X-19.026 Y-13.822 E0.0190
G1 X-19.677 Y-13.822 E0.0249
G1 X-19.030 Y-13.175 E0.0350
G1 X-19.323 Y-12.817 E0.0177
G1 X-20.327 Y-13.822 E0.0543
G1 X-20.978 Y-13.822 E0.0249
G1 X-19.593 Y-12.437 E0.0749
G1 X-19.819 Y-12.013 E0.0184
G1 X-21.629 Y-13.822 E0.0979
G1 X-22.279 Y-13.822 E0.0249
G1 X-20.000 Y-11.543 E0.1233
G1 X-20.151 Y-11.044 E0.0200
G1 X-22.930 Y-13.822 E0.1503
G1 X-23.580 Y-13.822 E0.0249
G1 X-20.216 Y-10.458 E0.1820
G1 X-20.232 Y-10.292 E0.0064
G1 X-20.181 Y-9.773 E0.0199
G1 X-24.231 Y-13.822 E0.2190
G1 X-24.881 Y-13.822 E0.0249
G1 X-19.956 Y-8.897 E0.2664
G1 X-19.903 Y-8.722 E0.0070
G1 X-19.513 Y-7.992 E0.0316
G1 X-19.020 Y-7.392 E0.0297
G1 X-18.419 Y-6.899 E0.0297
G1 X-18.252 Y-6.809 E0.0073
G1 X-18.519 Y-6.809 E0.0102
G1 X-23.646 Y-11.936 E0.2773
G1 X-23.935 Y-12.477 E0.0235
G1 X-24.401 Y-13.045 E0.0281
G1 X-24.970 Y-13.512 E0.0281
G1 X-25.511 Y-13.801 E0.0235
G1 X-25.532 Y-13.822 E0.0011
G1 X-28.784 Y-13.822 F9000
G1 X-28.706 Y-13.744 E0.0042 F2400
G1 X-29.130 Y-13.517 E0.0184
G1 X-29.435 Y-13.822 E0.0165
G1 X-30.086 Y-13.822 E0.0249
G1 X-29.489 Y-13.225 E0.0323
