; G-Code generated by Simplify3D(R) Version 4.1.2
; Apr 6, 2020 at 11:48:26 AM
; Settings Summary
;   processName,Process1
;   applyToModels,TIE Spring cover,TIE Spring cover(2)
;   profileName,MakerBot Replicator 2 HBP (modified)
;   profileVersion,2020-03-12 10:48:50
;   baseProfile,MakerBot Replicator 2(2)
;   printMaterial,PLA
;   printQuality,Medium
;   printExtruders,
;   extruderName,Primary Extruder
;   extruderToolheadNumber,0
;   extruderDiameter,0.4
;   extruderAutoWidth,0
;   extruderWidth,0.4
;   extrusionMultiplier,1
;   extruderUseRetract,1
;   extruderRetractionDistance,1.9
;   extruderExtraRestartDistance,0
;   extruderRetractionZLift,0.5
;   extruderRetractionSpeed,1200
;   extruderUseCoasting,0
;   extruderCoastingDistance,0.2
;   extruderUseWipe,0
;   extruderWipeDistance,5
;   primaryExtruder,0
;   layerHeight,0.2
;   topSolidLayers,3
;   bottomSolidLayers,3
;   perimeterOutlines,3
;   printPerimetersInsideOut,1
;   startPointOption,3
;   startPointOriginX,0
;   startPointOriginY,150
;   sequentialIslands,0
;   spiralVaseMode,0
;   firstLayerHeightPercentage,100
;   firstLayerWidthPercentage,115
;   firstLayerUnderspeed,0.5
;   useRaft,0
;   raftExtruder,0
;   raftTopLayers,2
;   raftBaseLayers,1
;   raftOffset,1
;   raftSeparationDistance,0.14
;   raftTopInfill,90
;   aboveRaftSpeedMultiplier,0.3
;   useSkirt,0
;   skirtExtruder,0
;   skirtLayers,1
;   skirtOutlines,5
;   skirtOffset,0
;   usePrimePillar,0
;   primePillarExtruder,999
;   primePillarWidth,12
;   primePillarLocation,7
;   primePillarSpeedMultiplier,1
;   useOozeShield,0
;   oozeShieldExtruder,999
;   oozeShieldOffset,2
;   oozeShieldOutlines,1
;   oozeShieldSidewallShape,1
;   oozeShieldSidewallAngle,30
;   oozeShieldSpeedMultiplier,1
;   infillExtruder,0
;   internalInfillPattern,Rectilinear
;   externalInfillPattern,Rectilinear
;   infillPercentage,15
;   outlineOverlapPercentage,25
;   infillExtrusionWidthPercentage,100
;   minInfillLength,5
;   infillLayerInterval,1
;   internalInfillAngles,45,-45
;   overlapInternalInfillAngles,0
;   externalInfillAngles,45,-45
;   generateSupport,1
;   supportExtruder,0
;   supportInfillPercentage,5
;   supportExtraInflation,0.5
;   supportBaseLayers,0
;   denseSupportExtruder,0
;   denseSupportLayers,2
;   denseSupportInfillPercentage,90
;   supportLayerInterval,1
;   supportHorizontalPartOffset,0.3
;   supportUpperSeparationLayers,1
;   supportLowerSeparationLayers,1
;   supportType,1
;   supportGridSpacing,2
;   maxOverhangAngle,45
;   supportAngles,45,-45
;   temperatureName,Primary Extruder,Heated Build Platform
;   temperatureNumber,0,0
;   temperatureSetpointCount,1,1
;   temperatureSetpointLayers,1,1
;   temperatureSetpointTemperatures,230,60
;   temperatureStabilizeAtStartup,1,1
;   temperatureHeatedBed,0,1
;   fanLayers,1,2
;   fanSpeeds,0,100
;   blipFanToFullPower,1
;   adjustSpeedForCooling,1
;   minSpeedLayerTime,15
;   minCoolingSpeedSlowdown,20
;   increaseFanForCooling,1
;   minFanLayerTime,45
;   maxCoolingFanSpeed,100
;   increaseFanForBridging,1
;   bridgingFanSpeed,100
;   use5D,1
;   relativeEdistances,1
;   allowEaxisZeroing,0
;   independentExtruderAxes,1
;   includeM10123,0
;   stickySupport,1
;   applyToolheadOffsets,0
;   gcodeXoffset,0
;   gcodeYoffset,0
;   gcodeZoffset,0
;   overrideMachineDefinition,1
;   machineTypeOverride,0
;   strokeXoverride,280
;   strokeYoverride,150
;   strokeZoverride,150
;   originOffsetXoverride,140
;   originOffsetYoverride,75
;   originOffsetZoverride,0
;   homeXdirOverride,1
;   homeYdirOverride,1
;   homeZdirOverride,-1
;   flipXoverride,1
;   flipYoverride,-1
;   flipZoverride,1
;   toolheadOffsets,0,0|0,0|0,0|0,0|0,0|0,0
;   overrideFirmwareConfiguration,1
;   firmwareTypeOverride,MakerBot/Sailfish Firmware
;   GPXconfigOverride,r2h
;   baudRateOverride,115200
;   overridePrinterModels,1
;   printerModelsOverride,MakerBot_Replicator2.stl
;   startingGcode,; **** Replicator 2 start.gcode ****,M73 P0 ; enable build progress,G162 X Y F3000 ; home XY maximum,G161 Z F1200 ; home Z minimum,G92 Z-5 ; set Z to -5,G1 Z0 ; move Z to 0,G161 Z F100 ; home Z slowly,M132 X Y Z A B ; recall home offsets,G1 X-145 Y-75 Z30 F9000 ; move to wait position off table,G130 X20 Y20 Z20 A20 B20 ; lower stepper Vrefs while heating,M126 S[fan_speed_pwm],M140 S[bed0_temperature] T0,M134 T0 ; stabilize bed temperature,M104 S[extruder0_temperature] T0,M133 T0 ; stabilize extruder temperature,G130 X127 Y127 Z40 A127 B127 ; default stepper Vrefs,G92 A0 ; zero extruder,G1 Z0.4 ; position nozzle,G1 E25 F300 ; purge nozzle,G1 X-140 Y-70 Z0.15 F1200 ; slow wipe,G1 X-135 Y-65 Z0.5 F1200 ; lift,G92 A0 ; zero extruder,M73 P1 ;@body (notify GPX body has started),; **** end of start.gcode ****
;   layerChangeGcode,
;   retractionGcode,
;   toolChangeGcode,
;   endingGcode,; **** Replicator 2 end.gcode ****,M73 P100 ; end build progress,G1 Z155 F1000 ; send Z axis to bottom of machine,M104 S0 T0 ; cool down extruder,M140 S0 T0 ; cool down HBP,M127 ; stop blower fan,G162 X Y F3000 ; home XY maximum,M18 ; disable stepper,M0 ; stop codes,M72 P1 ; play Ta-Da song,; **** end of end.gcode ****
;   exportFileFormat,gcode
;   celebration,0
;   celebrationSong,Random Song
;   postProcessing,
;   defaultSpeed,4800
;   outlineUnderspeed,0.5
;   solidInfillUnderspeed,1
;   supportUnderspeed,1
;   rapidXYspeed,9000
;   rapidZspeed,1200
;   minBridgingArea,50
;   bridgingExtraInflation,0
;   bridgingExtrusionMultiplier,1
;   bridgingSpeedMultiplier,0.8
;   useFixedBridgingAngle,0
;   fixedBridgingAngle,0
;   applyBridgingToPerimeters,0
;   filamentDiameters,1.75|1.75|1.75|1.75|1.75|1.75
;   filamentPricesPerKg,46|46|46|46|46|46
;   filamentDensities,1.25|1.25|1.25|1.25|1.25|1.25
;   useMinPrintHeight,0
;   minPrintHeight,0
;   useMaxPrintHeight,0
;   maxPrintHeight,4.84
;   useDiaphragm,0
;   diaphragmLayerInterval,20
;   robustSlicing,1
;   mergeAllIntoSolid,0
;   onlyRetractWhenCrossingOutline,0
;   retractBetweenLayers,0
;   useRetractionMinTravel,1
;   retractionMinTravel,7
;   retractWhileWiping,1
;   onlyWipeOutlines,1
;   avoidCrossingOutline,0
;   maxMovementDetourFactor,3
;   toolChangeRetractionDistance,12
;   toolChangeExtraRestartDistance,-0.5
;   toolChangeRetractionSpeed,600
;   externalThinWallType,0
;   internalThinWallType,0
;   thinWallAllowedOverlapPercentage,10
;   singleExtrusionMinLength,1
;   singleExtrusionMinPrintingWidthPercentage,50
;   singleExtrusionMaxPrintingWidthPercentage,200
;   singleExtrusionEndpointExtension,0.2
;   horizontalSizeCompensation,0
G90
M83
; **** Replicator 2 start.gcode ****
M73 P0 ; enable build progress
G162 X Y F3000 ; home XY maximum
G161 Z F1200 ; home Z minimum
G92 Z-5 ; set Z to -5
G1 Z0 ; move Z to 0
G161 Z F100 ; home Z slowly
M132 X Y Z A B ; recall home offsets
G1 X-145 Y-75 Z30 F9000 ; move to wait position off table
G130 X20 Y20 Z20 A20 B20 ; lower stepper Vrefs while heating
M127
M140 S60 T0
M134 T0 ; stabilize bed temperature
M104 S230 T0
M133 T0 ; stabilize extruder temperature
G130 X127 Y127 Z40 A127 B127 ; default stepper Vrefs
G92 A0 ; zero extruder
G1 Z0.4 ; position nozzle
G1 E25 F300 ; purge nozzle
G1 X-140 Y-70 Z0.15 F1200 ; slow wipe
G1 X-135 Y-65 Z0.5 F1200 ; lift
G92 A0 ; zero extruder
M73 P1 ;@body (notify GPX body has started)
; **** end of start.gcode ****
; process Process1
; layer 1, Z = 0.200
M135 T0
G1 E-1.9000 F1200
; feature inner perimeter
; tool H0.200 W0.460
G1 Z0.500 F1200
G1 X-4.103 Y7.455 F9000
G1 Z0.200 F1200
G1 E1.9000 F1200
G1 X-9.350 Y3.464 E0.2522 F1800
G1 X-9.350 Y-9.948 E0.5130
G1 X-17.192 Y-9.948 E0.3000
G1 X-16.910 Y-10.034 E0.0113
G1 X-16.191 Y-10.418 E0.0312
G1 X-15.562 Y-10.935 E0.0312
G1 X-15.045 Y-11.564 E0.0312
G1 X-14.661 Y-12.283 E0.0312
G1 X-14.424 Y-13.062 E0.0312
G1 X-14.344 Y-13.873 E0.0312
G1 X-14.424 Y-14.684 E0.0312
G1 X-14.661 Y-15.463 E0.0312
G1 X-15.045 Y-16.182 E0.0312
G1 X-15.562 Y-16.811 E0.0312
G1 X-16.191 Y-17.328 E0.0312
G1 X-16.910 Y-17.712 E0.0312
G1 X-17.689 Y-17.949 E0.0312
G1 X-18.500 Y-18.029 E0.0312
G1 X-19.311 Y-17.949 E0.0312
G1 X-20.090 Y-17.712 E0.0312
G1 X-20.809 Y-17.328 E0.0312
G1 X-21.438 Y-16.811 E0.0312
G1 X-21.955 Y-16.182 E0.0312
G1 X-22.339 Y-15.463 E0.0312
G1 X-22.576 Y-14.684 E0.0312
G1 X-22.656 Y-13.873 E0.0312
G1 X-22.576 Y-13.062 E0.0312
G1 X-22.339 Y-12.283 E0.0312
G1 X-21.955 Y-11.564 E0.0312
G1 X-21.438 Y-10.935 E0.0312
G1 X-20.809 Y-10.418 E0.0312
G1 X-20.090 Y-10.034 E0.0312
G1 X-19.808 Y-9.948 E0.0113
G1 X-27.650 Y-9.948 E0.3000
G1 X-27.650 Y3.464 E0.5130
G1 X-32.897 Y7.455 E0.2522
G1 X-33.030 Y6.924 E0.0209
G1 X-33.245 Y5.474 E0.0561
G1 X-33.350 Y3.993 E0.0568
G1 X-33.350 Y-18.850 E0.8737
G1 X-3.650 Y-18.850 E1.1360
G1 X-3.650 Y3.993 E0.8737
G1 X-3.755 Y5.474 E0.0568
G1 X-3.970 Y6.924 E0.0561
G1 X-4.103 Y7.455 E0.0210
G1 X-3.519 Y7.014 F9000
G1 X-3.883 Y8.468 E0.0573 F1800
G1 X-4.388 Y9.880 E0.0573
G1 X-5.029 Y11.235 E0.0573
G1 X-5.799 Y12.520 E0.0573
G1 X-6.692 Y13.725 E0.0573
G1 X-7.699 Y14.835 E0.0573
G1 X-8.810 Y15.842 E0.0573
G1 X-10.014 Y16.735 E0.0573
G1 X-11.299 Y17.505 E0.0573
G1 X-12.655 Y18.146 E0.0573
G1 X-14.066 Y18.651 E0.0573
G1 X-15.520 Y19.016 E0.0573
G1 X-17.003 Y19.236 E0.0573
G1 X-18.500 Y19.309 E0.0573
G1 X-19.997 Y19.236 E0.0573
G1 X-21.480 Y19.016 E0.0573
G1 X-22.934 Y18.651 E0.0573
G1 X-24.345 Y18.146 E0.0573
G1 X-25.701 Y17.505 E0.0573
G1 X-26.986 Y16.735 E0.0573
G1 X-28.190 Y15.842 E0.0573
G1 X-29.301 Y14.835 E0.0573
G1 X-30.308 Y13.724 E0.0573
G1 X-31.201 Y12.520 E0.0573
G1 X-31.971 Y11.235 E0.0573
G1 X-32.612 Y9.880 E0.0573
G1 X-33.117 Y8.468 E0.0573
G1 X-33.481 Y7.014 E0.0573
G1 X-33.703 Y5.524 E0.0576
G1 X-33.810 Y4.010 E0.0581
G1 X-33.810 Y-19.310 E0.8920
G1 X-3.190 Y-19.310 E1.1712
G1 X-3.190 Y4.010 E0.8920
G1 X-3.297 Y5.524 E0.0581
G1 X-3.519 Y7.014 E0.0576
; feature outer perimeter
G1 X-3.067 Y7.104 F9000
G1 X-3.442 Y8.602 E0.0591 F1200
G1 X-3.962 Y10.056 E0.0591
G1 X-4.622 Y11.452 E0.0591
G1 X-5.416 Y12.776 E0.0591
G1 X-6.336 Y14.017 E0.0591
G1 X-7.373 Y15.161 E0.0591
G1 X-8.517 Y16.198 E0.0591
G1 X-9.758 Y17.118 E0.0591
G1 X-11.082 Y17.912 E0.0591
G1 X-12.478 Y18.572 E0.0591
G1 X-13.932 Y19.092 E0.0591
G1 X-15.430 Y19.467 E0.0591
G1 X-16.958 Y19.694 E0.0591
G1 X-18.500 Y19.770 E0.0591
G1 X-20.042 Y19.694 E0.0591
G1 X-21.570 Y19.467 E0.0591
G1 X-23.068 Y19.092 E0.0591
G1 X-24.522 Y18.572 E0.0591
G1 X-25.918 Y17.912 E0.0591
G1 X-27.242 Y17.118 E0.0591
G1 X-28.483 Y16.198 E0.0591
G1 X-29.627 Y15.161 E0.0591
G1 X-30.664 Y14.017 E0.0591
G1 X-31.584 Y12.776 E0.0591
G1 X-32.377 Y11.452 E0.0591
G1 X-33.038 Y10.056 E0.0591
G1 X-33.558 Y8.602 E0.0591
G1 X-33.933 Y7.104 E0.0591
G1 X-34.160 Y5.574 E0.0592
G1 X-34.270 Y4.026 E0.0594
G1 X-34.270 Y-19.770 E0.9102
G1 X-2.730 Y-19.770 E1.2064
G1 X-2.730 Y4.026 E0.9102
G1 X-2.840 Y5.574 E0.0594
G1 X-3.067 Y7.104 E0.0592
; feature inner perimeter
G1 X-4.375 Y7.827 F9000
G1 X-9.810 Y3.692 E0.2612 F1800
G1 X-9.810 Y-9.488 E0.5041
G1 X-27.190 Y-9.488 E0.6648
G1 X-27.190 Y3.692 E0.5041
G1 X-32.625 Y7.827 E0.2612
G1 X-31.984 Y9.619 E0.0728
G1 X-31.372 Y10.914 E0.0548
G1 X-30.635 Y12.143 E0.0548
G1 X-29.782 Y13.293 E0.0548
G1 X-28.820 Y14.354 E0.0548
G1 X-27.759 Y15.316 E0.0548
G1 X-26.609 Y16.170 E0.0548
G1 X-25.380 Y16.906 E0.0548
G1 X-24.085 Y17.518 E0.0548
G1 X-22.737 Y18.001 E0.0548
G1 X-21.347 Y18.349 E0.0548
G1 X-19.931 Y18.559 E0.0548
G1 X-18.500 Y18.629 E0.0548
G1 X-17.069 Y18.559 E0.0548
G1 X-15.653 Y18.349 E0.0548
G1 X-14.263 Y18.001 E0.0548
G1 X-12.915 Y17.518 E0.0548
G1 X-11.620 Y16.906 E0.0548
G1 X-10.391 Y16.170 E0.0548
G1 X-9.241 Y15.316 E0.0548
G1 X-8.180 Y14.354 E0.0548
G1 X-7.218 Y13.293 E0.0548
G1 X-6.365 Y12.143 E0.0548
G1 X-5.628 Y10.914 E0.0548
G1 X-5.016 Y9.619 E0.0548
G1 X-4.375 Y7.827 E0.0728
; feature outer perimeter
G1 X-4.921 Y7.989 F9000
G1 X-10.270 Y3.920 E0.2571 F1200
G1 X-10.270 Y-9.028 E0.4953
G1 X-26.730 Y-9.028 E0.6296
G1 X-26.730 Y3.920 E0.4953
G1 X-32.079 Y7.989 E0.2571
G1 X-31.559 Y9.443 E0.0591
G1 X-30.966 Y10.697 E0.0531
G1 X-30.252 Y11.887 E0.0531
G1 X-29.426 Y13.001 E0.0531
G1 X-28.495 Y14.029 E0.0531
G1 X-27.467 Y14.960 E0.0531
G1 X-26.353 Y15.787 E0.0531
G1 X-25.163 Y16.500 E0.0531
G1 X-23.909 Y17.093 E0.0531
G1 X-22.603 Y17.560 E0.0531
G1 X-21.258 Y17.897 E0.0531
G1 X-19.885 Y18.101 E0.0531
G1 X-18.500 Y18.169 E0.0531
G1 X-17.115 Y18.101 E0.0531
G1 X-15.742 Y17.897 E0.0531
G1 X-14.397 Y17.560 E0.0531
G1 X-13.091 Y17.093 E0.0531
G1 X-11.837 Y16.500 E0.0531
G1 X-10.647 Y15.787 E0.0531
G1 X-9.533 Y14.960 E0.0531
G1 X-8.505 Y14.029 E0.0531
G1 X-7.574 Y13.001 E0.0531
G1 X-6.748 Y11.887 E0.0531
G1 X-6.034 Y10.697 E0.0531
G1 X-5.441 Y9.443 E0.0531
G1 X-4.921 Y7.989 E0.0591
G1 E-1.9000 F1200
; feature inner perimeter
G1 Z0.700 F1200
G1 X-16.448 Y-10.802 F9000
G1 Z0.200 F1200
G1 E1.9000 F1200
G1 X-15.888 Y-11.261 E0.0277 F1800
G1 X-15.429 Y-11.821 E0.0277
G1 X-15.088 Y-12.460 E0.0277
G1 X-14.878 Y-13.152 E0.0277
G1 X-14.807 Y-13.873 E0.0277
G1 X-14.878 Y-14.594 E0.0277
G1 X-15.088 Y-15.286 E0.0277
G1 X-15.429 Y-15.925 E0.0277
G1 X-15.888 Y-16.485 E0.0277
G1 X-16.448 Y-16.944 E0.0277
G1 X-17.087 Y-17.285 E0.0277
G1 X-17.779 Y-17.495 E0.0277
G1 X-18.500 Y-17.566 E0.0277
G1 X-19.221 Y-17.495 E0.0277
G1 X-19.913 Y-17.285 E0.0277
G1 X-20.552 Y-16.944 E0.0277
G1 X-21.112 Y-16.485 E0.0277
G1 X-21.571 Y-15.925 E0.0277
G1 X-21.912 Y-15.286 E0.0277
G1 X-22.122 Y-14.594 E0.0277
G1 X-22.193 Y-13.873 E0.0277
G1 X-22.122 Y-13.152 E0.0277
G1 X-21.912 Y-12.460 E0.0277
G1 X-21.571 Y-11.821 E0.0277
G1 X-21.112 Y-11.261 E0.0277
G1 X-20.552 Y-10.802 E0.0277
G1 X-19.913 Y-10.461 E0.0277
G1 X-19.221 Y-10.251 E0.0277
G1 X-18.500 Y-10.180 E0.0277
G1 X-17.779 Y-10.251 E0.0277
G1 X-17.087 Y-10.461 E0.0277
G1 X-16.448 Y-10.802 E0.0277
; feature outer perimeter
G1 X-16.705 Y-11.186 F9000
G1 X-16.215 Y-11.588 E0.0242 F1200
G1 X-15.813 Y-12.078 E0.0242
G1 X-15.515 Y-12.636 E0.0242
G1 X-15.331 Y-13.243 E0.0242
G1 X-15.269 Y-13.873 E0.0242
G1 X-15.331 Y-14.503 E0.0242
G1 X-15.515 Y-15.109 E0.0242
G1 X-15.813 Y-15.668 E0.0242
G1 X-16.215 Y-16.158 E0.0242
G1 X-16.705 Y-16.560 E0.0242
G1 X-17.264 Y-16.858 E0.0242
G1 X-17.870 Y-17.042 E0.0242
G1 X-18.500 Y-17.104 E0.0242
G1 X-19.130 Y-17.042 E0.0242
G1 X-19.736 Y-16.858 E0.0242
G1 X-20.295 Y-16.560 E0.0242
G1 X-20.785 Y-16.158 E0.0242
G1 X-21.187 Y-15.668 E0.0242
G1 X-21.485 Y-15.109 E0.0242
G1 X-21.669 Y-14.503 E0.0242
G1 X-21.731 Y-13.873 E0.0242
G1 X-21.669 Y-13.243 E0.0242
G1 X-21.485 Y-12.636 E0.0242
G1 X-21.187 Y-12.078 E0.0242
G1 X-20.785 Y-11.588 E0.0242
G1 X-20.295 Y-11.186 E0.0242
G1 X-19.736 Y-10.888 E0.0242
G1 X-19.130 Y-10.704 E0.0242
G1 X-18.500 Y-10.642 E0.0242
G1 X-17.870 Y-10.704 E0.0242
G1 X-17.264 Y-10.888 E0.0242
G1 X-16.705 Y-11.186 E0.0242
; feature solid layer
G1 X-15.497 Y-10.293 F9000
G1 X-15.634 Y-10.429 E0.0074 F2400
G1 X-15.316 Y-10.689 E0.0157
G1 X-15.283 Y-10.730 E0.0020
G1 X-14.847 Y-10.293 E0.0236
G1 X-14.196 Y-10.293 E0.0249
G1 X-14.990 Y-11.087 E0.0429
G1 X-14.757 Y-11.372 E0.0141
G1 X-14.710 Y-11.458 E0.0037
G1 X-13.546 Y-10.293 E0.0630
G1 X-12.895 Y-10.293 E0.0249
G1 X-14.484 Y-11.882 E0.0859
G1 X-14.340 Y-12.150 E0.0116
G1 X-14.285 Y-12.333 E0.0073
G1 X-12.245 Y-10.293 E0.1104
G1 X-11.594 Y-10.293 E0.0249
G1 X-14.133 Y-12.832 E0.1374
G1 X-14.084 Y-12.995 E0.0065
G1 X-14.045 Y-13.394 E0.0154
G1 X-10.944 Y-10.293 E0.1678
G1 X-10.293 Y-10.293 E0.0249
G1 X-14.011 Y-14.011 E0.2011
G1 X-14.082 Y-14.733 E0.0277
G1 X-9.642 Y-10.293 E0.2402
G1 X-9.005 Y-10.293 E0.0244
G1 X-9.005 Y-9.656 E0.0244
G1 X-3.995 Y-4.646 E0.2710
G1 X-3.995 Y-5.296 E0.0249
G1 X-14.393 Y-15.694 E0.5624
G1 E-1.9000 F1200
G1 Z0.700 F1200
G1 X-9.005 Y-9.005 F9000
G1 Z0.200 F1200
G1 E1.9000 F1200
G1 X-3.995 Y-3.995 E0.2710 F2400
G1 X-3.995 Y-3.344 E0.0249
G1 X-9.005 Y-8.354 E0.2710
G1 X-9.005 Y-7.704 E0.0249
G1 X-3.995 Y-2.694 E0.2710
G1 X-3.995 Y-2.043 E0.0249
G1 X-9.005 Y-7.053 E0.2710
G1 X-9.005 Y-6.403 E0.0249
G1 X-3.995 Y-1.393 E0.2710
G1 X-3.995 Y-0.742 E0.0249
G1 X-9.005 Y-5.752 E0.2710
G1 X-9.005 Y-5.102 E0.0249
G1 X-3.995 Y-0.092 E0.2710
G1 X-3.995 Y0.559 E0.0249
