; G-Code generated by Simplify3D(R) Version 4.1.2
; Apr 6, 2020 at 11:48:38 AM
; Settings Summary
;   processName,Process1
;   applyToModels,TIE Spring cover,TIE Spring cover(2),TIE Spring cover(3),TIE Spring cover(2)(2)
;   profileName,MakerBot Replicator 2 HBP (modified)
;   profileVersion,2020-03-12 10:48:50
;   baseProfile,MakerBot Replicator 2(2)
;   printMaterial,PLA
;   printQuality,Medium
;   printExtruders,
;   extruderName,Primary Extruder
;   extruderToolheadNumber,0
;   extruderDiameter,0.4
;   extruderAutoWidth,0
;   extruderWidth,0.4
;   extrusionMultiplier,1
;   extruderUseRetract,1
;   extruderRetractionDistance,1.9
;   extruderExtraRestartDistance,0
;   extruderRetractionZLift,0.5
;   extruderRetractionSpeed,1200
;   extruderUseCoasting,0
;   extruderCoastingDistance,0.2
;   extruderUseWipe,0
;   extruderWipeDistance,5
;   primaryExtruder,0
;   layerHeight,0.2
;   topSolidLayers,3
;   bottomSolidLayers,3
;   perimeterOutlines,3
;   printPerimetersInsideOut,1
;   startPointOption,3
;   startPointOriginX,0
;   startPointOriginY,150
;   sequentialIslands,0
;   spiralVaseMode,0
;   firstLayerHeightPercentage,100
;   firstLayerWidthPercentage,115
;   firstLayerUnderspeed,0.5
;   useRaft,0
;   raftExtruder,0
;   raftTopLayers,2
;   raftBaseLayers,1
;   raftOffset,1
;   raftSeparationDistance,0.14
;   raftTopInfill,90
;   aboveRaftSpeedMultiplier,0.3
;   useSkirt,0
;   skirtExtruder,0
;   skirtLayers,1
;   skirtOutlines,5
;   skirtOffset,0
;   usePrimePillar,0
;   primePillarExtruder,999
;   primePillarWidth,12
;   primePillarLocation,7
;   primePillarSpeedMultiplier,1
;   useOozeShield,0
;   oozeShieldExtruder,999
;   oozeShieldOffset,2
;   oozeShieldOutlines,1
;   oozeShieldSidewallShape,1
;   oozeShieldSidewallAngle,30
;   oozeShieldSpeedMultiplier,1
;   infillExtruder,0
;   internalInfillPattern,Rectilinear
;   externalInfillPattern,Rectilinear
;   infillPercentage,15
;   outlineOverlapPercentage,25
;   infillExtrusionWidthPercentage,100
;   minInfillLength,5
;   infillLayerInterval,1
;   internalInfillAngles,45,-45
;   overlapInternalInfillAngles,0
;   externalInfillAngles,45,-45
;   generateSupport,1
;   supportExtruder,0
;   supportInfillPercentage,5
;   supportExtraInflation,0.5
;   supportBaseLayers,0
;   denseSupportExtruder,0
;   denseSupportLayers,2
;   denseSupportInfillPercentage,90
;   supportLayerInterval,1
;   supportHorizontalPartOffset,0.3
;   supportUpperSeparationLayers,1
;   supportLowerSeparationLayers,1
;   supportType,1
;   supportGridSpacing,2
;   maxOverhangAngle,45
;   supportAngles,45,-45
;   temperatureName,Primary Extruder,Heated Build Platform
;   temperatureNumber,0,0
;   temperatureSetpointCount,1,1
;   temperatureSetpointLayers,1,1
;   temperatureSetpointTemperatures,230,60
;   temperatureStabilizeAtStartup,1,1
;   temperatureHeatedBed,0,1
;   fanLayers,1,2
;   fanSpeeds,0,100
;   blipFanToFullPower,1
;   adjustSpeedForCooling,1
;   minSpeedLayerTime,15
;   minCoolingSpeedSlowdown,20
;   increaseFanForCooling,1
;   minFanLayerTime,45
;   maxCoolingFanSpeed,100
;   increaseFanForBridging,1
;   bridgingFanSpeed,100
;   use5D,1
;   relativeEdistances,1
;   allowEaxisZeroing,0
;   independentExtruderAxes,1
;   includeM10123,0
;   stickySupport,1
;   applyToolheadOffsets,0
;   gcodeXoffset,0
;   gcodeYoffset,0
;   gcodeZoffset,0
;   overrideMachineDefinition,1
;   machineTypeOverride,0
;   strokeXoverride,280
;   strokeYoverride,150
;   strokeZoverride,150
;   originOffsetXoverride,140
;   originOffsetYoverride,75
;   originOffsetZoverride,0
;   homeXdirOverride,1
;   homeYdirOverride,1
;   homeZdirOverride,-1
;   flipXoverride,1
;   flipYoverride,-1
;   flipZoverride,1
;   toolheadOffsets,0,0|0,0|0,0|0,0|0,0|0,0
;   overrideFirmwareConfiguration,1
;   firmwareTypeOverride,MakerBot/Sailfish Firmware
;   GPXconfigOverride,r2h
;   baudRateOverride,115200
;   overridePrinterModels,1
;   printerModelsOverride,MakerBot_Replicator2.stl
;   startingGcode,; **** Replicator 2 start.gcode ****,M73 P0 ; enable build progress,G162 X Y F3000 ; home XY maximum,G161 Z F1200 ; home Z minimum,G92 Z-5 ; set Z to -5,G1 Z0 ; move Z to 0,G161 Z F100 ; home Z slowly,M132 X Y Z A B ; recall home offsets,G1 X-145 Y-75 Z30 F9000 ; move to wait position off table,G130 X20 Y20 Z20 A20 B20 ; lower stepper Vrefs while heating,M126 S[fan_speed_pwm],M140 S[bed0_temperature] T0,M134 T0 ; stabilize bed temperature,M104 S[extruder0_temperature] T0,M133 T0 ; stabilize extruder temperature,G130 X127 Y127 Z40 A127 B127 ; default stepper Vrefs,G92 A0 ; zero extruder,G1 Z0.4 ; position nozzle,G1 E25 F300 ; purge nozzle,G1 X-140 Y-70 Z0.15 F1200 ; slow wipe,G1 X-135 Y-65 Z0.5 F1200 ; lift,G92 A0 ; zero extruder,M73 P1 ;@body (notify GPX body has started),; **** end of start.gcode ****
;   layerChangeGcode,
;   retractionGcode,
;   toolChangeGcode,
;   endingGcode,; **** Replicator 2 end.gcode ****,M73 P100 ; end build progress,G1 Z155 F1000 ; send Z axis to bottom of machine,M104 S0 T0 ; cool down extruder,M140 S0 T0 ; cool down HBP,M127 ; stop blower fan,G162 X Y F3000 ; home XY maximum,M18 ; disable stepper,M0 ; stop codes,M72 P1 ; play Ta-Da song,; **** end of end.gcode ****
;   exportFileFormat,gcode
;   celebration,0
;   celebrationSong,Random Song
;   postProcessing,
;   defaultSpeed,4800
;   outlineUnderspeed,0.5
;   solidInfillUnderspeed,1
;   supportUnderspeed,1
;   rapidXYspeed,9000
;   rapidZspeed,1200
;   minBridgingArea,50
;   bridgingExtraInflation,0
;   bridgingExtrusionMultiplier,1
;   bridgingSpeedMultiplier,0.8
;   useFixedBridgingAngle,0
;   fixedBridgingAngle,0
;   applyBridgingToPerimeters,0
;   filamentDiameters,1.75|1.75|1.75|1.75|1.75|1.75
;   filamentPricesPerKg,46|46|46|46|46|46
;   filamentDensities,1.25|1.25|1.25|1.25|1.25|1.25
;   useMinPrintHeight,0
;   minPrintHeight,0
;   useMaxPrintHeight,0
;   maxPrintHeight,4.84
;   useDiaphragm,0
;   diaphragmLayerInterval,20
;   robustSlicing,1
;   mergeAllIntoSolid,0
;   onlyRetractWhenCrossingOutline,0
;   retractBetweenLayers,0
;   useRetractionMinTravel,1
;   retractionMinTravel,7
;   retractWhileWiping,1
;   onlyWipeOutlines,1
;   avoidCrossingOutline,0
;   maxMovementDetourFactor,3
;   toolChangeRetractionDistance,12
;   toolChangeExtraRestartDistance,-0.5
;   toolChangeRetractionSpeed,600
;   externalThinWallType,0
;   internalThinWallType,0
;   thinWallAllowedOverlapPercentage,10
;   singleExtrusionMinLength,1
;   singleExtrusionMinPrintingWidthPercentage,50
;   singleExtrusionMaxPrintingWidthPercentage,200
;   singleExtrusionEndpointExtension,0.2
;   horizontalSizeCompensation,0
G90
M83
; **** Replicator 2 start.gcode ****
M73 P0 ; enable build progress
G162 X Y F3000 ; home XY maximum
G161 Z F1200 ; home Z minimum
G92 Z-5 ; set Z to -5
G1 Z0 ; move Z to 0
G161 Z F100 ; home Z slowly
M132 X Y Z A B ; recall home offsets
G1 X-145 Y-75 Z30 F9000 ; move to wait position off table
G130 X20 Y20 Z20 A20 B20 ; lower stepper Vrefs while heating
M127
M140 S60 T0
M134 T0 ; stabilize bed temperature
M104 S230 T0
M133 T0 ; stabilize extruder temperature
G130 X127 Y127 Z40 A127 B127 ; default stepper Vrefs
G92 A0 ; zero extruder
G1 Z0.4 ; position nozzle
G1 E25 F300 ; purge nozzle
G1 X-140 Y-70 Z0.15 F1200 ; slow wipe
G1 X-135 Y-65 Z0.5 F1200 ; lift
G92 A0 ; zero extruder
M73 P1 ;@body (notify GPX body has started)
; **** end of start.gcode ****
; process Process1
; layer 1, Z = 0.200
M135 T0
G1 E-1.9000 F1200
; feature inner perimeter
; tool H0.200 W0.460
G1 Z0.500 F1200
G1 X14.397 Y-15.044 F9000
G1 Z0.200 F1200
G1 E1.9000 F1200
G1 X9.150 Y-19.036 E0.2522 F1800
G1 X9.150 Y-32.448 E0.5130
G1 X1.308 Y-32.448 E0.3000
G1 X1.590 Y-32.534 E0.0113
G1 X2.309 Y-32.918 E0.0312
G1 X2.938 Y-33.435 E0.0312
G1 X3.455 Y-34.064 E0.0312
G1 X3.839 Y-34.783 E0.0312
G1 X4.076 Y-35.562 E0.0312
G1 X4.156 Y-36.373 E0.0312
G1 X4.076 Y-37.184 E0.0312
G1 X3.839 Y-37.963 E0.0312
G1 X3.455 Y-38.682 E0.0312
G1 X2.938 Y-39.311 E0.0312
G1 X2.309 Y-39.828 E0.0312
G1 X1.590 Y-40.212 E0.0312
G1 X0.811 Y-40.449 E0.0312
G1 X0.000 Y-40.529 E0.0312
G1 X-0.811 Y-40.449 E0.0312
G1 X-1.590 Y-40.212 E0.0312
G1 X-2.309 Y-39.828 E0.0312
G1 X-2.938 Y-39.311 E0.0312
G1 X-3.455 Y-38.682 E0.0312
G1 X-3.839 Y-37.963 E0.0312
G1 X-4.076 Y-37.184 E0.0312
G1 X-4.156 Y-36.373 E0.0312
G1 X-4.076 Y-35.562 E0.0312
G1 X-3.839 Y-34.783 E0.0312
G1 X-3.455 Y-34.064 E0.0312
G1 X-2.938 Y-33.435 E0.0312
G1 X-2.309 Y-32.918 E0.0312
G1 X-1.590 Y-32.534 E0.0312
G1 X-1.308 Y-32.448 E0.0113
G1 X-9.150 Y-32.448 E0.3000
G1 X-9.150 Y-19.036 E0.5130
G1 X-14.397 Y-15.044 E0.2522
G1 X-14.530 Y-15.576 E0.0209
G1 X-14.745 Y-17.026 E0.0561
G1 X-14.850 Y-18.507 E0.0568
G1 X-14.850 Y-41.350 E0.8737
G1 X14.850 Y-41.350 E1.1360
G1 X14.850 Y-18.507 E0.8737
G1 X14.745 Y-17.026 E0.0568
G1 X14.530 Y-15.576 E0.0561
G1 X14.397 Y-15.044 E0.0209
G1 X14.981 Y-15.486 F9000
G1 X14.617 Y-14.032 E0.0573 F1800
G1 X14.112 Y-12.620 E0.0573
G1 X13.471 Y-11.265 E0.0573
G1 X12.701 Y-9.979 E0.0573
G1 X11.808 Y-8.775 E0.0573
G1 X10.801 Y-7.665 E0.0573
G1 X9.690 Y-6.658 E0.0573
G1 X8.486 Y-5.765 E0.0573
G1 X7.201 Y-4.994 E0.0573
G1 X5.845 Y-4.354 E0.0573
G1 X4.434 Y-3.849 E0.0573
G1 X2.980 Y-3.484 E0.0573
G1 X1.497 Y-3.264 E0.0573
G1 X0.000 Y-3.191 E0.0573
G1 X-1.497 Y-3.264 E0.0573
G1 X-2.980 Y-3.484 E0.0573
G1 X-4.434 Y-3.849 E0.0573
G1 X-5.845 Y-4.354 E0.0573
G1 X-7.201 Y-4.994 E0.0573
G1 X-8.486 Y-5.765 E0.0573
G1 X-9.690 Y-6.658 E0.0573
G1 X-10.801 Y-7.665 E0.0573
G1 X-11.808 Y-8.776 E0.0573
G1 X-12.701 Y-9.979 E0.0573
G1 X-13.471 Y-11.265 E0.0573
G1 X-14.112 Y-12.620 E0.0573
G1 X-14.617 Y-14.032 E0.0573
G1 X-14.981 Y-15.486 E0.0573
G1 X-15.203 Y-16.976 E0.0576
G1 X-15.310 Y-18.490 E0.0581
G1 X-15.310 Y-41.810 E0.8920
G1 X15.310 Y-41.810 E1.1712
G1 X15.310 Y-18.490 E0.8920
G1 X15.203 Y-16.976 E0.0581
G1 X14.981 Y-15.486 E0.0576
; feature outer perimeter
G1 X15.433 Y-15.396 F9000
G1 X15.058 Y-13.898 E0.0591 F1200
G1 X14.538 Y-12.444 E0.0591
G1 X13.877 Y-11.048 E0.0591
G1 X13.084 Y-9.724 E0.0591
G1 X12.164 Y-8.483 E0.0591
G1 X11.127 Y-7.339 E0.0591
G1 X9.983 Y-6.302 E0.0591
G1 X8.742 Y-5.382 E0.0591
G1 X7.418 Y-4.588 E0.0591
G1 X6.022 Y-3.928 E0.0591
G1 X4.568 Y-3.408 E0.0591
G1 X3.070 Y-3.033 E0.0591
G1 X1.542 Y-2.806 E0.0591
G1 X0.000 Y-2.730 E0.0591
G1 X-1.542 Y-2.806 E0.0591
G1 X-3.070 Y-3.033 E0.0591
G1 X-4.568 Y-3.408 E0.0591
G1 X-6.022 Y-3.928 E0.0591
G1 X-7.418 Y-4.588 E0.0591
G1 X-8.742 Y-5.382 E0.0591
G1 X-9.983 Y-6.302 E0.0591
G1 X-11.127 Y-7.339 E0.0591
G1 X-12.164 Y-8.483 E0.0591
G1 X-13.084 Y-9.724 E0.0591
G1 X-13.877 Y-11.048 E0.0591
G1 X-14.538 Y-12.444 E0.0591
G1 X-15.058 Y-13.898 E0.0591
G1 X-15.433 Y-15.396 E0.0591
G1 X-15.660 Y-16.926 E0.0592
G1 X-15.770 Y-18.474 E0.0594
G1 X-15.770 Y-42.270 E0.9102
G1 X15.770 Y-42.270 E1.2064
G1 X15.770 Y-18.474 E0.9102
G1 X15.660 Y-16.926 E0.0594
G1 X15.433 Y-15.396 E0.0592
; feature inner perimeter
G1 X14.125 Y-14.673 F9000
G1 X8.690 Y-18.808 E0.2612 F1800
G1 X8.690 Y-31.988 E0.5041
G1 X-8.690 Y-31.988 E0.6648
G1 X-8.690 Y-18.808 E0.5041
G1 X-14.125 Y-14.673 E0.2612
G1 X-13.484 Y-12.881 E0.0728
G1 X-12.872 Y-11.586 E0.0548
G1 X-12.135 Y-10.357 E0.0548
G1 X-11.282 Y-9.207 E0.0548
G1 X-10.320 Y-8.146 E0.0548
G1 X-9.259 Y-7.184 E0.0548
G1 X-8.109 Y-6.330 E0.0548
G1 X-6.880 Y-5.594 E0.0548
G1 X-5.585 Y-4.982 E0.0548
G1 X-4.237 Y-4.499 E0.0548
G1 X-2.847 Y-4.151 E0.0548
G1 X-1.431 Y-3.941 E0.0548
G1 X0.000 Y-3.871 E0.0548
G1 X1.431 Y-3.941 E0.0548
G1 X2.847 Y-4.151 E0.0548
G1 X4.237 Y-4.499 E0.0548
G1 X5.585 Y-4.982 E0.0548
G1 X6.880 Y-5.594 E0.0548
G1 X8.109 Y-6.330 E0.0548
G1 X9.259 Y-7.184 E0.0548
G1 X10.320 Y-8.146 E0.0548
G1 X11.282 Y-9.207 E0.0548
G1 X12.135 Y-10.357 E0.0548
G1 X12.872 Y-11.586 E0.0548
G1 X13.484 Y-12.880 E0.0548
G1 X14.125 Y-14.673 E0.0728
; feature outer perimeter
G1 X13.579 Y-14.511 F9000
G1 X8.230 Y-18.580 E0.2571 F1200
G1 X8.230 Y-31.528 E0.4953
G1 X-8.230 Y-31.528 E0.6296
G1 X-8.230 Y-18.580 E0.4953
G1 X-13.579 Y-14.511 E0.2571
G1 X-13.059 Y-13.057 E0.0591
G1 X-12.466 Y-11.803 E0.0531
G1 X-11.752 Y-10.613 E0.0531
G1 X-10.926 Y-9.499 E0.0531
G1 X-9.995 Y-8.471 E0.0531
G1 X-8.967 Y-7.540 E0.0531
G1 X-7.853 Y-6.713 E0.0531
G1 X-6.663 Y-6.000 E0.0531
G1 X-5.409 Y-5.407 E0.0531
G1 X-4.103 Y-4.940 E0.0531
G1 X-2.758 Y-4.603 E0.0531
G1 X-1.385 Y-4.399 E0.0531
G1 X0.000 Y-4.331 E0.0531
G1 X1.385 Y-4.399 E0.0531
G1 X2.757 Y-4.603 E0.0531
G1 X4.103 Y-4.940 E0.0531
G1 X5.409 Y-5.407 E0.0531
G1 X6.663 Y-6.000 E0.0531
G1 X7.853 Y-6.713 E0.0531
G1 X8.967 Y-7.540 E0.0531
G1 X9.995 Y-8.471 E0.0531
G1 X10.926 Y-9.499 E0.0531
G1 X11.752 Y-10.613 E0.0531
G1 X12.466 Y-11.803 E0.0531
G1 X13.059 Y-13.057 E0.0531
G1 X13.579 Y-14.511 E0.0591
G1 E-1.9000 F1200
; feature inner perimeter
G1 Z0.700 F1200
G1 X2.052 Y-33.302 F9000
G1 Z0.200 F1200
G1 E1.9000 F1200
G1 X2.612 Y-33.761 E0.0277 F1800
G1 X3.071 Y-34.321 E0.0277
G1 X3.412 Y-34.960 E0.0277
G1 X3.622 Y-35.652 E0.0277
G1 X3.693 Y-36.373 E0.0277
G1 X3.622 Y-37.094 E0.0277
G1 X3.412 Y-37.786 E0.0277
G1 X3.071 Y-38.425 E0.0277
G1 X2.612 Y-38.985 E0.0277
G1 X2.052 Y-39.444 E0.0277
G1 X1.413 Y-39.785 E0.0277
G1 X0.721 Y-39.995 E0.0277
G1 X0.000 Y-40.066 E0.0277
G1 X-0.721 Y-39.995 E0.0277
G1 X-1.413 Y-39.785 E0.0277
G1 X-2.052 Y-39.444 E0.0277
G1 X-2.612 Y-38.985 E0.0277
G1 X-3.071 Y-38.425 E0.0277
G1 X-3.412 Y-37.786 E0.0277
G1 X-3.622 Y-37.094 E0.0277
G1 X-3.693 Y-36.373 E0.0277
G1 X-3.622 Y-35.652 E0.0277
G1 X-3.412 Y-34.960 E0.0277
G1 X-3.071 Y-34.321 E0.0277
G1 X-2.612 Y-33.761 E0.0277
G1 X-2.052 Y-33.302 E0.0277
G1 X-1.413 Y-32.961 E0.0277
G1 X-0.721 Y-32.751 E0.0277
G1 X0.000 Y-32.680 E0.0277
G1 X0.721 Y-32.751 E0.0277
G1 X1.413 Y-32.961 E0.0277
G1 X2.052 Y-33.302 E0.0277
; feature outer perimeter
G1 X1.795 Y-33.686 F9000
G1 X2.285 Y-34.088 E0.0242 F1200
G1 X2.687 Y-34.578 E0.0242
G1 X2.985 Y-35.136 E0.0242
G1 X3.169 Y-35.743 E0.0242
G1 X3.231 Y-36.373 E0.0242
G1 X3.169 Y-37.003 E0.0242
G1 X2.985 Y-37.609 E0.0242
G1 X2.687 Y-38.168 E0.0242
G1 X2.285 Y-38.658 E0.0242
G1 X1.795 Y-39.060 E0.0242
G1 X1.236 Y-39.358 E0.0242
G1 X0.630 Y-39.542 E0.0242
G1 X0.000 Y-39.604 E0.0242
G1 X-0.630 Y-39.542 E0.0242
G1 X-1.236 Y-39.358 E0.0242
G1 X-1.795 Y-39.060 E0.0242
G1 X-2.285 Y-38.658 E0.0242
G1 X-2.687 Y-38.168 E0.0242
G1 X-2.985 Y-37.609 E0.0242
G1 X-3.169 Y-37.003 E0.0242
G1 X-3.231 Y-36.373 E0.0242
G1 X-3.169 Y-35.743 E0.0242
G1 X-2.985 Y-35.136 E0.0242
G1 X-2.687 Y-34.578 E0.0242
G1 X-2.285 Y-34.088 E0.0242
G1 X-1.795 Y-33.686 E0.0242
G1 X-1.236 Y-33.388 E0.0242
G1 X-0.630 Y-33.204 E0.0242
G1 X0.000 Y-33.142 E0.0242
G1 X0.630 Y-33.204 E0.0242
G1 X1.236 Y-33.388 E0.0242
G1 X1.795 Y-33.686 E0.0242
; feature solid layer
G1 X2.987 Y-32.793 F9000
G1 X2.858 Y-32.922 E0.0070 F2400
G1 X3.184 Y-33.189 E0.0161
G1 X3.209 Y-33.221 E0.0016
G1 X3.637 Y-32.793 E0.0231
G1 X4.288 Y-32.793 E0.0249
G1 X3.503 Y-33.578 E0.0425
G1 X3.743 Y-33.872 E0.0145
G1 X3.784 Y-33.947 E0.0033
G1 X4.938 Y-32.793 E0.0624
G1 X5.589 Y-32.793 E0.0249
G1 X4.011 Y-34.371 E0.0854
G1 X4.160 Y-34.650 E0.0121
G1 X4.211 Y-34.821 E0.0068
G1 X6.239 Y-32.793 E0.1097
G1 X6.890 Y-32.793 E0.0249
G1 X4.363 Y-35.320 E0.1367
G1 X4.416 Y-35.495 E0.0070
G1 X4.454 Y-35.880 E0.0148
G1 X7.540 Y-32.793 E0.1670
G1 X8.191 Y-32.793 E0.0249
G1 X4.490 Y-36.494 E0.2002
G1 X4.419 Y-37.215 E0.0277
G1 X8.841 Y-32.793 E0.2392
G1 X9.492 Y-32.793 E0.0249
G1 X4.126 Y-38.159 E0.2903
G1 E-1.9000 F1200
G1 Z0.700 F1200
G1 X9.495 Y-32.790 F9000
G1 Z0.200 F1200
G1 E1.9000 F1200
G1 X14.505 Y-27.780 E0.2710 F2400
G1 X14.505 Y-27.129 E0.0249
G1 X9.495 Y-32.139 E0.2710
G1 X9.495 Y-31.489 E0.0249
G1 X14.505 Y-26.479 E0.2710
G1 X14.505 Y-25.828 E0.0249
G1 X9.495 Y-30.838 E0.2710
G1 X9.495 Y-30.188 E0.0249
G1 X14.505 Y-25.178 E0.2710
G1 X14.505 Y-24.527 E0.0249
G1 X9.495 Y-29.537 E0.2710
G1 X9.495 Y-28.887 E0.0249
G1 X14.505 Y-23.877 E0.2710
G1 X14.505 Y-23.226 E0.0249
G1 X9.495 Y-28.236 E0.2710
G1 X9.495 Y-27.586 E0.0249
G1 X14.505 Y-22.576 E0.2710
G1 X14.505 Y-21.925 E0.0249
G1 X9.495 Y-26.935 E0.2710
G1 X9.495 Y-26.285 E0.0249
G1 X14.505 Y-21.275 E0.2710
G1 X14.505 Y-20.624 E0.0249
