; G-Code generated by Simplify3D(R) Version 4.1.2
; Apr 6, 2020 at 11:47:41 AM
; Settings Summary
;   processName,Process1
;   applyToModels,Xwing bracket,Xwing bracket(2)
;   profileName,MakerBot Replicator 2 HBP (modified)
;   profileVersion,2020-03-12 10:48:50
;   baseProfile,MakerBot Replicator 2(2)
;   printMaterial,PLA
;   printQuality,Medium
;   printExtruders,
;   extruderName,Primary Extruder
;   extruderToolheadNumber,0
;   extruderDiameter,0.4
;   extruderAutoWidth,0
;   extruderWidth,0.4
;   extrusionMultiplier,1
;   extruderUseRetract,1
;   extruderRetractionDistance,1.9
;   extruderExtraRestartDistance,0
;   extruderRetractionZLift,0.5
;   extruderRetractionSpeed,1200
;   extruderUseCoasting,0
;   extruderCoastingDistance,0.2
;   extruderUseWipe,0
;   extruderWipeDistance,5
;   primaryExtruder,0
;   layerHeight,0.2
;   topSolidLayers,3
;   bottomSolidLayers,3
;   perimeterOutlines,3
;   printPerimetersInsideOut,1
;   startPointOption,3
;   startPointOriginX,0
;   startPointOriginY,150
;   sequentialIslands,0
;   spiralVaseMode,0
;   firstLayerHeightPercentage,100
;   firstLayerWidthPercentage,115
;   firstLayerUnderspeed,0.5
;   useRaft,0
;   raftExtruder,0
;   raftTopLayers,2
;   raftBaseLayers,1
;   raftOffset,1
;   raftSeparationDistance,0.14
;   raftTopInfill,90
;   aboveRaftSpeedMultiplier,0.3
;   useSkirt,0
;   skirtExtruder,0
;   skirtLayers,1
;   skirtOutlines,5
;   skirtOffset,0
;   usePrimePillar,0
;   primePillarExtruder,999
;   primePillarWidth,12
;   primePillarLocation,7
;   primePillarSpeedMultiplier,1
;   useOozeShield,0
;   oozeShieldExtruder,999
;   oozeShieldOffset,2
;   oozeShieldOutlines,1
;   oozeShieldSidewallShape,1
;   oozeShieldSidewallAngle,30
;   oozeShieldSpeedMultiplier,1
;   infillExtruder,0
;   internalInfillPattern,Rectilinear
;   externalInfillPattern,Rectilinear
;   infillPercentage,15
;   outlineOverlapPercentage,25
;   infillExtrusionWidthPercentage,100
;   minInfillLength,5
;   infillLayerInterval,1
;   internalInfillAngles,45,-45
;   overlapInternalInfillAngles,0
;   externalInfillAngles,45,-45
;   generateSupport,1
;   supportExtruder,0
;   supportInfillPercentage,5
;   supportExtraInflation,0.5
;   supportBaseLayers,0
;   denseSupportExtruder,0
;   denseSupportLayers,2
;   denseSupportInfillPercentage,90
;   supportLayerInterval,1
;   supportHorizontalPartOffset,0.3
;   supportUpperSeparationLayers,1
;   supportLowerSeparationLayers,1
;   supportType,1
;   supportGridSpacing,2
;   maxOverhangAngle,45
;   supportAngles,45,-45
;   temperatureName,Primary Extruder,Heated Build Platform
;   temperatureNumber,0,0
;   temperatureSetpointCount,1,1
;   temperatureSetpointLayers,1,1
;   temperatureSetpointTemperatures,230,60
;   temperatureStabilizeAtStartup,1,1
;   temperatureHeatedBed,0,1
;   fanLayers,1,2
;   fanSpeeds,0,100
;   blipFanToFullPower,1
;   adjustSpeedForCooling,1
;   minSpeedLayerTime,15
;   minCoolingSpeedSlowdown,20
;   increaseFanForCooling,1
;   minFanLayerTime,45
;   maxCoolingFanSpeed,100
;   increaseFanForBridging,1
;   bridgingFanSpeed,100
;   use5D,1
;   relativeEdistances,1
;   allowEaxisZeroing,0
;   independentExtruderAxes,1
;   includeM10123,0
;   stickySupport,1
;   applyToolheadOffsets,0
;   gcodeXoffset,0
;   gcodeYoffset,0
;   gcodeZoffset,0
;   overrideMachineDefinition,1
;   machineTypeOverride,0
;   strokeXoverride,280
;   strokeYoverride,150
;   strokeZoverride,150
;   originOffsetXoverride,140
;   originOffsetYoverride,75
;   originOffsetZoverride,0
;   homeXdirOverride,1
;   homeYdirOverride,1
;   homeZdirOverride,-1
;   flipXoverride,1
;   flipYoverride,-1
;   flipZoverride,1
;   toolheadOffsets,0,0|0,0|0,0|0,0|0,0|0,0
;   overrideFirmwareConfiguration,1
;   firmwareTypeOverride,MakerBot/Sailfish Firmware
;   GPXconfigOverride,r2h
;   baudRateOverride,115200
;   overridePrinterModels,1
;   printerModelsOverride,MakerBot_Replicator2.stl
;   startingGcode,; **** Replicator 2 start.gcode ****,M73 P0 ; enable build progress,G162 X Y F3000 ; home XY maximum,G161 Z F1200 ; home Z minimum,G92 Z-5 ; set Z to -5,G1 Z0 ; move Z to 0,G161 Z F100 ; home Z slowly,M132 X Y Z A B ; recall home offsets,G1 X-145 Y-75 Z30 F9000 ; move to wait position off table,G130 X20 Y20 Z20 A20 B20 ; lower stepper Vrefs while heating,M126 S[fan_speed_pwm],M140 S[bed0_temperature] T0,M134 T0 ; stabilize bed temperature,M104 S[extruder0_temperature] T0,M133 T0 ; stabilize extruder temperature,G130 X127 Y127 Z40 A127 B127 ; default stepper Vrefs,G92 A0 ; zero extruder,G1 Z0.4 ; position nozzle,G1 E25 F300 ; purge nozzle,G1 X-140 Y-70 Z0.15 F1200 ; slow wipe,G1 X-135 Y-65 Z0.5 F1200 ; lift,G92 A0 ; zero extruder,M73 P1 ;@body (notify GPX body has started),; **** end of start.gcode ****
;   layerChangeGcode,
;   retractionGcode,
;   toolChangeGcode,
;   endingGcode,; **** Replicator 2 end.gcode ****,M73 P100 ; end build progress,G1 Z155 F1000 ; send Z axis to bottom of machine,M104 S0 T0 ; cool down extruder,M140 S0 T0 ; cool down HBP,M127 ; stop blower fan,G162 X Y F3000 ; home XY maximum,M18 ; disable stepper,M0 ; stop codes,M72 P1 ; play Ta-Da song,; **** end of end.gcode ****
;   exportFileFormat,gcode
;   celebration,0
;   celebrationSong,Random Song
;   postProcessing,
;   defaultSpeed,4800
;   outlineUnderspeed,0.5
;   solidInfillUnderspeed,1
;   supportUnderspeed,1
;   rapidXYspeed,9000
;   rapidZspeed,1200
;   minBridgingArea,50
;   bridgingExtraInflation,0
;   bridgingExtrusionMultiplier,1
;   bridgingSpeedMultiplier,0.8
;   useFixedBridgingAngle,0
;   fixedBridgingAngle,0
;   applyBridgingToPerimeters,0
;   filamentDiameters,1.75|1.75|1.75|1.75|1.75|1.75
;   filamentPricesPerKg,46|46|46|46|46|46
;   filamentDensities,1.25|1.25|1.25|1.25|1.25|1.25
;   useMinPrintHeight,0
;   minPrintHeight,0
;   useMaxPrintHeight,0
;   maxPrintHeight,4.84
;   useDiaphragm,0
;   diaphragmLayerInterval,20
;   robustSlicing,1
;   mergeAllIntoSolid,0
;   onlyRetractWhenCrossingOutline,0
;   retractBetweenLayers,0
;   useRetractionMinTravel,1
;   retractionMinTravel,7
;   retractWhileWiping,1
;   onlyWipeOutlines,1
;   avoidCrossingOutline,0
;   maxMovementDetourFactor,3
;   toolChangeRetractionDistance,12
;   toolChangeExtraRestartDistance,-0.5
;   toolChangeRetractionSpeed,600
;   externalThinWallType,0
;   internalThinWallType,0
;   thinWallAllowedOverlapPercentage,10
;   singleExtrusionMinLength,1
;   singleExtrusionMinPrintingWidthPercentage,50
;   singleExtrusionMaxPrintingWidthPercentage,200
;   singleExtrusionEndpointExtension,0.2
;   horizontalSizeCompensation,0
G90
M83
; **** Replicator 2 start.gcode ****
M73 P0 ; enable build progress
G162 X Y F3000 ; home XY maximum
G161 Z F1200 ; home Z minimum
G92 Z-5 ; set Z to -5
G1 Z0 ; move Z to 0
G161 Z F100 ; home Z slowly
M132 X Y Z A B ; recall home offsets
G1 X-145 Y-75 Z30 F9000 ; move to wait position off table
G130 X20 Y20 Z20 A20 B20 ; lower stepper Vrefs while heating
M126 S62
M140 S60 T0
M134 T0 ; stabilize bed temperature
M104 S230 T0
M133 T0 ; stabilize extruder temperature
G130 X127 Y127 Z40 A127 B127 ; default stepper Vrefs
G92 A0 ; zero extruder
G1 Z0.4 ; position nozzle
G1 E25 F300 ; purge nozzle
G1 X-140 Y-70 Z0.15 F1200 ; slow wipe
G1 X-135 Y-65 Z0.5 F1200 ; lift
G92 A0 ; zero extruder
M73 P1 ;@body (notify GPX body has started)
; **** end of start.gcode ****
; process Process1
; layer 1, Z = 0.200
M135 T0
G1 E-1.9000 F1200
; feature inner perimeter
; tool H0.200 W0.460
G1 Z0.500 F1200
G1 X-22.111 Y2.804 F9000
G1 Z0.200 F1200
G1 E1.9000 F1200
G1 X-22.733 Y2.804 E0.0238 F1800
G1 X-22.733 Y-6.788 E0.3669
G1 X-22.111 Y-6.788 E0.0238
G1 X-22.111 Y2.804 E0.3669
; feature outer perimeter
G1 X-21.651 Y3.264 F9000
G1 X-23.193 Y3.264 E0.0590 F1200
G1 X-23.193 Y-7.248 E0.4021
G1 X-21.651 Y-7.248 E0.0590
G1 X-21.651 Y3.264 E0.4021
G1 E-1.9000 F1200
; feature inner perimeter
G1 Z0.700 F1200
G1 X-22.111 Y24.032 F9000
G1 Z0.200 F1200
G1 E1.9000 F1200
G1 X-22.733 Y24.031 E0.0238 F1800
G1 X-22.733 Y6.384 E0.6750
G1 X-22.111 Y6.384 E0.0238
G1 X-22.111 Y24.032 E0.6750
; feature outer perimeter
G1 X-21.651 Y24.493 F9000
G1 X-23.193 Y24.491 E0.0590 F1200
G1 X-23.193 Y5.924 E0.7102
G1 X-21.651 Y5.924 E0.0590
G1 X-21.651 Y24.493 E0.7102
G1 E-1.9000 F1200
; feature inner perimeter
G1 Z0.700 F1200
G1 X26.685 Y7.021 F9000
G1 Z0.200 F1200
G1 E1.9000 F1200
G1 X26.685 Y-2.571 E0.3669 F1800
G1 X27.308 Y-2.571 E0.0238
G1 X27.308 Y7.021 E0.3669
G1 X26.685 Y7.021 E0.0238
; feature outer perimeter
G1 X26.225 Y7.481 F9000
G1 X26.225 Y-3.031 E0.4021 F1200
G1 X27.768 Y-3.031 E0.0590
G1 X27.768 Y7.481 E0.4021
G1 X26.225 Y7.481 E0.0590
G1 E-1.9000 F1200
; feature inner perimeter
G1 Z0.700 F1200
G1 X26.685 Y-6.151 F9000
G1 Z0.200 F1200
G1 E1.9000 F1200
G1 X26.685 Y-23.799 E0.6750 F1800
G1 X27.308 Y-23.798 E0.0238
G1 X27.308 Y-6.151 E0.6750
G1 X26.685 Y-6.151 E0.0238
; feature outer perimeter
G1 X26.225 Y-5.691 F9000
G1 X26.225 Y-24.259 E0.7102 F1200
G1 X27.768 Y-24.258 E0.0590
G1 X27.768 Y-5.691 E0.7102
G1 X26.225 Y-5.691 E0.0590
G1 E-1.9000 F1200
; feature support
G1 Z0.700 F1200
G1 X-7.943 Y-9.838 F9000
G1 Z0.200 F1200
G1 E1.9000 F1200
G1 X-17.537 Y-19.431 E0.5189 F2400
G1 X-17.537 Y-22.798 E0.1288
G1 X-9.589 Y-22.798 E0.3040
G1 X3.371 Y-9.838 E0.7010
G1 X14.684 Y-9.838 E0.4327
G1 X1.724 Y-22.798 E0.7010
G1 X13.038 Y-22.798 E0.4327
G1 X25.455 Y-10.380 E0.6717
G1 X25.455 Y-21.694 E0.4327
G1 X24.352 Y-22.798 E0.0597
G1 E-1.9000 F1200
G1 Z0.700 F1200
G1 X-20.329 Y23.031 F9000
G1 Z0.200 F1200
G1 E1.9000 F1200
G1 X-20.881 Y22.480 E0.0298 F2400
G1 X-20.881 Y11.166 E0.4327
G1 X-9.016 Y23.031 E0.6418
G1 X2.298 Y23.031 E0.4327
G1 X-10.662 Y10.071 E0.7010
G1 X0.652 Y10.071 E0.4327
G1 X13.612 Y23.031 E0.7010
G1 X22.111 Y23.031 E0.3251
G1 X22.111 Y20.217 E0.1076
G1 X11.965 Y10.071 E0.5488
G1 E-1.9000 F1200
G1 Z0.700 F1200
G1 X28.057 Y26.162 F9000
G1 Z0.200 F1200
G1 E1.9000 F1200
G1 X26.463 Y24.569 E0.0862 F2400
G1 X26.463 Y13.255 E0.4327
G1 X39.371 Y26.162 E0.6982
G1 X50.684 Y26.162 E0.4327
G1 X28.538 Y4.016 E1.1980
G1 X28.538 Y-3.801 E0.2990
G1 X26.463 Y-3.801 E0.0793
G1 X26.463 Y-4.921 E0.0428
G1 X28.538 Y-4.921 E0.0793
G1 X28.538 Y-7.298 E0.0909
G1 X61.998 Y26.162 E1.8100
G1 X67.423 Y26.162 E0.2075
G1 X67.423 Y20.274 E0.2252
G1 X28.538 Y-18.612 E2.1034
G1 X28.538 Y-25.027 E0.2454
G1 X26.463 Y-25.029 E0.0793
G1 X26.463 Y-26.798 E0.0676
G1 X31.665 Y-26.798 E0.1990
G1 X48.625 Y-9.838 E0.9174
G1 X50.463 Y-9.838 E0.0703
G1 X50.463 Y-8.000 E0.0703
G1 X67.423 Y8.960 E0.9174
G1 X67.423 Y-2.353 E0.4327
G1 X42.979 Y-26.798 E1.3222
G1 X54.293 Y-26.798 E0.4327
G1 X67.423 Y-13.667 E0.7103
G1 X67.423 Y-24.981 E0.4327
G1 X65.606 Y-26.798 E0.0983
G1 E-1.9000 F1200
G1 Z0.700 F1200
G1 X-61.584 Y27.031 F9000
G1 Z0.200 F1200
G1 E1.9000 F1200
G1 X-62.849 Y25.766 E0.0684 F2400
G1 X-62.849 Y14.453 E0.4327
G1 X-50.271 Y27.031 E0.6804
G1 X-38.957 Y27.031 E0.4327
G1 X-62.849 Y3.139 E1.2924
G1 X-62.849 Y-8.175 E0.4327
G1 X-45.889 Y8.785 E0.9174
G1 X-45.889 Y7.031 E0.0671
G1 X-42.849 Y7.031 E0.1163
G1 X-42.849 Y10.071 E0.1163
G1 X-44.603 Y10.071 E0.0671
G1 X-27.643 Y27.031 E0.9174
G1 X-21.889 Y27.031 E0.2201
G1 X-21.889 Y25.262 E0.0676
G1 X-23.963 Y25.260 E0.0793
G1 X-23.963 Y19.397 E0.2243
G1 X-62.849 Y-19.489 E2.1034
G1 X-62.849 Y-25.929 E0.2463
G1 X-57.976 Y-25.929 E0.1864
G1 X-23.963 Y8.083 E1.8398
G1 X-23.963 Y5.154 E0.1120
G1 X-21.889 Y5.154 E0.0793
G1 X-21.889 Y4.034 E0.0428
G1 X-23.963 Y4.034 E0.0793
G1 X-23.963 Y-3.230 E0.2779
G1 X-46.662 Y-25.929 E1.2278
G1 X-35.348 Y-25.929 E0.4327
G1 X-21.889 Y-12.470 E0.7280
G1 X-21.889 Y-23.783 E0.4327
G1 X-24.035 Y-25.929 E0.1161
G1 E-1.9000 F1200
; layer 2, Z = 0.400
M126 S255
; feature inner perimeter
; tool H0.200 W0.400
G1 Z0.700 F1200
G1 X-22.421 Y2.494 F9000
G1 Z0.400 F1200
G1 E1.9000 F1200
G1 X-22.421 Y-6.478 E0.2986 F3600
G1 X-22.421 Y2.494 E0.2984
G1 X-22.021 Y2.894 F9000
G1 X-22.823 Y2.894 E0.0267 F3600
G1 X-22.823 Y-6.878 E0.3250
G1 X-22.021 Y-6.878 E0.0267
G1 X-22.021 Y2.894 E0.3250
; feature outer perimeter
G1 X-21.621 Y3.294 F9000
G1 X-23.223 Y3.294 E0.0533 F2400
G1 X-23.223 Y-7.278 E0.3516
G1 X-21.621 Y-7.278 E0.0533
G1 X-21.621 Y3.294 E0.3516
G1 E-1.9000 F1200
; feature inner perimeter
G1 Z0.900 F1200
G1 X-22.421 Y23.720 F9000
G1 Z0.400 F1200
G1 E1.9000 F1200
G1 X-22.421 Y6.694 E0.5664 F3600
G1 X-22.421 Y23.720 E0.5663
G1 X-22.823 Y24.118 F9000
G1 X-22.823 Y6.294 E0.5928 F3600
G1 X-22.021 Y6.294 E0.0267
G1 X-22.021 Y24.121 E0.5929
G1 X-22.823 Y24.118 E0.0267
; feature outer perimeter
G1 X-23.223 Y24.517 F9000
G1 X-23.223 Y5.894 E0.6194 F2400
G1 X-21.621 Y5.894 E0.0533
G1 X-21.621 Y24.522 E0.6196
G1 X-23.223 Y24.517 E0.0533
G1 E-1.9000 F1200
; feature inner perimeter
G1 Z0.900 F1200
G1 X26.998 Y6.711 F9000
G1 Z0.400 F1200
G1 E1.9000 F1200
G1 X26.998 Y-2.261 E0.2986 F3600
G1 X26.998 Y6.711 E0.2984
G1 X27.398 Y7.111 F9000
G1 X26.595 Y7.111 E0.0267 F3600
G1 X26.595 Y-2.661 E0.3250
G1 X27.398 Y-2.661 E0.0267
G1 X27.398 Y7.111 E0.3250
; feature outer perimeter
G1 X27.798 Y7.511 F9000
G1 X26.195 Y7.511 E0.0533 F2400
G1 X26.195 Y-3.061 E0.3516
G1 X27.798 Y-3.061 E0.0533
G1 X27.798 Y7.511 E0.3516
G1 E-1.9000 F1200
; feature inner perimeter
G1 Z0.900 F1200
G1 X26.995 Y-6.461 F9000
G1 Z0.400 F1200
G1 E1.9000 F1200
G1 X26.998 Y-23.486 E0.5663 F3600
G1 X26.995 Y-6.461 E0.5663
G1 X26.595 Y-6.061 F9000
G1 X26.595 Y-23.887 E0.5929 F3600
G1 X27.398 Y-23.885 E0.0267
G1 X27.398 Y-6.061 E0.5928
G1 X26.595 Y-6.061 E0.0267
; feature outer perimeter
G1 X26.195 Y-5.661 F9000
G1 X26.195 Y-24.289 E0.6196 F2400
G1 X27.798 Y-24.283 E0.0533
G1 X27.798 Y-5.661 E0.6194
G1 X26.195 Y-5.661 E0.0533
; feature support
G1 X25.485 Y-11.768 F9000
G1 X23.525 Y-9.808 E0.0922 F4800
G1 X12.211 Y-9.808 E0.3763
G1 X25.231 Y-22.828 E0.6124
G1 X13.918 Y-22.828 E0.3763
G1 X0.898 Y-9.808 E0.6124
G1 X-10.416 Y-9.808 E0.3763
G1 X2.604 Y-22.828 E0.6124
G1 X-8.710 Y-22.828 E0.3763
G1 X-17.567 Y-13.970 E0.4166
G1 E-1.9000 F1200
G1 Z0.900 F1200
G1 X22.141 Y14.204 F9000
G1 Z0.400 F1200
G1 E1.9000 F1200
G1 X13.284 Y23.061 E0.4166 F4800
G1 X1.970 Y23.061 E0.3763
G1 X14.990 Y10.041 E0.6124
G1 X3.677 Y10.041 E0.3763
G1 X-9.343 Y23.061 E0.6124
G1 X-20.657 Y23.061 E0.3763
G1 X-7.637 Y10.041 E0.6124
G1 X-18.951 Y10.041 E0.3763
G1 X-20.911 Y12.001 E0.0922
G1 E-1.9000 F1200
G1 Z0.900 F1200
G1 X-22.824 Y25.228 F9000
G1 Z0.400 F1200
G1 E1.9000 F1200
G1 X-24.657 Y27.061 E0.0862 F4800
G1 X-35.971 Y27.061 E0.3763
G1 X-23.933 Y15.024 E0.5662
G1 X-23.933 Y5.184 E0.3272
G1 X-21.859 Y5.184 E0.0690
G1 X-21.859 Y4.004 E0.0392
G1 X-23.933 Y4.004 E0.0690
G1 X-23.933 Y3.710 E0.0098
G1 X-47.285 Y27.061 E1.0984
G1 X-58.598 Y27.061 E0.3763
G1 X-23.933 Y-7.604 E1.6305
G1 X-23.933 Y-7.988 E0.0128
G1 X-23.550 Y-7.988 E0.0128
G1 X-21.859 Y-9.678 E0.0795
G1 X-21.859 Y-20.992 E0.3763
G1 X-62.879 Y20.028 E1.9295
G1 X-62.879 Y8.714 E0.3763
G1 X-28.206 Y-25.959 E1.6309
G1 X-39.519 Y-25.959 E0.3763
G1 X-62.879 Y-2.599 E1.0988
G1 X-62.879 Y-13.913 E0.3763
G1 X-50.833 Y-25.959 E0.5666
G1 X-62.147 Y-25.959 E0.3763
G1 X-62.879 Y-25.227 E0.0344
G1 E-1.9000 F1200
G1 Z0.900 F1200
G1 X67.453 Y25.460 F9000
G1 Z0.400 F1200
G1 E1.9000 F1200
G1 X66.721 Y26.192 E0.0344 F4800
G1 X55.407 Y26.192 E0.3763
G1 X67.453 Y14.147 E0.5666
G1 X67.453 Y2.833 E0.3763
G1 X44.094 Y26.192 E1.0988
G1 X32.780 Y26.192 E0.3763
G1 X67.453 Y-8.481 E1.6309
G1 X67.453 Y-19.795 E0.3763
G1 X26.433 Y21.226 E1.9295
G1 X26.433 Y9.912 E0.3763
G1 X28.124 Y8.221 E0.0795
G1 X28.508 Y8.221 E0.0128
G1 X28.508 Y7.837 E0.0128
G1 X63.173 Y-26.828 E1.6305
G1 X51.859 Y-26.828 E0.3763
G1 X28.508 Y-3.476 E1.0984
G1 X28.508 Y-3.771 E0.0098
G1 X26.433 Y-3.771 E0.0690
G1 X26.433 Y-4.951 E0.0392
G1 X28.508 Y-4.951 E0.0690
G1 X28.508 Y-14.790 E0.3272
G1 X40.545 Y-26.828 E0.5662
G1 X29.231 Y-26.828 E0.3763
G1 X27.399 Y-24.995 E0.0862
G1 E-1.9000 F1200
; layer 3, Z = 0.600
; feature inner perimeter
G1 Z0.900 F1200
G1 X26.998 Y-6.461 F9000
G1 Z0.600 F1200
G1 E1.9000 F1200
G1 X26.998 Y-23.490 E0.5665 F3600
G1 X26.998 Y-6.461 E0.5664
G1 X27.398 Y-6.061 F9000
G1 X26.595 Y-6.061 E0.0267 F3600
G1 X26.595 Y-23.890 E0.5930
G1 X27.398 Y-23.890 E0.0267
