; G-Code generated by Simplify3D(R) Version 4.1.2
; Apr 2, 2020 at 12:43:24 PM
; Settings Summary
;   processName,Process1
;   applyToModels,RGB Bracket L,RGB Bracket R,RGB Bracket L(2),RGB Bracket R(2)
;   profileName,MakerBot Replicator 2 HBP (modified)
;   profileVersion,2020-03-12 10:48:50
;   baseProfile,MakerBot Replicator 2(2)
;   printMaterial,PLA
;   printQuality,Medium
;   printExtruders,
;   extruderName,Primary Extruder
;   extruderToolheadNumber,0
;   extruderDiameter,0.4
;   extruderAutoWidth,0
;   extruderWidth,0.4
;   extrusionMultiplier,1
;   extruderUseRetract,1
;   extruderRetractionDistance,1.9
;   extruderExtraRestartDistance,0
;   extruderRetractionZLift,0.5
;   extruderRetractionSpeed,1200
;   extruderUseCoasting,0
;   extruderCoastingDistance,0.2
;   extruderUseWipe,0
;   extruderWipeDistance,5
;   primaryExtruder,0
;   layerHeight,0.2
;   topSolidLayers,3
;   bottomSolidLayers,3
;   perimeterOutlines,2
;   printPerimetersInsideOut,1
;   startPointOption,3
;   startPointOriginX,0
;   startPointOriginY,150
;   sequentialIslands,0
;   spiralVaseMode,0
;   firstLayerHeightPercentage,100
;   firstLayerWidthPercentage,115
;   firstLayerUnderspeed,0.5
;   useRaft,0
;   raftExtruder,0
;   raftTopLayers,2
;   raftBaseLayers,1
;   raftOffset,1
;   raftSeparationDistance,0.14
;   raftTopInfill,90
;   aboveRaftSpeedMultiplier,0.3
;   useSkirt,0
;   skirtExtruder,0
;   skirtLayers,1
;   skirtOutlines,5
;   skirtOffset,0
;   usePrimePillar,0
;   primePillarExtruder,999
;   primePillarWidth,12
;   primePillarLocation,7
;   primePillarSpeedMultiplier,1
;   useOozeShield,0
;   oozeShieldExtruder,999
;   oozeShieldOffset,2
;   oozeShieldOutlines,1
;   oozeShieldSidewallShape,1
;   oozeShieldSidewallAngle,30
;   oozeShieldSpeedMultiplier,1
;   infillExtruder,0
;   internalInfillPattern,Rectilinear
;   externalInfillPattern,Rectilinear
;   infillPercentage,15
;   outlineOverlapPercentage,25
;   infillExtrusionWidthPercentage,100
;   minInfillLength,5
;   infillLayerInterval,1
;   internalInfillAngles,45,-45
;   overlapInternalInfillAngles,0
;   externalInfillAngles,45,-45
;   generateSupport,1
;   supportExtruder,0
;   supportInfillPercentage,30
;   supportExtraInflation,0.5
;   supportBaseLayers,0
;   denseSupportExtruder,0
;   denseSupportLayers,2
;   denseSupportInfillPercentage,90
;   supportLayerInterval,1
;   supportHorizontalPartOffset,0.3
;   supportUpperSeparationLayers,1
;   supportLowerSeparationLayers,1
;   supportType,1
;   supportGridSpacing,2
;   maxOverhangAngle,45
;   supportAngles,45,-45
;   temperatureName,Primary Extruder,Heated Build Platform
;   temperatureNumber,0,0
;   temperatureSetpointCount,1,1
;   temperatureSetpointLayers,1,1
;   temperatureSetpointTemperatures,230,60
;   temperatureStabilizeAtStartup,1,1
;   temperatureHeatedBed,0,1
;   fanLayers,1,2
;   fanSpeeds,0,100
;   blipFanToFullPower,1
;   adjustSpeedForCooling,1
;   minSpeedLayerTime,15
;   minCoolingSpeedSlowdown,20
;   increaseFanForCooling,1
;   minFanLayerTime,45
;   maxCoolingFanSpeed,100
;   increaseFanForBridging,1
;   bridgingFanSpeed,100
;   use5D,1
;   relativeEdistances,1
;   allowEaxisZeroing,0
;   independentExtruderAxes,1
;   includeM10123,0
;   stickySupport,1
;   applyToolheadOffsets,0
;   gcodeXoffset,0
;   gcodeYoffset,0
;   gcodeZoffset,0
;   overrideMachineDefinition,1
;   machineTypeOverride,0
;   strokeXoverride,280
;   strokeYoverride,150
;   strokeZoverride,150
;   originOffsetXoverride,140
;   originOffsetYoverride,75
;   originOffsetZoverride,0
;   homeXdirOverride,1
;   homeYdirOverride,1
;   homeZdirOverride,-1
;   flipXoverride,1
;   flipYoverride,-1
;   flipZoverride,1
;   toolheadOffsets,0,0|0,0|0,0|0,0|0,0|0,0
;   overrideFirmwareConfiguration,1
;   firmwareTypeOverride,MakerBot/Sailfish Firmware
;   GPXconfigOverride,r2h
;   baudRateOverride,115200
;   overridePrinterModels,1
;   printerModelsOverride,MakerBot_Replicator2.stl
;   startingGcode,; **** Replicator 2 start.gcode ****,M73 P0 ; enable build progress,G162 X Y F3000 ; home XY maximum,G161 Z F1200 ; home Z minimum,G92 Z-5 ; set Z to -5,G1 Z0 ; move Z to 0,G161 Z F100 ; home Z slowly,M132 X Y Z A B ; recall home offsets,G1 X-145 Y-75 Z30 F9000 ; move to wait position off table,G130 X20 Y20 Z20 A20 B20 ; lower stepper Vrefs while heating,M126 S[fan_speed_pwm],M140 S[bed0_temperature] T0,M134 T0 ; stabilize bed temperature,M104 S[extruder0_temperature] T0,M133 T0 ; stabilize extruder temperature,G130 X127 Y127 Z40 A127 B127 ; default stepper Vrefs,G92 A0 ; zero extruder,G1 Z0.4 ; position nozzle,G1 E25 F300 ; purge nozzle,G1 X-140 Y-70 Z0.15 F1200 ; slow wipe,G1 X-135 Y-65 Z0.5 F1200 ; lift,G92 A0 ; zero extruder,M73 P1 ;@body (notify GPX body has started),; **** end of start.gcode ****
;   layerChangeGcode,
;   retractionGcode,
;   toolChangeGcode,
;   endingGcode,; **** Replicator 2 end.gcode ****,M73 P100 ; end build progress,G1 Z155 F1000 ; send Z axis to bottom of machine,M104 S0 T0 ; cool down extruder,M140 S0 T0 ; cool down HBP,M127 ; stop blower fan,G162 X Y F3000 ; home XY maximum,M18 ; disable stepper,M0 ; stop codes,M72 P1 ; play Ta-Da song,; **** end of end.gcode ****
;   exportFileFormat,gcode
;   celebration,0
;   celebrationSong,Random Song
;   postProcessing,
;   defaultSpeed,4800
;   outlineUnderspeed,0.5
;   solidInfillUnderspeed,1
;   supportUnderspeed,1
;   rapidXYspeed,9000
;   rapidZspeed,1200
;   minBridgingArea,50
;   bridgingExtraInflation,0
;   bridgingExtrusionMultiplier,1
;   bridgingSpeedMultiplier,0.8
;   useFixedBridgingAngle,0
;   fixedBridgingAngle,0
;   applyBridgingToPerimeters,0
;   filamentDiameters,1.75|1.75|1.75|1.75|1.75|1.75
;   filamentPricesPerKg,46|46|46|46|46|46
;   filamentDensities,1.25|1.25|1.25|1.25|1.25|1.25
;   useMinPrintHeight,0
;   minPrintHeight,0
;   useMaxPrintHeight,0
;   maxPrintHeight,4.84
;   useDiaphragm,0
;   diaphragmLayerInterval,20
;   robustSlicing,1
;   mergeAllIntoSolid,0
;   onlyRetractWhenCrossingOutline,0
;   retractBetweenLayers,0
;   useRetractionMinTravel,1
;   retractionMinTravel,7
;   retractWhileWiping,1
;   onlyWipeOutlines,1
;   avoidCrossingOutline,0
;   maxMovementDetourFactor,3
;   toolChangeRetractionDistance,12
;   toolChangeExtraRestartDistance,-0.5
;   toolChangeRetractionSpeed,600
;   externalThinWallType,0
;   internalThinWallType,0
;   thinWallAllowedOverlapPercentage,10
;   singleExtrusionMinLength,1
;   singleExtrusionMinPrintingWidthPercentage,50
;   singleExtrusionMaxPrintingWidthPercentage,200
;   singleExtrusionEndpointExtension,0.2
;   horizontalSizeCompensation,0
G90
M83
; **** Replicator 2 start.gcode ****
M73 P0 ; enable build progress
G162 X Y F3000 ; home XY maximum
G161 Z F1200 ; home Z minimum
G92 Z-5 ; set Z to -5
G1 Z0 ; move Z to 0
G161 Z F100 ; home Z slowly
M132 X Y Z A B ; recall home offsets
G1 X-145 Y-75 Z30 F9000 ; move to wait position off table
G130 X20 Y20 Z20 A20 B20 ; lower stepper Vrefs while heating
M127
M140 S60 T0
M134 T0 ; stabilize bed temperature
M104 S230 T0
M133 T0 ; stabilize extruder temperature
G130 X127 Y127 Z40 A127 B127 ; default stepper Vrefs
G92 A0 ; zero extruder
G1 Z0.4 ; position nozzle
G1 E25 F300 ; purge nozzle
G1 X-140 Y-70 Z0.15 F1200 ; slow wipe
G1 X-135 Y-65 Z0.5 F1200 ; lift
G92 A0 ; zero extruder
M73 P1 ;@body (notify GPX body has started)
; **** end of start.gcode ****
; process Process1
; layer 1, Z = 0.200
M135 T0
G1 E-1.9000 F1200
; feature inner perimeter
; tool H0.200 W0.460
G1 Z0.500 F1200
G1 X-43.429 Y13.734 F9000
G1 Z0.200 F1200
G1 E1.9000 F1200
G1 X112.959 Y19.190 E5.9853 F1800
G1 X112.885 Y21.309 E0.0811
G1 X104.580 Y21.019 E0.3178
G1 X104.357 Y27.395 E0.2440
G1 X112.662 Y27.685 E0.3178
G1 X112.588 Y29.804 E0.0811
G1 X-108.477 Y22.091 E8.4607
G1 X-108.106 Y11.478 E0.4062
G1 X-60.879 Y13.125 E1.8075
G1 X-47.617 Y3.198 E0.6336
G1 X-43.067 Y3.357 E0.1742
G1 X-43.429 Y13.734 E0.3972
; feature outer perimeter
G1 X-42.953 Y13.291 F9000
G1 X113.434 Y18.747 E5.9853 F1200
G1 X113.328 Y21.785 E0.1163
G1 X105.024 Y21.495 E0.3178
G1 X104.833 Y26.952 E0.2088
G1 X113.138 Y27.242 E0.3178
G1 X113.032 Y30.280 E0.1163
G1 X-108.952 Y22.535 E8.4959
G1 X-108.550 Y11.002 E0.4414
G1 X-61.025 Y12.660 E1.8189
G1 X-47.763 Y2.733 E0.6336
G1 X-42.591 Y2.913 E0.1980
G1 X-42.953 Y13.291 E0.3972
G1 E-1.9000 F1200
; feature solid layer
G1 Z0.700 F1200
G1 X-43.436 Y4.053 F9000
G1 Z0.200 F1200
G1 E1.9000 F1200
G1 X-43.813 Y3.676 E0.0204 F2400
G1 X-44.487 Y3.652 E0.0258
G1 X-43.458 Y4.682 E0.0557
G1 X-43.480 Y5.310 E0.0241
G1 X-45.161 Y3.629 E0.0910
G1 X-45.835 Y3.605 E0.0258
G1 X-43.502 Y5.939 E0.1262
G1 X-43.524 Y6.568 E0.0241
G1 X-46.510 Y3.582 E0.1615
G1 X-47.184 Y3.558 E0.0258
G1 X-43.546 Y7.196 E0.1968
G1 X-43.568 Y7.825 E0.0241
G1 X-47.701 Y3.692 E0.2236
G1 X-48.073 Y3.970 E0.0178
G1 X-43.590 Y8.453 E0.2425
G1 X-43.611 Y9.082 E0.0241
G1 X-48.445 Y4.249 E0.2615
G1 X-48.817 Y4.527 E0.0178
G1 X-43.633 Y9.711 E0.2804
G1 X-43.655 Y10.339 E0.0241
G1 X-49.189 Y4.806 E0.2993
G1 X-49.561 Y5.084 E0.0178
G1 X-43.677 Y10.968 E0.3183
G1 X-43.699 Y11.597 E0.0241
G1 X-49.933 Y5.363 E0.3372
G1 X-50.305 Y5.641 E0.0178
G1 X-43.721 Y12.225 E0.3561
G1 X-43.743 Y12.854 E0.0241
G1 X-50.677 Y5.920 E0.3751
G1 X-51.049 Y6.198 E0.0178
G1 X-43.765 Y13.482 E0.3940
G1 X-43.785 Y14.067 E0.0224
G1 X-43.159 Y14.089 E0.0240
G1 X-32.863 Y24.384 E0.5569
G1 X-32.189 Y24.408 E0.0258
G1 X-42.484 Y14.112 E0.5569
G1 X-41.810 Y14.136 E0.0258
G1 X-31.515 Y24.431 E0.5569
G1 X-30.841 Y24.455 E0.0258
G1 X-41.136 Y14.159 E0.5569
G1 X-40.462 Y14.183 E0.0258
G1 X-30.167 Y24.478 E0.5569
G1 X-29.493 Y24.502 E0.0258
G1 X-39.788 Y14.206 E0.5569
G1 X-39.114 Y14.230 E0.0258
G1 X-28.819 Y24.525 E0.5569
G1 X-28.145 Y24.549 E0.0258
G1 X-38.440 Y14.253 E0.5569
G1 X-37.766 Y14.277 E0.0258
G1 X-27.471 Y24.572 E0.5569
G1 X-26.797 Y24.596 E0.0258
G1 X-37.092 Y14.301 E0.5569
G1 X-36.418 Y14.324 E0.0258
G1 X-26.123 Y24.619 E0.5569
G1 X-25.449 Y24.643 E0.0258
G1 X-35.744 Y14.348 E0.5569
G1 X-35.070 Y14.371 E0.0258
G1 X-24.775 Y24.666 E0.5569
G1 X-24.101 Y24.690 E0.0258
G1 X-34.396 Y14.395 E0.5569
G1 X-33.722 Y14.418 E0.0258
G1 X-23.426 Y24.713 E0.5569
G1 X-22.752 Y24.737 E0.0258
G1 X-33.048 Y14.442 E0.5569
G1 X-32.374 Y14.465 E0.0258
G1 X-22.078 Y24.760 E0.5569
G1 X-21.404 Y24.784 E0.0258
G1 X-31.700 Y14.489 E0.5569
G1 X-31.026 Y14.512 E0.0258
G1 X-20.730 Y24.807 E0.5569
G1 X-20.056 Y24.831 E0.0258
G1 X-30.351 Y14.536 E0.5569
G1 X-29.677 Y14.559 E0.0258
G1 X-19.382 Y24.854 E0.5569
G1 X-18.708 Y24.878 E0.0258
G1 X-29.003 Y14.583 E0.5569
G1 X-28.329 Y14.606 E0.0258
G1 X-18.034 Y24.901 E0.5569
G1 X-17.360 Y24.925 E0.0258
G1 X-27.655 Y14.630 E0.5569
G1 X-26.981 Y14.653 E0.0258
G1 X-16.686 Y24.948 E0.5569
G1 X-16.012 Y24.972 E0.0258
G1 X-26.307 Y14.677 E0.5569
G1 X-25.633 Y14.700 E0.0258
G1 X-15.338 Y24.996 E0.5569
G1 X-14.664 Y25.019 E0.0258
G1 X-24.959 Y14.724 E0.5569
G1 X-24.285 Y14.747 E0.0258
G1 X-13.990 Y25.043 E0.5569
G1 X-13.316 Y25.066 E0.0258
G1 X-23.611 Y14.771 E0.5569
G1 X-22.937 Y14.794 E0.0258
G1 X-12.642 Y25.090 E0.5569
G1 X-11.968 Y25.113 E0.0258
G1 X-22.263 Y14.818 E0.5569
G1 X-21.589 Y14.841 E0.0258
G1 X-11.294 Y25.137 E0.5569
G1 X-10.619 Y25.160 E0.0258
G1 X-20.915 Y14.865 E0.5569
G1 X-20.241 Y14.888 E0.0258
G1 X-9.945 Y25.184 E0.5569
G1 X-9.271 Y25.207 E0.0258
G1 X-19.567 Y14.912 E0.5569
G1 X-18.893 Y14.935 E0.0258
G1 X-8.597 Y25.231 E0.5569
G1 X-7.923 Y25.254 E0.0258
G1 X-18.218 Y14.959 E0.5569
G1 X-17.544 Y14.983 E0.0258
G1 X-7.249 Y25.278 E0.5569
G1 X-6.575 Y25.301 E0.0258
G1 X-16.870 Y15.006 E0.5569
G1 X-16.196 Y15.030 E0.0258
G1 X-5.901 Y25.325 E0.5569
G1 X-5.227 Y25.348 E0.0258
G1 X-15.522 Y15.053 E0.5569
G1 X-14.848 Y15.077 E0.0258
G1 X-4.553 Y25.372 E0.5569
G1 X-3.879 Y25.395 E0.0258
G1 X-14.174 Y15.100 E0.5569
G1 X-13.500 Y15.124 E0.0258
G1 X-3.205 Y25.419 E0.5569
G1 X-2.531 Y25.442 E0.0258
G1 X-12.826 Y15.147 E0.5569
G1 X-12.152 Y15.171 E0.0258
G1 X-1.857 Y25.466 E0.5569
G1 X-1.183 Y25.489 E0.0258
G1 X-11.478 Y15.194 E0.5569
G1 X-10.804 Y15.218 E0.0258
G1 X-0.509 Y25.513 E0.5569
G1 X0.165 Y25.536 E0.0258
G1 X-10.130 Y15.241 E0.5569
G1 X-9.456 Y15.265 E0.0258
G1 X0.839 Y25.560 E0.5569
G1 X1.514 Y25.583 E0.0258
G1 X-8.782 Y15.288 E0.5569
G1 X-8.108 Y15.312 E0.0258
G1 X2.188 Y25.607 E0.5569
G1 X2.862 Y25.630 E0.0258
G1 X-7.434 Y15.335 E0.5569
G1 X-6.760 Y15.359 E0.0258
G1 X3.536 Y25.654 E0.5569
G1 X4.210 Y25.678 E0.0258
G1 X-6.085 Y15.382 E0.5569
G1 X-5.411 Y15.406 E0.0258
G1 X4.884 Y25.701 E0.5569
G1 X5.558 Y25.725 E0.0258
G1 X-4.737 Y15.429 E0.5569
G1 X-4.063 Y15.453 E0.0258
G1 X6.232 Y25.748 E0.5569
G1 X6.906 Y25.772 E0.0258
G1 X-3.389 Y15.476 E0.5569
G1 X-2.715 Y15.500 E0.0258
G1 X7.580 Y25.795 E0.5569
G1 X8.254 Y25.819 E0.0258
G1 X-2.041 Y15.523 E0.5569
G1 X-1.367 Y15.547 E0.0258
G1 X8.928 Y25.842 E0.5569
G1 X9.602 Y25.866 E0.0258
G1 X-0.693 Y15.570 E0.5569
G1 X-0.019 Y15.594 E0.0258
G1 X10.276 Y25.889 E0.5569
G1 X10.950 Y25.913 E0.0258
G1 X0.655 Y15.617 E0.5569
G1 X1.329 Y15.641 E0.0258
G1 X11.624 Y25.936 E0.5569
G1 X12.298 Y25.960 E0.0258
G1 X2.003 Y15.664 E0.5569
G1 X2.677 Y15.688 E0.0258
G1 X12.972 Y25.983 E0.5569
G1 X13.647 Y26.007 E0.0258
G1 X3.351 Y15.712 E0.5569
G1 X4.025 Y15.735 E0.0258
G1 X14.321 Y26.030 E0.5569
G1 X14.995 Y26.054 E0.0258
G1 X4.699 Y15.759 E0.5569
G1 X5.373 Y15.782 E0.0258
G1 X15.669 Y26.077 E0.5569
G1 X16.343 Y26.101 E0.0258
G1 X6.048 Y15.806 E0.5569
G1 X6.722 Y15.829 E0.0258
G1 X17.017 Y26.124 E0.5569
G1 X17.691 Y26.148 E0.0258
G1 X7.396 Y15.853 E0.5569
G1 X8.070 Y15.876 E0.0258
G1 X18.365 Y26.171 E0.5569
G1 X19.039 Y26.195 E0.0258
G1 X8.744 Y15.900 E0.5569
G1 X9.418 Y15.923 E0.0258
G1 X19.713 Y26.218 E0.5569
G1 X20.387 Y26.242 E0.0258
G1 X10.092 Y15.947 E0.5569
G1 X10.766 Y15.970 E0.0258
G1 X21.061 Y26.265 E0.5569
G1 X21.735 Y26.289 E0.0258
G1 X11.440 Y15.994 E0.5569
G1 X12.114 Y16.017 E0.0258
G1 X22.409 Y26.312 E0.5569
G1 X23.083 Y26.336 E0.0258
G1 X12.788 Y16.041 E0.5569
G1 X13.462 Y16.064 E0.0258
G1 X23.757 Y26.360 E0.5569
G1 X24.431 Y26.383 E0.0258
G1 X14.136 Y16.088 E0.5569
G1 X14.810 Y16.111 E0.0258
G1 X25.105 Y26.407 E0.5569
G1 X25.780 Y26.430 E0.0258
G1 X15.484 Y16.135 E0.5569
G1 X16.158 Y16.158 E0.0258
G1 X26.454 Y26.454 E0.5569
G1 X27.128 Y26.477 E0.0258
G1 X16.832 Y16.182 E0.5569
G1 X17.506 Y16.205 E0.0258
G1 X27.802 Y26.501 E0.5569
G1 X28.476 Y26.524 E0.0258
G1 X18.181 Y16.229 E0.5569
G1 X18.855 Y16.252 E0.0258
G1 X29.150 Y26.548 E0.5569
G1 X29.824 Y26.571 E0.0258
G1 X19.529 Y16.276 E0.5569
G1 X20.203 Y16.299 E0.0258
G1 X30.498 Y26.595 E0.5569
G1 X31.172 Y26.618 E0.0258
G1 X20.877 Y16.323 E0.5569
G1 X21.551 Y16.346 E0.0258
G1 X31.846 Y26.642 E0.5569
G1 X32.520 Y26.665 E0.0258
G1 X22.225 Y16.370 E0.5569
G1 X22.899 Y16.394 E0.0258
G1 X33.194 Y26.689 E0.5569
G1 X33.868 Y26.712 E0.0258
G1 X23.573 Y16.417 E0.5569
G1 X24.247 Y16.441 E0.0258
G1 X34.542 Y26.736 E0.5569
G1 X35.216 Y26.759 E0.0258
G1 X24.921 Y16.464 E0.5569
G1 X25.595 Y16.488 E0.0258
G1 X35.890 Y26.783 E0.5569
G1 X36.564 Y26.806 E0.0258
G1 X26.269 Y16.511 E0.5569
G1 X26.943 Y16.535 E0.0258
G1 X37.238 Y26.830 E0.5569
G1 X37.913 Y26.853 E0.0258
G1 X27.617 Y16.558 E0.5569
G1 X28.291 Y16.582 E0.0258
G1 X38.587 Y26.877 E0.5569
G1 X39.261 Y26.900 E0.0258
G1 X28.965 Y16.605 E0.5569
G1 X29.639 Y16.629 E0.0258
G1 X39.935 Y26.924 E0.5569
G1 X40.609 Y26.947 E0.0258
G1 X30.314 Y16.652 E0.5569
G1 X30.988 Y16.676 E0.0258
G1 X41.283 Y26.971 E0.5569
G1 X41.957 Y26.994 E0.0258
G1 X31.662 Y16.699 E0.5569
G1 X32.336 Y16.723 E0.0258
G1 X42.631 Y27.018 E0.5569
G1 X43.305 Y27.042 E0.0258
G1 X33.010 Y16.746 E0.5569
G1 X33.684 Y16.770 E0.0258
G1 X43.979 Y27.065 E0.5569
G1 X44.653 Y27.089 E0.0258
G1 X34.358 Y16.793 E0.5569
G1 X35.032 Y16.817 E0.0258
G1 X45.327 Y27.112 E0.5569
G1 X46.001 Y27.136 E0.0258
G1 X35.706 Y16.840 E0.5569
G1 X36.380 Y16.864 E0.0258
G1 X46.675 Y27.159 E0.5569
G1 X47.349 Y27.183 E0.0258
G1 X37.054 Y16.887 E0.5569
G1 X37.728 Y16.911 E0.0258
G1 X48.023 Y27.206 E0.5569
G1 X48.697 Y27.230 E0.0258
G1 X38.402 Y16.934 E0.5569
G1 X39.076 Y16.958 E0.0258
G1 X49.371 Y27.253 E0.5569
G1 X50.046 Y27.277 E0.0258
G1 X39.750 Y16.981 E0.5569
