; G-Code generated by Simplify3D(R) Version 4.1.2
; Apr 2, 2020 at 12:44:01 PM
; Settings Summary
;   processName,Process1
;   applyToModels,Diffuser L,Diffuser R,Diffuser R(2),Diffuser L(2)
;   profileName,MakerBot Replicator 2 HBP (modified)
;   profileVersion,2020-03-12 10:48:50
;   baseProfile,MakerBot Replicator 2(2)
;   printMaterial,PLA
;   printQuality,Medium
;   printExtruders,
;   extruderName,Primary Extruder
;   extruderToolheadNumber,0
;   extruderDiameter,0.4
;   extruderAutoWidth,0
;   extruderWidth,0.4
;   extrusionMultiplier,1
;   extruderUseRetract,1
;   extruderRetractionDistance,1.9
;   extruderExtraRestartDistance,0
;   extruderRetractionZLift,0.5
;   extruderRetractionSpeed,1200
;   extruderUseCoasting,0
;   extruderCoastingDistance,0.2
;   extruderUseWipe,0
;   extruderWipeDistance,5
;   primaryExtruder,0
;   layerHeight,0.2
;   topSolidLayers,3
;   bottomSolidLayers,3
;   perimeterOutlines,2
;   printPerimetersInsideOut,1
;   startPointOption,3
;   startPointOriginX,0
;   startPointOriginY,150
;   sequentialIslands,0
;   spiralVaseMode,0
;   firstLayerHeightPercentage,100
;   firstLayerWidthPercentage,115
;   firstLayerUnderspeed,0.5
;   useRaft,0
;   raftExtruder,0
;   raftTopLayers,2
;   raftBaseLayers,1
;   raftOffset,1
;   raftSeparationDistance,0.14
;   raftTopInfill,90
;   aboveRaftSpeedMultiplier,0.3
;   useSkirt,0
;   skirtExtruder,0
;   skirtLayers,1
;   skirtOutlines,5
;   skirtOffset,0
;   usePrimePillar,0
;   primePillarExtruder,999
;   primePillarWidth,12
;   primePillarLocation,7
;   primePillarSpeedMultiplier,1
;   useOozeShield,0
;   oozeShieldExtruder,999
;   oozeShieldOffset,2
;   oozeShieldOutlines,1
;   oozeShieldSidewallShape,1
;   oozeShieldSidewallAngle,30
;   oozeShieldSpeedMultiplier,1
;   infillExtruder,0
;   internalInfillPattern,Rectilinear
;   externalInfillPattern,Rectilinear
;   infillPercentage,15
;   outlineOverlapPercentage,25
;   infillExtrusionWidthPercentage,100
;   minInfillLength,5
;   infillLayerInterval,1
;   internalInfillAngles,45,-45
;   overlapInternalInfillAngles,0
;   externalInfillAngles,45,-45
;   generateSupport,1
;   supportExtruder,0
;   supportInfillPercentage,30
;   supportExtraInflation,0.5
;   supportBaseLayers,0
;   denseSupportExtruder,0
;   denseSupportLayers,2
;   denseSupportInfillPercentage,90
;   supportLayerInterval,1
;   supportHorizontalPartOffset,0.3
;   supportUpperSeparationLayers,1
;   supportLowerSeparationLayers,1
;   supportType,1
;   supportGridSpacing,2
;   maxOverhangAngle,45
;   supportAngles,45,-45
;   temperatureName,Primary Extruder,Heated Build Platform
;   temperatureNumber,0,0
;   temperatureSetpointCount,1,1
;   temperatureSetpointLayers,1,1
;   temperatureSetpointTemperatures,230,60
;   temperatureStabilizeAtStartup,1,1
;   temperatureHeatedBed,0,1
;   fanLayers,1,2
;   fanSpeeds,0,100
;   blipFanToFullPower,1
;   adjustSpeedForCooling,1
;   minSpeedLayerTime,15
;   minCoolingSpeedSlowdown,20
;   increaseFanForCooling,1
;   minFanLayerTime,45
;   maxCoolingFanSpeed,100
;   increaseFanForBridging,1
;   bridgingFanSpeed,100
;   use5D,1
;   relativeEdistances,1
;   allowEaxisZeroing,0
;   independentExtruderAxes,1
;   includeM10123,0
;   stickySupport,1
;   applyToolheadOffsets,0
;   gcodeXoffset,0
;   gcodeYoffset,0
;   gcodeZoffset,0
;   overrideMachineDefinition,1
;   machineTypeOverride,0
;   strokeXoverride,280
;   strokeYoverride,150
;   strokeZoverride,150
;   originOffsetXoverride,140
;   originOffsetYoverride,75
;   originOffsetZoverride,0
;   homeXdirOverride,1
;   homeYdirOverride,1
;   homeZdirOverride,-1
;   flipXoverride,1
;   flipYoverride,-1
;   flipZoverride,1
;   toolheadOffsets,0,0|0,0|0,0|0,0|0,0|0,0
;   overrideFirmwareConfiguration,1
;   firmwareTypeOverride,MakerBot/Sailfish Firmware
;   GPXconfigOverride,r2h
;   baudRateOverride,115200
;   overridePrinterModels,1
;   printerModelsOverride,MakerBot_Replicator2.stl
;   startingGcode,; **** Replicator 2 start.gcode ****,M73 P0 ; enable build progress,G162 X Y F3000 ; home XY maximum,G161 Z F1200 ; home Z minimum,G92 Z-5 ; set Z to -5,G1 Z0 ; move Z to 0,G161 Z F100 ; home Z slowly,M132 X Y Z A B ; recall home offsets,G1 X-145 Y-75 Z30 F9000 ; move to wait position off table,G130 X20 Y20 Z20 A20 B20 ; lower stepper Vrefs while heating,M126 S[fan_speed_pwm],M140 S[bed0_temperature] T0,M134 T0 ; stabilize bed temperature,M104 S[extruder0_temperature] T0,M133 T0 ; stabilize extruder temperature,G130 X127 Y127 Z40 A127 B127 ; default stepper Vrefs,G92 A0 ; zero extruder,G1 Z0.4 ; position nozzle,G1 E25 F300 ; purge nozzle,G1 X-140 Y-70 Z0.15 F1200 ; slow wipe,G1 X-135 Y-65 Z0.5 F1200 ; lift,G92 A0 ; zero extruder,M73 P1 ;@body (notify GPX body has started),; **** end of start.gcode ****
;   layerChangeGcode,
;   retractionGcode,
;   toolChangeGcode,
;   endingGcode,; **** Replicator 2 end.gcode ****,M73 P100 ; end build progress,G1 Z155 F1000 ; send Z axis to bottom of machine,M104 S0 T0 ; cool down extruder,M140 S0 T0 ; cool down HBP,M127 ; stop blower fan,G162 X Y F3000 ; home XY maximum,M18 ; disable stepper,M0 ; stop codes,M72 P1 ; play Ta-Da song,; **** end of end.gcode ****
;   exportFileFormat,gcode
;   celebration,0
;   celebrationSong,Random Song
;   postProcessing,
;   defaultSpeed,4800
;   outlineUnderspeed,0.5
;   solidInfillUnderspeed,1
;   supportUnderspeed,1
;   rapidXYspeed,9000
;   rapidZspeed,1200
;   minBridgingArea,50
;   bridgingExtraInflation,0
;   bridgingExtrusionMultiplier,1
;   bridgingSpeedMultiplier,0.8
;   useFixedBridgingAngle,0
;   fixedBridgingAngle,0
;   applyBridgingToPerimeters,0
;   filamentDiameters,1.75|1.75|1.75|1.75|1.75|1.75
;   filamentPricesPerKg,46|46|46|46|46|46
;   filamentDensities,1.25|1.25|1.25|1.25|1.25|1.25
;   useMinPrintHeight,0
;   minPrintHeight,0
;   useMaxPrintHeight,0
;   maxPrintHeight,4.84
;   useDiaphragm,0
;   diaphragmLayerInterval,20
;   robustSlicing,1
;   mergeAllIntoSolid,0
;   onlyRetractWhenCrossingOutline,0
;   retractBetweenLayers,0
;   useRetractionMinTravel,1
;   retractionMinTravel,7
;   retractWhileWiping,1
;   onlyWipeOutlines,1
;   avoidCrossingOutline,0
;   maxMovementDetourFactor,3
;   toolChangeRetractionDistance,12
;   toolChangeExtraRestartDistance,-0.5
;   toolChangeRetractionSpeed,600
;   externalThinWallType,0
;   internalThinWallType,0
;   thinWallAllowedOverlapPercentage,10
;   singleExtrusionMinLength,1
;   singleExtrusionMinPrintingWidthPercentage,50
;   singleExtrusionMaxPrintingWidthPercentage,200
;   singleExtrusionEndpointExtension,0.2
;   horizontalSizeCompensation,0
G90
M83
; **** Replicator 2 start.gcode ****
M73 P0 ; enable build progress
G162 X Y F3000 ; home XY maximum
G161 Z F1200 ; home Z minimum
G92 Z-5 ; set Z to -5
G1 Z0 ; move Z to 0
G161 Z F100 ; home Z slowly
M132 X Y Z A B ; recall home offsets
G1 X-145 Y-75 Z30 F9000 ; move to wait position off table
G130 X20 Y20 Z20 A20 B20 ; lower stepper Vrefs while heating
M127
M140 S60 T0
M134 T0 ; stabilize bed temperature
M104 S230 T0
M133 T0 ; stabilize extruder temperature
G130 X127 Y127 Z40 A127 B127 ; default stepper Vrefs
G92 A0 ; zero extruder
G1 Z0.4 ; position nozzle
G1 E25 F300 ; purge nozzle
G1 X-140 Y-70 Z0.15 F1200 ; slow wipe
G1 X-135 Y-65 Z0.5 F1200 ; lift
G92 A0 ; zero extruder
M73 P1 ;@body (notify GPX body has started)
; **** end of start.gcode ****
; process Process1
; layer 1, Z = 0.200
M135 T0
G1 E-1.9000 F1200
; feature inner perimeter
; tool H0.200 W0.460
G1 Z0.500 F1200
G1 X-112.520 Y13.810 F9000
G1 Z0.200 F1200
G1 E1.9000 F1200
G1 X-112.520 Y3.190 E0.4062 F1800
G1 X112.551 Y3.190 E8.6088
G1 X112.551 Y13.810 E0.4062
G1 X-112.520 Y13.810 E8.6088
; feature outer perimeter
G1 X-112.980 Y14.270 F9000
G1 X-112.980 Y2.730 E0.4414 F1200
G1 X113.011 Y2.730 E8.6440
G1 X113.011 Y14.270 E0.4414
G1 X-112.980 Y14.270 E8.6440
; feature solid layer
G1 X-112.089 Y13.465 F9000
G1 X-112.175 Y13.379 E0.0047 F2400
G1 X-112.175 Y12.728 E0.0249
G1 X-111.438 Y13.465 E0.0398
G1 X-110.788 Y13.465 E0.0249
G1 X-112.175 Y12.078 E0.0750
G1 X-112.175 Y11.427 E0.0249
G1 X-110.137 Y13.465 E0.1102
G1 X-109.487 Y13.465 E0.0249
G1 X-112.175 Y10.777 E0.1454
G1 X-112.175 Y10.126 E0.0249
G1 X-108.836 Y13.465 E0.1806
G1 X-108.186 Y13.465 E0.0249
G1 X-112.175 Y9.476 E0.2158
G1 X-112.175 Y8.825 E0.0249
G1 X-107.535 Y13.465 E0.2510
G1 X-106.885 Y13.465 E0.0249
G1 X-112.175 Y8.175 E0.2862
G1 X-112.175 Y7.524 E0.0249
G1 X-106.234 Y13.465 E0.3214
G1 X-105.583 Y13.465 E0.0249
G1 X-112.175 Y6.873 E0.3566
G1 X-112.175 Y6.223 E0.0249
G1 X-104.933 Y13.465 E0.3917
G1 X-104.282 Y13.465 E0.0249
G1 X-112.175 Y5.572 E0.4269
G1 X-112.175 Y4.922 E0.0249
G1 X-103.632 Y13.465 E0.4621
G1 X-102.981 Y13.465 E0.0249
G1 X-112.175 Y4.271 E0.4973
G1 X-112.175 Y3.621 E0.0249
G1 X-102.331 Y13.465 E0.5325
G1 X-101.680 Y13.465 E0.0249
G1 X-111.610 Y3.535 E0.5371
G1 X-110.960 Y3.535 E0.0249
G1 X-101.030 Y13.465 E0.5371
G1 X-100.379 Y13.465 E0.0249
G1 X-110.309 Y3.535 E0.5371
G1 X-109.659 Y3.535 E0.0249
G1 X-99.729 Y13.465 E0.5371
G1 X-99.078 Y13.465 E0.0249
G1 X-109.008 Y3.535 E0.5371
G1 X-108.358 Y3.535 E0.0249
G1 X-98.428 Y13.465 E0.5371
G1 X-97.777 Y13.465 E0.0249
G1 X-107.707 Y3.535 E0.5371
G1 X-107.056 Y3.535 E0.0249
G1 X-97.126 Y13.465 E0.5371
G1 X-96.476 Y13.465 E0.0249
G1 X-106.406 Y3.535 E0.5371
G1 X-105.755 Y3.535 E0.0249
G1 X-95.825 Y13.465 E0.5371
G1 X-95.175 Y13.465 E0.0249
G1 X-105.105 Y3.535 E0.5371
G1 X-104.454 Y3.535 E0.0249
G1 X-94.524 Y13.465 E0.5371
G1 X-93.874 Y13.465 E0.0249
G1 X-103.804 Y3.535 E0.5371
G1 X-103.153 Y3.535 E0.0249
G1 X-93.223 Y13.465 E0.5371
G1 X-92.573 Y13.465 E0.0249
G1 X-102.503 Y3.535 E0.5371
G1 X-101.852 Y3.535 E0.0249
G1 X-91.922 Y13.465 E0.5371
G1 X-91.272 Y13.465 E0.0249
G1 X-101.202 Y3.535 E0.5371
G1 X-100.551 Y3.535 E0.0249
G1 X-90.621 Y13.465 E0.5371
G1 X-89.971 Y13.465 E0.0249
G1 X-99.901 Y3.535 E0.5371
G1 X-99.250 Y3.535 E0.0249
G1 X-89.320 Y13.465 E0.5371
G1 X-88.670 Y13.465 E0.0249
G1 X-98.600 Y3.535 E0.5371
G1 X-97.949 Y3.535 E0.0249
G1 X-88.019 Y13.465 E0.5371
G1 X-87.368 Y13.465 E0.0249
G1 X-97.298 Y3.535 E0.5371
G1 X-96.648 Y3.535 E0.0249
G1 X-86.718 Y13.465 E0.5371
G1 X-86.067 Y13.465 E0.0249
G1 X-95.997 Y3.535 E0.5371
G1 X-95.347 Y3.535 E0.0249
G1 X-85.417 Y13.465 E0.5371
G1 X-84.766 Y13.465 E0.0249
G1 X-94.696 Y3.535 E0.5371
G1 X-94.046 Y3.535 E0.0249
G1 X-84.116 Y13.465 E0.5371
G1 X-83.465 Y13.465 E0.0249
G1 X-93.395 Y3.535 E0.5371
G1 X-92.745 Y3.535 E0.0249
G1 X-82.815 Y13.465 E0.5371
G1 X-82.164 Y13.465 E0.0249
G1 X-92.094 Y3.535 E0.5371
G1 X-91.444 Y3.535 E0.0249
G1 X-81.514 Y13.465 E0.5371
G1 X-80.863 Y13.465 E0.0249
G1 X-90.793 Y3.535 E0.5371
G1 X-90.143 Y3.535 E0.0249
G1 X-80.213 Y13.465 E0.5371
G1 X-79.562 Y13.465 E0.0249
G1 X-89.492 Y3.535 E0.5371
G1 X-88.841 Y3.535 E0.0249
G1 X-78.911 Y13.465 E0.5371
G1 X-78.261 Y13.465 E0.0249
G1 X-88.191 Y3.535 E0.5371
G1 X-87.540 Y3.535 E0.0249
G1 X-77.610 Y13.465 E0.5371
G1 X-76.960 Y13.465 E0.0249
G1 X-86.890 Y3.535 E0.5371
G1 X-86.239 Y3.535 E0.0249
G1 X-76.309 Y13.465 E0.5371
G1 X-75.659 Y13.465 E0.0249
G1 X-85.589 Y3.535 E0.5371
G1 X-84.938 Y3.535 E0.0249
G1 X-75.008 Y13.465 E0.5371
G1 X-74.358 Y13.465 E0.0249
G1 X-84.288 Y3.535 E0.5371
G1 X-83.637 Y3.535 E0.0249
G1 X-73.707 Y13.465 E0.5371
G1 X-73.057 Y13.465 E0.0249
G1 X-82.987 Y3.535 E0.5371
G1 X-82.336 Y3.535 E0.0249
G1 X-72.406 Y13.465 E0.5371
G1 X-71.756 Y13.465 E0.0249
G1 X-81.686 Y3.535 E0.5371
G1 X-81.035 Y3.535 E0.0249
G1 X-71.105 Y13.465 E0.5371
G1 X-70.454 Y13.465 E0.0249
G1 X-80.384 Y3.535 E0.5371
G1 X-79.734 Y3.535 E0.0249
G1 X-69.804 Y13.465 E0.5371
G1 X-69.153 Y13.465 E0.0249
G1 X-79.083 Y3.535 E0.5371
G1 X-78.433 Y3.535 E0.0249
G1 X-68.503 Y13.465 E0.5371
G1 X-67.852 Y13.465 E0.0249
G1 X-77.782 Y3.535 E0.5371
G1 X-77.132 Y3.535 E0.0249
G1 X-67.202 Y13.465 E0.5371
G1 X-66.551 Y13.465 E0.0249
G1 X-76.481 Y3.535 E0.5371
G1 X-75.831 Y3.535 E0.0249
G1 X-65.901 Y13.465 E0.5371
G1 X-65.250 Y13.465 E0.0249
G1 X-75.180 Y3.535 E0.5371
G1 X-74.530 Y3.535 E0.0249
G1 X-64.600 Y13.465 E0.5371
G1 X-63.949 Y13.465 E0.0249
G1 X-73.879 Y3.535 E0.5371
G1 X-73.229 Y3.535 E0.0249
G1 X-63.299 Y13.465 E0.5371
G1 X-62.648 Y13.465 E0.0249
G1 X-72.578 Y3.535 E0.5371
G1 X-71.927 Y3.535 E0.0249
G1 X-61.997 Y13.465 E0.5371
G1 X-61.347 Y13.465 E0.0249
G1 X-71.277 Y3.535 E0.5371
G1 X-70.626 Y3.535 E0.0249
G1 X-60.696 Y13.465 E0.5371
G1 X-60.046 Y13.465 E0.0249
G1 X-69.976 Y3.535 E0.5371
G1 X-69.325 Y3.535 E0.0249
G1 X-59.395 Y13.465 E0.5371
G1 X-58.745 Y13.465 E0.0249
G1 X-68.675 Y3.535 E0.5371
G1 X-68.024 Y3.535 E0.0249
G1 X-58.094 Y13.465 E0.5371
G1 X-57.444 Y13.465 E0.0249
G1 X-67.374 Y3.535 E0.5371
G1 X-66.723 Y3.535 E0.0249
G1 X-56.793 Y13.465 E0.5371
G1 X-56.143 Y13.465 E0.0249
G1 X-66.073 Y3.535 E0.5371
G1 X-65.422 Y3.535 E0.0249
G1 X-55.492 Y13.465 E0.5371
G1 X-54.842 Y13.465 E0.0249
G1 X-64.772 Y3.535 E0.5371
G1 X-64.121 Y3.535 E0.0249
G1 X-54.191 Y13.465 E0.5371
G1 X-53.540 Y13.465 E0.0249
G1 X-63.470 Y3.535 E0.5371
G1 X-62.820 Y3.535 E0.0249
G1 X-52.890 Y13.465 E0.5371
G1 X-52.239 Y13.465 E0.0249
G1 X-62.169 Y3.535 E0.5371
G1 X-61.519 Y3.535 E0.0249
G1 X-51.589 Y13.465 E0.5371
G1 X-50.938 Y13.465 E0.0249
G1 X-60.868 Y3.535 E0.5371
G1 X-60.218 Y3.535 E0.0249
G1 X-50.288 Y13.465 E0.5371
G1 X-49.637 Y13.465 E0.0249
G1 X-59.567 Y3.535 E0.5371
G1 X-58.917 Y3.535 E0.0249
G1 X-48.987 Y13.465 E0.5371
G1 X-48.336 Y13.465 E0.0249
G1 X-58.266 Y3.535 E0.5371
G1 X-57.616 Y3.535 E0.0249
G1 X-47.686 Y13.465 E0.5371
G1 X-47.035 Y13.465 E0.0249
G1 X-56.965 Y3.535 E0.5371
G1 X-56.315 Y3.535 E0.0249
G1 X-46.385 Y13.465 E0.5371
G1 X-45.734 Y13.465 E0.0249
G1 X-55.664 Y3.535 E0.5371
G1 X-55.013 Y3.535 E0.0249
G1 X-45.083 Y13.465 E0.5371
G1 X-44.433 Y13.465 E0.0249
G1 X-54.363 Y3.535 E0.5371
G1 X-53.712 Y3.535 E0.0249
G1 X-43.782 Y13.465 E0.5371
G1 X-43.132 Y13.465 E0.0249
G1 X-53.062 Y3.535 E0.5371
G1 X-52.411 Y3.535 E0.0249
G1 X-42.481 Y13.465 E0.5371
G1 X-41.831 Y13.465 E0.0249
G1 X-51.761 Y3.535 E0.5371
G1 X-51.110 Y3.535 E0.0249
G1 X-41.180 Y13.465 E0.5371
G1 X-40.530 Y13.465 E0.0249
G1 X-50.460 Y3.535 E0.5371
G1 X-49.809 Y3.535 E0.0249
G1 X-39.879 Y13.465 E0.5371
G1 X-39.229 Y13.465 E0.0249
G1 X-49.159 Y3.535 E0.5371
G1 X-48.508 Y3.535 E0.0249
G1 X-38.578 Y13.465 E0.5371
G1 X-37.928 Y13.465 E0.0249
G1 X-47.858 Y3.535 E0.5371
G1 X-47.207 Y3.535 E0.0249
G1 X-37.277 Y13.465 E0.5371
G1 X-36.626 Y13.465 E0.0249
G1 X-46.556 Y3.535 E0.5371
G1 X-45.906 Y3.535 E0.0249
G1 X-35.976 Y13.465 E0.5371
G1 X-35.325 Y13.465 E0.0249
G1 X-45.255 Y3.535 E0.5371
G1 X-44.605 Y3.535 E0.0249
G1 X-34.675 Y13.465 E0.5371
G1 X-34.024 Y13.465 E0.0249
G1 X-43.954 Y3.535 E0.5371
G1 X-43.304 Y3.535 E0.0249
G1 X-33.374 Y13.465 E0.5371
G1 X-32.723 Y13.465 E0.0249
G1 X-42.653 Y3.535 E0.5371
G1 X-42.003 Y3.535 E0.0249
G1 X-32.073 Y13.465 E0.5371
G1 X-31.422 Y13.465 E0.0249
G1 X-41.352 Y3.535 E0.5371
G1 X-40.702 Y3.535 E0.0249
G1 X-30.772 Y13.465 E0.5371
G1 X-30.121 Y13.465 E0.0249
G1 X-40.051 Y3.535 E0.5371
G1 X-39.401 Y3.535 E0.0249
G1 X-29.471 Y13.465 E0.5371
G1 X-28.820 Y13.465 E0.0249
G1 X-38.750 Y3.535 E0.5371
G1 X-38.099 Y3.535 E0.0249
G1 X-28.169 Y13.465 E0.5371
G1 X-27.519 Y13.465 E0.0249
G1 X-37.449 Y3.535 E0.5371
G1 X-36.798 Y3.535 E0.0249
G1 X-26.868 Y13.465 E0.5371
G1 X-26.218 Y13.465 E0.0249
G1 X-36.148 Y3.535 E0.5371
G1 X-35.497 Y3.535 E0.0249
G1 X-25.567 Y13.465 E0.5371
G1 X-24.917 Y13.465 E0.0249
G1 X-34.847 Y3.535 E0.5371
G1 X-34.196 Y3.535 E0.0249
G1 X-24.266 Y13.465 E0.5371
G1 X-23.616 Y13.465 E0.0249
G1 X-33.546 Y3.535 E0.5371
G1 X-32.895 Y3.535 E0.0249
G1 X-22.965 Y13.465 E0.5371
G1 X-22.315 Y13.465 E0.0249
G1 X-32.245 Y3.535 E0.5371
G1 X-31.594 Y3.535 E0.0249
G1 X-21.664 Y13.465 E0.5371
G1 X-21.014 Y13.465 E0.0249
G1 X-30.944 Y3.535 E0.5371
G1 X-30.293 Y3.535 E0.0249
G1 X-20.363 Y13.465 E0.5371
G1 X-19.712 Y13.465 E0.0249
G1 X-29.642 Y3.535 E0.5371
G1 X-28.992 Y3.535 E0.0249
G1 X-19.062 Y13.465 E0.5371
G1 X-18.411 Y13.465 E0.0249
G1 X-28.341 Y3.535 E0.5371
G1 X-27.691 Y3.535 E0.0249
G1 X-17.761 Y13.465 E0.5371
G1 X-17.110 Y13.465 E0.0249
G1 X-27.040 Y3.535 E0.5371
G1 X-26.390 Y3.535 E0.0249
