; G-Code generated by Simplify3D(R) Version 4.1.2
; Apr 6, 2020 at 12:46:31 PM
; Settings Summary
;   processName,Process1
;   applyToModels,GripV1R2
;   profileName,MakerBot Replicator 2 HBP (modified)
;   profileVersion,2019-08-23 15:32:08
;   baseProfile,MakerBot Replicator 2(2)
;   printMaterial,PLA
;   printQuality,Medium
;   printExtruders,
;   extruderName,Primary Extruder
;   extruderToolheadNumber,0
;   extruderDiameter,0.4
;   extruderAutoWidth,0
;   extruderWidth,0.4
;   extrusionMultiplier,1
;   extruderUseRetract,1
;   extruderRetractionDistance,1
;   extruderExtraRestartDistance,0
;   extruderRetractionZLift,0.5
;   extruderRetractionSpeed,1200
;   extruderUseCoasting,0
;   extruderCoastingDistance,0.2
;   extruderUseWipe,0
;   extruderWipeDistance,5
;   primaryExtruder,0
;   layerHeight,0.2
;   topSolidLayers,3
;   bottomSolidLayers,3
;   perimeterOutlines,2
;   printPerimetersInsideOut,1
;   startPointOption,3
;   startPointOriginX,0
;   startPointOriginY,150
;   sequentialIslands,0
;   spiralVaseMode,0
;   firstLayerHeightPercentage,100
;   firstLayerWidthPercentage,100
;   firstLayerUnderspeed,0.5
;   useRaft,0
;   raftExtruder,0
;   raftTopLayers,2
;   raftBaseLayers,1
;   raftOffset,1
;   raftSeparationDistance,0.14
;   raftTopInfill,90
;   aboveRaftSpeedMultiplier,0.3
;   useSkirt,0
;   skirtExtruder,0
;   skirtLayers,1
;   skirtOutlines,5
;   skirtOffset,0
;   usePrimePillar,0
;   primePillarExtruder,999
;   primePillarWidth,12
;   primePillarLocation,7
;   primePillarSpeedMultiplier,1
;   useOozeShield,0
;   oozeShieldExtruder,999
;   oozeShieldOffset,2
;   oozeShieldOutlines,1
;   oozeShieldSidewallShape,1
;   oozeShieldSidewallAngle,30
;   oozeShieldSpeedMultiplier,1
;   infillExtruder,0
;   internalInfillPattern,Rectilinear
;   externalInfillPattern,Rectilinear
;   infillPercentage,15
;   outlineOverlapPercentage,20
;   infillExtrusionWidthPercentage,100
;   minInfillLength,5
;   infillLayerInterval,1
;   internalInfillAngles,45,-45
;   overlapInternalInfillAngles,0
;   externalInfillAngles,45,-45
;   generateSupport,1
;   supportExtruder,0
;   supportInfillPercentage,10
;   supportExtraInflation,0.5
;   supportBaseLayers,0
;   denseSupportExtruder,0
;   denseSupportLayers,2
;   denseSupportInfillPercentage,70
;   supportLayerInterval,1
;   supportHorizontalPartOffset,0.3
;   supportUpperSeparationLayers,1
;   supportLowerSeparationLayers,1
;   supportType,0
;   supportGridSpacing,2
;   maxOverhangAngle,45
;   supportAngles,0
;   temperatureName,Primary Extruder,Heated Build Platform
;   temperatureNumber,0,0
;   temperatureSetpointCount,1,1
;   temperatureSetpointLayers,1,1
;   temperatureSetpointTemperatures,230,60
;   temperatureStabilizeAtStartup,1,1
;   temperatureHeatedBed,0,1
;   fanLayers,1,2
;   fanSpeeds,0,100
;   blipFanToFullPower,1
;   adjustSpeedForCooling,1
;   minSpeedLayerTime,15
;   minCoolingSpeedSlowdown,20
;   increaseFanForCooling,1
;   minFanLayerTime,45
;   maxCoolingFanSpeed,100
;   increaseFanForBridging,1
;   bridgingFanSpeed,100
;   use5D,1
;   relativeEdistances,1
;   allowEaxisZeroing,0
;   independentExtruderAxes,1
;   includeM10123,0
;   stickySupport,1
;   applyToolheadOffsets,0
;   gcodeXoffset,0
;   gcodeYoffset,0
;   gcodeZoffset,0
;   overrideMachineDefinition,1
;   machineTypeOverride,0
;   strokeXoverride,280
;   strokeYoverride,150
;   strokeZoverride,150
;   originOffsetXoverride,140
;   originOffsetYoverride,75
;   originOffsetZoverride,0
;   homeXdirOverride,1
;   homeYdirOverride,1
;   homeZdirOverride,-1
;   flipXoverride,1
;   flipYoverride,-1
;   flipZoverride,1
;   toolheadOffsets,0,0|0,0|0,0|0,0|0,0|0,0
;   overrideFirmwareConfiguration,1
;   firmwareTypeOverride,MakerBot/Sailfish Firmware
;   GPXconfigOverride,r2h
;   baudRateOverride,115200
;   overridePrinterModels,1
;   printerModelsOverride,MakerBot_Replicator2.stl
;   startingGcode,; **** Replicator 2 start.gcode ****,M73 P0 ; enable build progress,G162 X Y F3000 ; home XY maximum,G161 Z F1200 ; home Z minimum,G92 Z-5 ; set Z to -5,G1 Z0 ; move Z to 0,G161 Z F100 ; home Z slowly,M132 X Y Z A B ; recall home offsets,G1 X-145 Y-75 Z30 F9000 ; move to wait position off table,G130 X20 Y20 Z20 A20 B20 ; lower stepper Vrefs while heating,M126 S[fan_speed_pwm],M140 S[bed0_temperature] T0,M134 T0 ; stabilize bed temperature,M104 S[extruder0_temperature] T0,M133 T0 ; stabilize extruder temperature,G130 X127 Y127 Z40 A127 B127 ; default stepper Vrefs,G92 A0 ; zero extruder,G1 Z0.4 ; position nozzle,G1 E25 F300 ; purge nozzle,G1 X-140 Y-70 Z0.15 F1200 ; slow wipe,G1 X-135 Y-65 Z0.5 F1200 ; lift,G92 A0 ; zero extruder,M73 P1 ;@body (notify GPX body has started),; **** end of start.gcode ****
;   layerChangeGcode,
;   retractionGcode,
;   toolChangeGcode,
;   endingGcode,; **** Replicator 2 end.gcode ****,M73 P100 ; end build progress,G1 Z155 F1000 ; send Z axis to bottom of machine,M104 S0 T0 ; cool down extruder,M140 S0 T0 ; cool down HBP,M127 ; stop blower fan,G162 X Y F3000 ; home XY maximum,M18 ; disable stepper,M0 ; stop codes,M72 P1 ; play Ta-Da song,; **** end of end.gcode ****
;   exportFileFormat,gcode
;   celebration,0
;   celebrationSong,Random Song
;   postProcessing,
;   defaultSpeed,4800
;   outlineUnderspeed,0.5
;   solidInfillUnderspeed,1
;   supportUnderspeed,1
;   rapidXYspeed,9000
;   rapidZspeed,1200
;   minBridgingArea,50
;   bridgingExtraInflation,0
;   bridgingExtrusionMultiplier,1
;   bridgingSpeedMultiplier,0.8
;   useFixedBridgingAngle,0
;   fixedBridgingAngle,0
;   applyBridgingToPerimeters,0
;   filamentDiameters,1.75|1.75|1.75|1.75|1.75|1.75
;   filamentPricesPerKg,46|46|46|46|46|46
;   filamentDensities,1.25|1.25|1.25|1.25|1.25|1.25
;   useMinPrintHeight,0
;   minPrintHeight,0
;   useMaxPrintHeight,0
;   maxPrintHeight,4.84
;   useDiaphragm,0
;   diaphragmLayerInterval,20
;   robustSlicing,1
;   mergeAllIntoSolid,0
;   onlyRetractWhenCrossingOutline,0
;   retractBetweenLayers,0
;   useRetractionMinTravel,1
;   retractionMinTravel,7
;   retractWhileWiping,1
;   onlyWipeOutlines,1
;   avoidCrossingOutline,0
;   maxMovementDetourFactor,3
;   toolChangeRetractionDistance,12
;   toolChangeExtraRestartDistance,-0.5
;   toolChangeRetractionSpeed,600
;   externalThinWallType,0
;   internalThinWallType,0
;   thinWallAllowedOverlapPercentage,10
;   singleExtrusionMinLength,1
;   singleExtrusionMinPrintingWidthPercentage,50
;   singleExtrusionMaxPrintingWidthPercentage,200
;   singleExtrusionEndpointExtension,0.2
;   horizontalSizeCompensation,0
G90
M83
; **** Replicator 2 start.gcode ****
M73 P0 ; enable build progress
G162 X Y F3000 ; home XY maximum
G161 Z F1200 ; home Z minimum
G92 Z-5 ; set Z to -5
G1 Z0 ; move Z to 0
G161 Z F100 ; home Z slowly
M132 X Y Z A B ; recall home offsets
G1 X-145 Y-75 Z30 F9000 ; move to wait position off table
G130 X20 Y20 Z20 A20 B20 ; lower stepper Vrefs while heating
M126 S170
M140 S60 T0
M134 T0 ; stabilize bed temperature
M104 S230 T0
M133 T0 ; stabilize extruder temperature
G130 X127 Y127 Z40 A127 B127 ; default stepper Vrefs
G92 A0 ; zero extruder
G1 Z0.4 ; position nozzle
G1 E25 F300 ; purge nozzle
G1 X-140 Y-70 Z0.15 F1200 ; slow wipe
G1 X-135 Y-65 Z0.5 F1200 ; lift
G92 A0 ; zero extruder
M73 P1 ;@body (notify GPX body has started)
; **** end of start.gcode ****
; process Process1
; layer 1, Z = 0.200
M135 T0
G1 E-1.0000 F1200
; feature inner perimeter
; tool H0.200 W0.400
G1 Z0.500 F1200
G1 X18.026 Y3.553 F9000
G1 Z0.200 F1200
G1 E1.0000 F1200
G1 X16.311 Y3.326 E0.0575 F635
G1 X16.623 Y3.326 E0.0104
G1 X16.623 Y-4.111 E0.2474
G1 X18.636 Y-4.111 E0.0670
G1 X18.636 Y3.162 E0.2419
G1 X18.492 Y3.518 E0.0128
G1 X18.026 Y3.553 E0.0156
; feature outer perimeter
G1 X18.014 Y3.955 F9000
G1 X15.560 Y3.630 E0.0823 F423
G1 X13.207 Y3.630 E0.0783
G1 X6.171 Y3.527 E0.2340
G1 X1.888 Y3.527 E0.1425
G1 X-10.671 Y3.668 E0.4177
G1 X-11.162 Y3.453 E0.0179
G1 X-11.299 Y3.409 E0.0048
G1 X-11.299 Y2.926 E0.0161
G1 X16.223 Y2.926 E0.9154
G1 X16.223 Y-4.511 E0.2474
G1 X19.036 Y-4.511 E0.0936
G1 X19.036 Y3.240 E0.2578
G1 X18.770 Y3.898 E0.0236
G1 X18.014 Y3.955 E0.0252
; feature solid layer
G1 X17.273 Y3.131 F9000
G1 X16.943 Y2.801 E0.0155 F847
G1 X16.943 Y2.235 E0.0188
G1 X17.925 Y3.217 E0.0462
G1 X18.035 Y3.232 E0.0037
G1 X18.270 Y3.214 E0.0079
G1 X18.316 Y3.100 E0.0041
G1 X18.316 Y3.043 E0.0019
G1 X16.943 Y1.669 E0.0646
G1 X16.943 Y1.104 E0.0188
G1 X18.316 Y2.477 E0.0646
G1 X18.316 Y1.912 E0.0188
G1 X16.943 Y0.538 E0.0646
G1 X16.943 Y-0.028 E0.0188
G1 X18.316 Y1.346 E0.0646
G1 X18.316 Y0.780 E0.0188
G1 X16.943 Y-0.593 E0.0646
G1 X16.943 Y-1.159 E0.0188
G1 X18.316 Y0.214 E0.0646
G1 X18.316 Y-0.351 E0.0188
G1 X16.943 Y-1.725 E0.0646
G1 X16.943 Y-2.291 E0.0188
G1 X18.316 Y-0.917 E0.0646
G1 X18.316 Y-1.483 E0.0188
G1 X16.943 Y-2.856 E0.0646
G1 X16.943 Y-3.422 E0.0188
G1 X18.316 Y-2.048 E0.0646
G1 X18.316 Y-2.614 E0.0188
G1 X17.139 Y-3.791 E0.0554
G1 X17.705 Y-3.791 E0.0188
G1 X18.316 Y-3.180 E0.0288
G1 X18.316 Y-3.745 E0.0188
G1 X18.271 Y-3.791 E0.0022
G1 E-1.0000 F1200
; layer 2, Z = 0.400
M126 S255
; feature inner perimeter
G1 Z0.700 F1200
G1 X-4.431 Y3.840 F9000
G1 Z0.400 F1200
G1 E1.0000 F1200
G1 X-9.185 Y3.893 E0.1581 F858
G1 X-10.477 Y3.326 E0.0469
G1 X16.691 Y3.326 E0.9036
G1 X16.691 Y-4.111 E0.2474
G1 X18.652 Y-4.111 E0.0652
G1 X18.652 Y3.138 E0.2411
G1 X18.624 Y3.195 E0.0021
G1 X18.375 Y3.819 E0.0223
G1 X17.308 Y4.006 E0.0361
G1 X16.034 Y4.006 E0.0423
G1 X15.085 Y3.880 E0.0318
G1 X12.321 Y3.840 E0.0919
G1 X-4.431 Y3.840 E0.5572
; feature outer perimeter
G1 X-4.429 Y4.240 F9000
G1 X-9.267 Y4.294 E0.1609 F572
G1 X-10.800 Y3.621 E0.0557
G1 X-11.472 Y3.409 E0.0234
G1 X-11.472 Y2.926 E0.0161
G1 X16.291 Y2.926 E0.9234
G1 X16.291 Y-4.511 E0.2474
G1 X19.052 Y-4.511 E0.0918
G1 X19.052 Y3.232 E0.2575
G1 X18.989 Y3.358 E0.0047
G1 X18.667 Y4.167 E0.0290
G1 X18.572 Y4.190 E0.0033
G1 X17.342 Y4.406 E0.0415
G1 X16.008 Y4.406 E0.0444
G1 X15.056 Y4.280 E0.0319
G1 X12.318 Y4.240 E0.0911
G1 X-4.429 Y4.240 E0.5570
G1 E-1.0000 F1200
; feature solid layer
G1 Z0.900 F1200
G1 X16.113 Y3.686 F9000
G1 Z0.400 F1200
G1 E1.0000 F1200
G1 X16.153 Y3.646 E0.0019 F1145
G1 X16.719 Y3.646 E0.0188
G1 X16.679 Y3.686 E0.0019
G1 X17.244 Y3.686 E0.0188
G1 X18.332 Y2.598 E0.0512
G1 X18.332 Y2.033 E0.0188
G1 X17.011 Y3.354 E0.0621
G1 X17.011 Y2.788 E0.0188
G1 X18.332 Y1.467 E0.0621
G1 X18.332 Y0.901 E0.0188
G1 X17.011 Y2.222 E0.0621
G1 X17.011 Y1.657 E0.0188
G1 X18.332 Y0.336 E0.0621
G1 X18.332 Y-0.230 E0.0188
G1 X17.011 Y1.091 E0.0621
G1 X17.011 Y0.525 E0.0188
G1 X18.332 Y-0.796 E0.0621
G1 X18.332 Y-1.361 E0.0188
G1 X17.011 Y-0.040 E0.0621
G1 X17.011 Y-0.606 E0.0188
G1 X18.332 Y-1.927 E0.0621
G1 X18.332 Y-2.493 E0.0188
G1 X17.011 Y-1.172 E0.0621
G1 X17.011 Y-1.737 E0.0188
G1 X18.332 Y-3.058 E0.0621
G1 X18.332 Y-3.624 E0.0188
G1 X17.011 Y-2.303 E0.0621
G1 X17.011 Y-2.869 E0.0188
G1 X17.933 Y-3.791 E0.0434
G1 X17.368 Y-3.791 E0.0188
G1 X17.011 Y-3.434 E0.0168
G1 X18.265 Y3.231 F9000
G1 X17.923 Y3.573 E0.0161 F1145
G1 E-1.0000 F1200
; layer 3, Z = 0.600
; feature inner perimeter
G1 Z0.900 F1200
G1 X-8.710 Y4.111 F9000
G1 Z0.600 F1200
G1 E1.0000 F1200
G1 X-10.297 Y3.414 E0.0577 F964
G1 X-10.577 Y3.326 E0.0098
G1 X16.759 Y3.326 E0.9092
G1 X16.759 Y-4.111 E0.2474
G1 X18.668 Y-4.111 E0.0635
G1 X18.668 Y3.138 E0.2411
G1 X18.586 Y3.302 E0.0061
G1 X18.384 Y3.810 E0.0182
G1 X18.261 Y3.840 E0.0042
G1 X16.715 Y4.111 E0.0522
G1 X-8.710 Y4.111 E0.8457
; feature outer perimeter
G1 X-8.794 Y4.511 F9000
G1 X-10.438 Y3.789 E0.0597 F643
G1 X-11.644 Y3.409 E0.0420
G1 X-11.644 Y2.926 E0.0161
G1 X16.359 Y2.926 E0.9314
G1 X16.359 Y-4.511 E0.2474
G1 X19.068 Y-4.511 E0.0901
G1 X19.068 Y3.232 E0.2575
G1 X18.951 Y3.466 E0.0087
G1 X18.679 Y4.151 E0.0245
G1 X18.342 Y4.232 E0.0115
G1 X16.750 Y4.511 E0.0538
G1 X-8.794 Y4.511 E0.8496
; feature solid layer
G1 X-8.799 Y3.646 F9000
G1 X-8.662 Y3.783 E0.0064 F1286
G1 X-8.643 Y3.791 E0.0007
G1 X-8.088 Y3.791 E0.0185
G1 X-8.234 Y3.646 E0.0068
G1 X-7.668 Y3.646 E0.0188
G1 X-7.522 Y3.791 E0.0068
G1 X-6.957 Y3.791 E0.0188
G1 X-7.102 Y3.646 E0.0068
G1 X-6.536 Y3.646 E0.0188
G1 X-6.391 Y3.791 E0.0068
G1 X-5.825 Y3.791 E0.0188
G1 X-5.971 Y3.646 E0.0068
G1 X-5.405 Y3.646 E0.0188
G1 X-5.260 Y3.791 E0.0068
G1 X-4.694 Y3.791 E0.0188
G1 X-4.839 Y3.646 E0.0068
G1 X-4.274 Y3.646 E0.0188
G1 X-4.128 Y3.791 E0.0068
G1 X-3.563 Y3.791 E0.0188
G1 X-3.708 Y3.646 E0.0068
G1 X-3.142 Y3.646 E0.0188
G1 X-2.997 Y3.791 E0.0068
G1 X-2.431 Y3.791 E0.0188
G1 X-2.577 Y3.646 E0.0068
G1 X-2.011 Y3.646 E0.0188
G1 X-1.866 Y3.791 E0.0068
G1 X-1.300 Y3.791 E0.0188
G1 X-1.445 Y3.646 E0.0068
G1 X-0.880 Y3.646 E0.0188
G1 X-0.734 Y3.791 E0.0068
G1 X-0.169 Y3.791 E0.0188
G1 X-0.314 Y3.646 E0.0068
G1 X0.252 Y3.646 E0.0188
G1 X0.397 Y3.791 E0.0068
G1 X0.963 Y3.791 E0.0188
G1 X0.817 Y3.646 E0.0068
G1 X1.383 Y3.646 E0.0188
G1 X1.528 Y3.791 E0.0068
G1 X2.094 Y3.791 E0.0188
G1 X1.949 Y3.646 E0.0068
G1 X2.514 Y3.646 E0.0188
G1 X2.660 Y3.791 E0.0068
G1 X3.226 Y3.791 E0.0188
G1 X3.080 Y3.646 E0.0068
G1 X3.646 Y3.646 E0.0188
G1 X3.791 Y3.791 E0.0068
G1 X4.357 Y3.791 E0.0188
G1 X4.212 Y3.646 E0.0068
G1 X4.777 Y3.646 E0.0188
G1 X4.923 Y3.791 E0.0068
G1 X5.488 Y3.791 E0.0188
G1 X5.343 Y3.646 E0.0068
G1 X5.909 Y3.646 E0.0188
G1 X6.054 Y3.791 E0.0068
G1 X6.620 Y3.791 E0.0188
G1 X6.474 Y3.646 E0.0068
G1 X7.040 Y3.646 E0.0188
G1 X7.185 Y3.791 E0.0068
G1 X7.751 Y3.791 E0.0188
G1 X7.606 Y3.646 E0.0068
G1 X8.171 Y3.646 E0.0188
G1 X8.317 Y3.791 E0.0068
G1 X8.882 Y3.791 E0.0188
G1 X8.737 Y3.646 E0.0068
G1 X9.303 Y3.646 E0.0188
G1 X9.448 Y3.791 E0.0068
G1 X10.014 Y3.791 E0.0188
G1 X9.868 Y3.646 E0.0068
G1 X10.434 Y3.646 E0.0188
G1 X10.579 Y3.791 E0.0068
G1 X11.145 Y3.791 E0.0188
G1 X11.000 Y3.646 E0.0068
G1 X11.565 Y3.646 E0.0188
G1 X11.711 Y3.791 E0.0068
G1 X12.277 Y3.791 E0.0188
G1 X12.131 Y3.646 E0.0068
G1 X12.697 Y3.646 E0.0188
G1 X12.842 Y3.791 E0.0068
G1 X13.408 Y3.791 E0.0188
G1 X13.262 Y3.646 E0.0068
G1 X13.828 Y3.646 E0.0188
G1 X13.974 Y3.791 E0.0068
G1 X14.539 Y3.791 E0.0188
G1 X14.394 Y3.646 E0.0068
G1 X14.960 Y3.646 E0.0188
G1 X15.105 Y3.791 E0.0068
G1 X15.671 Y3.791 E0.0188
G1 X15.525 Y3.646 E0.0068
G1 X16.091 Y3.646 E0.0188
G1 X16.236 Y3.791 E0.0068
G1 X16.687 Y3.791 E0.0150
G1 X16.785 Y3.774 E0.0033
G1 X16.657 Y3.646 E0.0060
G1 X17.079 Y3.646 E0.0140
G1 X17.079 Y3.503 E0.0048
G1 X17.266 Y3.690 E0.0088
G1 X17.747 Y3.605 E0.0162
G1 X17.079 Y2.937 E0.0314
G1 X17.079 Y2.371 E0.0188
G1 X18.176 Y3.468 E0.0516
G1 X18.294 Y3.172 E0.0106
G1 X18.344 Y3.070 E0.0038
G1 X17.079 Y1.805 E0.0595
G1 X17.079 Y1.240 E0.0188
G1 X18.348 Y2.508 E0.0597
G1 X18.348 Y1.943 E0.0188
G1 X17.079 Y0.674 E0.0597
G1 X17.079 Y0.108 E0.0188
G1 X18.348 Y1.377 E0.0597
G1 X18.348 Y0.811 E0.0188
G1 X17.079 Y-0.457 E0.0597
G1 X17.079 Y-1.023 E0.0188
G1 X18.348 Y0.246 E0.0597
G1 X18.348 Y-0.320 E0.0188
G1 X17.079 Y-1.589 E0.0597
G1 X17.079 Y-2.154 E0.0188
G1 X18.348 Y-0.886 E0.0597
G1 X18.348 Y-1.451 E0.0188
G1 X17.079 Y-2.720 E0.0597
G1 X17.079 Y-3.286 E0.0188
G1 X18.348 Y-2.017 E0.0597
G1 X18.348 Y-2.583 E0.0188
G1 X17.139 Y-3.791 E0.0568
G1 X17.705 Y-3.791 E0.0188
G1 X18.348 Y-3.149 E0.0302
G1 X18.348 Y-3.714 E0.0188
G1 X18.271 Y-3.791 E0.0036
G1 E-1.0000 F1200
; layer 4, Z = 0.800
; feature inner perimeter
G1 Z1.100 F1200
G1 X-8.731 Y4.111 F9000
G1 Z0.800 F1200
G1 E1.0000 F1200
G1 X-9.935 Y3.582 E0.0437 F895
G1 X-10.750 Y3.326 E0.0284
G1 X16.827 Y3.326 E0.9172
G1 X16.827 Y-4.111 E0.2474
G1 X18.683 Y-4.111 E0.0617
G1 X18.683 Y3.138 E0.2411
G1 X18.548 Y3.409 E0.0101
G1 X18.395 Y3.793 E0.0137
G1 X18.031 Y3.881 E0.0125
G1 X16.721 Y4.111 E0.0442
G1 X-8.731 Y4.111 E0.8465
; feature outer perimeter
G1 X-8.815 Y4.511 F9000
G1 X-10.076 Y3.957 E0.0458 F597
G1 X-11.816 Y3.409 E0.0607
G1 X-11.816 Y2.926 E0.0161
G1 X16.427 Y2.926 E0.9394
G1 X16.427 Y-4.511 E0.2474
G1 X19.083 Y-4.511 E0.0883
G1 X19.083 Y3.232 E0.2575
G1 X18.914 Y3.573 E0.0127
G1 X18.690 Y4.134 E0.0201
G1 X18.113 Y4.273 E0.0198
G1 X16.756 Y4.511 E0.0458
G1 X-8.815 Y4.511 E0.8505
; feature solid layer
G1 X-8.816 Y3.725 F9000
G1 X-8.737 Y3.646 E0.0037 F1193
G1 X-8.171 Y3.646 E0.0188
