; G-Code generated by Simplify3D(R) Version 4.1.2
; Apr 6, 2020 at 12:28:57 PM
; Settings Summary
;   processName,Process1
;   applyToModels,Camera Dome
;   profileName,MakerBot Replicator 2 HBP (modified)
;   profileVersion,2019-08-23 15:32:08
;   baseProfile,MakerBot Replicator 2(2)
;   printMaterial,PLA
;   printQuality,Medium
;   printExtruders,
;   extruderName,Primary Extruder
;   extruderToolheadNumber,0
;   extruderDiameter,0.4
;   extruderAutoWidth,0
;   extruderWidth,0.4
;   extrusionMultiplier,1
;   extruderUseRetract,1
;   extruderRetractionDistance,1
;   extruderExtraRestartDistance,0
;   extruderRetractionZLift,0.5
;   extruderRetractionSpeed,1200
;   extruderUseCoasting,0
;   extruderCoastingDistance,0.2
;   extruderUseWipe,0
;   extruderWipeDistance,5
;   primaryExtruder,0
;   layerHeight,0.2
;   topSolidLayers,3
;   bottomSolidLayers,3
;   perimeterOutlines,2
;   printPerimetersInsideOut,1
;   startPointOption,3
;   startPointOriginX,0
;   startPointOriginY,150
;   sequentialIslands,0
;   spiralVaseMode,0
;   firstLayerHeightPercentage,100
;   firstLayerWidthPercentage,100
;   firstLayerUnderspeed,0.5
;   useRaft,0
;   raftExtruder,0
;   raftTopLayers,2
;   raftBaseLayers,1
;   raftOffset,1
;   raftSeparationDistance,0.14
;   raftTopInfill,90
;   aboveRaftSpeedMultiplier,0.3
;   useSkirt,0
;   skirtExtruder,0
;   skirtLayers,1
;   skirtOutlines,5
;   skirtOffset,0
;   usePrimePillar,0
;   primePillarExtruder,999
;   primePillarWidth,12
;   primePillarLocation,7
;   primePillarSpeedMultiplier,1
;   useOozeShield,0
;   oozeShieldExtruder,999
;   oozeShieldOffset,2
;   oozeShieldOutlines,1
;   oozeShieldSidewallShape,1
;   oozeShieldSidewallAngle,30
;   oozeShieldSpeedMultiplier,1
;   infillExtruder,0
;   internalInfillPattern,Rectilinear
;   externalInfillPattern,Rectilinear
;   infillPercentage,15
;   outlineOverlapPercentage,20
;   infillExtrusionWidthPercentage,100
;   minInfillLength,5
;   infillLayerInterval,1
;   internalInfillAngles,45,-45
;   overlapInternalInfillAngles,0
;   externalInfillAngles,45,-45
;   generateSupport,0
;   supportExtruder,0
;   supportInfillPercentage,10
;   supportExtraInflation,0.5
;   supportBaseLayers,0
;   denseSupportExtruder,0
;   denseSupportLayers,2
;   denseSupportInfillPercentage,70
;   supportLayerInterval,1
;   supportHorizontalPartOffset,0.3
;   supportUpperSeparationLayers,1
;   supportLowerSeparationLayers,1
;   supportType,0
;   supportGridSpacing,2
;   maxOverhangAngle,45
;   supportAngles,0
;   temperatureName,Primary Extruder,Heated Build Platform
;   temperatureNumber,0,0
;   temperatureSetpointCount,1,1
;   temperatureSetpointLayers,1,1
;   temperatureSetpointTemperatures,230,60
;   temperatureStabilizeAtStartup,1,1
;   temperatureHeatedBed,0,1
;   fanLayers,1,2
;   fanSpeeds,0,100
;   blipFanToFullPower,1
;   adjustSpeedForCooling,1
;   minSpeedLayerTime,15
;   minCoolingSpeedSlowdown,20
;   increaseFanForCooling,1
;   minFanLayerTime,45
;   maxCoolingFanSpeed,100
;   increaseFanForBridging,1
;   bridgingFanSpeed,100
;   use5D,1
;   relativeEdistances,1
;   allowEaxisZeroing,0
;   independentExtruderAxes,1
;   includeM10123,0
;   stickySupport,1
;   applyToolheadOffsets,0
;   gcodeXoffset,0
;   gcodeYoffset,0
;   gcodeZoffset,0
;   overrideMachineDefinition,1
;   machineTypeOverride,0
;   strokeXoverride,280
;   strokeYoverride,150
;   strokeZoverride,150
;   originOffsetXoverride,140
;   originOffsetYoverride,75
;   originOffsetZoverride,0
;   homeXdirOverride,1
;   homeYdirOverride,1
;   homeZdirOverride,-1
;   flipXoverride,1
;   flipYoverride,-1
;   flipZoverride,1
;   toolheadOffsets,0,0|0,0|0,0|0,0|0,0|0,0
;   overrideFirmwareConfiguration,1
;   firmwareTypeOverride,MakerBot/Sailfish Firmware
;   GPXconfigOverride,r2h
;   baudRateOverride,115200
;   overridePrinterModels,1
;   printerModelsOverride,MakerBot_Replicator2.stl
;   startingGcode,; **** Replicator 2 start.gcode ****,M73 P0 ; enable build progress,G162 X Y F3000 ; home XY maximum,G161 Z F1200 ; home Z minimum,G92 Z-5 ; set Z to -5,G1 Z0 ; move Z to 0,G161 Z F100 ; home Z slowly,M132 X Y Z A B ; recall home offsets,G1 X-145 Y-75 Z30 F9000 ; move to wait position off table,G130 X20 Y20 Z20 A20 B20 ; lower stepper Vrefs while heating,M126 S[fan_speed_pwm],M140 S[bed0_temperature] T0,M134 T0 ; stabilize bed temperature,M104 S[extruder0_temperature] T0,M133 T0 ; stabilize extruder temperature,G130 X127 Y127 Z40 A127 B127 ; default stepper Vrefs,G92 A0 ; zero extruder,G1 Z0.4 ; position nozzle,G1 E25 F300 ; purge nozzle,G1 X-140 Y-70 Z0.15 F1200 ; slow wipe,G1 X-135 Y-65 Z0.5 F1200 ; lift,G92 A0 ; zero extruder,M73 P1 ;@body (notify GPX body has started),; **** end of start.gcode ****
;   layerChangeGcode,
;   retractionGcode,
;   toolChangeGcode,
;   endingGcode,; **** Replicator 2 end.gcode ****,M73 P100 ; end build progress,G1 Z155 F1000 ; send Z axis to bottom of machine,M104 S0 T0 ; cool down extruder,M140 S0 T0 ; cool down HBP,M127 ; stop blower fan,G162 X Y F3000 ; home XY maximum,M18 ; disable stepper,M0 ; stop codes,M72 P1 ; play Ta-Da song,; **** end of end.gcode ****
;   exportFileFormat,gcode
;   celebration,0
;   celebrationSong,Random Song
;   postProcessing,
;   defaultSpeed,4800
;   outlineUnderspeed,0.5
;   solidInfillUnderspeed,1
;   supportUnderspeed,1
;   rapidXYspeed,9000
;   rapidZspeed,1200
;   minBridgingArea,50
;   bridgingExtraInflation,0
;   bridgingExtrusionMultiplier,1
;   bridgingSpeedMultiplier,0.8
;   useFixedBridgingAngle,0
;   fixedBridgingAngle,0
;   applyBridgingToPerimeters,0
;   filamentDiameters,1.75|1.75|1.75|1.75|1.75|1.75
;   filamentPricesPerKg,46|46|46|46|46|46
;   filamentDensities,1.25|1.25|1.25|1.25|1.25|1.25
;   useMinPrintHeight,0
;   minPrintHeight,0
;   useMaxPrintHeight,0
;   maxPrintHeight,4.84
;   useDiaphragm,0
;   diaphragmLayerInterval,20
;   robustSlicing,1
;   mergeAllIntoSolid,0
;   onlyRetractWhenCrossingOutline,0
;   retractBetweenLayers,0
;   useRetractionMinTravel,1
;   retractionMinTravel,7
;   retractWhileWiping,1
;   onlyWipeOutlines,1
;   avoidCrossingOutline,0
;   maxMovementDetourFactor,3
;   toolChangeRetractionDistance,12
;   toolChangeExtraRestartDistance,-0.5
;   toolChangeRetractionSpeed,600
;   externalThinWallType,0
;   internalThinWallType,0
;   thinWallAllowedOverlapPercentage,10
;   singleExtrusionMinLength,1
;   singleExtrusionMinPrintingWidthPercentage,50
;   singleExtrusionMaxPrintingWidthPercentage,200
;   singleExtrusionEndpointExtension,0.2
;   horizontalSizeCompensation,0
G90
M83
; **** Replicator 2 start.gcode ****
M73 P0 ; enable build progress
G162 X Y F3000 ; home XY maximum
G161 Z F1200 ; home Z minimum
G92 Z-5 ; set Z to -5
G1 Z0 ; move Z to 0
G161 Z F100 ; home Z slowly
M132 X Y Z A B ; recall home offsets
G1 X-145 Y-75 Z30 F9000 ; move to wait position off table
G130 X20 Y20 Z20 A20 B20 ; lower stepper Vrefs while heating
M126 S170
M140 S60 T0
M134 T0 ; stabilize bed temperature
M104 S230 T0
M133 T0 ; stabilize extruder temperature
G130 X127 Y127 Z40 A127 B127 ; default stepper Vrefs
G92 A0 ; zero extruder
G1 Z0.4 ; position nozzle
G1 E25 F300 ; purge nozzle
G1 X-140 Y-70 Z0.15 F1200 ; slow wipe
G1 X-135 Y-65 Z0.5 F1200 ; lift
G92 A0 ; zero extruder
M73 P1 ;@body (notify GPX body has started)
; **** end of start.gcode ****
; process Process1
; layer 1, Z = 0.200
M135 T0
G1 E-1.0000 F1200
; feature inner perimeter
; tool H0.200 W0.400
G1 Z0.500 F1200
G1 X-0.542 Y8.390 F9000
G1 Z0.200 F1200
G1 E1.0000 F1200
G1 X-1.272 Y8.393 E0.0243 F1418
G1 X-2.000 Y8.333 E0.0243
G1 X-2.721 Y8.210 E0.0243
G1 X-3.427 Y8.024 E0.0243
G1 X-4.115 Y7.778 E0.0243
G1 X-4.779 Y7.474 E0.0243
G1 X-5.414 Y7.112 E0.0243
G1 X-6.015 Y6.697 E0.0243
G1 X-6.578 Y6.231 E0.0243
G1 X-7.098 Y5.718 E0.0243
G1 X-7.446 Y5.310 E0.0178
G1 X-7.446 Y-5.310 E0.3532
G1 X-7.098 Y-5.718 E0.0178
G1 X-6.578 Y-6.231 E0.0243
G1 X-6.015 Y-6.697 E0.0243
G1 X-5.414 Y-7.112 E0.0243
G1 X-4.779 Y-7.474 E0.0243
G1 X-4.115 Y-7.778 E0.0243
G1 X-3.427 Y-8.024 E0.0243
G1 X-2.721 Y-8.210 E0.0243
G1 X-2.000 Y-8.333 E0.0243
G1 X-1.272 Y-8.393 E0.0243
G1 X-0.542 Y-8.390 E0.0243
G1 X0.186 Y-8.323 E0.0243
G1 X0.905 Y-8.193 E0.0243
G1 X1.610 Y-8.001 E0.0243
G1 X2.295 Y-7.749 E0.0243
G1 X2.956 Y-7.438 E0.0243
G1 X3.588 Y-7.071 E0.0243
G1 X4.185 Y-6.650 E0.0243
G1 X4.744 Y-6.179 E0.0243
G1 X5.259 Y-5.661 E0.0243
G1 X5.728 Y-5.100 E0.0243
G1 X6.146 Y-4.501 E0.0243
G1 X6.510 Y-3.868 E0.0243
G1 X6.818 Y-3.205 E0.0243
G1 X7.067 Y-2.519 E0.0243
G1 X7.256 Y-1.813 E0.0243
G1 X7.382 Y-1.093 E0.0243
G1 X7.446 Y-0.365 E0.0243
G1 X7.446 Y0.365 E0.0243
G1 X7.382 Y1.093 E0.0243
G1 X7.256 Y1.813 E0.0243
G1 X7.067 Y2.519 E0.0243
G1 X6.818 Y3.205 E0.0243
G1 X6.510 Y3.868 E0.0243
G1 X6.146 Y4.501 E0.0243
G1 X5.728 Y5.100 E0.0243
G1 X5.259 Y5.661 E0.0243
G1 X4.744 Y6.179 E0.0243
G1 X4.185 Y6.650 E0.0243
G1 X3.588 Y7.071 E0.0243
G1 X2.956 Y7.438 E0.0243
G1 X2.295 Y7.749 E0.0243
G1 X1.610 Y8.001 E0.0243
G1 X0.905 Y8.193 E0.0243
G1 X0.186 Y8.323 E0.0243
G1 X-0.542 Y8.390 E0.0243
; feature outer perimeter
G1 X-0.522 Y8.790 F9000
G1 X-1.288 Y8.793 E0.0255 F945
G1 X-2.051 Y8.730 E0.0255
G1 X-2.805 Y8.601 E0.0255
G1 X-3.546 Y8.407 E0.0255
G1 X-4.266 Y8.149 E0.0255
G1 X-4.962 Y7.830 E0.0255
G1 X-5.627 Y7.451 E0.0255
G1 X-6.257 Y7.016 E0.0255
G1 X-6.847 Y6.528 E0.0255
G1 X-7.392 Y5.991 E0.0255
G1 X-7.846 Y5.457 E0.0233
G1 X-7.846 Y-5.457 E0.3630
G1 X-7.392 Y-5.991 E0.0233
G1 X-6.847 Y-6.528 E0.0255
G1 X-6.257 Y-7.016 E0.0255
G1 X-5.627 Y-7.451 E0.0255
G1 X-4.962 Y-7.830 E0.0255
G1 X-4.266 Y-8.149 E0.0255
G1 X-3.546 Y-8.407 E0.0255
G1 X-2.805 Y-8.601 E0.0255
G1 X-2.051 Y-8.730 E0.0255
G1 X-1.288 Y-8.793 E0.0255
G1 X-0.522 Y-8.790 E0.0255
G1 X0.240 Y-8.720 E0.0255
G1 X0.993 Y-8.584 E0.0255
G1 X1.732 Y-8.383 E0.0255
G1 X2.450 Y-8.118 E0.0255
G1 X3.142 Y-7.793 E0.0255
G1 X3.804 Y-7.408 E0.0255
G1 X4.430 Y-6.967 E0.0255
G1 X5.015 Y-6.473 E0.0255
G1 X5.555 Y-5.931 E0.0255
G1 X6.046 Y-5.344 E0.0255
G1 X6.484 Y-4.716 E0.0255
G1 X6.865 Y-4.052 E0.0255
G1 X7.188 Y-3.358 E0.0255
G1 X7.449 Y-2.639 E0.0255
G1 X7.647 Y-1.899 E0.0255
G1 X7.779 Y-1.145 E0.0255
G1 X7.846 Y-0.383 E0.0255
G1 X7.846 Y0.383 E0.0255
G1 X7.779 Y1.145 E0.0255
G1 X7.647 Y1.899 E0.0255
G1 X7.449 Y2.639 E0.0255
G1 X7.188 Y3.358 E0.0255
G1 X6.865 Y4.052 E0.0255
G1 X6.484 Y4.716 E0.0255
G1 X6.046 Y5.344 E0.0255
G1 X5.555 Y5.931 E0.0255
G1 X5.015 Y6.473 E0.0255
G1 X4.430 Y6.967 E0.0255
G1 X3.804 Y7.408 E0.0255
G1 X3.142 Y7.793 E0.0255
G1 X2.450 Y8.118 E0.0255
G1 X1.732 Y8.383 E0.0255
G1 X0.993 Y8.584 E0.0255
G1 X0.240 Y8.720 E0.0255
G1 X-0.522 Y8.790 E0.0255
; feature inner perimeter
G1 X-0.392 Y6.322 F9000
G1 X0.157 Y6.250 E0.0184 F1418
G1 X0.698 Y6.130 E0.0184
G1 X1.226 Y5.963 E0.0184
G1 X1.738 Y5.751 E0.0184
G1 X2.230 Y5.495 E0.0184
G1 X2.697 Y5.198 E0.0184
G1 X3.136 Y4.860 E0.0184
G1 X3.545 Y4.486 E0.0184
G1 X3.919 Y4.078 E0.0184
G1 X4.256 Y3.638 E0.0184
G1 X4.554 Y3.171 E0.0184
G1 X4.810 Y2.679 E0.0184
G1 X5.022 Y2.168 E0.0184
G1 X5.188 Y1.639 E0.0184
G1 X5.308 Y1.097 E0.0185
G1 X5.381 Y0.540 E0.0187
G1 X5.400 Y0.000 E0.0180
G1 X5.381 Y-0.540 E0.0180
G1 X5.308 Y-1.097 E0.0187
G1 X5.188 Y-1.639 E0.0185
G1 X5.022 Y-2.168 E0.0184
G1 X4.810 Y-2.679 E0.0184
G1 X4.554 Y-3.171 E0.0184
G1 X4.256 Y-3.638 E0.0184
G1 X3.919 Y-4.078 E0.0184
G1 X3.545 Y-4.486 E0.0184
G1 X3.136 Y-4.860 E0.0184
G1 X2.697 Y-5.198 E0.0184
G1 X2.230 Y-5.495 E0.0184
G1 X1.738 Y-5.751 E0.0184
G1 X1.226 Y-5.963 E0.0184
G1 X0.698 Y-6.130 E0.0184
G1 X0.157 Y-6.250 E0.0184
G1 X-0.392 Y-6.322 E0.0184
G1 X-0.946 Y-6.346 E0.0184
G1 X-1.499 Y-6.322 E0.0184
G1 X-2.049 Y-6.250 E0.0184
G1 X-2.589 Y-6.130 E0.0184
G1 X-3.118 Y-5.963 E0.0184
G1 X-3.630 Y-5.751 E0.0184
G1 X-4.121 Y-5.495 E0.0184
G1 X-4.588 Y-5.198 E0.0184
G1 X-5.028 Y-4.860 E0.0184
G1 X-5.436 Y-4.486 E0.0184
G1 X-5.811 Y-4.078 E0.0184
G1 X-6.148 Y-3.638 E0.0184
G1 X-6.445 Y-3.171 E0.0184
G1 X-6.701 Y-2.679 E0.0184
G1 X-6.913 Y-2.168 E0.0184
G1 X-7.080 Y-1.639 E0.0184
G1 X-7.200 Y-1.097 E0.0185
G1 X-7.272 Y-0.540 E0.0187
G1 X-7.292 Y0.000 E0.0180
G1 X-7.272 Y0.540 E0.0180
G1 X-7.200 Y1.097 E0.0187
G1 X-7.080 Y1.639 E0.0185
G1 X-6.913 Y2.168 E0.0184
G1 X-6.701 Y2.679 E0.0184
G1 X-6.445 Y3.171 E0.0184
G1 X-6.148 Y3.638 E0.0184
G1 X-5.811 Y4.078 E0.0184
G1 X-5.436 Y4.486 E0.0184
G1 X-5.028 Y4.860 E0.0184
G1 X-4.588 Y5.198 E0.0184
G1 X-4.121 Y5.495 E0.0184
G1 X-3.630 Y5.751 E0.0184
G1 X-3.118 Y5.963 E0.0184
G1 X-2.589 Y6.130 E0.0184
G1 X-2.049 Y6.250 E0.0184
G1 X-1.499 Y6.322 E0.0184
G1 X-0.946 Y6.346 E0.0184
G1 X-0.392 Y6.322 E0.0184
; feature outer perimeter
G1 X-0.427 Y5.923 F9000
G1 X0.087 Y5.855 E0.0173 F945
G1 X0.594 Y5.743 E0.0173
G1 X1.089 Y5.587 E0.0173
G1 X1.569 Y5.388 E0.0173
G1 X2.029 Y5.149 E0.0173
G1 X2.467 Y4.870 E0.0173
G1 X2.879 Y4.554 E0.0173
G1 X3.262 Y4.203 E0.0173
G1 X3.612 Y3.820 E0.0173
G1 X3.928 Y3.409 E0.0173
G1 X4.207 Y2.971 E0.0173
G1 X4.447 Y2.510 E0.0173
G1 X4.646 Y2.031 E0.0173
G1 X4.802 Y1.536 E0.0173
G1 X4.914 Y1.028 E0.0173
G1 X4.982 Y0.507 E0.0175
G1 X5.000 Y0.000 E0.0169
G1 X4.982 Y-0.507 E0.0169
G1 X4.914 Y-1.028 E0.0175
G1 X4.802 Y-1.536 E0.0173
G1 X4.646 Y-2.031 E0.0173
G1 X4.447 Y-2.510 E0.0173
G1 X4.207 Y-2.971 E0.0173
G1 X3.928 Y-3.409 E0.0173
G1 X3.612 Y-3.820 E0.0173
G1 X3.262 Y-4.203 E0.0173
G1 X2.879 Y-4.554 E0.0173
G1 X2.467 Y-4.870 E0.0173
G1 X2.029 Y-5.149 E0.0173
G1 X1.569 Y-5.388 E0.0173
G1 X1.089 Y-5.587 E0.0173
G1 X0.594 Y-5.743 E0.0173
G1 X0.087 Y-5.855 E0.0173
G1 X-0.427 Y-5.923 E0.0173
G1 X-0.946 Y-5.946 E0.0173
G1 X-1.464 Y-5.923 E0.0173
G1 X-1.979 Y-5.855 E0.0173
G1 X-2.486 Y-5.743 E0.0173
G1 X-2.981 Y-5.587 E0.0173
G1 X-3.460 Y-5.388 E0.0173
G1 X-3.921 Y-5.149 E0.0173
G1 X-4.359 Y-4.870 E0.0173
G1 X-4.770 Y-4.554 E0.0173
G1 X-5.153 Y-4.203 E0.0173
G1 X-5.504 Y-3.820 E0.0173
G1 X-5.820 Y-3.409 E0.0173
G1 X-6.099 Y-2.971 E0.0173
G1 X-6.338 Y-2.510 E0.0173
G1 X-6.537 Y-2.031 E0.0173
G1 X-6.693 Y-1.536 E0.0173
G1 X-6.806 Y-1.028 E0.0173
G1 X-6.873 Y-0.507 E0.0175
G1 X-6.891 Y0.000 E0.0169
G1 X-6.873 Y0.507 E0.0169
G1 X-6.806 Y1.028 E0.0175
G1 X-6.693 Y1.536 E0.0173
G1 X-6.537 Y2.031 E0.0173
G1 X-6.338 Y2.510 E0.0173
G1 X-6.099 Y2.971 E0.0173
G1 X-5.820 Y3.409 E0.0173
G1 X-5.504 Y3.820 E0.0173
G1 X-5.153 Y4.203 E0.0173
G1 X-4.770 Y4.554 E0.0173
G1 X-4.359 Y4.870 E0.0173
G1 X-3.921 Y5.149 E0.0173
G1 X-3.460 Y5.388 E0.0173
G1 X-2.981 Y5.587 E0.0173
G1 X-2.486 Y5.743 E0.0173
G1 X-1.979 Y5.855 E0.0173
G1 X-1.464 Y5.923 E0.0173
G1 X-0.946 Y5.946 E0.0173
G1 X-0.427 Y5.923 E0.0173
; feature solid layer
G1 X-6.498 Y3.685 F9000
G1 X-7.126 Y3.057 E0.0295 F1891
G1 X-7.126 Y3.622 E0.0188
G1 X-2.922 Y7.826 E0.1977
G1 X-2.653 Y7.897 E0.0092
G1 X-2.210 Y7.972 E0.0150
G1 X-4.635 Y5.547 E0.1141
G1 X-4.281 Y5.773 E0.0139
G1 X-3.765 Y6.041 E0.0194
G1 X-3.441 Y6.176 E0.0117
G1 X-1.569 Y8.047 E0.0880
G1 X-1.260 Y8.073 E0.0103
G1 X-0.979 Y8.072 E0.0093
G1 X-2.595 Y6.456 E0.0760
G1 X-2.104 Y6.565 E0.0167
G1 X-1.892 Y6.593 E0.0071
G1 X-0.427 Y8.058 E0.0689
G1 X0.091 Y8.010 E0.0173
G1 X-1.267 Y6.652 E0.0639
G1 X-0.946 Y6.667 E0.0107
G1 X-0.698 Y6.656 E0.0082
G1 X0.574 Y7.928 E0.0598
G1 X0.834 Y7.881 E0.0088
G1 X1.037 Y7.825 E0.0070
G1 X-0.172 Y6.616 E0.0569
G1 X0.213 Y6.565 E0.0129
G1 X0.319 Y6.542 E0.0036
G1 X1.482 Y7.704 E0.0547
G1 X1.512 Y7.696 E0.0011
G1 X1.897 Y7.554 E0.0137
G1 X0.782 Y6.439 E0.0525
G1 X1.212 Y6.303 E0.0150
G1 X2.301 Y7.392 E0.0512
G1 X2.686 Y7.212 E0.0141
G1 X1.621 Y6.146 E0.0501
G1 X1.874 Y6.041 E0.0091
G1 X2.010 Y5.970 E0.0051
G1 X3.052 Y7.012 E0.0490
G1 X3.410 Y6.804 E0.0138
G1 X2.382 Y5.777 E0.0483
G1 X2.390 Y5.773 E0.0003
G1 X2.729 Y5.557 E0.0134
G1 X3.742 Y6.571 E0.0477
G1 X3.990 Y6.396 E0.0101
G1 X4.068 Y6.331 E0.0034
G1 X3.060 Y5.323 E0.0474
G1 X3.342 Y5.106 E0.0118
G1 X3.377 Y5.074 E0.0016
G1 X4.375 Y6.072 E0.0469
G1 X4.527 Y5.943 E0.0066
G1 X4.669 Y5.800 E0.0067
G1 X3.672 Y4.804 E0.0469
G1 X3.771 Y4.713 E0.0045
G1 X3.951 Y4.517 E0.0088
G1 X4.951 Y5.517 E0.0471
G1 X5.023 Y5.445 E0.0034
G1 X5.215 Y5.215 E0.0100
G1 X4.216 Y4.216 E0.0470
G1 X4.462 Y3.896 E0.0134
G1 X5.473 Y4.907 E0.0475
G1 X5.705 Y4.574 E0.0135
G1 X4.688 Y3.556 E0.0478
