; G-Code generated by Simplify3D(R) Version 4.1.2
; Apr 6, 2020 at 12:33:44 PM
; Settings Summary
;   processName,Process1
;   applyToModels,Grate
;   profileName,MakerBot Replicator 2 HBP (modified)
;   profileVersion,2019-08-23 15:32:08
;   baseProfile,MakerBot Replicator 2(2)
;   printMaterial,PLA
;   printQuality,Medium
;   printExtruders,
;   extruderName,Primary Extruder
;   extruderToolheadNumber,0
;   extruderDiameter,0.4
;   extruderAutoWidth,0
;   extruderWidth,0.4
;   extrusionMultiplier,1
;   extruderUseRetract,1
;   extruderRetractionDistance,1
;   extruderExtraRestartDistance,0
;   extruderRetractionZLift,0.5
;   extruderRetractionSpeed,1200
;   extruderUseCoasting,0
;   extruderCoastingDistance,0.2
;   extruderUseWipe,0
;   extruderWipeDistance,5
;   primaryExtruder,0
;   layerHeight,0.2
;   topSolidLayers,3
;   bottomSolidLayers,3
;   perimeterOutlines,2
;   printPerimetersInsideOut,1
;   startPointOption,3
;   startPointOriginX,0
;   startPointOriginY,150
;   sequentialIslands,0
;   spiralVaseMode,0
;   firstLayerHeightPercentage,100
;   firstLayerWidthPercentage,100
;   firstLayerUnderspeed,0.5
;   useRaft,0
;   raftExtruder,0
;   raftTopLayers,2
;   raftBaseLayers,1
;   raftOffset,1
;   raftSeparationDistance,0.14
;   raftTopInfill,90
;   aboveRaftSpeedMultiplier,0.3
;   useSkirt,0
;   skirtExtruder,0
;   skirtLayers,1
;   skirtOutlines,5
;   skirtOffset,0
;   usePrimePillar,0
;   primePillarExtruder,999
;   primePillarWidth,12
;   primePillarLocation,7
;   primePillarSpeedMultiplier,1
;   useOozeShield,0
;   oozeShieldExtruder,999
;   oozeShieldOffset,2
;   oozeShieldOutlines,1
;   oozeShieldSidewallShape,1
;   oozeShieldSidewallAngle,30
;   oozeShieldSpeedMultiplier,1
;   infillExtruder,0
;   internalInfillPattern,Rectilinear
;   externalInfillPattern,Rectilinear
;   infillPercentage,15
;   outlineOverlapPercentage,20
;   infillExtrusionWidthPercentage,100
;   minInfillLength,5
;   infillLayerInterval,1
;   internalInfillAngles,45,-45
;   overlapInternalInfillAngles,0
;   externalInfillAngles,45,-45
;   generateSupport,0
;   supportExtruder,0
;   supportInfillPercentage,10
;   supportExtraInflation,0.5
;   supportBaseLayers,0
;   denseSupportExtruder,0
;   denseSupportLayers,2
;   denseSupportInfillPercentage,70
;   supportLayerInterval,1
;   supportHorizontalPartOffset,0.3
;   supportUpperSeparationLayers,1
;   supportLowerSeparationLayers,1
;   supportType,0
;   supportGridSpacing,2
;   maxOverhangAngle,45
;   supportAngles,0
;   temperatureName,Primary Extruder,Heated Build Platform
;   temperatureNumber,0,0
;   temperatureSetpointCount,1,1
;   temperatureSetpointLayers,1,1
;   temperatureSetpointTemperatures,230,60
;   temperatureStabilizeAtStartup,1,1
;   temperatureHeatedBed,0,1
;   fanLayers,1,2
;   fanSpeeds,0,100
;   blipFanToFullPower,1
;   adjustSpeedForCooling,1
;   minSpeedLayerTime,15
;   minCoolingSpeedSlowdown,20
;   increaseFanForCooling,1
;   minFanLayerTime,45
;   maxCoolingFanSpeed,100
;   increaseFanForBridging,1
;   bridgingFanSpeed,100
;   use5D,1
;   relativeEdistances,1
;   allowEaxisZeroing,0
;   independentExtruderAxes,1
;   includeM10123,0
;   stickySupport,1
;   applyToolheadOffsets,0
;   gcodeXoffset,0
;   gcodeYoffset,0
;   gcodeZoffset,0
;   overrideMachineDefinition,1
;   machineTypeOverride,0
;   strokeXoverride,280
;   strokeYoverride,150
;   strokeZoverride,150
;   originOffsetXoverride,140
;   originOffsetYoverride,75
;   originOffsetZoverride,0
;   homeXdirOverride,1
;   homeYdirOverride,1
;   homeZdirOverride,-1
;   flipXoverride,1
;   flipYoverride,-1
;   flipZoverride,1
;   toolheadOffsets,0,0|0,0|0,0|0,0|0,0|0,0
;   overrideFirmwareConfiguration,1
;   firmwareTypeOverride,MakerBot/Sailfish Firmware
;   GPXconfigOverride,r2h
;   baudRateOverride,115200
;   overridePrinterModels,1
;   printerModelsOverride,MakerBot_Replicator2.stl
;   startingGcode,; **** Replicator 2 start.gcode ****,M73 P0 ; enable build progress,G162 X Y F3000 ; home XY maximum,G161 Z F1200 ; home Z minimum,G92 Z-5 ; set Z to -5,G1 Z0 ; move Z to 0,G161 Z F100 ; home Z slowly,M132 X Y Z A B ; recall home offsets,G1 X-145 Y-75 Z30 F9000 ; move to wait position off table,G130 X20 Y20 Z20 A20 B20 ; lower stepper Vrefs while heating,M126 S[fan_speed_pwm],M140 S[bed0_temperature] T0,M134 T0 ; stabilize bed temperature,M104 S[extruder0_temperature] T0,M133 T0 ; stabilize extruder temperature,G130 X127 Y127 Z40 A127 B127 ; default stepper Vrefs,G92 A0 ; zero extruder,G1 Z0.4 ; position nozzle,G1 E25 F300 ; purge nozzle,G1 X-140 Y-70 Z0.15 F1200 ; slow wipe,G1 X-135 Y-65 Z0.5 F1200 ; lift,G92 A0 ; zero extruder,M73 P1 ;@body (notify GPX body has started),; **** end of start.gcode ****
;   layerChangeGcode,
;   retractionGcode,
;   toolChangeGcode,
;   endingGcode,; **** Replicator 2 end.gcode ****,M73 P100 ; end build progress,G1 Z155 F1000 ; send Z axis to bottom of machine,M104 S0 T0 ; cool down extruder,M140 S0 T0 ; cool down HBP,M127 ; stop blower fan,G162 X Y F3000 ; home XY maximum,M18 ; disable stepper,M0 ; stop codes,M72 P1 ; play Ta-Da song,; **** end of end.gcode ****
;   exportFileFormat,gcode
;   celebration,0
;   celebrationSong,Random Song
;   postProcessing,
;   defaultSpeed,4800
;   outlineUnderspeed,0.5
;   solidInfillUnderspeed,1
;   supportUnderspeed,1
;   rapidXYspeed,9000
;   rapidZspeed,1200
;   minBridgingArea,50
;   bridgingExtraInflation,0
;   bridgingExtrusionMultiplier,1
;   bridgingSpeedMultiplier,0.8
;   useFixedBridgingAngle,0
;   fixedBridgingAngle,0
;   applyBridgingToPerimeters,0
;   filamentDiameters,1.75|1.75|1.75|1.75|1.75|1.75
;   filamentPricesPerKg,46|46|46|46|46|46
;   filamentDensities,1.25|1.25|1.25|1.25|1.25|1.25
;   useMinPrintHeight,0
;   minPrintHeight,0
;   useMaxPrintHeight,0
;   maxPrintHeight,4.84
;   useDiaphragm,0
;   diaphragmLayerInterval,20
;   robustSlicing,1
;   mergeAllIntoSolid,0
;   onlyRetractWhenCrossingOutline,0
;   retractBetweenLayers,0
;   useRetractionMinTravel,1
;   retractionMinTravel,7
;   retractWhileWiping,1
;   onlyWipeOutlines,1
;   avoidCrossingOutline,0
;   maxMovementDetourFactor,3
;   toolChangeRetractionDistance,12
;   toolChangeExtraRestartDistance,-0.5
;   toolChangeRetractionSpeed,600
;   externalThinWallType,0
;   internalThinWallType,0
;   thinWallAllowedOverlapPercentage,10
;   singleExtrusionMinLength,1
;   singleExtrusionMinPrintingWidthPercentage,50
;   singleExtrusionMaxPrintingWidthPercentage,200
;   singleExtrusionEndpointExtension,0.2
;   horizontalSizeCompensation,0
G90
M83
; **** Replicator 2 start.gcode ****
M73 P0 ; enable build progress
G162 X Y F3000 ; home XY maximum
G161 Z F1200 ; home Z minimum
G92 Z-5 ; set Z to -5
G1 Z0 ; move Z to 0
G161 Z F100 ; home Z slowly
M132 X Y Z A B ; recall home offsets
G1 X-145 Y-75 Z30 F9000 ; move to wait position off table
G130 X20 Y20 Z20 A20 B20 ; lower stepper Vrefs while heating
M126 S42
M140 S60 T0
M134 T0 ; stabilize bed temperature
M104 S230 T0
M133 T0 ; stabilize extruder temperature
G130 X127 Y127 Z40 A127 B127 ; default stepper Vrefs
G92 A0 ; zero extruder
G1 Z0.4 ; position nozzle
G1 E25 F300 ; purge nozzle
G1 X-140 Y-70 Z0.15 F1200 ; slow wipe
G1 X-135 Y-65 Z0.5 F1200 ; lift
G92 A0 ; zero extruder
M73 P1 ;@body (notify GPX body has started)
; **** end of start.gcode ****
; process Process1
; layer 1, Z = 0.200
M135 T0
G1 E-1.0000 F1200
; feature inner perimeter
; tool H0.200 W0.400
G1 Z0.500 F1200
G1 X-8.668 Y-14.147 F9000
G1 Z0.200 F1200
G1 E1.0000 F1200
G1 X-9.877 Y-14.147 E0.0402 F1800
G1 X-8.892 Y-14.809 E0.0395
G1 X-8.833 Y-14.841 E0.0022
G1 X-8.668 Y-14.147 E0.0237
G1 X-7.747 Y-15.419 F9000
G1 X-7.323 Y-15.645 E0.0160 F1800
G1 X-7.190 Y-15.699 E0.0048
G1 X-7.747 Y-15.419 E0.0207
G1 X-6.277 Y-16.070 F9000
G1 X-5.675 Y-16.315 E0.0216 F1800
G1 X-5.525 Y-16.359 E0.0052
G1 X-6.277 Y-16.070 E0.0268
G1 X-4.643 Y-16.615 F9000
G1 X-3.968 Y-16.812 E0.0234 F1800
G1 X-3.790 Y-16.844 E0.0060
G1 X-4.643 Y-16.615 E0.0294
G1 X-2.854 Y-17.015 F9000
G1 X-2.218 Y-17.131 E0.0215 F1800
G1 X-2.027 Y-17.146 E0.0064
G1 X-2.854 Y-17.015 E0.0278
G1 X-1.079 Y-17.219 F9000
G1 X-0.445 Y-17.268 E0.0212 F1800
G1 X-0.241 Y-17.263 E0.0068
G1 X-1.079 Y-17.219 E0.0279
G1 X0.708 Y-17.238 F9000
G1 X1.333 Y-17.222 E0.0208 F1800
G1 X1.548 Y-17.194 E0.0072
G1 X0.708 Y-17.238 E0.0280
G1 X2.488 Y-17.073 F9000
G1 X3.097 Y-16.994 E0.0204 F1800
G1 X3.321 Y-16.941 E0.0076
G1 X2.488 Y-17.073 E0.0280
G1 X4.222 Y-16.728 F9000
G1 X4.828 Y-16.585 E0.0207 F1800
G1 X5.075 Y-16.499 E0.0087
G1 X4.222 Y-16.728 E0.0294
G1 X5.966 Y-16.190 F9000
G1 X6.508 Y-16.001 E0.0191 F1800
G1 X6.737 Y-15.894 E0.0084
G1 X5.966 Y-16.190 E0.0275
G1 X7.688 Y-15.449 F9000
G1 X8.118 Y-15.247 E0.0158 F1800
G1 X8.270 Y-15.156 E0.0059
G1 X7.688 Y-15.449 E0.0217
G1 X8.828 Y-14.821 F9000
G1 X9.646 Y-14.330 E0.0317 F1800
G1 X9.896 Y-14.147 E0.0103
G1 X8.668 Y-14.147 E0.0408
G1 X8.828 Y-14.821 E0.0230
G1 X10.724 Y-13.541 F9000
G1 X10.743 Y-13.527 E0.0008 F1800
G1 X10.750 Y-13.522 E0.0003
G1 X10.724 Y-13.541 E0.0011
G1 X10.798 Y-13.482 F9000
G1 X11.057 Y-13.272 E0.0111 F1800
G1 X11.359 Y-12.993 E0.0137
G1 X10.798 Y-13.482 E0.0248
G1 X12.196 Y-12.218 F9000
G1 X12.371 Y-12.056 E0.0079 F1800
G1 X12.580 Y-11.818 E0.0106
G1 X12.196 Y-12.218 E0.0184
G1 X14.349 Y-9.589 F9000
G1 X14.575 Y-9.271 E0.0130 F1800
G1 X14.613 Y-9.204 E0.0025
G1 X14.349 Y-9.589 E0.0155
G1 X15.895 Y-6.760 F9000
G1 X15.903 Y-6.744 E0.0006 F1800
G1 X16.161 Y-6.102 E0.0230
G1 X16.243 Y-5.843 E0.0091
G1 X15.895 Y-6.760 E0.0326
G1 X16.635 Y-4.616 F9000
G1 X16.704 Y-4.399 E0.0076 F1800
G1 X16.721 Y-4.320 E0.0027
G1 X16.635 Y-4.616 E0.0103
G1 X17.028 Y-2.850 F9000
G1 X17.068 Y-2.658 E0.0065 F1800
G1 X17.098 Y-2.368 E0.0097
G1 X17.028 Y-2.850 E0.0162
G1 X17.227 Y-1.122 F9000
G1 X17.252 Y-0.882 E0.0080 F1800
G1 X17.257 Y-0.670 E0.0070
G1 X17.227 Y-1.122 E0.0151
G1 X17.259 Y0.588 F9000
G1 X17.252 Y0.882 E0.0098 F1800
G1 X17.218 Y1.206 E0.0108
G1 X17.259 Y0.588 E0.0206
G1 X17.090 Y2.441 F9000
G1 X17.068 Y2.658 E0.0073 F1800
G1 X17.039 Y2.797 E0.0047
G1 X17.090 Y2.441 E0.0120
G1 X16.731 Y4.272 F9000
G1 X16.704 Y4.399 E0.0043 F1800
G1 X16.597 Y4.734 E0.0117
G1 X16.731 Y4.272 E0.0160
G1 X16.226 Y5.898 F9000
G1 X16.161 Y6.102 E0.0071 F1800
G1 X15.953 Y6.620 E0.0186
G1 X16.226 Y5.898 E0.0257
G1 X14.588 Y9.246 F9000
G1 X14.566 Y9.285 E0.0015 F1800
G1 X14.444 Y9.456 E0.0070
G1 X14.588 Y9.246 E0.0085
G1 X12.624 Y11.775 F9000
G1 X12.359 Y12.068 E0.0131 F1800
G1 X11.952 Y12.445 E0.0184
G1 X12.624 Y11.775 E0.0315
G1 X11.273 Y13.073 F9000
G1 X11.057 Y13.272 E0.0098 F1800
G1 X10.743 Y13.527 E0.0135
G1 X10.407 Y13.773 E0.0139
G1 X11.273 Y13.073 E0.0371
G1 X10.024 Y14.053 F9000
G1 X9.646 Y14.330 E0.0156 F1800
G1 X8.997 Y14.720 E0.0252
G1 X8.831 Y14.053 E0.0228
G1 X10.024 Y14.053 E0.0397
G1 X8.285 Y15.147 F9000
G1 X8.118 Y15.247 E0.0065 F1800
G1 X7.932 Y15.334 E0.0068
G1 X8.285 Y15.147 E0.0133
G1 X6.958 Y15.790 F9000
G1 X6.508 Y16.001 E0.0166 F1800
G1 X6.248 Y16.091 E0.0092
G1 X6.958 Y15.790 E0.0257
G1 X5.314 Y16.416 F9000
G1 X4.828 Y16.585 E0.0171 F1800
G1 X4.581 Y16.644 E0.0084
G1 X5.314 Y16.416 E0.0255
G1 X3.615 Y16.872 F9000
G1 X3.097 Y16.994 E0.0177 F1800
G1 X2.867 Y17.024 E0.0077
G1 X3.615 Y16.872 E0.0254
G1 X1.876 Y17.152 F9000
G1 X1.333 Y17.222 E0.0182 F1800
G1 X1.124 Y17.228 E0.0070
G1 X1.876 Y17.152 E0.0252
G1 X0.116 Y17.254 F9000
G1 X-0.445 Y17.268 E0.0186 F1800
G1 X-0.631 Y17.254 E0.0062
G1 X0.116 Y17.254 E0.0248
G1 X-1.648 Y17.175 F9000
G1 X-2.218 Y17.131 E0.0190 F1800
G1 X-2.380 Y17.101 E0.0055
G1 X-1.648 Y17.175 E0.0245
G1 X-3.398 Y16.916 F9000
G1 X-3.968 Y16.812 E0.0193 F1800
G1 X-4.104 Y16.772 E0.0047
G1 X-3.398 Y16.916 E0.0240
G1 X-5.117 Y16.477 F9000
G1 X-5.675 Y16.315 E0.0193 F1800
G1 X-5.786 Y16.270 E0.0040
G1 X-5.117 Y16.477 E0.0233
G1 X-6.789 Y15.862 F9000
G1 X-7.323 Y15.645 E0.0192 F1800
G1 X-7.408 Y15.599 E0.0032
G1 X-6.789 Y15.862 E0.0224
G1 X-9.001 Y14.736 F9000
G1 X-10.016 Y14.053 E0.0407 F1800
G1 X-8.831 Y14.053 E0.0394
G1 X-9.001 Y14.736 E0.0234
G1 X-10.283 Y13.874 F9000
G1 X-10.376 Y13.811 E0.0037 F1800
G1 X-10.758 Y13.513 E0.0161
G1 X-11.254 Y13.088 E0.0217
G1 X-10.283 Y13.874 E0.0416
G1 X-11.630 Y12.766 F9000
G1 X-11.742 Y12.669 E0.0049 F1800
G1 X-12.259 Y12.138 E0.0246
G1 X-11.630 Y12.766 E0.0296
G1 X-12.966 Y11.412 F9000
G1 X-12.982 Y11.396 E0.0007 F1800
G1 X-13.021 Y11.350 E0.0020
G1 X-12.966 Y11.412 E0.0028
G1 X-13.961 Y10.163 F9000
G1 X-14.076 Y10.012 E0.0063 F1800
G1 X-14.247 Y9.744 E0.0106
G1 X-13.961 Y10.163 E0.0169
G1 X-14.854 Y8.789 F9000
G1 X-15.033 Y8.508 E0.0111 F1800
G1 X-15.209 Y8.156 E0.0131
G1 X-14.854 Y8.789 E0.0242
G1 X-16.420 Y5.348 F9000
G1 X-16.456 Y5.253 E0.0034 F1800
G1 X-16.541 Y4.928 E0.0112
G1 X-16.420 Y5.348 E0.0145
G1 X-17.179 Y1.797 F9000
G1 X-17.182 Y1.776 E0.0007 F1800
G1 X-17.189 Y1.649 E0.0042
G1 X-17.179 Y1.797 E0.0049
G1 X-16.508 Y-5.053 F9000
G1 X-16.456 Y-5.253 E0.0069 F1800
G1 X-16.433 Y-5.314 E0.0022
G1 X-16.508 Y-5.053 E0.0091
G1 X-15.170 Y-8.234 F9000
G1 X-15.033 Y-8.508 E0.0102 F1800
G1 X-14.888 Y-8.736 E0.0090
G1 X-15.170 Y-8.234 E0.0192
G1 X-14.308 Y-9.648 F9000
G1 X-14.077 Y-10.012 E0.0144 F1800
G1 X-13.909 Y-10.229 E0.0091
G1 X-14.308 Y-9.648 E0.0235
G1 X-11.808 Y-12.600 F9000
G1 X-11.731 Y-12.680 E0.0037 F1800
G1 X-11.072 Y-13.243 E0.0288
G1 X-11.808 Y-12.600 E0.0325
G1 X-10.722 Y-13.543 F9000
G1 X-10.703 Y-13.559 E0.0008 F1800
G1 X-10.378 Y-13.810 E0.0137
G1 X-10.285 Y-13.872 E0.0037
G1 X-10.722 Y-13.543 E0.0182
; feature outer perimeter
G1 X-10.955 Y-13.870 F9000
G1 X-10.612 Y-14.134 E0.0144 F1200
G1 X-9.099 Y-15.152 E0.0607
G1 X-7.492 Y-16.008 E0.0605
G1 X-5.807 Y-16.693 E0.0605
G1 X-4.060 Y-17.202 E0.0605
G1 X-2.269 Y-17.528 E0.0605
G1 X-0.455 Y-17.668 E0.0605
G1 X1.364 Y-17.622 E0.0605
G1 X3.169 Y-17.388 E0.0605
G1 X4.940 Y-16.970 E0.0605
G1 X6.658 Y-16.372 E0.0605
G1 X8.307 Y-15.601 E0.0605
G1 X9.868 Y-14.663 E0.0606
G1 X10.987 Y-13.844 E0.0461
G1 X11.319 Y-13.574 E0.0142
G1 X12.657 Y-12.336 E0.0607
G1 X13.859 Y-10.969 E0.0605
G1 X14.913 Y-9.486 E0.0605
G1 X15.810 Y-7.900 E0.0606
G1 X16.271 Y-6.902 E0.0366
G1 X16.537 Y-6.238 E0.0238
G1 X17.092 Y-4.501 E0.0606
G1 X17.464 Y-2.720 E0.0605
G1 X17.651 Y-0.907 E0.0606
G1 X17.675 Y0.000 E0.0302
G1 X17.651 Y0.907 E0.0302
G1 X17.464 Y2.720 E0.0606
G1 X17.092 Y4.501 E0.0605
G1 X16.537 Y6.238 E0.0606
G1 X16.271 Y6.902 E0.0238
G1 X15.810 Y7.900 E0.0366
G1 X14.904 Y9.500 E0.0612
G1 X13.857 Y10.971 E0.0601
G1 X13.537 Y11.361 E0.0168
G1 X12.644 Y12.350 E0.0443
G1 X11.319 Y13.574 E0.0600
G1 X10.987 Y13.844 E0.0142
G1 X9.868 Y14.663 E0.0461
G1 X8.307 Y15.601 E0.0606
G1 X6.658 Y16.372 E0.0605
G1 X4.940 Y16.970 E0.0605
G1 X3.169 Y17.388 E0.0605
G1 X1.364 Y17.622 E0.0605
G1 X-0.455 Y17.668 E0.0605
G1 X-2.269 Y17.528 E0.0605
G1 X-4.060 Y17.202 E0.0605
G1 X-5.807 Y16.693 E0.0605
G1 X-7.492 Y16.008 E0.0605
G1 X-9.099 Y15.152 E0.0605
G1 X-10.611 Y14.135 E0.0606
G1 X-11.011 Y13.823 E0.0169
G1 X-12.016 Y12.961 E0.0440
G1 X-13.278 Y11.665 E0.0602
G1 X-13.604 Y11.280 E0.0168
G1 X-14.404 Y10.242 E0.0436
G1 X-15.382 Y8.705 E0.0606
G1 X-16.195 Y7.078 E0.0605
G1 X-16.837 Y5.375 E0.0605
G1 X-17.301 Y3.615 E0.0605
G1 X-17.581 Y1.817 E0.0605
G1 X-17.674 Y0.000 E0.0605
G1 X-17.581 Y-1.817 E0.0605
G1 X-17.301 Y-3.615 E0.0605
G1 X-16.837 Y-5.375 E0.0605
G1 X-16.195 Y-7.078 E0.0605
G1 X-15.382 Y-8.706 E0.0605
G1 X-14.404 Y-10.242 E0.0606
G1 X-13.563 Y-11.332 E0.0458
G1 X-13.278 Y-11.665 E0.0146
G1 X-12.005 Y-12.972 E0.0607
G1 X-10.955 Y-13.870 E0.0459
G1 X-10.522 Y-13.192 F9000
G1 X-11.655 Y-12.203 E0.0500 F1200
G1 X-12.958 Y-10.847 E0.0626
G1 X12.958 Y-10.847 E0.8620
G1 X11.660 Y-12.199 E0.0623
G1 X10.522 Y-13.192 E0.0503
G1 X9.787 Y-13.747 E0.0306
G1 X-9.787 Y-13.747 E0.6510
G1 X-10.522 Y-13.192 E0.0306
G1 X-8.305 Y-14.347 F9000
G1 X8.305 Y-14.347 E0.5524 F1200
G1 X8.378 Y-14.654 E0.0105
G1 X6.851 Y-15.421 E0.0568
G1 X5.228 Y-16.044 E0.0578
G1 X3.502 Y-16.507 E0.0594
G1 X1.761 Y-16.783 E0.0586
G1 X0.000 Y-16.875 E0.0586
G1 X-1.761 Y-16.783 E0.0586
G1 X-3.502 Y-16.507 E0.0586
G1 X-5.228 Y-16.044 E0.0594
G1 X-6.851 Y-15.421 E0.0578
G1 X-8.378 Y-14.654 E0.0568
