; G-Code generated by Simplify3D(R) Version 4.1.2
; Apr 6, 2020 at 12:30:21 PM
; Settings Summary
;   processName,Process1
;   applyToModels,Gob rampV1R4
;   profileName,MakerBot Replicator 2 HBP (modified)
;   profileVersion,2019-08-23 15:32:08
;   baseProfile,MakerBot Replicator 2(2)
;   printMaterial,PLA
;   printQuality,Medium
;   printExtruders,
;   extruderName,Primary Extruder
;   extruderToolheadNumber,0
;   extruderDiameter,0.4
;   extruderAutoWidth,0
;   extruderWidth,0.4
;   extrusionMultiplier,1
;   extruderUseRetract,1
;   extruderRetractionDistance,1
;   extruderExtraRestartDistance,0
;   extruderRetractionZLift,0.5
;   extruderRetractionSpeed,1200
;   extruderUseCoasting,0
;   extruderCoastingDistance,0.2
;   extruderUseWipe,0
;   extruderWipeDistance,5
;   primaryExtruder,0
;   layerHeight,0.2
;   topSolidLayers,3
;   bottomSolidLayers,3
;   perimeterOutlines,2
;   printPerimetersInsideOut,1
;   startPointOption,3
;   startPointOriginX,0
;   startPointOriginY,150
;   sequentialIslands,0
;   spiralVaseMode,0
;   firstLayerHeightPercentage,100
;   firstLayerWidthPercentage,100
;   firstLayerUnderspeed,0.5
;   useRaft,0
;   raftExtruder,0
;   raftTopLayers,2
;   raftBaseLayers,1
;   raftOffset,1
;   raftSeparationDistance,0.14
;   raftTopInfill,90
;   aboveRaftSpeedMultiplier,0.3
;   useSkirt,0
;   skirtExtruder,0
;   skirtLayers,1
;   skirtOutlines,5
;   skirtOffset,0
;   usePrimePillar,0
;   primePillarExtruder,999
;   primePillarWidth,12
;   primePillarLocation,7
;   primePillarSpeedMultiplier,1
;   useOozeShield,0
;   oozeShieldExtruder,999
;   oozeShieldOffset,2
;   oozeShieldOutlines,1
;   oozeShieldSidewallShape,1
;   oozeShieldSidewallAngle,30
;   oozeShieldSpeedMultiplier,1
;   infillExtruder,0
;   internalInfillPattern,Rectilinear
;   externalInfillPattern,Rectilinear
;   infillPercentage,15
;   outlineOverlapPercentage,20
;   infillExtrusionWidthPercentage,100
;   minInfillLength,5
;   infillLayerInterval,1
;   internalInfillAngles,45,-45
;   overlapInternalInfillAngles,0
;   externalInfillAngles,45,-45
;   generateSupport,0
;   supportExtruder,0
;   supportInfillPercentage,10
;   supportExtraInflation,0.5
;   supportBaseLayers,0
;   denseSupportExtruder,0
;   denseSupportLayers,2
;   denseSupportInfillPercentage,70
;   supportLayerInterval,1
;   supportHorizontalPartOffset,0.3
;   supportUpperSeparationLayers,1
;   supportLowerSeparationLayers,1
;   supportType,0
;   supportGridSpacing,2
;   maxOverhangAngle,45
;   supportAngles,0
;   temperatureName,Primary Extruder,Heated Build Platform
;   temperatureNumber,0,0
;   temperatureSetpointCount,1,1
;   temperatureSetpointLayers,1,1
;   temperatureSetpointTemperatures,230,60
;   temperatureStabilizeAtStartup,1,1
;   temperatureHeatedBed,0,1
;   fanLayers,1,2
;   fanSpeeds,0,100
;   blipFanToFullPower,1
;   adjustSpeedForCooling,1
;   minSpeedLayerTime,15
;   minCoolingSpeedSlowdown,20
;   increaseFanForCooling,1
;   minFanLayerTime,45
;   maxCoolingFanSpeed,100
;   increaseFanForBridging,1
;   bridgingFanSpeed,100
;   use5D,1
;   relativeEdistances,1
;   allowEaxisZeroing,0
;   independentExtruderAxes,1
;   includeM10123,0
;   stickySupport,1
;   applyToolheadOffsets,0
;   gcodeXoffset,0
;   gcodeYoffset,0
;   gcodeZoffset,0
;   overrideMachineDefinition,1
;   machineTypeOverride,0
;   strokeXoverride,280
;   strokeYoverride,150
;   strokeZoverride,150
;   originOffsetXoverride,140
;   originOffsetYoverride,75
;   originOffsetZoverride,0
;   homeXdirOverride,1
;   homeYdirOverride,1
;   homeZdirOverride,-1
;   flipXoverride,1
;   flipYoverride,-1
;   flipZoverride,1
;   toolheadOffsets,0,0|0,0|0,0|0,0|0,0|0,0
;   overrideFirmwareConfiguration,1
;   firmwareTypeOverride,MakerBot/Sailfish Firmware
;   GPXconfigOverride,r2h
;   baudRateOverride,115200
;   overridePrinterModels,1
;   printerModelsOverride,MakerBot_Replicator2.stl
;   startingGcode,; **** Replicator 2 start.gcode ****,M73 P0 ; enable build progress,G162 X Y F3000 ; home XY maximum,G161 Z F1200 ; home Z minimum,G92 Z-5 ; set Z to -5,G1 Z0 ; move Z to 0,G161 Z F100 ; home Z slowly,M132 X Y Z A B ; recall home offsets,G1 X-145 Y-75 Z30 F9000 ; move to wait position off table,G130 X20 Y20 Z20 A20 B20 ; lower stepper Vrefs while heating,M126 S[fan_speed_pwm],M140 S[bed0_temperature] T0,M134 T0 ; stabilize bed temperature,M104 S[extruder0_temperature] T0,M133 T0 ; stabilize extruder temperature,G130 X127 Y127 Z40 A127 B127 ; default stepper Vrefs,G92 A0 ; zero extruder,G1 Z0.4 ; position nozzle,G1 E25 F300 ; purge nozzle,G1 X-140 Y-70 Z0.15 F1200 ; slow wipe,G1 X-135 Y-65 Z0.5 F1200 ; lift,G92 A0 ; zero extruder,M73 P1 ;@body (notify GPX body has started),; **** end of start.gcode ****
;   layerChangeGcode,
;   retractionGcode,
;   toolChangeGcode,
;   endingGcode,; **** Replicator 2 end.gcode ****,M73 P100 ; end build progress,G1 Z155 F1000 ; send Z axis to bottom of machine,M104 S0 T0 ; cool down extruder,M140 S0 T0 ; cool down HBP,M127 ; stop blower fan,G162 X Y F3000 ; home XY maximum,M18 ; disable stepper,M0 ; stop codes,M72 P1 ; play Ta-Da song,; **** end of end.gcode ****
;   exportFileFormat,gcode
;   celebration,0
;   celebrationSong,Random Song
;   postProcessing,
;   defaultSpeed,4800
;   outlineUnderspeed,0.5
;   solidInfillUnderspeed,1
;   supportUnderspeed,1
;   rapidXYspeed,9000
;   rapidZspeed,1200
;   minBridgingArea,50
;   bridgingExtraInflation,0
;   bridgingExtrusionMultiplier,1
;   bridgingSpeedMultiplier,0.8
;   useFixedBridgingAngle,0
;   fixedBridgingAngle,0
;   applyBridgingToPerimeters,0
;   filamentDiameters,1.75|1.75|1.75|1.75|1.75|1.75
;   filamentPricesPerKg,46|46|46|46|46|46
;   filamentDensities,1.25|1.25|1.25|1.25|1.25|1.25
;   useMinPrintHeight,0
;   minPrintHeight,0
;   useMaxPrintHeight,0
;   maxPrintHeight,4.84
;   useDiaphragm,0
;   diaphragmLayerInterval,20
;   robustSlicing,1
;   mergeAllIntoSolid,0
;   onlyRetractWhenCrossingOutline,0
;   retractBetweenLayers,0
;   useRetractionMinTravel,1
;   retractionMinTravel,7
;   retractWhileWiping,1
;   onlyWipeOutlines,1
;   avoidCrossingOutline,0
;   maxMovementDetourFactor,3
;   toolChangeRetractionDistance,12
;   toolChangeExtraRestartDistance,-0.5
;   toolChangeRetractionSpeed,600
;   externalThinWallType,0
;   internalThinWallType,0
;   thinWallAllowedOverlapPercentage,10
;   singleExtrusionMinLength,1
;   singleExtrusionMinPrintingWidthPercentage,50
;   singleExtrusionMaxPrintingWidthPercentage,200
;   singleExtrusionEndpointExtension,0.2
;   horizontalSizeCompensation,0
G90
M83
; **** Replicator 2 start.gcode ****
M73 P0 ; enable build progress
G162 X Y F3000 ; home XY maximum
G161 Z F1200 ; home Z minimum
G92 Z-5 ; set Z to -5
G1 Z0 ; move Z to 0
G161 Z F100 ; home Z slowly
M132 X Y Z A B ; recall home offsets
G1 X-145 Y-75 Z30 F9000 ; move to wait position off table
G130 X20 Y20 Z20 A20 B20 ; lower stepper Vrefs while heating
M127
M140 S60 T0
M134 T0 ; stabilize bed temperature
M104 S230 T0
M133 T0 ; stabilize extruder temperature
G130 X127 Y127 Z40 A127 B127 ; default stepper Vrefs
G92 A0 ; zero extruder
G1 Z0.4 ; position nozzle
G1 E25 F300 ; purge nozzle
G1 X-140 Y-70 Z0.15 F1200 ; slow wipe
G1 X-135 Y-65 Z0.5 F1200 ; lift
G92 A0 ; zero extruder
M73 P1 ;@body (notify GPX body has started)
; **** end of start.gcode ****
; process Process1
; layer 1, Z = 0.200
M135 T0
G1 E-1.0000 F1200
; feature inner perimeter
; tool H0.200 W0.400
G1 Z0.500 F1200
G1 X-26.871 Y14.360 F9000
G1 Z0.200 F1200
G1 E1.0000 F1200
G1 X-26.871 Y-2.280 E0.5534 F1800
G1 X-40.900 Y-2.280 E0.4666
G1 X-40.900 Y-14.360 E0.4018
G1 X40.900 Y-14.360 E2.7207
G1 X40.900 Y-2.280 E0.4018
G1 X26.929 Y-2.280 E0.4647
G1 X26.929 Y14.360 E0.5534
G1 X-26.871 Y14.360 E1.7894
; feature outer perimeter
G1 X-27.271 Y14.760 F9000
G1 X-27.271 Y-1.880 E0.5534 F1200
G1 X-41.300 Y-1.880 E0.4666
G1 X-41.300 Y-14.760 E0.4284
G1 X41.300 Y-14.760 E2.7473
G1 X41.300 Y-1.880 E0.4284
G1 X27.329 Y-1.880 E0.4647
G1 X27.329 Y14.760 E0.5534
G1 X-27.271 Y14.760 E1.8160
G1 E-1.0000 F1200
; feature inner perimeter
G1 Z0.700 F1200
G1 X32.461 Y-7.438 F9000
G1 Z0.200 F1200
G1 E1.0000 F1200
G1 X32.688 Y-7.013 E0.0160 F1800
G1 X32.994 Y-6.640 E0.0160
G1 X33.366 Y-6.335 E0.0160
G1 X33.791 Y-6.107 E0.0160
G1 X34.252 Y-5.968 E0.0160
G1 X34.731 Y-5.920 E0.0160
G1 X35.211 Y-5.968 E0.0160
G1 X35.672 Y-6.107 E0.0160
G1 X36.097 Y-6.335 E0.0160
G1 X36.469 Y-6.640 E0.0160
G1 X36.775 Y-7.013 E0.0160
G1 X37.002 Y-7.438 E0.0160
G1 X37.142 Y-7.899 E0.0160
G1 X37.189 Y-8.378 E0.0160
G1 X37.142 Y-8.857 E0.0160
G1 X37.002 Y-9.319 E0.0160
G1 X36.775 Y-9.743 E0.0160
G1 X36.469 Y-10.116 E0.0160
G1 X36.097 Y-10.421 E0.0160
G1 X35.672 Y-10.649 E0.0160
G1 X35.211 Y-10.788 E0.0160
G1 X34.731 Y-10.836 E0.0160
G1 X34.252 Y-10.788 E0.0160
G1 X33.791 Y-10.649 E0.0160
G1 X33.366 Y-10.421 E0.0160
G1 X32.994 Y-10.116 E0.0160
G1 X32.688 Y-9.743 E0.0160
G1 X32.461 Y-9.319 E0.0160
G1 X32.321 Y-8.857 E0.0160
G1 X32.274 Y-8.378 E0.0160
G1 X32.321 Y-7.899 E0.0160
G1 X32.461 Y-7.438 E0.0160
; feature outer perimeter
G1 X32.832 Y-7.591 F9000
G1 X33.022 Y-7.236 E0.0134 F1200
G1 X33.278 Y-6.924 E0.0134
G1 X33.589 Y-6.669 E0.0134
G1 X33.945 Y-6.479 E0.0134
G1 X34.330 Y-6.362 E0.0134
G1 X34.731 Y-6.322 E0.0134
G1 X35.133 Y-6.362 E0.0134
G1 X35.518 Y-6.479 E0.0134
G1 X35.874 Y-6.669 E0.0134
G1 X36.185 Y-6.924 E0.0134
G1 X36.441 Y-7.236 E0.0134
G1 X36.631 Y-7.591 E0.0134
G1 X36.748 Y-7.977 E0.0134
G1 X36.787 Y-8.378 E0.0134
G1 X36.748 Y-8.779 E0.0134
G1 X36.631 Y-9.165 E0.0134
G1 X36.441 Y-9.520 E0.0134
G1 X36.185 Y-9.832 E0.0134
G1 X35.874 Y-10.087 E0.0134
G1 X35.518 Y-10.277 E0.0134
G1 X35.133 Y-10.394 E0.0134
G1 X34.731 Y-10.434 E0.0134
G1 X34.330 Y-10.394 E0.0134
G1 X33.945 Y-10.277 E0.0134
G1 X33.589 Y-10.087 E0.0134
G1 X33.278 Y-9.832 E0.0134
G1 X33.022 Y-9.520 E0.0134
G1 X32.832 Y-9.165 E0.0134
G1 X32.715 Y-8.779 E0.0134
G1 X32.676 Y-8.378 E0.0134
G1 X32.715 Y-7.977 E0.0134
G1 X32.832 Y-7.591 E0.0134
; feature solid layer
G1 X34.547 Y-5.617 F9000
G1 X37.564 Y-2.600 E0.1419 F2400
G1 X38.130 Y-2.600 E0.0188
G1 X35.095 Y-5.635 E0.1428
G1 X35.274 Y-5.652 E0.0060
G1 X35.557 Y-5.738 E0.0098
G1 X38.696 Y-2.600 E0.1476
G1 X39.261 Y-2.600 E0.0188
G1 X35.961 Y-5.899 E0.1552
G1 X36.276 Y-6.067 E0.0118
G1 X36.321 Y-6.105 E0.0020
G1 X39.827 Y-2.600 E0.1649
G1 X40.393 Y-2.600 E0.0188
G1 X36.632 Y-6.360 E0.1769
G1 X36.697 Y-6.413 E0.0028
G1 X36.899 Y-6.659 E0.0106
G1 X40.580 Y-2.978 E0.1732
G1 X40.580 Y-3.543 E0.0188
G1 X37.128 Y-6.995 E0.1624
G1 X37.299 Y-7.314 E0.0120
G1 X37.317 Y-7.372 E0.0020
G1 X40.580 Y-4.109 E0.1535
G1 X40.580 Y-4.675 E0.0188
G1 X37.448 Y-7.806 E0.1473
G1 X37.457 Y-7.836 E0.0010
G1 X37.505 Y-8.316 E0.0160
G1 X40.580 Y-5.241 E0.1447
G1 X40.580 Y-5.806 E0.0188
G1 X37.453 Y-8.933 E0.1471
G1 X40.266 Y-14.040 F9000
G1 X40.580 Y-13.726 E0.0148 F2400
G1 X40.580 Y-13.160 E0.0188
G1 X39.700 Y-14.040 E0.0414
G1 X39.135 Y-14.040 E0.0188
G1 X40.580 Y-12.594 E0.0680
G1 X40.580 Y-12.029 E0.0188
G1 X38.569 Y-14.040 E0.0946
G1 X38.003 Y-14.040 E0.0188
G1 X40.580 Y-11.463 E0.1212
G1 X40.580 Y-10.897 E0.0188
G1 X37.438 Y-14.040 E0.1478
G1 X36.872 Y-14.040 E0.0188
G1 X40.580 Y-10.332 E0.1744
G1 X40.580 Y-9.766 E0.0188
G1 X36.306 Y-14.040 E0.2010
G1 X35.741 Y-14.040 E0.0188
G1 X40.580 Y-9.200 E0.2276
G1 X40.580 Y-8.635 E0.0188
G1 X35.175 Y-14.040 E0.2542
G1 X34.609 Y-14.040 E0.0188
G1 X40.580 Y-8.069 E0.2808
G1 X40.580 Y-7.503 E0.0188
G1 X34.044 Y-14.040 E0.3075
G1 X33.478 Y-14.040 E0.0188
G1 X40.580 Y-6.938 E0.3341
G1 X40.580 Y-6.372 E0.0188
G1 X37.057 Y-9.895 E0.1657
G1 X37.042 Y-9.922 E0.0010
G1 X36.697 Y-10.343 E0.0181
G1 X36.276 Y-10.689 E0.0181
G1 X36.249 Y-10.703 E0.0010
G1 X32.912 Y-14.040 E0.1569
G1 X32.347 Y-14.040 E0.0188
G1 X35.286 Y-11.100 E0.1383
G1 X35.274 Y-11.104 E0.0004
G1 X34.731 Y-11.157 E0.0181
G1 X34.669 Y-11.151 E0.0021
G1 X31.781 Y-14.040 E0.1359
G1 X31.215 Y-14.040 E0.0188
G1 X34.160 Y-11.095 E0.1385
G1 X33.726 Y-10.963 E0.0151
G1 X30.649 Y-14.040 E0.1447
G1 X30.084 Y-14.040 E0.0188
G1 X33.349 Y-10.775 E0.1536
G1 X33.187 Y-10.689 E0.0061
G1 X33.013 Y-10.545 E0.0075
G1 X29.518 Y-14.040 E0.1644
G1 X28.952 Y-14.040 E0.0188
G1 X32.713 Y-10.279 E0.1769
G1 X32.458 Y-9.968 E0.0134
G1 X28.387 Y-14.040 E0.1915
G1 X27.821 Y-14.040 E0.0188
G1 X32.253 Y-9.608 E0.2085
G1 X32.164 Y-9.442 E0.0063
G1 X32.092 Y-9.203 E0.0083
G1 X27.255 Y-14.040 E0.2275
G1 X26.690 Y-14.040 E0.0188
G1 X31.988 Y-8.741 E0.2492
G1 X31.952 Y-8.378 E0.0121
G1 X31.971 Y-8.193 E0.0062
G1 X26.124 Y-14.040 E0.2750
G1 X25.558 Y-14.040 E0.0188
G1 X32.112 Y-7.486 E0.3083
G1 X32.164 Y-7.314 E0.0060
G1 X32.421 Y-6.834 E0.0181
G1 X32.766 Y-6.413 E0.0181
G1 X33.187 Y-6.067 E0.0181
G1 X33.668 Y-5.810 E0.0181
G1 X33.840 Y-5.758 E0.0060
G1 X36.998 Y-2.600 E0.1486
G1 X36.433 Y-2.600 E0.0188
G1 X24.993 Y-14.040 E0.5381
G1 X24.427 Y-14.040 E0.0188
G1 X35.867 Y-2.600 E0.5381
G1 X35.301 Y-2.600 E0.0188
G1 X23.861 Y-14.040 E0.5381
G1 X23.296 Y-14.040 E0.0188
G1 X34.736 Y-2.600 E0.5381
G1 X34.170 Y-2.600 E0.0188
G1 X22.730 Y-14.040 E0.5381
G1 X22.164 Y-14.040 E0.0188
G1 X33.604 Y-2.600 E0.5381
G1 X33.039 Y-2.600 E0.0188
G1 X21.599 Y-14.040 E0.5381
G1 X21.033 Y-14.040 E0.0188
G1 X32.473 Y-2.600 E0.5381
G1 X31.907 Y-2.600 E0.0188
G1 X20.467 Y-14.040 E0.5381
G1 X19.901 Y-14.040 E0.0188
G1 X31.342 Y-2.600 E0.5381
G1 X30.776 Y-2.600 E0.0188
G1 X19.336 Y-14.040 E0.5381
G1 X18.770 Y-14.040 E0.0188
G1 X30.210 Y-2.600 E0.5381
G1 X29.645 Y-2.600 E0.0188
G1 X18.204 Y-14.040 E0.5381
G1 X17.639 Y-14.040 E0.0188
G1 X29.079 Y-2.600 E0.5381
G1 X28.513 Y-2.600 E0.0188
G1 X17.073 Y-14.040 E0.5381
G1 X16.507 Y-14.040 E0.0188
G1 X27.947 Y-2.600 E0.5381
G1 X27.382 Y-2.600 E0.0188
G1 X15.942 Y-14.040 E0.5381
G1 X15.376 Y-14.040 E0.0188
G1 X26.816 Y-2.600 E0.5381
G1 X26.609 Y-2.600 E0.0069
G1 X26.609 Y-2.241 E0.0119
G1 X14.810 Y-14.040 E0.5550
G1 X14.245 Y-14.040 E0.0188
G1 X26.609 Y-1.676 E0.5816
G1 X26.609 Y-1.110 E0.0188
G1 X13.679 Y-14.040 E0.6082
G1 X13.113 Y-14.040 E0.0188
G1 X26.609 Y-0.544 E0.6348
G1 X26.609 Y0.022 E0.0188
G1 X12.548 Y-14.040 E0.6614
G1 X11.982 Y-14.040 E0.0188
G1 X26.609 Y0.587 E0.6880
G1 X26.609 Y1.153 E0.0188
G1 X11.416 Y-14.040 E0.7146
G1 X10.851 Y-14.040 E0.0188
G1 X26.609 Y1.719 E0.7412
G1 X26.609 Y2.284 E0.0188
G1 X10.285 Y-14.040 E0.7678
G1 X9.719 Y-14.040 E0.0188
G1 X26.609 Y2.850 E0.7944
G1 X26.609 Y3.416 E0.0188
G1 X9.153 Y-14.040 E0.8210
G1 X8.588 Y-14.040 E0.0188
G1 X26.609 Y3.981 E0.8477
G1 X26.609 Y4.547 E0.0188
G1 X8.022 Y-14.040 E0.8743
G1 X7.456 Y-14.040 E0.0188
G1 X26.609 Y5.113 E0.9009
G1 X26.609 Y5.678 E0.0188
G1 X6.891 Y-14.040 E0.9275
G1 X6.325 Y-14.040 E0.0188
G1 X26.609 Y6.244 E0.9541
G1 X26.609 Y6.810 E0.0188
G1 X5.759 Y-14.040 E0.9807
G1 X5.194 Y-14.040 E0.0188
G1 X26.609 Y7.375 E1.0073
G1 X26.609 Y7.941 E0.0188
G1 X4.628 Y-14.040 E1.0339
G1 X4.062 Y-14.040 E0.0188
G1 X26.609 Y8.507 E1.0605
G1 X26.609 Y9.072 E0.0188
G1 X3.497 Y-14.040 E1.0871
G1 X2.931 Y-14.040 E0.0188
G1 X26.609 Y9.638 E1.1137
G1 X26.609 Y10.204 E0.0188
G1 X2.365 Y-14.040 E1.1403
G1 X1.800 Y-14.040 E0.0188
G1 X26.609 Y10.770 E1.1669
G1 X26.609 Y11.335 E0.0188
G1 X1.234 Y-14.040 E1.1936
G1 X0.668 Y-14.040 E0.0188
G1 X26.609 Y11.901 E1.2202
G1 X26.609 Y12.467 E0.0188
G1 X0.102 Y-14.040 E1.2468
G1 X-0.463 Y-14.040 E0.0188
G1 X26.609 Y13.032 E1.2734
G1 X26.609 Y13.598 E0.0188
G1 X-1.029 Y-14.040 E1.3000
G1 X-1.595 Y-14.040 E0.0188
G1 X26.485 Y14.040 E1.3208
G1 X25.919 Y14.040 E0.0188
G1 X-2.160 Y-14.040 E1.3208
G1 X-2.726 Y-14.040 E0.0188
G1 X25.353 Y14.040 E1.3208
G1 X24.788 Y14.040 E0.0188
G1 X-3.292 Y-14.040 E1.3208
G1 X-3.857 Y-14.040 E0.0188
G1 X24.222 Y14.040 E1.3208
G1 X23.656 Y14.040 E0.0188
G1 X-4.423 Y-14.040 E1.3208
G1 X-4.989 Y-14.040 E0.0188
G1 X23.091 Y14.040 E1.3208
G1 X22.525 Y14.040 E0.0188
G1 X-5.554 Y-14.040 E1.3208
G1 X-6.120 Y-14.040 E0.0188
G1 X21.959 Y14.040 E1.3208
G1 X21.394 Y14.040 E0.0188
G1 X-6.686 Y-14.040 E1.3208
G1 X-7.251 Y-14.040 E0.0188
G1 X20.828 Y14.040 E1.3208
G1 X20.262 Y14.040 E0.0188
G1 X-7.817 Y-14.040 E1.3208
G1 X-8.383 Y-14.040 E0.0188
G1 X19.697 Y14.040 E1.3208
G1 X19.131 Y14.040 E0.0188
