; G-Code generated by Simplify3D(R) Version 4.1.2
; Apr 6, 2020 at 12:38:19 PM
; Settings Summary
;   processName,Process1
;   applyToModels,hat brim
;   profileName,MakerBot Replicator 2 HBP (modified)
;   profileVersion,2019-08-23 15:32:08
;   baseProfile,MakerBot Replicator 2(2)
;   printMaterial,PLA
;   printQuality,Medium
;   printExtruders,
;   extruderName,Primary Extruder
;   extruderToolheadNumber,0
;   extruderDiameter,0.4
;   extruderAutoWidth,0
;   extruderWidth,0.4
;   extrusionMultiplier,1
;   extruderUseRetract,1
;   extruderRetractionDistance,1
;   extruderExtraRestartDistance,0
;   extruderRetractionZLift,0.5
;   extruderRetractionSpeed,1200
;   extruderUseCoasting,0
;   extruderCoastingDistance,0.2
;   extruderUseWipe,0
;   extruderWipeDistance,5
;   primaryExtruder,0
;   layerHeight,0.2
;   topSolidLayers,3
;   bottomSolidLayers,3
;   perimeterOutlines,2
;   printPerimetersInsideOut,1
;   startPointOption,3
;   startPointOriginX,0
;   startPointOriginY,150
;   sequentialIslands,0
;   spiralVaseMode,0
;   firstLayerHeightPercentage,100
;   firstLayerWidthPercentage,100
;   firstLayerUnderspeed,0.5
;   useRaft,1
;   raftExtruder,0
;   raftTopLayers,2
;   raftBaseLayers,1
;   raftOffset,1
;   raftSeparationDistance,0.14
;   raftTopInfill,90
;   aboveRaftSpeedMultiplier,0.3
;   useSkirt,0
;   skirtExtruder,0
;   skirtLayers,1
;   skirtOutlines,5
;   skirtOffset,0
;   usePrimePillar,0
;   primePillarExtruder,999
;   primePillarWidth,12
;   primePillarLocation,7
;   primePillarSpeedMultiplier,1
;   useOozeShield,0
;   oozeShieldExtruder,999
;   oozeShieldOffset,2
;   oozeShieldOutlines,1
;   oozeShieldSidewallShape,1
;   oozeShieldSidewallAngle,30
;   oozeShieldSpeedMultiplier,1
;   infillExtruder,0
;   internalInfillPattern,Rectilinear
;   externalInfillPattern,Rectilinear
;   infillPercentage,15
;   outlineOverlapPercentage,20
;   infillExtrusionWidthPercentage,100
;   minInfillLength,5
;   infillLayerInterval,1
;   internalInfillAngles,45,-45
;   overlapInternalInfillAngles,0
;   externalInfillAngles,45,-45
;   generateSupport,1
;   supportExtruder,0
;   supportInfillPercentage,10
;   supportExtraInflation,0.5
;   supportBaseLayers,0
;   denseSupportExtruder,0
;   denseSupportLayers,2
;   denseSupportInfillPercentage,70
;   supportLayerInterval,1
;   supportHorizontalPartOffset,0.3
;   supportUpperSeparationLayers,1
;   supportLowerSeparationLayers,1
;   supportType,0
;   supportGridSpacing,2
;   maxOverhangAngle,45
;   supportAngles,0
;   temperatureName,Primary Extruder,Heated Build Platform
;   temperatureNumber,0,0
;   temperatureSetpointCount,1,1
;   temperatureSetpointLayers,1,1
;   temperatureSetpointTemperatures,230,60
;   temperatureStabilizeAtStartup,1,1
;   temperatureHeatedBed,0,1
;   fanLayers,1,2
;   fanSpeeds,0,100
;   blipFanToFullPower,1
;   adjustSpeedForCooling,1
;   minSpeedLayerTime,15
;   minCoolingSpeedSlowdown,20
;   increaseFanForCooling,1
;   minFanLayerTime,45
;   maxCoolingFanSpeed,100
;   increaseFanForBridging,1
;   bridgingFanSpeed,100
;   use5D,1
;   relativeEdistances,1
;   allowEaxisZeroing,0
;   independentExtruderAxes,1
;   includeM10123,0
;   stickySupport,1
;   applyToolheadOffsets,0
;   gcodeXoffset,0
;   gcodeYoffset,0
;   gcodeZoffset,0
;   overrideMachineDefinition,1
;   machineTypeOverride,0
;   strokeXoverride,280
;   strokeYoverride,150
;   strokeZoverride,150
;   originOffsetXoverride,140
;   originOffsetYoverride,75
;   originOffsetZoverride,0
;   homeXdirOverride,1
;   homeYdirOverride,1
;   homeZdirOverride,-1
;   flipXoverride,1
;   flipYoverride,-1
;   flipZoverride,1
;   toolheadOffsets,0,0|0,0|0,0|0,0|0,0|0,0
;   overrideFirmwareConfiguration,1
;   firmwareTypeOverride,MakerBot/Sailfish Firmware
;   GPXconfigOverride,r2h
;   baudRateOverride,115200
;   overridePrinterModels,1
;   printerModelsOverride,MakerBot_Replicator2.stl
;   startingGcode,; **** Replicator 2 start.gcode ****,M73 P0 ; enable build progress,G162 X Y F3000 ; home XY maximum,G161 Z F1200 ; home Z minimum,G92 Z-5 ; set Z to -5,G1 Z0 ; move Z to 0,G161 Z F100 ; home Z slowly,M132 X Y Z A B ; recall home offsets,G1 X-145 Y-75 Z30 F9000 ; move to wait position off table,G130 X20 Y20 Z20 A20 B20 ; lower stepper Vrefs while heating,M126 S[fan_speed_pwm],M140 S[bed0_temperature] T0,M134 T0 ; stabilize bed temperature,M104 S[extruder0_temperature] T0,M133 T0 ; stabilize extruder temperature,G130 X127 Y127 Z40 A127 B127 ; default stepper Vrefs,G92 A0 ; zero extruder,G1 Z0.4 ; position nozzle,G1 E25 F300 ; purge nozzle,G1 X-140 Y-70 Z0.15 F1200 ; slow wipe,G1 X-135 Y-65 Z0.5 F1200 ; lift,G92 A0 ; zero extruder,M73 P1 ;@body (notify GPX body has started),; **** end of start.gcode ****
;   layerChangeGcode,
;   retractionGcode,
;   toolChangeGcode,
;   endingGcode,; **** Replicator 2 end.gcode ****,M73 P100 ; end build progress,G1 Z155 F1000 ; send Z axis to bottom of machine,M104 S0 T0 ; cool down extruder,M140 S0 T0 ; cool down HBP,M127 ; stop blower fan,G162 X Y F3000 ; home XY maximum,M18 ; disable stepper,M0 ; stop codes,M72 P1 ; play Ta-Da song,; **** end of end.gcode ****
;   exportFileFormat,gcode
;   celebration,0
;   celebrationSong,Random Song
;   postProcessing,
;   defaultSpeed,4800
;   outlineUnderspeed,0.5
;   solidInfillUnderspeed,1
;   supportUnderspeed,1
;   rapidXYspeed,9000
;   rapidZspeed,1200
;   minBridgingArea,50
;   bridgingExtraInflation,0
;   bridgingExtrusionMultiplier,1
;   bridgingSpeedMultiplier,0.8
;   useFixedBridgingAngle,0
;   fixedBridgingAngle,0
;   applyBridgingToPerimeters,0
;   filamentDiameters,1.75|1.75|1.75|1.75|1.75|1.75
;   filamentPricesPerKg,46|46|46|46|46|46
;   filamentDensities,1.25|1.25|1.25|1.25|1.25|1.25
;   useMinPrintHeight,0
;   minPrintHeight,0
;   useMaxPrintHeight,0
;   maxPrintHeight,4.84
;   useDiaphragm,0
;   diaphragmLayerInterval,20
;   robustSlicing,1
;   mergeAllIntoSolid,0
;   onlyRetractWhenCrossingOutline,0
;   retractBetweenLayers,0
;   useRetractionMinTravel,1
;   retractionMinTravel,7
;   retractWhileWiping,1
;   onlyWipeOutlines,1
;   avoidCrossingOutline,0
;   maxMovementDetourFactor,3
;   toolChangeRetractionDistance,12
;   toolChangeExtraRestartDistance,-0.5
;   toolChangeRetractionSpeed,600
;   externalThinWallType,0
;   internalThinWallType,0
;   thinWallAllowedOverlapPercentage,10
;   singleExtrusionMinLength,1
;   singleExtrusionMinPrintingWidthPercentage,50
;   singleExtrusionMaxPrintingWidthPercentage,200
;   singleExtrusionEndpointExtension,0.2
;   horizontalSizeCompensation,0
G90
M83
; **** Replicator 2 start.gcode ****
M73 P0 ; enable build progress
G162 X Y F3000 ; home XY maximum
G161 Z F1200 ; home Z minimum
G92 Z-5 ; set Z to -5
G1 Z0 ; move Z to 0
G161 Z F100 ; home Z slowly
M132 X Y Z A B ; recall home offsets
G1 X-145 Y-75 Z30 F9000 ; move to wait position off table
G130 X20 Y20 Z20 A20 B20 ; lower stepper Vrefs while heating
M127
M140 S60 T0
M134 T0 ; stabilize bed temperature
M104 S230 T0
M133 T0 ; stabilize extruder temperature
G130 X127 Y127 Z40 A127 B127 ; default stepper Vrefs
G92 A0 ; zero extruder
G1 Z0.4 ; position nozzle
G1 E25 F300 ; purge nozzle
G1 X-140 Y-70 Z0.15 F1200 ; slow wipe
G1 X-135 Y-65 Z0.5 F1200 ; lift
G92 A0 ; zero extruder
M73 P1 ;@body (notify GPX body has started)
; **** end of start.gcode ****
; process Process1
; layer 1, Z = 0.500
M135 T0
G1 E-1.0000 F1200
; feature raft
; tool H0.500 W0.800
G1 Z0.500 F1200
G1 X21.772 Y23.925 F9000
G1 E1.0000 F1200
G1 X21.421 Y23.574 E0.0827 F600
G1 X21.421 Y21.925 E0.2742
G1 X13.772 Y21.925 E1.2720
G1 X13.421 Y21.574 E0.0827
G1 X13.421 Y15.925 E0.9394
G1 X11.677 Y15.925 E0.2900
G1 X12.193 Y16.683 E0.1523
G1 X12.234 Y16.771 E0.0162
G1 X12.406 Y17.386 E0.1062
G1 X12.411 Y17.529 E0.0238
G1 X12.332 Y17.917 E0.0658
G1 X12.194 Y18.117 E0.0403
G1 X11.813 Y18.361 E0.0753
G1 X11.667 Y18.409 E0.0256
G1 X11.245 Y18.434 E0.0703
G1 X11.188 Y18.432 E0.0095
G1 X10.626 Y18.359 E0.0943
G1 X10.599 Y18.354 E0.0046
G1 X10.202 Y18.264 E0.0677
G1 X10.175 Y18.257 E0.0045
G1 X9.037 Y17.890 E0.1990
G1 X9.017 Y17.883 E0.0035
G1 X8.085 Y17.508 E0.1670
G1 X8.073 Y17.503 E0.0022
G1 X7.616 Y17.295 E0.0835
G1 X7.598 Y17.286 E0.0033
G1 X6.754 Y16.833 E0.1594
G1 X6.724 Y16.816 E0.0057
G1 X6.244 Y16.483 E0.0973
G1 X6.202 Y16.449 E0.0089
G1 X5.964 Y16.211 E0.0560
G1 X5.929 Y16.169 E0.0091
G1 X5.779 Y15.952 E0.0439
G1 X5.743 Y15.882 E0.0130
G1 X5.631 Y15.570 E0.0551
G1 X5.635 Y15.352 E0.0362
G1 X5.776 Y14.993 E0.0641
G1 X5.866 Y14.870 E0.0254
G1 X6.129 Y14.652 E0.0568
G1 X6.181 Y14.618 E0.0104
G1 X6.713 Y14.340 E0.0999
G1 X6.756 Y14.321 E0.0077
G1 X7.101 Y14.204 E0.0606
G1 X7.925 Y14.079 E0.1387
G1 X7.421 Y13.574 E0.1187
G1 X7.421 Y11.925 E0.2742
G1 X4.061 Y11.925 E0.5588
G1 X4.061 Y15.574 E0.6068
G1 X3.709 Y15.925 E0.0827
G1 X-0.228 Y15.925 E0.6547
G1 X-0.579 Y15.574 E0.0827
G1 X-0.579 Y13.925 E0.2742
G1 X-4.228 Y13.925 E0.6068
G1 X-4.579 Y13.574 E0.0827
G1 X-4.579 Y11.925 E0.2742
G1 X-6.228 Y11.925 E0.2742
G1 X-6.579 Y11.574 E0.0827
G1 X-6.579 Y9.925 E0.2742
G1 X-10.228 Y9.925 E0.6068
G1 X-10.579 Y9.574 E0.0827
G1 X-10.579 Y7.925 E0.2742
G1 X-12.228 Y7.925 E0.2742
G1 X-12.579 Y7.574 E0.0827
G1 X-12.579 Y5.925 E0.2742
G1 X-14.228 Y5.925 E0.2742
G1 X-14.579 Y5.574 E0.0827
G1 X-14.579 Y3.925 E0.2742
G1 X-18.228 Y3.925 E0.6068
G1 X-18.579 Y3.574 E0.0827
G1 X-18.579 Y-0.075 E0.6068
G1 X-20.228 Y-0.075 E0.2742
G1 X-20.579 Y-0.426 E0.0827
G1 X-20.579 Y-4.363 E0.6547
G1 X-20.228 Y-4.714 E0.0827
G1 X-16.291 Y-4.714 E0.6547
G1 X-15.939 Y-4.363 E0.0827
G1 X-15.939 Y-2.715 E0.2741
G1 X-14.291 Y-2.715 E0.2742
G1 X-13.939 Y-2.363 E0.0827
G1 X-13.939 Y-0.715 E0.2741
G1 X-12.291 Y-0.715 E0.2742
G1 X-11.939 Y-0.363 E0.0827
G1 X-11.939 Y1.285 E0.2742
G1 X-10.579 Y1.285 E0.2262
G1 X-10.579 Y-2.363 E0.6068
G1 X-10.228 Y-2.715 E0.0827
G1 X-6.579 Y-2.715 E0.6068
G1 X-6.579 Y-4.363 E0.2741
G1 X-6.228 Y-4.714 E0.0827
G1 X-0.291 Y-4.714 E0.9873
G1 X0.061 Y-4.363 E0.0827
G1 X0.061 Y-2.715 E0.2741
G1 X3.709 Y-2.715 E0.6068
G1 X4.061 Y-2.363 E0.0827
G1 X4.061 Y-0.715 E0.2741
G1 X7.709 Y-0.715 E0.6068
G1 X8.061 Y-0.363 E0.0827
G1 X8.061 Y1.285 E0.2742
G1 X11.709 Y1.285 E0.6068
G1 X12.061 Y1.637 E0.0827
G1 X12.061 Y3.285 E0.2742
G1 X15.709 Y3.285 E0.6068
G1 X16.061 Y3.637 E0.0827
G1 X16.061 Y5.285 E0.2742
G1 X17.709 Y5.285 E0.2742
G1 X18.061 Y5.637 E0.0827
G1 X18.061 Y7.285 E0.2742
G1 X21.709 Y7.285 E0.6068
G1 X22.061 Y7.637 E0.0827
G1 X22.061 Y9.285 E0.2742
G1 X25.709 Y9.285 E0.6068
G1 X26.061 Y9.637 E0.0827
G1 X26.061 Y13.574 E0.6547
G1 X25.709 Y13.925 E0.0827
G1 X24.061 Y13.925 E0.2742
G1 X24.061 Y17.285 E0.5588
G1 X25.709 Y17.285 E0.2742
G1 X26.061 Y17.637 E0.0827
G1 X26.061 Y19.285 E0.2742
G1 X33.709 Y19.285 E1.2720
G1 X34.061 Y19.637 E0.0827
G1 X34.061 Y21.285 E0.2742
G1 X35.709 Y21.285 E0.2742
G1 X36.061 Y21.637 E0.0827
G1 X36.061 Y25.574 E0.6547
G1 X35.709 Y25.925 E0.0827
G1 X31.772 Y25.925 E0.6547
G1 X31.421 Y25.574 E0.0827
G1 X31.421 Y23.925 E0.2742
G1 X21.772 Y23.925 E1.6046
G1 E-1.0000 F1200
G1 Z1.000 F1200
G1 X11.421 Y15.642 F9000
G1 Z0.500 F1200
G1 E1.0000 F1200
G1 X11.421 Y13.925 E0.2854 F600
G1 X9.473 Y13.925 E0.3239
G1 X9.341 Y14.563 E0.1083
G1 X10.344 Y14.997 E0.1817
G1 X10.379 Y15.016 E0.0066
G1 X11.421 Y15.642 E0.2021
G1 X10.831 Y16.034 F9000
G1 X6.720 Y16.034 E0.6837 F600
G1 X8.500 Y13.748 F9000
G1 X8.856 Y13.748 E0.0592 F600
G1 X8.952 Y13.285 E0.0786
G1 X12.061 Y13.285 E0.5170
G1 X12.061 Y13.748 E0.0770
G1 X23.421 Y13.748 E1.8892
G1 X23.421 Y13.285 E0.0770
G1 X25.421 Y13.285 E0.3326
G1 X25.421 Y11.463 E0.3031
G1 X8.061 Y11.463 E2.8870
G1 E-1.0000 F1200
G1 Z1.000 F1200
G1 X14.061 Y16.034 F9000
G1 Z0.500 F1200
G1 E1.0000 F1200
G1 X23.421 Y16.034 E1.5566 F600
G1 X23.421 Y17.925 E0.3145
G1 X25.421 Y17.925 E0.3326
G1 X25.421 Y18.320 E0.0656
G1 X14.061 Y18.320 E1.8892
G1 X14.061 Y20.606 E0.3801
G1 X33.421 Y20.606 E3.2196
G1 X33.421 Y21.925 E0.2195
G1 X35.421 Y21.925 E0.3326
G1 X35.421 Y22.891 E0.1606
G1 X22.061 Y22.891 E2.2218
G1 X22.061 Y23.285 E0.0656
G1 X32.061 Y23.285 E1.6630
G1 X32.061 Y25.177 E0.3145
G1 X35.421 Y25.177 E0.5588
G1 E-1.0000 F1200
G1 Z1.000 F1200
G1 X0.061 Y13.748 F9000
G1 Z0.500 F1200
G1 E1.0000 F1200
G1 X3.421 Y13.748 E0.5588 F600
G1 X3.421 Y11.463 E0.3801
G1 X-3.939 Y11.463 E1.2240
G1 X-3.939 Y11.285 E0.0295
G1 X-5.939 Y11.285 E0.3326
G1 X-5.939 Y9.285 E0.3326
G1 X-9.939 Y9.285 E0.6652
G1 X-9.939 Y9.177 E0.0181
G1 X21.421 Y9.177 E5.2152
G1 X21.421 Y7.925 E0.2081
G1 X17.421 Y7.925 E0.6652
G1 X17.421 Y6.891 E0.1720
G1 X-11.939 Y6.891 E4.8826
G1 X-11.939 Y5.285 E0.2670
G1 X-13.939 Y5.285 E0.3326
G1 X-13.939 Y4.606 E0.1131
G1 X15.421 Y4.606 E4.8826
G1 X15.421 Y3.925 E0.1131
G1 X11.421 Y3.925 E0.6652
G1 X11.421 Y2.320 E0.2670
G1 X-17.939 Y2.320 E4.8826
G1 X-17.939 Y0.034 E0.3801
G1 X-12.579 Y0.034 E0.8914
G1 X-12.579 Y-0.075 E0.0181
G1 X-14.579 Y-0.075 E0.3326
G1 X-14.579 Y-2.075 E0.3326
G1 X-16.579 Y-2.075 E0.3326
G1 X-16.579 Y-2.252 E0.0295
G1 X-19.939 Y-2.252 E0.5588
G1 E-1.0000 F1200
G1 Z1.000 F1200
G1 X-9.939 Y0.034 F9000
G1 Z0.500 F1200
G1 E1.0000 F1200
G1 X7.421 Y0.034 E2.8870 F600
G1 X7.421 Y-0.075 E0.0181
G1 X3.421 Y-0.075 E0.6652
G1 X3.421 Y-2.075 E0.3326
G1 X-0.579 Y-2.075 E0.6652
G1 X-0.579 Y-2.252 E0.0295
G1 X-5.939 Y-2.252 E0.8914
; layer 2, Z = 0.722
M126 S255
; tool H0.222 W0.400
G1 Z0.722 F1200
G1 X-12.493 Y-0.915 F9000
G1 X-11.739 Y-0.161 E0.0394 F3600
G1 X-11.739 Y0.468 E0.0232
G1 X-13.121 Y-0.915 E0.0722
G1 X-13.739 Y-0.915 E0.0228
G1 X-13.739 Y-1.532 E0.0228
G1 X-15.121 Y-2.914 E0.0722
G1 X-15.739 Y-2.914 E0.0228
G1 X-15.739 Y-3.532 E0.0228
G1 X-17.121 Y-4.914 E0.0722
G1 X-17.750 Y-4.914 E0.0232
G1 X3.290 Y16.125 E1.0996
G1 X3.792 Y16.125 E0.0185
G1 X3.855 Y16.062 E0.0033
G1 X-11.121 Y1.085 E0.7827
G1 X-10.779 Y1.085 E0.0126
G1 X-10.779 Y0.799 E0.0106
G1 X4.170 Y15.748 E0.7813
G1 X4.261 Y15.657 E0.0048
G1 X4.261 Y15.210 E0.0165
G1 X-10.779 Y0.170 E0.7860
G1 X-10.779 Y-0.458 E0.0232
G1 X4.261 Y14.582 E0.7860
G1 X4.261 Y13.953 E0.0232
G1 X-10.779 Y-1.087 E0.7860
G1 X-10.779 Y-1.715 E0.0232
G1 X4.261 Y13.325 E0.7860
G1 X4.261 Y12.696 E0.0232
G1 X-10.779 Y-2.344 E0.7860
G1 X-10.779 Y-2.446 E0.0038
G1 X-10.516 Y-2.709 E0.0138
G1 X4.318 Y12.125 E0.7753
G1 X4.947 Y12.125 E0.0232
G1 X-10.093 Y-2.914 E0.7860
G1 X-9.464 Y-2.914 E0.0232
G1 X5.576 Y12.125 E0.7860
G1 X6.204 Y12.125 E0.0232
G1 X-8.836 Y-2.914 E0.7860
G1 X-8.207 Y-2.914 E0.0232
G1 X6.833 Y12.125 E0.7860
G1 X7.221 Y12.125 E0.0143
G1 X7.221 Y12.514 E0.0143
G1 X12.551 Y17.844 E0.2786
G1 X12.612 Y17.546 E0.0112
G1 X12.605 Y17.355 E0.0071
G1 X12.572 Y17.236 E0.0046
G1 X9.940 Y14.605 E0.1375
G1 X9.570 Y14.444 E0.0149
G1 X9.606 Y14.270 E0.0066
G1 X-7.579 Y-2.914 E0.8981
G1 X-6.950 Y-2.914 E0.0232
G1 X10.090 Y14.125 E0.8906
G1 X10.718 Y14.125 E0.0232
G1 X-6.779 Y-3.372 E0.9145
G1 X-6.779 Y-4.001 E0.0232
G1 X19.347 Y22.125 E1.3654
G1 X19.975 Y22.125 E0.0232
G1 X-6.688 Y-4.537 E1.3935
G1 X-6.373 Y-4.852 E0.0164
G1 X20.604 Y22.125 E1.4099
G1 X21.221 Y22.125 E0.0228
G1 X21.221 Y22.742 E0.0228
G1 X22.604 Y24.125 E0.0723
G1 X23.232 Y24.125 E0.0232
G1 X-5.808 Y-4.914 E1.5177
G1 X-5.179 Y-4.914 E0.0232
G1 X23.861 Y24.125 E1.5177
G1 X24.490 Y24.125 E0.0232
G1 X-4.550 Y-4.914 E1.5177
G1 X-3.922 Y-4.914 E0.0232
G1 X25.118 Y24.125 E1.5177
G1 X25.747 Y24.125 E0.0232
G1 X-3.293 Y-4.914 E1.5177
G1 X-2.665 Y-4.914 E0.0232
G1 X26.375 Y24.125 E1.5177
G1 X27.004 Y24.125 E0.0232
G1 X-2.036 Y-4.914 E1.5177
G1 X0.261 Y-3.874 F9000
G1 X-0.779 Y-4.914 E0.0544 F3600
G1 X-1.408 Y-4.914 E0.0232
G1 X0.261 Y-3.246 E0.0872
G1 X0.261 Y-2.914 E0.0122
G1 X0.592 Y-2.914 E0.0122
G1 X27.632 Y24.125 E1.4132
G1 X28.261 Y24.125 E0.0232
G1 X1.221 Y-2.914 E1.4132
G1 X1.849 Y-2.914 E0.0232
G1 X28.889 Y24.125 E1.4132
G1 X29.518 Y24.125 E0.0232
G1 X4.478 Y-0.915 E1.3087
G1 X4.261 Y-0.915 E0.0080
G1 X4.261 Y-1.132 E0.0080
G1 X2.478 Y-2.914 E0.0932
G1 X3.106 Y-2.914 E0.0232
G1 X4.261 Y-1.760 E0.0603
G1 X4.261 Y-2.389 E0.0232
G1 X3.735 Y-2.914 E0.0275
G1 X5.106 Y-0.915 F9000
G1 X30.146 Y24.125 E1.3087 F3600
G1 X30.775 Y24.125 E0.0232
G1 X5.735 Y-0.915 E1.3087
G1 X7.621 Y-0.915 F9000
G1 X8.261 Y-0.274 E0.0335 F3600
