; G-Code generated by Simplify3D(R) Version 4.1.2
; Apr 6, 2020 at 12:39:10 PM
; Settings Summary
;   processName,Process1
;   applyToModels,hatLED _bracketV1R2
;   profileName,MakerBot Replicator 2 HBP (modified)
;   profileVersion,2019-08-23 15:32:08
;   baseProfile,MakerBot Replicator 2(2)
;   printMaterial,PLA
;   printQuality,Medium
;   printExtruders,
;   extruderName,Primary Extruder
;   extruderToolheadNumber,0
;   extruderDiameter,0.4
;   extruderAutoWidth,0
;   extruderWidth,0.4
;   extrusionMultiplier,1
;   extruderUseRetract,1
;   extruderRetractionDistance,1
;   extruderExtraRestartDistance,0
;   extruderRetractionZLift,0.5
;   extruderRetractionSpeed,1200
;   extruderUseCoasting,0
;   extruderCoastingDistance,0.2
;   extruderUseWipe,0
;   extruderWipeDistance,5
;   primaryExtruder,0
;   layerHeight,0.2
;   topSolidLayers,3
;   bottomSolidLayers,3
;   perimeterOutlines,2
;   printPerimetersInsideOut,1
;   startPointOption,3
;   startPointOriginX,0
;   startPointOriginY,150
;   sequentialIslands,0
;   spiralVaseMode,0
;   firstLayerHeightPercentage,100
;   firstLayerWidthPercentage,100
;   firstLayerUnderspeed,0.5
;   useRaft,0
;   raftExtruder,0
;   raftTopLayers,2
;   raftBaseLayers,1
;   raftOffset,1
;   raftSeparationDistance,0.14
;   raftTopInfill,90
;   aboveRaftSpeedMultiplier,0.3
;   useSkirt,0
;   skirtExtruder,0
;   skirtLayers,1
;   skirtOutlines,5
;   skirtOffset,0
;   usePrimePillar,0
;   primePillarExtruder,999
;   primePillarWidth,12
;   primePillarLocation,7
;   primePillarSpeedMultiplier,1
;   useOozeShield,0
;   oozeShieldExtruder,999
;   oozeShieldOffset,2
;   oozeShieldOutlines,1
;   oozeShieldSidewallShape,1
;   oozeShieldSidewallAngle,30
;   oozeShieldSpeedMultiplier,1
;   infillExtruder,0
;   internalInfillPattern,Rectilinear
;   externalInfillPattern,Rectilinear
;   infillPercentage,15
;   outlineOverlapPercentage,20
;   infillExtrusionWidthPercentage,100
;   minInfillLength,5
;   infillLayerInterval,1
;   internalInfillAngles,45,-45
;   overlapInternalInfillAngles,0
;   externalInfillAngles,45,-45
;   generateSupport,0
;   supportExtruder,0
;   supportInfillPercentage,10
;   supportExtraInflation,0.5
;   supportBaseLayers,0
;   denseSupportExtruder,0
;   denseSupportLayers,2
;   denseSupportInfillPercentage,70
;   supportLayerInterval,1
;   supportHorizontalPartOffset,0.3
;   supportUpperSeparationLayers,1
;   supportLowerSeparationLayers,1
;   supportType,0
;   supportGridSpacing,2
;   maxOverhangAngle,45
;   supportAngles,0
;   temperatureName,Primary Extruder,Heated Build Platform
;   temperatureNumber,0,0
;   temperatureSetpointCount,1,1
;   temperatureSetpointLayers,1,1
;   temperatureSetpointTemperatures,230,60
;   temperatureStabilizeAtStartup,1,1
;   temperatureHeatedBed,0,1
;   fanLayers,1,2
;   fanSpeeds,0,100
;   blipFanToFullPower,1
;   adjustSpeedForCooling,1
;   minSpeedLayerTime,15
;   minCoolingSpeedSlowdown,20
;   increaseFanForCooling,1
;   minFanLayerTime,45
;   maxCoolingFanSpeed,100
;   increaseFanForBridging,1
;   bridgingFanSpeed,100
;   use5D,1
;   relativeEdistances,1
;   allowEaxisZeroing,0
;   independentExtruderAxes,1
;   includeM10123,0
;   stickySupport,1
;   applyToolheadOffsets,0
;   gcodeXoffset,0
;   gcodeYoffset,0
;   gcodeZoffset,0
;   overrideMachineDefinition,1
;   machineTypeOverride,0
;   strokeXoverride,280
;   strokeYoverride,150
;   strokeZoverride,150
;   originOffsetXoverride,140
;   originOffsetYoverride,75
;   originOffsetZoverride,0
;   homeXdirOverride,1
;   homeYdirOverride,1
;   homeZdirOverride,-1
;   flipXoverride,1
;   flipYoverride,-1
;   flipZoverride,1
;   toolheadOffsets,0,0|0,0|0,0|0,0|0,0|0,0
;   overrideFirmwareConfiguration,1
;   firmwareTypeOverride,MakerBot/Sailfish Firmware
;   GPXconfigOverride,r2h
;   baudRateOverride,115200
;   overridePrinterModels,1
;   printerModelsOverride,MakerBot_Replicator2.stl
;   startingGcode,; **** Replicator 2 start.gcode ****,M73 P0 ; enable build progress,G162 X Y F3000 ; home XY maximum,G161 Z F1200 ; home Z minimum,G92 Z-5 ; set Z to -5,G1 Z0 ; move Z to 0,G161 Z F100 ; home Z slowly,M132 X Y Z A B ; recall home offsets,G1 X-145 Y-75 Z30 F9000 ; move to wait position off table,G130 X20 Y20 Z20 A20 B20 ; lower stepper Vrefs while heating,M126 S[fan_speed_pwm],M140 S[bed0_temperature] T0,M134 T0 ; stabilize bed temperature,M104 S[extruder0_temperature] T0,M133 T0 ; stabilize extruder temperature,G130 X127 Y127 Z40 A127 B127 ; default stepper Vrefs,G92 A0 ; zero extruder,G1 Z0.4 ; position nozzle,G1 E25 F300 ; purge nozzle,G1 X-140 Y-70 Z0.15 F1200 ; slow wipe,G1 X-135 Y-65 Z0.5 F1200 ; lift,G92 A0 ; zero extruder,M73 P1 ;@body (notify GPX body has started),; **** end of start.gcode ****
;   layerChangeGcode,
;   retractionGcode,
;   toolChangeGcode,
;   endingGcode,; **** Replicator 2 end.gcode ****,M73 P100 ; end build progress,G1 Z155 F1000 ; send Z axis to bottom of machine,M104 S0 T0 ; cool down extruder,M140 S0 T0 ; cool down HBP,M127 ; stop blower fan,G162 X Y F3000 ; home XY maximum,M18 ; disable stepper,M0 ; stop codes,M72 P1 ; play Ta-Da song,; **** end of end.gcode ****
;   exportFileFormat,gcode
;   celebration,0
;   celebrationSong,Random Song
;   postProcessing,
;   defaultSpeed,4800
;   outlineUnderspeed,0.5
;   solidInfillUnderspeed,1
;   supportUnderspeed,1
;   rapidXYspeed,9000
;   rapidZspeed,1200
;   minBridgingArea,50
;   bridgingExtraInflation,0
;   bridgingExtrusionMultiplier,1
;   bridgingSpeedMultiplier,0.8
;   useFixedBridgingAngle,0
;   fixedBridgingAngle,0
;   applyBridgingToPerimeters,0
;   filamentDiameters,1.75|1.75|1.75|1.75|1.75|1.75
;   filamentPricesPerKg,46|46|46|46|46|46
;   filamentDensities,1.25|1.25|1.25|1.25|1.25|1.25
;   useMinPrintHeight,0
;   minPrintHeight,0
;   useMaxPrintHeight,0
;   maxPrintHeight,4.84
;   useDiaphragm,0
;   diaphragmLayerInterval,20
;   robustSlicing,1
;   mergeAllIntoSolid,0
;   onlyRetractWhenCrossingOutline,0
;   retractBetweenLayers,0
;   useRetractionMinTravel,1
;   retractionMinTravel,7
;   retractWhileWiping,1
;   onlyWipeOutlines,1
;   avoidCrossingOutline,0
;   maxMovementDetourFactor,3
;   toolChangeRetractionDistance,12
;   toolChangeExtraRestartDistance,-0.5
;   toolChangeRetractionSpeed,600
;   externalThinWallType,0
;   internalThinWallType,0
;   thinWallAllowedOverlapPercentage,10
;   singleExtrusionMinLength,1
;   singleExtrusionMinPrintingWidthPercentage,50
;   singleExtrusionMaxPrintingWidthPercentage,200
;   singleExtrusionEndpointExtension,0.2
;   horizontalSizeCompensation,0
G90
M83
; **** Replicator 2 start.gcode ****
M73 P0 ; enable build progress
G162 X Y F3000 ; home XY maximum
G161 Z F1200 ; home Z minimum
G92 Z-5 ; set Z to -5
G1 Z0 ; move Z to 0
G161 Z F100 ; home Z slowly
M132 X Y Z A B ; recall home offsets
G1 X-145 Y-75 Z30 F9000 ; move to wait position off table
G130 X20 Y20 Z20 A20 B20 ; lower stepper Vrefs while heating
M127
M140 S60 T0
M134 T0 ; stabilize bed temperature
M104 S230 T0
M133 T0 ; stabilize extruder temperature
G130 X127 Y127 Z40 A127 B127 ; default stepper Vrefs
G92 A0 ; zero extruder
G1 Z0.4 ; position nozzle
G1 E25 F300 ; purge nozzle
G1 X-140 Y-70 Z0.15 F1200 ; slow wipe
G1 X-135 Y-65 Z0.5 F1200 ; lift
G92 A0 ; zero extruder
M73 P1 ;@body (notify GPX body has started)
; **** end of start.gcode ****
; process Process1
; layer 1, Z = 0.200
M135 T0
G1 E-1.0000 F1200
; feature inner perimeter
; tool H0.200 W0.400
G1 Z0.500 F1200
G1 X0.000 Y25.563 F9000
G1 Z0.200 F1200
G1 E1.0000 F1200
G1 X-4.987 Y25.072 E0.1667 F1800
G1 X-9.783 Y23.617 E0.1667
G1 X-14.202 Y21.255 E0.1667
G1 X-18.076 Y18.076 E0.1667
G1 X-21.255 Y14.202 E0.1667
G1 X-23.617 Y9.783 E0.1667
G1 X-25.072 Y4.987 E0.1667
G1 X-25.563 Y0.000 E0.1667
G1 X-25.072 Y-4.987 E0.1667
G1 X-23.617 Y-9.783 E0.1667
G1 X-21.255 Y-14.202 E0.1667
G1 X-18.076 Y-18.076 E0.1667
G1 X-14.202 Y-21.255 E0.1667
G1 X-9.783 Y-23.617 E0.1667
G1 X-4.987 Y-25.072 E0.1667
G1 X0.000 Y-25.563 E0.1667
G1 X4.987 Y-25.072 E0.1667
G1 X9.783 Y-23.617 E0.1667
G1 X14.202 Y-21.255 E0.1667
G1 X18.076 Y-18.076 E0.1667
G1 X21.255 Y-14.202 E0.1667
G1 X23.617 Y-9.783 E0.1667
G1 X25.072 Y-4.987 E0.1667
G1 X25.563 Y0.000 E0.1667
G1 X25.072 Y4.987 E0.1667
G1 X23.617 Y9.783 E0.1667
G1 X21.255 Y14.202 E0.1667
G1 X18.076 Y18.076 E0.1667
G1 X14.202 Y21.255 E0.1667
G1 X9.783 Y23.617 E0.1667
G1 X4.987 Y25.072 E0.1667
G1 X0.000 Y25.563 E0.1667
; feature outer perimeter
G1 X0.000 Y25.965 F9000
G1 X-5.065 Y25.466 E0.1693 F1200
G1 X-9.936 Y23.989 E0.1693
G1 X-14.425 Y21.589 E0.1693
G1 X-18.360 Y18.360 E0.1693
G1 X-21.589 Y14.425 E0.1693
G1 X-23.989 Y9.936 E0.1693
G1 X-25.466 Y5.066 E0.1693
G1 X-25.965 Y0.000 E0.1693
G1 X-25.466 Y-5.066 E0.1693
G1 X-23.989 Y-9.936 E0.1693
G1 X-21.589 Y-14.425 E0.1693
G1 X-18.360 Y-18.360 E0.1693
G1 X-14.425 Y-21.589 E0.1693
G1 X-9.936 Y-23.989 E0.1693
G1 X-5.066 Y-25.466 E0.1693
G1 X0.000 Y-25.965 E0.1693
G1 X5.066 Y-25.466 E0.1693
G1 X9.936 Y-23.989 E0.1693
G1 X14.425 Y-21.589 E0.1693
G1 X18.360 Y-18.360 E0.1693
G1 X21.589 Y-14.425 E0.1693
G1 X23.989 Y-9.936 E0.1693
G1 X25.466 Y-5.066 E0.1693
G1 X25.965 Y0.000 E0.1693
G1 X25.466 Y5.066 E0.1693
G1 X23.989 Y9.936 E0.1693
G1 X21.589 Y14.425 E0.1693
G1 X18.360 Y18.360 E0.1693
G1 X14.425 Y21.589 E0.1693
G1 X9.936 Y23.989 E0.1693
G1 X5.066 Y25.466 E0.1693
G1 X0.000 Y25.965 E0.1693
; feature inner perimeter
G1 X2.817 Y21.812 F9000
G1 X8.341 Y20.137 E0.1920 F1800
G1 X12.109 Y18.122 E0.1421
G1 X15.412 Y15.412 E0.1421
G1 X18.122 Y12.109 E0.1421
G1 X20.137 Y8.341 E0.1421
G1 X21.494 Y3.868 E0.1555
G1 X20.710 Y3.382 E0.0307
G1 X9.880 Y13.563 E0.4944
G1 X7.779 Y13.563 E0.0699
G1 X2.817 Y21.812 E0.3202
; feature outer perimeter
G1 X3.695 Y21.128 F9000
G1 X8.187 Y19.765 E0.1561 F1200
G1 X11.886 Y17.788 E0.1395
G1 X15.128 Y15.128 E0.1395
G1 X17.788 Y11.886 E0.1395
G1 X19.765 Y8.187 E0.1395
G1 X21.022 Y4.046 E0.1439
G1 X20.761 Y3.884 E0.0102
G1 X10.039 Y13.963 E0.4895
G1 X8.005 Y13.963 E0.0676
G1 X3.695 Y21.128 E0.2781
G1 E-1.0000 F1200
; feature inner perimeter
G1 Z0.700 F1200
G1 X-3.501 Y20.678 F9000
G1 Z0.200 F1200
G1 E1.0000 F1200
G1 X-7.689 Y13.563 E0.2746 F1800
G1 X-9.796 Y13.563 E0.0701
G1 X-20.713 Y3.382 E0.4965
G1 X-21.493 Y3.869 E0.0306
G1 X-20.137 Y8.341 E0.1554
G1 X-18.122 Y12.109 E0.1421
G1 X-15.412 Y15.412 E0.1421
G1 X-12.575 Y17.740 E0.1221
G1 X-12.718 Y17.954 E0.0086
G1 X-8.394 Y20.265 E0.1631
G1 X-3.702 Y21.688 E0.1631
G1 X-3.501 Y20.678 E0.0343
; feature outer perimeter
G1 X-3.923 Y20.750 F9000
G1 X-7.918 Y13.963 E0.2619 F1200
G1 X-9.953 Y13.963 E0.0677
G1 X-20.761 Y3.884 E0.4915
G1 X-21.021 Y4.046 E0.0102
G1 X-19.765 Y8.187 E0.1439
G1 X-17.788 Y11.886 E0.1395
G1 X-15.128 Y15.128 E0.1395
G1 X-12.041 Y17.661 E0.1328
G1 X-12.140 Y17.809 E0.0059
G1 X-8.240 Y19.894 E0.1471
G1 X-4.008 Y21.178 E0.1471
G1 X-3.923 Y20.750 E0.0145
G1 E-1.0000 F1200
; feature inner perimeter
G1 Z0.700 F1200
G1 X-7.512 Y7.158 F9000
G1 Z0.200 F1200
G1 E1.0000 F1200
G1 X-3.408 Y-21.633 E0.9673 F1800
G1 X-8.341 Y-20.137 E0.1715
G1 X-12.109 Y-18.122 E0.1421
G1 X-15.412 Y-15.412 E0.1421
G1 X-18.122 Y-12.109 E0.1421
G1 X-20.137 Y-8.341 E0.1421
G1 X-21.464 Y-3.963 E0.1521
G1 X-10.280 Y7.158 E0.5246
G1 X-7.512 Y7.158 E0.0921
; feature outer perimeter
G1 X-7.859 Y6.758 F9000
G1 X-3.892 Y-21.068 E0.9349 F1200
G1 X-8.187 Y-19.765 E0.1493
G1 X-11.886 Y-17.788 E0.1395
G1 X-15.128 Y-15.128 E0.1395
G1 X-17.788 Y-11.886 E0.1395
G1 X-19.765 Y-8.187 E0.1395
G1 X-21.012 Y-4.077 E0.1428
G1 X-10.115 Y6.758 E0.5111
G1 X-7.859 Y6.758 E0.0750
G1 E-1.0000 F1200
; feature inner perimeter
G1 Z0.700 F1200
G1 X7.599 Y7.158 F9000
G1 Z0.200 F1200
G1 E1.0000 F1200
G1 X10.367 Y7.158 E0.0921 F1800
G1 X21.464 Y-3.965 E0.5226
G1 X20.137 Y-8.341 E0.1521
G1 X18.122 Y-12.109 E0.1421
G1 X15.412 Y-15.412 E0.1421
G1 X12.109 Y-18.122 E0.1421
G1 X8.341 Y-20.137 E0.1421
G1 X3.405 Y-21.634 E0.1716
G1 X7.599 Y7.158 E0.9677
; feature outer perimeter
G1 X7.945 Y6.758 F9000
G1 X10.201 Y6.758 E0.0750 F1200
G1 X21.012 Y-4.078 E0.5091
G1 X19.765 Y-8.187 E0.1428
G1 X17.788 Y-11.886 E0.1395
G1 X15.128 Y-15.128 E0.1395
G1 X11.886 Y-17.788 E0.1395
G1 X8.187 Y-19.765 E0.1395
G1 X3.891 Y-21.068 E0.1493
G1 X7.945 Y6.758 E0.9353
G1 E-1.0000 F1200
; feature solid layer
G1 Z0.700 F1200
G1 X21.729 Y4.193 F9000
G1 Z0.200 F1200
G1 E1.0000 F1200
G1 X24.222 Y6.686 E0.1173 F2400
G1 X24.091 Y7.120 E0.0151
G1 X21.598 Y4.627 E0.1173
G1 X21.466 Y5.061 E0.0151
G1 X23.959 Y7.554 E0.1173
G1 X23.827 Y7.988 E0.0151
G1 X21.334 Y5.495 E0.1173
G1 X21.203 Y5.929 E0.0151
G1 X23.696 Y8.422 E0.1173
G1 X23.564 Y8.856 E0.0151
G1 X21.071 Y6.363 E0.1173
G1 X20.939 Y6.797 E0.0151
G1 X23.432 Y9.290 E0.1173
G1 X23.320 Y9.660 E0.0128
G1 X23.291 Y9.714 E0.0021
G1 X20.808 Y7.231 E0.1168
G1 X20.676 Y7.665 E0.0151
G1 X23.094 Y10.083 E0.1137
G1 X22.897 Y10.452 E0.0139
G1 X20.544 Y8.099 E0.1107
G1 X20.434 Y8.464 E0.0127
G1 X20.402 Y8.523 E0.0022
G1 X22.700 Y10.820 E0.1081
G1 X22.503 Y11.189 E0.0139
G1 X20.205 Y8.891 E0.1081
G1 X20.008 Y9.260 E0.0139
G1 X22.306 Y11.558 E0.1081
G1 X22.109 Y11.926 E0.0139
G1 X19.811 Y9.629 E0.1081
G1 X19.614 Y9.997 E0.0139
G1 X21.912 Y12.295 E0.1081
G1 X21.714 Y12.664 E0.0139
G1 X19.417 Y10.366 E0.1081
G1 X19.220 Y10.735 E0.0139
G1 X21.517 Y13.032 E0.1081
G1 X21.320 Y13.401 E0.0139
G1 X19.023 Y11.103 E0.1081
G1 X18.826 Y11.472 E0.0139
G1 X21.123 Y13.769 E0.1081
G1 X20.988 Y14.023 E0.0096
G1 X20.908 Y14.120 E0.0042
G1 X18.629 Y11.841 E0.1072
G1 X18.432 Y12.209 E0.0139
G1 X20.653 Y14.431 E0.1045
G1 X20.398 Y14.741 E0.0134
G1 X18.189 Y12.532 E0.1039
G1 X17.934 Y12.843 E0.0134
G1 X20.143 Y15.052 E0.1039
G1 X19.888 Y15.363 E0.0134
G1 X17.679 Y13.154 E0.1039
G1 X17.424 Y13.464 E0.0134
G1 X19.633 Y15.674 E0.1039
G1 X19.378 Y15.984 E0.0134
G1 X17.169 Y13.775 E0.1039
G1 X16.914 Y14.086 E0.0134
G1 X19.123 Y16.295 E0.1039
G1 X18.868 Y16.606 E0.0134
G1 X16.659 Y14.396 E0.1039
G1 X16.404 Y14.707 E0.0134
G1 X18.613 Y16.916 E0.1039
G1 X18.358 Y17.227 E0.0134
G1 X16.149 Y15.018 E0.1039
G1 X15.894 Y15.329 E0.0134
G1 X18.103 Y17.538 E0.1039
G1 X17.848 Y17.848 E0.0134
G1 X15.639 Y15.639 E0.1039
G1 X15.329 Y15.894 E0.0134
G1 X17.538 Y18.103 E0.1039
G1 X17.227 Y18.358 E0.0134
G1 X15.018 Y16.149 E0.1039
G1 X14.707 Y16.404 E0.0134
G1 X16.916 Y18.613 E0.1039
G1 X16.606 Y18.868 E0.0134
G1 X14.396 Y16.659 E0.1039
G1 X14.086 Y16.914 E0.0134
G1 X16.295 Y19.123 E0.1039
G1 X15.984 Y19.378 E0.0134
G1 X13.775 Y17.169 E0.1039
G1 X13.464 Y17.424 E0.0134
G1 X15.674 Y19.633 E0.1039
G1 X15.363 Y19.888 E0.0134
G1 X13.154 Y17.679 E0.1039
G1 X12.843 Y17.934 E0.0134
G1 X15.052 Y20.143 E0.1039
G1 X14.741 Y20.398 E0.0134
G1 X12.532 Y18.189 E0.1039
G1 X12.288 Y18.390 E0.0105
G1 X12.209 Y18.432 E0.0030
G1 X14.431 Y20.653 E0.1045
G1 X14.120 Y20.908 E0.0134
G1 X11.841 Y18.629 E0.1072
G1 X11.472 Y18.826 E0.0139
G1 X13.769 Y21.123 E0.1081
G1 X13.401 Y21.320 E0.0139
G1 X11.103 Y19.023 E0.1081
G1 X10.735 Y19.220 E0.0139
G1 X13.032 Y21.517 E0.1081
G1 X12.664 Y21.714 E0.0139
G1 X10.366 Y19.417 E0.1081
G1 X9.997 Y19.614 E0.0139
G1 X12.295 Y21.912 E0.1081
G1 X11.926 Y22.109 E0.0139
G1 X9.629 Y19.811 E0.1081
G1 X9.260 Y20.008 E0.0139
G1 X11.558 Y22.306 E0.1081
G1 X11.189 Y22.503 E0.0139
G1 X8.891 Y20.205 E0.1081
G1 X8.523 Y20.402 E0.0139
G1 X10.820 Y22.700 E0.1081
G1 X10.452 Y22.897 E0.0139
G1 X8.099 Y20.544 E0.1107
G1 X7.665 Y20.676 E0.0151
G1 X10.083 Y23.094 E0.1137
G1 X9.714 Y23.291 E0.0139
G1 X7.231 Y20.808 E0.1168
G1 X6.797 Y20.939 E0.0151
G1 X9.290 Y23.432 E0.1173
G1 X8.856 Y23.564 E0.0151
G1 X6.363 Y21.071 E0.1173
G1 X5.929 Y21.203 E0.0151
G1 X8.422 Y23.696 E0.1173
G1 X7.988 Y23.827 E0.0151
G1 X5.495 Y21.334 E0.1173
G1 X5.061 Y21.466 E0.0151
G1 X7.554 Y23.959 E0.1173
G1 X7.120 Y24.091 E0.0151
G1 X4.627 Y21.598 E0.1173
G1 X4.193 Y21.729 E0.0151
G1 X6.686 Y24.222 E0.1173
G1 X6.252 Y24.354 E0.0151
G1 X3.759 Y21.861 E0.1173
G1 X3.325 Y21.993 E0.0151
G1 X5.818 Y24.485 E0.1173
G1 X5.384 Y24.617 E0.0151
G1 X2.891 Y22.124 E0.1173
G1 E-1.0000 F1200
G1 Z0.700 F1200
G1 X-7.247 Y13.683 F9000
G1 Z0.200 F1200
G1 E1.0000 F1200
G1 X3.925 Y24.855 E0.5255 F2400
G1 X3.410 Y24.906 E0.0172
G1 X-6.438 Y15.058 E0.4632
