; G-Code generated by Simplify3D(R) Version 4.1.2
; Apr 6, 2020 at 12:36:34 PM
; Settings Summary
;   processName,Process1
;   applyToModels,hat band
;   profileName,MakerBot Replicator 2 HBP (modified)
;   profileVersion,2019-08-23 15:32:08
;   baseProfile,MakerBot Replicator 2(2)
;   printMaterial,PLA
;   printQuality,Medium
;   printExtruders,
;   extruderName,Primary Extruder
;   extruderToolheadNumber,0
;   extruderDiameter,0.4
;   extruderAutoWidth,0
;   extruderWidth,0.4
;   extrusionMultiplier,1
;   extruderUseRetract,1
;   extruderRetractionDistance,1
;   extruderExtraRestartDistance,0
;   extruderRetractionZLift,0.5
;   extruderRetractionSpeed,1200
;   extruderUseCoasting,0
;   extruderCoastingDistance,0.2
;   extruderUseWipe,0
;   extruderWipeDistance,5
;   primaryExtruder,0
;   layerHeight,0.2
;   topSolidLayers,3
;   bottomSolidLayers,3
;   perimeterOutlines,2
;   printPerimetersInsideOut,1
;   startPointOption,3
;   startPointOriginX,0
;   startPointOriginY,150
;   sequentialIslands,0
;   spiralVaseMode,0
;   firstLayerHeightPercentage,100
;   firstLayerWidthPercentage,100
;   firstLayerUnderspeed,0.5
;   useRaft,0
;   raftExtruder,0
;   raftTopLayers,2
;   raftBaseLayers,1
;   raftOffset,1
;   raftSeparationDistance,0.14
;   raftTopInfill,90
;   aboveRaftSpeedMultiplier,0.3
;   useSkirt,0
;   skirtExtruder,0
;   skirtLayers,1
;   skirtOutlines,5
;   skirtOffset,0
;   usePrimePillar,0
;   primePillarExtruder,999
;   primePillarWidth,12
;   primePillarLocation,7
;   primePillarSpeedMultiplier,1
;   useOozeShield,0
;   oozeShieldExtruder,999
;   oozeShieldOffset,2
;   oozeShieldOutlines,1
;   oozeShieldSidewallShape,1
;   oozeShieldSidewallAngle,30
;   oozeShieldSpeedMultiplier,1
;   infillExtruder,0
;   internalInfillPattern,Rectilinear
;   externalInfillPattern,Rectilinear
;   infillPercentage,15
;   outlineOverlapPercentage,20
;   infillExtrusionWidthPercentage,100
;   minInfillLength,5
;   infillLayerInterval,1
;   internalInfillAngles,45,-45
;   overlapInternalInfillAngles,0
;   externalInfillAngles,45,-45
;   generateSupport,0
;   supportExtruder,0
;   supportInfillPercentage,10
;   supportExtraInflation,0.5
;   supportBaseLayers,0
;   denseSupportExtruder,0
;   denseSupportLayers,2
;   denseSupportInfillPercentage,70
;   supportLayerInterval,1
;   supportHorizontalPartOffset,0.3
;   supportUpperSeparationLayers,1
;   supportLowerSeparationLayers,1
;   supportType,0
;   supportGridSpacing,2
;   maxOverhangAngle,45
;   supportAngles,0
;   temperatureName,Primary Extruder,Heated Build Platform
;   temperatureNumber,0,0
;   temperatureSetpointCount,1,1
;   temperatureSetpointLayers,1,1
;   temperatureSetpointTemperatures,230,60
;   temperatureStabilizeAtStartup,1,1
;   temperatureHeatedBed,0,1
;   fanLayers,1,2
;   fanSpeeds,0,100
;   blipFanToFullPower,1
;   adjustSpeedForCooling,1
;   minSpeedLayerTime,15
;   minCoolingSpeedSlowdown,20
;   increaseFanForCooling,1
;   minFanLayerTime,45
;   maxCoolingFanSpeed,100
;   increaseFanForBridging,1
;   bridgingFanSpeed,100
;   use5D,1
;   relativeEdistances,1
;   allowEaxisZeroing,0
;   independentExtruderAxes,1
;   includeM10123,0
;   stickySupport,1
;   applyToolheadOffsets,0
;   gcodeXoffset,0
;   gcodeYoffset,0
;   gcodeZoffset,0
;   overrideMachineDefinition,1
;   machineTypeOverride,0
;   strokeXoverride,280
;   strokeYoverride,150
;   strokeZoverride,150
;   originOffsetXoverride,140
;   originOffsetYoverride,75
;   originOffsetZoverride,0
;   homeXdirOverride,1
;   homeYdirOverride,1
;   homeZdirOverride,-1
;   flipXoverride,1
;   flipYoverride,-1
;   flipZoverride,1
;   toolheadOffsets,0,0|0,0|0,0|0,0|0,0|0,0
;   overrideFirmwareConfiguration,1
;   firmwareTypeOverride,MakerBot/Sailfish Firmware
;   GPXconfigOverride,r2h
;   baudRateOverride,115200
;   overridePrinterModels,1
;   printerModelsOverride,MakerBot_Replicator2.stl
;   startingGcode,; **** Replicator 2 start.gcode ****,M73 P0 ; enable build progress,G162 X Y F3000 ; home XY maximum,G161 Z F1200 ; home Z minimum,G92 Z-5 ; set Z to -5,G1 Z0 ; move Z to 0,G161 Z F100 ; home Z slowly,M132 X Y Z A B ; recall home offsets,G1 X-145 Y-75 Z30 F9000 ; move to wait position off table,G130 X20 Y20 Z20 A20 B20 ; lower stepper Vrefs while heating,M126 S[fan_speed_pwm],M140 S[bed0_temperature] T0,M134 T0 ; stabilize bed temperature,M104 S[extruder0_temperature] T0,M133 T0 ; stabilize extruder temperature,G130 X127 Y127 Z40 A127 B127 ; default stepper Vrefs,G92 A0 ; zero extruder,G1 Z0.4 ; position nozzle,G1 E25 F300 ; purge nozzle,G1 X-140 Y-70 Z0.15 F1200 ; slow wipe,G1 X-135 Y-65 Z0.5 F1200 ; lift,G92 A0 ; zero extruder,M73 P1 ;@body (notify GPX body has started),; **** end of start.gcode ****
;   layerChangeGcode,
;   retractionGcode,
;   toolChangeGcode,
;   endingGcode,; **** Replicator 2 end.gcode ****,M73 P100 ; end build progress,G1 Z155 F1000 ; send Z axis to bottom of machine,M104 S0 T0 ; cool down extruder,M140 S0 T0 ; cool down HBP,M127 ; stop blower fan,G162 X Y F3000 ; home XY maximum,M18 ; disable stepper,M0 ; stop codes,M72 P1 ; play Ta-Da song,; **** end of end.gcode ****
;   exportFileFormat,gcode
;   celebration,0
;   celebrationSong,Random Song
;   postProcessing,
;   defaultSpeed,4800
;   outlineUnderspeed,0.5
;   solidInfillUnderspeed,1
;   supportUnderspeed,1
;   rapidXYspeed,9000
;   rapidZspeed,1200
;   minBridgingArea,50
;   bridgingExtraInflation,0
;   bridgingExtrusionMultiplier,1
;   bridgingSpeedMultiplier,0.8
;   useFixedBridgingAngle,0
;   fixedBridgingAngle,0
;   applyBridgingToPerimeters,0
;   filamentDiameters,1.75|1.75|1.75|1.75|1.75|1.75
;   filamentPricesPerKg,46|46|46|46|46|46
;   filamentDensities,1.25|1.25|1.25|1.25|1.25|1.25
;   useMinPrintHeight,0
;   minPrintHeight,0
;   useMaxPrintHeight,0
;   maxPrintHeight,4.84
;   useDiaphragm,0
;   diaphragmLayerInterval,20
;   robustSlicing,1
;   mergeAllIntoSolid,0
;   onlyRetractWhenCrossingOutline,0
;   retractBetweenLayers,0
;   useRetractionMinTravel,1
;   retractionMinTravel,7
;   retractWhileWiping,1
;   onlyWipeOutlines,1
;   avoidCrossingOutline,0
;   maxMovementDetourFactor,3
;   toolChangeRetractionDistance,12
;   toolChangeExtraRestartDistance,-0.5
;   toolChangeRetractionSpeed,600
;   externalThinWallType,0
;   internalThinWallType,0
;   thinWallAllowedOverlapPercentage,10
;   singleExtrusionMinLength,1
;   singleExtrusionMinPrintingWidthPercentage,50
;   singleExtrusionMaxPrintingWidthPercentage,200
;   singleExtrusionEndpointExtension,0.2
;   horizontalSizeCompensation,0
G90
M83
; **** Replicator 2 start.gcode ****
M73 P0 ; enable build progress
G162 X Y F3000 ; home XY maximum
G161 Z F1200 ; home Z minimum
G92 Z-5 ; set Z to -5
G1 Z0 ; move Z to 0
G161 Z F100 ; home Z slowly
M132 X Y Z A B ; recall home offsets
G1 X-145 Y-75 Z30 F9000 ; move to wait position off table
G130 X20 Y20 Z20 A20 B20 ; lower stepper Vrefs while heating
M126 S108
M140 S60 T0
M134 T0 ; stabilize bed temperature
M104 S230 T0
M133 T0 ; stabilize extruder temperature
G130 X127 Y127 Z40 A127 B127 ; default stepper Vrefs
G92 A0 ; zero extruder
G1 Z0.4 ; position nozzle
G1 E25 F300 ; purge nozzle
G1 X-140 Y-70 Z0.15 F1200 ; slow wipe
G1 X-135 Y-65 Z0.5 F1200 ; lift
G92 A0 ; zero extruder
M73 P1 ;@body (notify GPX body has started)
; **** end of start.gcode ****
; process Process1
; layer 1, Z = 0.200
M135 T0
G1 E-1.0000 F1200
; feature inner perimeter
; tool H0.200 W0.400
G1 Z0.500 F1200
G1 X-0.608 Y24.779 F9000
G1 Z0.200 F1200
G1 E1.0000 F1200
G1 X-1.823 Y24.719 E0.0405 F1800
G1 X-3.034 Y24.600 E0.0405
G1 X-4.237 Y24.421 E0.0405
G1 X-5.431 Y24.184 E0.0405
G1 X-6.611 Y23.888 E0.0405
G1 X-7.775 Y23.535 E0.0405
G1 X-8.920 Y23.125 E0.0405
G1 X-10.044 Y22.660 E0.0405
G1 X-11.144 Y22.140 E0.0405
G1 X-12.217 Y21.566 E0.0405
G1 X-13.261 Y20.941 E0.0405
G1 X-14.272 Y20.265 E0.0405
G1 X-15.249 Y19.540 E0.0405
G1 X-16.190 Y18.768 E0.0405
G1 X-17.091 Y17.951 E0.0405
G1 X-17.951 Y17.091 E0.0405
G1 X-18.768 Y16.190 E0.0405
G1 X-19.540 Y15.249 E0.0405
G1 X-20.265 Y14.272 E0.0405
G1 X-20.941 Y13.261 E0.0405
G1 X-21.566 Y12.217 E0.0405
G1 X-22.140 Y11.144 E0.0405
G1 X-22.660 Y10.044 E0.0405
G1 X-23.125 Y8.920 E0.0405
G1 X-23.535 Y7.775 E0.0405
G1 X-23.888 Y6.611 E0.0405
G1 X-24.184 Y5.431 E0.0405
G1 X-24.421 Y4.238 E0.0405
G1 X-24.600 Y3.034 E0.0405
G1 X-24.719 Y1.823 E0.0405
G1 X-24.779 Y0.608 E0.0405
G1 X-24.779 Y-0.608 E0.0405
G1 X-24.719 Y-1.823 E0.0405
G1 X-24.600 Y-3.034 E0.0405
G1 X-24.421 Y-4.237 E0.0405
G1 X-24.184 Y-5.431 E0.0405
G1 X-23.888 Y-6.611 E0.0405
G1 X-23.535 Y-7.775 E0.0405
G1 X-23.125 Y-8.920 E0.0405
G1 X-22.660 Y-10.044 E0.0405
G1 X-22.140 Y-11.144 E0.0405
G1 X-21.566 Y-12.217 E0.0405
G1 X-20.941 Y-13.261 E0.0405
G1 X-20.265 Y-14.272 E0.0405
G1 X-19.540 Y-15.249 E0.0405
G1 X-18.768 Y-16.190 E0.0405
G1 X-17.951 Y-17.091 E0.0405
G1 X-17.091 Y-17.951 E0.0405
G1 X-16.190 Y-18.768 E0.0405
G1 X-15.249 Y-19.540 E0.0405
G1 X-14.272 Y-20.265 E0.0405
G1 X-13.261 Y-20.941 E0.0405
G1 X-12.217 Y-21.566 E0.0405
G1 X-11.144 Y-22.140 E0.0405
G1 X-10.044 Y-22.660 E0.0405
G1 X-8.920 Y-23.125 E0.0405
G1 X-7.775 Y-23.535 E0.0405
G1 X-6.611 Y-23.888 E0.0405
G1 X-5.431 Y-24.184 E0.0405
G1 X-4.238 Y-24.421 E0.0405
G1 X-3.034 Y-24.600 E0.0405
G1 X-1.823 Y-24.719 E0.0405
G1 X-0.608 Y-24.779 E0.0405
G1 X0.608 Y-24.779 E0.0405
G1 X1.823 Y-24.719 E0.0405
G1 X3.034 Y-24.600 E0.0405
G1 X4.237 Y-24.421 E0.0405
G1 X5.431 Y-24.184 E0.0405
G1 X6.611 Y-23.888 E0.0405
G1 X7.775 Y-23.535 E0.0405
G1 X8.920 Y-23.125 E0.0405
G1 X10.044 Y-22.660 E0.0405
G1 X11.144 Y-22.140 E0.0405
G1 X12.217 Y-21.566 E0.0405
G1 X13.261 Y-20.941 E0.0405
G1 X14.272 Y-20.265 E0.0405
G1 X15.249 Y-19.540 E0.0405
G1 X16.190 Y-18.768 E0.0405
G1 X17.091 Y-17.951 E0.0405
G1 X17.951 Y-17.091 E0.0404
G1 X18.768 Y-16.190 E0.0405
G1 X19.540 Y-15.249 E0.0405
G1 X20.265 Y-14.272 E0.0405
G1 X20.941 Y-13.261 E0.0405
G1 X21.566 Y-12.217 E0.0405
G1 X22.140 Y-11.144 E0.0405
G1 X22.660 Y-10.044 E0.0405
G1 X23.125 Y-8.920 E0.0405
G1 X23.535 Y-7.775 E0.0405
G1 X23.888 Y-6.611 E0.0405
G1 X24.184 Y-5.431 E0.0405
G1 X24.421 Y-4.238 E0.0405
G1 X24.600 Y-3.034 E0.0405
G1 X24.719 Y-1.823 E0.0405
G1 X24.779 Y-0.608 E0.0405
G1 X24.779 Y0.608 E0.0405
G1 X24.719 Y1.823 E0.0405
G1 X24.600 Y3.034 E0.0405
G1 X24.421 Y4.238 E0.0405
G1 X24.184 Y5.431 E0.0405
G1 X23.888 Y6.611 E0.0405
G1 X23.535 Y7.775 E0.0405
G1 X23.125 Y8.920 E0.0405
G1 X22.660 Y10.044 E0.0405
G1 X22.140 Y11.144 E0.0405
G1 X21.566 Y12.217 E0.0405
G1 X20.941 Y13.261 E0.0405
G1 X20.265 Y14.272 E0.0405
G1 X19.540 Y15.249 E0.0405
G1 X18.768 Y16.190 E0.0405
G1 X17.951 Y17.091 E0.0405
G1 X17.091 Y17.951 E0.0404
G1 X16.190 Y18.768 E0.0405
G1 X15.249 Y19.540 E0.0405
G1 X14.272 Y20.265 E0.0405
G1 X13.261 Y20.941 E0.0405
G1 X12.217 Y21.566 E0.0405
G1 X11.144 Y22.140 E0.0405
G1 X10.044 Y22.660 E0.0405
G1 X8.920 Y23.125 E0.0405
G1 X7.775 Y23.535 E0.0405
G1 X6.611 Y23.888 E0.0405
G1 X5.431 Y24.184 E0.0405
G1 X4.238 Y24.421 E0.0405
G1 X3.034 Y24.600 E0.0405
G1 X1.823 Y24.719 E0.0405
G1 X0.608 Y24.779 E0.0405
G1 X-0.608 Y24.779 E0.0405
; feature outer perimeter
G1 X-0.618 Y25.179 F9000
G1 X-1.853 Y25.118 E0.0411 F1200
G1 X-3.083 Y24.997 E0.0411
G1 X-4.306 Y24.816 E0.0411
G1 X-5.518 Y24.574 E0.0411
G1 X-6.717 Y24.274 E0.0411
G1 X-7.901 Y23.915 E0.0411
G1 X-9.064 Y23.499 E0.0411
G1 X-10.207 Y23.026 E0.0411
G1 X-11.324 Y22.497 E0.0411
G1 X-12.414 Y21.914 E0.0411
G1 X-13.475 Y21.279 E0.0411
G1 X-14.502 Y20.592 E0.0411
G1 X-15.495 Y19.856 E0.0411
G1 X-16.451 Y19.071 E0.0411
G1 X-17.367 Y18.241 E0.0411
G1 X-18.241 Y17.367 E0.0411
G1 X-19.071 Y16.451 E0.0411
G1 X-19.855 Y15.495 E0.0411
G1 X-20.592 Y14.502 E0.0411
G1 X-21.279 Y13.475 E0.0411
G1 X-21.914 Y12.414 E0.0411
G1 X-22.497 Y11.324 E0.0411
G1 X-23.026 Y10.207 E0.0411
G1 X-23.499 Y9.064 E0.0411
G1 X-23.915 Y7.901 E0.0411
G1 X-24.274 Y6.717 E0.0411
G1 X-24.574 Y5.518 E0.0411
G1 X-24.815 Y4.306 E0.0411
G1 X-24.997 Y3.083 E0.0411
G1 X-25.118 Y1.853 E0.0411
G1 X-25.179 Y0.618 E0.0411
G1 X-25.179 Y-0.618 E0.0411
G1 X-25.118 Y-1.853 E0.0411
G1 X-24.997 Y-3.083 E0.0411
G1 X-24.816 Y-4.306 E0.0411
G1 X-24.574 Y-5.518 E0.0411
G1 X-24.274 Y-6.717 E0.0411
G1 X-23.915 Y-7.900 E0.0411
G1 X-23.499 Y-9.064 E0.0411
G1 X-23.026 Y-10.207 E0.0411
G1 X-22.497 Y-11.324 E0.0411
G1 X-21.914 Y-12.414 E0.0411
G1 X-21.279 Y-13.475 E0.0411
G1 X-20.592 Y-14.502 E0.0411
G1 X-19.856 Y-15.495 E0.0411
G1 X-19.071 Y-16.451 E0.0411
G1 X-18.241 Y-17.367 E0.0411
G1 X-17.367 Y-18.241 E0.0411
G1 X-16.451 Y-19.071 E0.0411
G1 X-15.495 Y-19.856 E0.0411
G1 X-14.502 Y-20.592 E0.0411
G1 X-13.475 Y-21.279 E0.0411
G1 X-12.414 Y-21.914 E0.0411
G1 X-11.324 Y-22.497 E0.0411
G1 X-10.207 Y-23.026 E0.0411
G1 X-9.064 Y-23.499 E0.0411
G1 X-7.901 Y-23.915 E0.0411
G1 X-6.717 Y-24.274 E0.0411
G1 X-5.518 Y-24.574 E0.0411
G1 X-4.306 Y-24.815 E0.0411
G1 X-3.083 Y-24.997 E0.0411
G1 X-1.853 Y-25.118 E0.0411
G1 X-0.618 Y-25.179 E0.0411
G1 X0.618 Y-25.179 E0.0411
G1 X1.853 Y-25.118 E0.0411
G1 X3.083 Y-24.997 E0.0411
G1 X4.306 Y-24.816 E0.0411
G1 X5.518 Y-24.574 E0.0411
G1 X6.717 Y-24.274 E0.0411
G1 X7.901 Y-23.915 E0.0411
G1 X9.064 Y-23.499 E0.0411
G1 X10.207 Y-23.026 E0.0411
G1 X11.324 Y-22.497 E0.0411
G1 X12.414 Y-21.914 E0.0411
G1 X13.475 Y-21.279 E0.0411
G1 X14.502 Y-20.592 E0.0411
G1 X15.495 Y-19.856 E0.0411
G1 X16.451 Y-19.071 E0.0411
G1 X17.367 Y-18.241 E0.0411
G1 X18.241 Y-17.367 E0.0411
G1 X19.071 Y-16.451 E0.0411
G1 X19.855 Y-15.495 E0.0411
G1 X20.592 Y-14.502 E0.0411
G1 X21.279 Y-13.475 E0.0411
G1 X21.914 Y-12.414 E0.0411
G1 X22.497 Y-11.324 E0.0411
G1 X23.026 Y-10.207 E0.0411
G1 X23.499 Y-9.064 E0.0411
G1 X23.915 Y-7.901 E0.0411
G1 X24.274 Y-6.717 E0.0411
G1 X24.574 Y-5.518 E0.0411
G1 X24.815 Y-4.306 E0.0411
G1 X24.997 Y-3.083 E0.0411
G1 X25.118 Y-1.853 E0.0411
G1 X25.179 Y-0.618 E0.0411
G1 X25.179 Y0.618 E0.0411
G1 X25.118 Y1.853 E0.0411
G1 X24.997 Y3.083 E0.0411
G1 X24.815 Y4.306 E0.0411
G1 X24.574 Y5.518 E0.0411
G1 X24.274 Y6.717 E0.0411
G1 X23.915 Y7.901 E0.0411
G1 X23.499 Y9.064 E0.0411
G1 X23.026 Y10.207 E0.0411
G1 X22.497 Y11.324 E0.0411
G1 X21.914 Y12.414 E0.0411
G1 X21.279 Y13.475 E0.0411
G1 X20.592 Y14.502 E0.0411
G1 X19.855 Y15.495 E0.0411
G1 X19.071 Y16.451 E0.0411
G1 X18.241 Y17.367 E0.0411
G1 X17.367 Y18.241 E0.0411
G1 X16.451 Y19.071 E0.0411
G1 X15.495 Y19.856 E0.0411
G1 X14.502 Y20.592 E0.0411
G1 X13.475 Y21.279 E0.0411
G1 X12.414 Y21.914 E0.0411
G1 X11.324 Y22.497 E0.0411
G1 X10.207 Y23.026 E0.0411
G1 X9.064 Y23.499 E0.0411
G1 X7.901 Y23.915 E0.0411
G1 X6.717 Y24.274 E0.0411
G1 X5.518 Y24.574 E0.0411
G1 X4.306 Y24.816 E0.0411
G1 X3.083 Y24.997 E0.0411
G1 X1.853 Y25.118 E0.0411
G1 X0.618 Y25.179 E0.0411
G1 X-0.618 Y25.179 E0.0411
; feature inner perimeter
G1 X-0.604 Y24.604 F9000
G1 X0.604 Y24.604 E0.0402 F1800
G1 X1.811 Y24.545 E0.0402
G1 X3.013 Y24.426 E0.0402
G1 X4.208 Y24.249 E0.0402
G1 X5.392 Y24.013 E0.0402
G1 X6.564 Y23.720 E0.0402
G1 X7.720 Y23.369 E0.0402
G1 X8.858 Y22.962 E0.0402
G1 X9.974 Y22.500 E0.0402
G1 X11.066 Y21.983 E0.0402
G1 X12.131 Y21.414 E0.0402
G1 X13.167 Y20.793 E0.0402
G1 X14.171 Y20.122 E0.0402
G1 X15.142 Y19.402 E0.0402
G1 X16.075 Y18.636 E0.0402
G1 X16.971 Y17.825 E0.0402
G1 X17.825 Y16.971 E0.0402
G1 X18.636 Y16.075 E0.0402
G1 X19.402 Y15.142 E0.0402
G1 X20.122 Y14.171 E0.0402
G1 X20.793 Y13.167 E0.0402
G1 X21.414 Y12.131 E0.0402
G1 X21.983 Y11.066 E0.0402
G1 X22.500 Y9.974 E0.0402
G1 X22.962 Y8.858 E0.0402
G1 X23.369 Y7.720 E0.0402
G1 X23.720 Y6.564 E0.0402
G1 X24.013 Y5.392 E0.0402
G1 X24.249 Y4.208 E0.0402
G1 X24.426 Y3.013 E0.0402
G1 X24.545 Y1.811 E0.0402
G1 X24.604 Y0.604 E0.0402
G1 X24.604 Y-0.604 E0.0402
G1 X24.545 Y-1.811 E0.0402
G1 X24.426 Y-3.013 E0.0402
G1 X24.249 Y-4.208 E0.0402
G1 X24.013 Y-5.392 E0.0402
G1 X23.720 Y-6.564 E0.0402
G1 X23.369 Y-7.720 E0.0402
G1 X22.962 Y-8.858 E0.0402
G1 X22.500 Y-9.974 E0.0402
G1 X21.983 Y-11.066 E0.0402
G1 X21.414 Y-12.131 E0.0402
G1 X20.793 Y-13.167 E0.0402
G1 X20.122 Y-14.171 E0.0402
G1 X19.402 Y-15.142 E0.0402
G1 X18.636 Y-16.075 E0.0402
G1 X17.825 Y-16.971 E0.0402
G1 X16.971 Y-17.825 E0.0402
G1 X16.075 Y-18.636 E0.0402
G1 X15.142 Y-19.402 E0.0402
