; G-Code generated by Simplify3D(R) Version 4.1.2
; Apr 6, 2020 at 12:37:00 PM
; Settings Summary
;   processName,Process1
;   applyToModels,hat top
;   profileName,MakerBot Replicator 2 HBP (modified)
;   profileVersion,2019-08-23 15:32:08
;   baseProfile,MakerBot Replicator 2(2)
;   printMaterial,PLA
;   printQuality,Medium
;   printExtruders,
;   extruderName,Primary Extruder
;   extruderToolheadNumber,0
;   extruderDiameter,0.4
;   extruderAutoWidth,0
;   extruderWidth,0.4
;   extrusionMultiplier,1
;   extruderUseRetract,1
;   extruderRetractionDistance,1
;   extruderExtraRestartDistance,0
;   extruderRetractionZLift,0.5
;   extruderRetractionSpeed,1200
;   extruderUseCoasting,0
;   extruderCoastingDistance,0.2
;   extruderUseWipe,0
;   extruderWipeDistance,5
;   primaryExtruder,0
;   layerHeight,0.2
;   topSolidLayers,3
;   bottomSolidLayers,3
;   perimeterOutlines,2
;   printPerimetersInsideOut,1
;   startPointOption,3
;   startPointOriginX,0
;   startPointOriginY,150
;   sequentialIslands,0
;   spiralVaseMode,0
;   firstLayerHeightPercentage,100
;   firstLayerWidthPercentage,100
;   firstLayerUnderspeed,0.5
;   useRaft,0
;   raftExtruder,0
;   raftTopLayers,2
;   raftBaseLayers,1
;   raftOffset,1
;   raftSeparationDistance,0.14
;   raftTopInfill,90
;   aboveRaftSpeedMultiplier,0.3
;   useSkirt,0
;   skirtExtruder,0
;   skirtLayers,1
;   skirtOutlines,5
;   skirtOffset,0
;   usePrimePillar,0
;   primePillarExtruder,999
;   primePillarWidth,12
;   primePillarLocation,7
;   primePillarSpeedMultiplier,1
;   useOozeShield,0
;   oozeShieldExtruder,999
;   oozeShieldOffset,2
;   oozeShieldOutlines,1
;   oozeShieldSidewallShape,1
;   oozeShieldSidewallAngle,30
;   oozeShieldSpeedMultiplier,1
;   infillExtruder,0
;   internalInfillPattern,Rectilinear
;   externalInfillPattern,Rectilinear
;   infillPercentage,15
;   outlineOverlapPercentage,20
;   infillExtrusionWidthPercentage,100
;   minInfillLength,5
;   infillLayerInterval,1
;   internalInfillAngles,45,-45
;   overlapInternalInfillAngles,0
;   externalInfillAngles,45,-45
;   generateSupport,0
;   supportExtruder,0
;   supportInfillPercentage,10
;   supportExtraInflation,0.5
;   supportBaseLayers,0
;   denseSupportExtruder,0
;   denseSupportLayers,2
;   denseSupportInfillPercentage,70
;   supportLayerInterval,1
;   supportHorizontalPartOffset,0.3
;   supportUpperSeparationLayers,1
;   supportLowerSeparationLayers,1
;   supportType,0
;   supportGridSpacing,2
;   maxOverhangAngle,45
;   supportAngles,0
;   temperatureName,Primary Extruder,Heated Build Platform
;   temperatureNumber,0,0
;   temperatureSetpointCount,1,1
;   temperatureSetpointLayers,1,1
;   temperatureSetpointTemperatures,230,60
;   temperatureStabilizeAtStartup,1,1
;   temperatureHeatedBed,0,1
;   fanLayers,1,2
;   fanSpeeds,0,100
;   blipFanToFullPower,1
;   adjustSpeedForCooling,1
;   minSpeedLayerTime,15
;   minCoolingSpeedSlowdown,20
;   increaseFanForCooling,1
;   minFanLayerTime,45
;   maxCoolingFanSpeed,100
;   increaseFanForBridging,1
;   bridgingFanSpeed,100
;   use5D,1
;   relativeEdistances,1
;   allowEaxisZeroing,0
;   independentExtruderAxes,1
;   includeM10123,0
;   stickySupport,1
;   applyToolheadOffsets,0
;   gcodeXoffset,0
;   gcodeYoffset,0
;   gcodeZoffset,0
;   overrideMachineDefinition,1
;   machineTypeOverride,0
;   strokeXoverride,280
;   strokeYoverride,150
;   strokeZoverride,150
;   originOffsetXoverride,140
;   originOffsetYoverride,75
;   originOffsetZoverride,0
;   homeXdirOverride,1
;   homeYdirOverride,1
;   homeZdirOverride,-1
;   flipXoverride,1
;   flipYoverride,-1
;   flipZoverride,1
;   toolheadOffsets,0,0|0,0|0,0|0,0|0,0|0,0
;   overrideFirmwareConfiguration,1
;   firmwareTypeOverride,MakerBot/Sailfish Firmware
;   GPXconfigOverride,r2h
;   baudRateOverride,115200
;   overridePrinterModels,1
;   printerModelsOverride,MakerBot_Replicator2.stl
;   startingGcode,; **** Replicator 2 start.gcode ****,M73 P0 ; enable build progress,G162 X Y F3000 ; home XY maximum,G161 Z F1200 ; home Z minimum,G92 Z-5 ; set Z to -5,G1 Z0 ; move Z to 0,G161 Z F100 ; home Z slowly,M132 X Y Z A B ; recall home offsets,G1 X-145 Y-75 Z30 F9000 ; move to wait position off table,G130 X20 Y20 Z20 A20 B20 ; lower stepper Vrefs while heating,M126 S[fan_speed_pwm],M140 S[bed0_temperature] T0,M134 T0 ; stabilize bed temperature,M104 S[extruder0_temperature] T0,M133 T0 ; stabilize extruder temperature,G130 X127 Y127 Z40 A127 B127 ; default stepper Vrefs,G92 A0 ; zero extruder,G1 Z0.4 ; position nozzle,G1 E25 F300 ; purge nozzle,G1 X-140 Y-70 Z0.15 F1200 ; slow wipe,G1 X-135 Y-65 Z0.5 F1200 ; lift,G92 A0 ; zero extruder,M73 P1 ;@body (notify GPX body has started),; **** end of start.gcode ****
;   layerChangeGcode,
;   retractionGcode,
;   toolChangeGcode,
;   endingGcode,; **** Replicator 2 end.gcode ****,M73 P100 ; end build progress,G1 Z155 F1000 ; send Z axis to bottom of machine,M104 S0 T0 ; cool down extruder,M140 S0 T0 ; cool down HBP,M127 ; stop blower fan,G162 X Y F3000 ; home XY maximum,M18 ; disable stepper,M0 ; stop codes,M72 P1 ; play Ta-Da song,; **** end of end.gcode ****
;   exportFileFormat,gcode
;   celebration,0
;   celebrationSong,Random Song
;   postProcessing,
;   defaultSpeed,4800
;   outlineUnderspeed,0.5
;   solidInfillUnderspeed,1
;   supportUnderspeed,1
;   rapidXYspeed,9000
;   rapidZspeed,1200
;   minBridgingArea,50
;   bridgingExtraInflation,0
;   bridgingExtrusionMultiplier,1
;   bridgingSpeedMultiplier,0.8
;   useFixedBridgingAngle,0
;   fixedBridgingAngle,0
;   applyBridgingToPerimeters,0
;   filamentDiameters,1.75|1.75|1.75|1.75|1.75|1.75
;   filamentPricesPerKg,46|46|46|46|46|46
;   filamentDensities,1.25|1.25|1.25|1.25|1.25|1.25
;   useMinPrintHeight,0
;   minPrintHeight,0
;   useMaxPrintHeight,0
;   maxPrintHeight,4.84
;   useDiaphragm,0
;   diaphragmLayerInterval,20
;   robustSlicing,1
;   mergeAllIntoSolid,0
;   onlyRetractWhenCrossingOutline,0
;   retractBetweenLayers,0
;   useRetractionMinTravel,1
;   retractionMinTravel,7
;   retractWhileWiping,1
;   onlyWipeOutlines,1
;   avoidCrossingOutline,0
;   maxMovementDetourFactor,3
;   toolChangeRetractionDistance,12
;   toolChangeExtraRestartDistance,-0.5
;   toolChangeRetractionSpeed,600
;   externalThinWallType,0
;   internalThinWallType,0
;   thinWallAllowedOverlapPercentage,10
;   singleExtrusionMinLength,1
;   singleExtrusionMinPrintingWidthPercentage,50
;   singleExtrusionMaxPrintingWidthPercentage,200
;   singleExtrusionEndpointExtension,0.2
;   horizontalSizeCompensation,0
G90
M83
; **** Replicator 2 start.gcode ****
M73 P0 ; enable build progress
G162 X Y F3000 ; home XY maximum
G161 Z F1200 ; home Z minimum
G92 Z-5 ; set Z to -5
G1 Z0 ; move Z to 0
G161 Z F100 ; home Z slowly
M132 X Y Z A B ; recall home offsets
G1 X-145 Y-75 Z30 F9000 ; move to wait position off table
G130 X20 Y20 Z20 A20 B20 ; lower stepper Vrefs while heating
M126 S170
M140 S60 T0
M134 T0 ; stabilize bed temperature
M104 S230 T0
M133 T0 ; stabilize extruder temperature
G130 X127 Y127 Z40 A127 B127 ; default stepper Vrefs
G92 A0 ; zero extruder
G1 Z0.4 ; position nozzle
G1 E25 F300 ; purge nozzle
G1 X-140 Y-70 Z0.15 F1200 ; slow wipe
G1 X-135 Y-65 Z0.5 F1200 ; lift
G92 A0 ; zero extruder
M73 P1 ;@body (notify GPX body has started)
; **** end of start.gcode ****
; process Process1
; layer 1, Z = 0.200
M135 T0
G1 E-1.0000 F1200
; feature outer perimeter
; tool H0.200 W0.400
G1 Z0.500 F1200
G1 X0.598 Y24.350 F9000
G1 Z0.200 F1200
G1 E1.0000 F1200
G1 X-0.598 Y24.350 E0.0398 F1200
G1 X-1.792 Y24.291 E0.0398
G1 X-2.982 Y24.174 E0.0398
G1 X-4.164 Y23.999 E0.0398
G1 X-5.337 Y23.765 E0.0398
G1 X-6.496 Y23.475 E0.0398
G1 X-7.640 Y23.128 E0.0398
G1 X-8.766 Y22.725 E0.0398
G1 X-9.871 Y22.267 E0.0398
G1 X-10.951 Y21.756 E0.0398
G1 X-12.005 Y21.193 E0.0398
G1 X-13.031 Y20.578 E0.0398
G1 X-14.025 Y19.914 E0.0398
G1 X-14.985 Y19.202 E0.0398
G1 X-15.909 Y18.443 E0.0398
G1 X-16.795 Y17.641 E0.0398
G1 X-17.641 Y16.795 E0.0398
G1 X-18.443 Y15.909 E0.0398
G1 X-19.202 Y14.985 E0.0398
G1 X-19.914 Y14.025 E0.0398
G1 X-20.578 Y13.031 E0.0398
G1 X-21.193 Y12.006 E0.0398
G1 X-21.756 Y10.951 E0.0398
G1 X-22.267 Y9.871 E0.0398
G1 X-22.725 Y8.766 E0.0398
G1 X-23.128 Y7.640 E0.0398
G1 X-23.475 Y6.496 E0.0398
G1 X-23.765 Y5.337 E0.0398
G1 X-23.999 Y4.164 E0.0398
G1 X-24.174 Y2.982 E0.0398
G1 X-24.291 Y1.792 E0.0398
G1 X-24.350 Y0.598 E0.0398
G1 X-24.350 Y-0.598 E0.0398
G1 X-24.291 Y-1.792 E0.0398
G1 X-24.174 Y-2.982 E0.0398
G1 X-23.999 Y-4.164 E0.0398
G1 X-23.765 Y-5.337 E0.0398
G1 X-23.475 Y-6.496 E0.0398
G1 X-23.128 Y-7.640 E0.0398
G1 X-22.725 Y-8.766 E0.0398
G1 X-22.267 Y-9.871 E0.0398
G1 X-21.756 Y-10.951 E0.0398
G1 X-21.193 Y-12.006 E0.0398
G1 X-20.578 Y-13.031 E0.0398
G1 X-19.914 Y-14.025 E0.0398
G1 X-19.202 Y-14.985 E0.0398
G1 X-18.443 Y-15.909 E0.0398
G1 X-17.641 Y-16.795 E0.0398
G1 X-16.795 Y-17.641 E0.0398
G1 X-15.909 Y-18.443 E0.0398
G1 X-14.985 Y-19.202 E0.0398
G1 X-14.025 Y-19.914 E0.0398
G1 X-13.031 Y-20.578 E0.0398
G1 X-12.006 Y-21.193 E0.0398
G1 X-10.951 Y-21.756 E0.0398
G1 X-9.871 Y-22.267 E0.0398
G1 X-8.766 Y-22.725 E0.0398
G1 X-7.640 Y-23.128 E0.0398
G1 X-6.496 Y-23.475 E0.0398
G1 X-5.337 Y-23.765 E0.0398
G1 X-4.164 Y-23.999 E0.0398
G1 X-2.982 Y-24.174 E0.0398
G1 X-1.792 Y-24.291 E0.0398
G1 X-0.598 Y-24.350 E0.0398
G1 X0.598 Y-24.350 E0.0398
G1 X1.792 Y-24.291 E0.0398
G1 X2.982 Y-24.174 E0.0398
G1 X4.164 Y-23.999 E0.0398
G1 X5.337 Y-23.765 E0.0398
G1 X6.496 Y-23.475 E0.0398
G1 X7.640 Y-23.128 E0.0398
G1 X8.766 Y-22.725 E0.0398
G1 X9.871 Y-22.267 E0.0398
G1 X10.951 Y-21.756 E0.0398
G1 X12.006 Y-21.193 E0.0398
G1 X13.031 Y-20.578 E0.0398
G1 X14.025 Y-19.914 E0.0398
G1 X14.985 Y-19.202 E0.0398
G1 X15.909 Y-18.443 E0.0398
G1 X16.795 Y-17.641 E0.0398
G1 X17.641 Y-16.795 E0.0398
G1 X18.443 Y-15.909 E0.0398
G1 X19.202 Y-14.985 E0.0398
G1 X19.914 Y-14.025 E0.0398
G1 X20.578 Y-13.031 E0.0398
G1 X21.193 Y-12.006 E0.0398
G1 X21.756 Y-10.951 E0.0398
G1 X22.267 Y-9.871 E0.0398
G1 X22.725 Y-8.766 E0.0398
G1 X23.128 Y-7.640 E0.0398
G1 X23.475 Y-6.496 E0.0398
G1 X23.765 Y-5.337 E0.0398
G1 X23.999 Y-4.164 E0.0398
G1 X24.174 Y-2.982 E0.0398
G1 X24.291 Y-1.792 E0.0398
G1 X24.350 Y-0.598 E0.0398
G1 X24.350 Y0.598 E0.0398
G1 X24.291 Y1.792 E0.0398
G1 X24.174 Y2.982 E0.0398
G1 X23.999 Y4.164 E0.0398
G1 X23.765 Y5.337 E0.0398
G1 X23.475 Y6.496 E0.0398
G1 X23.128 Y7.640 E0.0398
G1 X22.725 Y8.766 E0.0398
G1 X22.267 Y9.871 E0.0398
G1 X21.756 Y10.951 E0.0398
G1 X21.193 Y12.006 E0.0398
G1 X20.578 Y13.031 E0.0398
G1 X19.914 Y14.025 E0.0398
G1 X19.202 Y14.985 E0.0398
G1 X18.443 Y15.909 E0.0398
G1 X17.641 Y16.795 E0.0398
G1 X16.795 Y17.641 E0.0398
G1 X15.909 Y18.443 E0.0398
G1 X14.985 Y19.202 E0.0398
G1 X14.025 Y19.914 E0.0398
G1 X13.031 Y20.578 E0.0398
G1 X12.006 Y21.193 E0.0398
G1 X10.951 Y21.756 E0.0398
G1 X9.871 Y22.267 E0.0398
G1 X8.766 Y22.725 E0.0398
G1 X7.640 Y23.128 E0.0398
G1 X6.496 Y23.475 E0.0398
G1 X5.337 Y23.765 E0.0398
G1 X4.164 Y23.999 E0.0398
G1 X2.982 Y24.174 E0.0398
G1 X1.792 Y24.291 E0.0398
G1 X0.598 Y24.350 E0.0398
G1 X0.000 Y23.659 F9000
G1 X1.161 Y23.631 E0.0386 F1200
G1 X2.319 Y23.545 E0.0386
G1 X3.472 Y23.403 E0.0386
G1 X4.616 Y23.205 E0.0386
G1 X5.749 Y22.950 E0.0386
G1 X6.868 Y22.641 E0.0386
G1 X7.971 Y22.276 E0.0386
G1 X9.054 Y21.858 E0.0386
G1 X10.116 Y21.388 E0.0386
G1 X11.153 Y20.866 E0.0386
G1 X12.163 Y20.293 E0.0386
G1 X13.144 Y19.672 E0.0386
G1 X14.094 Y19.003 E0.0386
G1 X15.009 Y18.289 E0.0386
G1 X15.889 Y17.530 E0.0386
G1 X16.730 Y16.730 E0.0386
G1 X17.530 Y15.889 E0.0386
G1 X18.289 Y15.009 E0.0386
G1 X19.003 Y14.094 E0.0386
G1 X19.672 Y13.144 E0.0386
G1 X20.293 Y12.163 E0.0386
G1 X20.866 Y11.153 E0.0386
G1 X21.388 Y10.116 E0.0386
G1 X21.858 Y9.054 E0.0386
G1 X22.276 Y7.971 E0.0386
G1 X22.641 Y6.868 E0.0386
G1 X22.950 Y5.749 E0.0386
G1 X23.205 Y4.616 E0.0386
G1 X23.403 Y3.472 E0.0386
G1 X23.545 Y2.319 E0.0386
G1 X23.631 Y1.161 E0.0386
G1 X23.659 Y0.000 E0.0386
G1 X23.631 Y-1.161 E0.0386
G1 X23.545 Y-2.319 E0.0386
G1 X23.403 Y-3.472 E0.0386
G1 X23.205 Y-4.616 E0.0386
G1 X22.950 Y-5.749 E0.0386
G1 X22.641 Y-6.868 E0.0386
G1 X22.276 Y-7.971 E0.0386
G1 X21.858 Y-9.054 E0.0386
G1 X21.388 Y-10.116 E0.0386
G1 X20.866 Y-11.153 E0.0386
G1 X20.293 Y-12.163 E0.0386
G1 X19.672 Y-13.144 E0.0386
G1 X19.003 Y-14.094 E0.0386
G1 X18.289 Y-15.009 E0.0386
G1 X17.530 Y-15.889 E0.0386
G1 X16.730 Y-16.730 E0.0386
G1 X15.889 Y-17.530 E0.0386
G1 X15.009 Y-18.289 E0.0386
G1 X14.094 Y-19.003 E0.0386
G1 X13.144 Y-19.672 E0.0386
G1 X12.163 Y-20.293 E0.0386
G1 X11.153 Y-20.866 E0.0386
G1 X10.116 Y-21.388 E0.0386
G1 X9.054 Y-21.858 E0.0386
G1 X7.971 Y-22.276 E0.0386
G1 X6.868 Y-22.641 E0.0386
G1 X5.749 Y-22.950 E0.0386
G1 X4.616 Y-23.205 E0.0386
G1 X3.472 Y-23.403 E0.0386
G1 X2.319 Y-23.545 E0.0386
G1 X1.161 Y-23.631 E0.0386
G1 X0.000 Y-23.659 E0.0386
G1 X-1.161 Y-23.631 E0.0386
G1 X-2.319 Y-23.545 E0.0386
G1 X-3.472 Y-23.403 E0.0386
G1 X-4.616 Y-23.205 E0.0386
G1 X-5.749 Y-22.950 E0.0386
G1 X-6.868 Y-22.641 E0.0386
G1 X-7.971 Y-22.276 E0.0386
G1 X-9.054 Y-21.858 E0.0386
G1 X-10.116 Y-21.388 E0.0386
G1 X-11.153 Y-20.866 E0.0386
G1 X-12.163 Y-20.293 E0.0386
G1 X-13.145 Y-19.672 E0.0386
G1 X-14.094 Y-19.003 E0.0386
G1 X-15.009 Y-18.289 E0.0386
G1 X-15.889 Y-17.530 E0.0386
G1 X-16.730 Y-16.730 E0.0386
G1 X-17.530 Y-15.889 E0.0386
G1 X-18.289 Y-15.009 E0.0386
G1 X-19.003 Y-14.094 E0.0386
G1 X-19.672 Y-13.144 E0.0386
G1 X-20.293 Y-12.163 E0.0386
G1 X-20.866 Y-11.153 E0.0386
G1 X-21.388 Y-10.116 E0.0386
G1 X-21.858 Y-9.054 E0.0386
G1 X-22.276 Y-7.971 E0.0386
G1 X-22.641 Y-6.868 E0.0386
G1 X-22.950 Y-5.749 E0.0386
G1 X-23.205 Y-4.616 E0.0386
G1 X-23.403 Y-3.472 E0.0386
G1 X-23.545 Y-2.319 E0.0386
G1 X-23.631 Y-1.161 E0.0386
G1 X-23.659 Y0.000 E0.0386
G1 X-23.631 Y1.161 E0.0386
G1 X-23.545 Y2.319 E0.0386
G1 X-23.403 Y3.472 E0.0386
G1 X-23.205 Y4.616 E0.0386
G1 X-22.950 Y5.749 E0.0386
G1 X-22.641 Y6.868 E0.0386
G1 X-22.276 Y7.971 E0.0386
G1 X-21.858 Y9.054 E0.0386
G1 X-21.388 Y10.116 E0.0386
G1 X-20.866 Y11.153 E0.0386
G1 X-20.293 Y12.163 E0.0386
G1 X-19.672 Y13.145 E0.0386
G1 X-19.003 Y14.094 E0.0386
G1 X-18.289 Y15.009 E0.0386
G1 X-17.530 Y15.889 E0.0386
G1 X-16.730 Y16.730 E0.0386
G1 X-15.889 Y17.530 E0.0386
G1 X-15.009 Y18.289 E0.0386
G1 X-14.094 Y19.003 E0.0386
G1 X-13.144 Y19.672 E0.0386
G1 X-12.163 Y20.293 E0.0386
G1 X-11.153 Y20.866 E0.0386
G1 X-10.116 Y21.388 E0.0386
G1 X-9.054 Y21.858 E0.0386
G1 X-7.971 Y22.276 E0.0386
G1 X-6.868 Y22.641 E0.0386
G1 X-5.749 Y22.950 E0.0386
G1 X-4.616 Y23.205 E0.0386
G1 X-3.472 Y23.403 E0.0386
G1 X-2.319 Y23.545 E0.0386
G1 X-1.161 Y23.631 E0.0386
G1 X0.000 Y23.659 E0.0386
; layer 2, Z = 0.400
M126 S255
G1 Z0.400 F1200
G1 X-0.597 Y24.322 F9000
G1 X-1.790 Y24.263 E0.0397 F1205
G1 X-2.978 Y24.146 E0.0397
G1 X-4.159 Y23.971 E0.0397
G1 X-5.331 Y23.738 E0.0397
G1 X-6.489 Y23.448 E0.0397
G1 X-7.632 Y23.101 E0.0397
G1 X-8.756 Y22.699 E0.0397
G1 X-9.859 Y22.242 E0.0397
G1 X-10.938 Y21.731 E0.0397
G1 X-11.992 Y21.168 E0.0397
G1 X-13.016 Y20.554 E0.0397
G1 X-14.009 Y19.891 E0.0397
G1 X-14.968 Y19.179 E0.0397
G1 X-15.891 Y18.422 E0.0397
G1 X-16.776 Y17.620 E0.0397
G1 X-17.620 Y16.776 E0.0397
G1 X-18.422 Y15.891 E0.0397
G1 X-19.179 Y14.968 E0.0397
G1 X-19.891 Y14.009 E0.0397
G1 X-20.554 Y13.016 E0.0397
G1 X-21.168 Y11.992 E0.0397
G1 X-21.731 Y10.939 E0.0397
G1 X-22.242 Y9.859 E0.0397
G1 X-22.699 Y8.756 E0.0397
G1 X-23.101 Y7.632 E0.0397
G1 X-23.448 Y6.489 E0.0397
G1 X-23.738 Y5.331 E0.0397
G1 X-23.971 Y4.159 E0.0397
G1 X-24.146 Y2.978 E0.0397
G1 X-24.263 Y1.790 E0.0397
G1 X-24.322 Y0.597 E0.0397
G1 X-24.322 Y-0.597 E0.0397
G1 X-24.263 Y-1.790 E0.0397
G1 X-24.146 Y-2.978 E0.0397
G1 X-23.971 Y-4.159 E0.0397
G1 X-23.738 Y-5.331 E0.0397
G1 X-23.448 Y-6.489 E0.0397
G1 X-23.101 Y-7.632 E0.0397
G1 X-22.699 Y-8.756 E0.0397
G1 X-22.242 Y-9.859 E0.0397
G1 X-21.731 Y-10.938 E0.0397
G1 X-21.168 Y-11.992 E0.0397
G1 X-20.554 Y-13.016 E0.0397
G1 X-19.891 Y-14.009 E0.0397
G1 X-19.180 Y-14.968 E0.0397
G1 X-18.422 Y-15.891 E0.0397
G1 X-17.620 Y-16.776 E0.0397
G1 X-16.776 Y-17.620 E0.0397
G1 X-15.891 Y-18.422 E0.0397
G1 X-14.968 Y-19.180 E0.0397
