; G-Code generated by Simplify3D(R) Version 4.1.2
; Apr 6, 2020 at 12:19:00 PM
; Settings Summary
;   processName,Process1
;   applyToModels,Smoke
;   profileName,MakerBot Replicator 2 HBP (modified)
;   profileVersion,2020-03-12 10:48:50
;   baseProfile,MakerBot Replicator 2(2)
;   printMaterial,PLA
;   printQuality,Medium
;   printExtruders,
;   extruderName,Primary Extruder
;   extruderToolheadNumber,0
;   extruderDiameter,0.4
;   extruderAutoWidth,0
;   extruderWidth,0.4
;   extrusionMultiplier,1
;   extruderUseRetract,1
;   extruderRetractionDistance,1.9
;   extruderExtraRestartDistance,0
;   extruderRetractionZLift,0.5
;   extruderRetractionSpeed,1200
;   extruderUseCoasting,0
;   extruderCoastingDistance,0.2
;   extruderUseWipe,0
;   extruderWipeDistance,5
;   primaryExtruder,0
;   layerHeight,0.2
;   topSolidLayers,3
;   bottomSolidLayers,3
;   perimeterOutlines,3
;   printPerimetersInsideOut,1
;   startPointOption,3
;   startPointOriginX,0
;   startPointOriginY,150
;   sequentialIslands,0
;   spiralVaseMode,0
;   firstLayerHeightPercentage,100
;   firstLayerWidthPercentage,115
;   firstLayerUnderspeed,0.5
;   useRaft,0
;   raftExtruder,0
;   raftTopLayers,2
;   raftBaseLayers,1
;   raftOffset,1
;   raftSeparationDistance,0.14
;   raftTopInfill,90
;   aboveRaftSpeedMultiplier,0.3
;   useSkirt,0
;   skirtExtruder,0
;   skirtLayers,1
;   skirtOutlines,5
;   skirtOffset,0
;   usePrimePillar,0
;   primePillarExtruder,999
;   primePillarWidth,12
;   primePillarLocation,7
;   primePillarSpeedMultiplier,1
;   useOozeShield,0
;   oozeShieldExtruder,999
;   oozeShieldOffset,2
;   oozeShieldOutlines,1
;   oozeShieldSidewallShape,1
;   oozeShieldSidewallAngle,30
;   oozeShieldSpeedMultiplier,1
;   infillExtruder,0
;   internalInfillPattern,Rectilinear
;   externalInfillPattern,Rectilinear
;   infillPercentage,15
;   outlineOverlapPercentage,25
;   infillExtrusionWidthPercentage,100
;   minInfillLength,5
;   infillLayerInterval,1
;   internalInfillAngles,45,-45
;   overlapInternalInfillAngles,0
;   externalInfillAngles,45,-45
;   generateSupport,1
;   supportExtruder,0
;   supportInfillPercentage,15
;   supportExtraInflation,0.5
;   supportBaseLayers,0
;   denseSupportExtruder,0
;   denseSupportLayers,2
;   denseSupportInfillPercentage,90
;   supportLayerInterval,1
;   supportHorizontalPartOffset,0.3
;   supportUpperSeparationLayers,1
;   supportLowerSeparationLayers,1
;   supportType,1
;   supportGridSpacing,2
;   maxOverhangAngle,45
;   supportAngles,45,-45
;   temperatureName,Primary Extruder,Heated Build Platform
;   temperatureNumber,0,0
;   temperatureSetpointCount,1,1
;   temperatureSetpointLayers,1,1
;   temperatureSetpointTemperatures,230,60
;   temperatureStabilizeAtStartup,1,1
;   temperatureHeatedBed,0,1
;   fanLayers,1,2
;   fanSpeeds,0,100
;   blipFanToFullPower,1
;   adjustSpeedForCooling,1
;   minSpeedLayerTime,15
;   minCoolingSpeedSlowdown,20
;   increaseFanForCooling,1
;   minFanLayerTime,45
;   maxCoolingFanSpeed,100
;   increaseFanForBridging,1
;   bridgingFanSpeed,100
;   use5D,1
;   relativeEdistances,1
;   allowEaxisZeroing,0
;   independentExtruderAxes,1
;   includeM10123,0
;   stickySupport,1
;   applyToolheadOffsets,0
;   gcodeXoffset,0
;   gcodeYoffset,0
;   gcodeZoffset,0
;   overrideMachineDefinition,1
;   machineTypeOverride,0
;   strokeXoverride,280
;   strokeYoverride,150
;   strokeZoverride,150
;   originOffsetXoverride,140
;   originOffsetYoverride,75
;   originOffsetZoverride,0
;   homeXdirOverride,1
;   homeYdirOverride,1
;   homeZdirOverride,-1
;   flipXoverride,1
;   flipYoverride,-1
;   flipZoverride,1
;   toolheadOffsets,0,0|0,0|0,0|0,0|0,0|0,0
;   overrideFirmwareConfiguration,1
;   firmwareTypeOverride,MakerBot/Sailfish Firmware
;   GPXconfigOverride,r2h
;   baudRateOverride,115200
;   overridePrinterModels,1
;   printerModelsOverride,MakerBot_Replicator2.stl
;   startingGcode,; **** Replicator 2 start.gcode ****,M73 P0 ; enable build progress,G162 X Y F3000 ; home XY maximum,G161 Z F1200 ; home Z minimum,G92 Z-5 ; set Z to -5,G1 Z0 ; move Z to 0,G161 Z F100 ; home Z slowly,M132 X Y Z A B ; recall home offsets,G1 X-145 Y-75 Z30 F9000 ; move to wait position off table,G130 X20 Y20 Z20 A20 B20 ; lower stepper Vrefs while heating,M126 S[fan_speed_pwm],M140 S[bed0_temperature] T0,M134 T0 ; stabilize bed temperature,M104 S[extruder0_temperature] T0,M133 T0 ; stabilize extruder temperature,G130 X127 Y127 Z40 A127 B127 ; default stepper Vrefs,G92 A0 ; zero extruder,G1 Z0.4 ; position nozzle,G1 E25 F300 ; purge nozzle,G1 X-140 Y-70 Z0.15 F1200 ; slow wipe,G1 X-135 Y-65 Z0.5 F1200 ; lift,G92 A0 ; zero extruder,M73 P1 ;@body (notify GPX body has started),; **** end of start.gcode ****
;   layerChangeGcode,
;   retractionGcode,
;   toolChangeGcode,
;   endingGcode,; **** Replicator 2 end.gcode ****,M73 P100 ; end build progress,G1 Z155 F1000 ; send Z axis to bottom of machine,M104 S0 T0 ; cool down extruder,M140 S0 T0 ; cool down HBP,M127 ; stop blower fan,G162 X Y F3000 ; home XY maximum,M18 ; disable stepper,M0 ; stop codes,M72 P1 ; play Ta-Da song,; **** end of end.gcode ****
;   exportFileFormat,gcode
;   celebration,0
;   celebrationSong,Random Song
;   postProcessing,
;   defaultSpeed,4800
;   outlineUnderspeed,0.5
;   solidInfillUnderspeed,1
;   supportUnderspeed,1
;   rapidXYspeed,9000
;   rapidZspeed,1200
;   minBridgingArea,50
;   bridgingExtraInflation,0
;   bridgingExtrusionMultiplier,1
;   bridgingSpeedMultiplier,0.8
;   useFixedBridgingAngle,0
;   fixedBridgingAngle,0
;   applyBridgingToPerimeters,0
;   filamentDiameters,1.75|1.75|1.75|1.75|1.75|1.75
;   filamentPricesPerKg,46|46|46|46|46|46
;   filamentDensities,1.25|1.25|1.25|1.25|1.25|1.25
;   useMinPrintHeight,0
;   minPrintHeight,0
;   useMaxPrintHeight,0
;   maxPrintHeight,4.84
;   useDiaphragm,0
;   diaphragmLayerInterval,20
;   robustSlicing,1
;   mergeAllIntoSolid,0
;   onlyRetractWhenCrossingOutline,0
;   retractBetweenLayers,0
;   useRetractionMinTravel,1
;   retractionMinTravel,7
;   retractWhileWiping,1
;   onlyWipeOutlines,1
;   avoidCrossingOutline,0
;   maxMovementDetourFactor,3
;   toolChangeRetractionDistance,12
;   toolChangeExtraRestartDistance,-0.5
;   toolChangeRetractionSpeed,600
;   externalThinWallType,0
;   internalThinWallType,0
;   thinWallAllowedOverlapPercentage,10
;   singleExtrusionMinLength,1
;   singleExtrusionMinPrintingWidthPercentage,50
;   singleExtrusionMaxPrintingWidthPercentage,200
;   singleExtrusionEndpointExtension,0.2
;   horizontalSizeCompensation,0
G90
M83
; **** Replicator 2 start.gcode ****
M73 P0 ; enable build progress
G162 X Y F3000 ; home XY maximum
G161 Z F1200 ; home Z minimum
G92 Z-5 ; set Z to -5
G1 Z0 ; move Z to 0
G161 Z F100 ; home Z slowly
M132 X Y Z A B ; recall home offsets
G1 X-145 Y-75 Z30 F9000 ; move to wait position off table
G130 X20 Y20 Z20 A20 B20 ; lower stepper Vrefs while heating
M126 S170
M140 S60 T0
M134 T0 ; stabilize bed temperature
M104 S230 T0
M133 T0 ; stabilize extruder temperature
G130 X127 Y127 Z40 A127 B127 ; default stepper Vrefs
G92 A0 ; zero extruder
G1 Z0.4 ; position nozzle
G1 E25 F300 ; purge nozzle
G1 X-140 Y-70 Z0.15 F1200 ; slow wipe
G1 X-135 Y-65 Z0.5 F1200 ; lift
G92 A0 ; zero extruder
M73 P1 ;@body (notify GPX body has started)
; **** end of start.gcode ****
; process Process1
; layer 1, Z = 0.200
M135 T0
G1 E-1.9000 F1200
; feature outer perimeter
; tool H0.200 W0.460
G1 Z0.500 F1200
G1 X-3.361 Y1.562 F9000
G1 Z0.200 F1200
G1 E1.9000 F1200
G1 X-3.381 Y1.553 E0.0009 F813
G1 X-3.423 Y1.507 E0.0024
G1 X-3.491 Y1.249 E0.0102
G1 X-3.506 Y1.147 E0.0039
G1 X-3.478 Y0.761 E0.0148
G1 X-3.357 Y0.385 E0.0151
G1 X-3.326 Y0.338 E0.0021
G1 X-3.257 Y0.279 E0.0035
G1 X-3.249 Y0.276 E0.0003
G1 X-3.239 Y0.280 E0.0004
G1 X-3.170 Y0.355 E0.0039
G1 X-3.150 Y0.390 E0.0015
G1 X-3.069 Y0.768 E0.0148
G1 X-3.067 Y0.834 E0.0025
G1 X-3.102 Y1.136 E0.0116
G1 X-3.169 Y1.301 E0.0068
G1 X-3.289 Y1.525 E0.0097
G1 X-3.346 Y1.560 E0.0026
G1 X-3.361 Y1.562 E0.0006
G1 E-1.9000 F1200
; feature support
G1 Z0.700 F1200
G1 X-21.461 Y13.480 F9000
G1 Z0.200 F1200
G1 E1.9000 F1200
G1 X-22.480 Y12.461 E0.0551 F1625
G1 X-22.480 Y11.480 E0.0375
G1 X-23.461 Y11.480 E0.0375
G1 X-24.480 Y10.461 E0.0551
G1 X-24.480 Y9.480 E0.0375
G1 X-25.461 Y9.480 E0.0375
G1 X-26.480 Y8.461 E0.0551
G1 X-26.480 Y7.480 E0.0375
G1 X-27.461 Y7.480 E0.0375
G1 X-28.480 Y6.461 E0.0551
G1 X-28.480 Y5.480 E0.0375
G1 X-29.461 Y5.480 E0.0375
G1 X-30.480 Y4.461 E0.0551
G1 X-30.480 Y3.480 E0.0375
G1 X-31.461 Y3.480 E0.0375
G1 X-32.480 Y2.461 E0.0551
G1 X-32.480 Y-1.310 E0.1442
G1 X-17.690 Y13.480 E0.8000
G1 X-17.520 Y13.480 E0.0065
G1 X-17.520 Y11.480 E0.0765
G1 X-15.919 Y11.480 E0.0613
G1 X-30.879 Y-3.480 E0.8092
G1 X-30.480 Y-3.480 E0.0152
G1 X-30.480 Y-5.480 E0.0765
G1 X-29.107 Y-5.480 E0.0525
G1 X-13.520 Y10.107 E0.8432
G1 X-13.520 Y9.480 E0.0240
G1 X-10.376 Y9.480 E0.1202
G1 X-27.336 Y-7.480 E0.9174
G1 X-26.480 Y-7.480 E0.0327
G1 X-26.480 Y-9.480 E0.0765
G1 X-25.565 Y-9.480 E0.0350
G1 X-7.520 Y8.565 E0.9761
G1 X-7.520 Y7.480 E0.0415
G1 X-4.834 Y7.480 E0.1027
G1 X-23.794 Y-11.480 E1.0256
G1 X-22.480 Y-11.480 E0.0502
G1 X-22.480 Y-13.480 E0.0765
G1 X-22.022 Y-13.480 E0.0175
G1 X-3.520 Y5.022 E1.0008
G1 X-3.520 Y3.619 E0.0537
G1 X-3.777 Y3.588 E0.0099
G1 X-4.035 Y3.494 E0.0105
G1 X-4.268 Y3.328 E0.0109
G1 X-4.452 Y3.121 E0.0106
G1 X-4.597 Y2.882 E0.0107
G1 X-4.726 Y2.555 E0.0134
G1 X-4.815 Y2.009 E0.0212
G1 X-4.820 Y1.519 E0.0187
G1 X-4.755 Y0.652 E0.0333
G1 X-4.687 Y0.084 E0.0219
G1 X-18.251 Y-13.480 E0.7337
G1 X-15.520 Y-13.480 E0.1045
G1 X-15.520 Y-11.480 E0.0765
G1 X-13.520 Y-11.480 E0.0765
G1 X-13.520 Y-9.480 E0.0765
G1 X-10.480 Y-9.480 E0.1163
G1 X-9.520 Y-8.520 E0.0519
G1 X-9.520 Y-7.480 E0.0398
G1 X-8.480 Y-7.480 E0.0398
G1 X-3.044 Y-2.044 E0.2941
G1 X-2.799 Y-1.998 E0.0095
G1 X-2.527 Y-1.829 E0.0123
G1 X-2.034 Y-1.403 E0.0249
G1 X-1.963 Y-1.294 E0.0050
G1 X-1.788 Y-1.104 E0.0099
G1 X-1.341 Y-0.428 E0.0310
G1 X-1.264 Y-0.264 E0.0069
G1 X0.480 Y1.480 E0.0943
G1 X1.520 Y1.480 E0.0398
G1 X1.520 Y2.520 E0.0398
G1 X2.480 Y3.480 E0.0519
G1 X6.251 Y3.480 E0.1442
G1 X-2.480 Y-5.251 E0.4723
G1 E-1.9000 F1200
G1 Z0.700 F1200
G1 X6.480 Y-3.834 F9000
G1 Z0.200 F1200
G1 E1.9000 F1200
G1 X4.834 Y-5.480 E0.0891 F1625
G1 X1.063 Y-5.480 E0.1442
G1 X12.023 Y5.480 E0.5929
G1 X15.794 Y5.480 E0.1442
G1 X6.834 Y-3.480 E0.4847
G1 X10.480 Y-3.480 E0.1395
G1 X10.480 Y-1.480 E0.0765
G1 X12.605 Y-1.480 E0.0813
G1 X17.565 Y3.480 E0.2683
G1 X21.336 Y3.480 E0.1442
G1 X15.520 Y-2.336 E0.3146
G1 X15.520 Y-3.480 E0.0437
G1 X18.147 Y-3.480 E0.1005
G1 X23.107 Y1.480 E0.2683
G1 X26.879 Y1.480 E0.1442
G1 X19.919 Y-5.480 E0.3765
G1 X23.690 Y-5.480 E0.1442
G1 X30.480 Y1.310 E0.3673
G1 X30.480 Y-2.461 E0.1442
G1 X29.461 Y-3.480 E0.0551
G1 E-1.9000 F1200
; feature dense support
G1 Z0.700 F1200
G1 X-1.472 Y1.480 F9000
G1 Z0.200 F1200
G1 E1.9000 F1200
G1 X-1.813 Y1.138 E0.0185 F1625
G1 X-3.745 Y3.110 F9000
G1 X-4.188 Y2.667 E0.0239 F1625
G1 X-3.882 Y-0.930 F9000
G1 X-3.962 Y-1.010 E0.0043 F1625
G1 X-3.848 Y-1.237 E0.0097
G1 X-3.732 Y-1.382 E0.0071
G1 X-3.706 Y-1.405 E0.0013
G1 X-3.470 Y-1.169 E0.0128
G1 X-3.293 Y-1.220 E0.0070
G1 X-2.950 Y-1.173 E0.0133
G1 X-2.669 Y-1.010 E0.0124
G1 X-2.515 Y-0.856 E0.0083
G1 X-2.274 Y-0.529 E0.0155
G1 X-2.153 Y-0.313 E0.0095
G1 X-2.048 Y-0.078 E0.0099
G1 X-2.025 Y0.013 E0.0036
G1 X-1.927 Y0.218 E0.0087
G1 X-1.882 Y0.420 E0.0079
G1 X-1.179 Y1.122 E0.0380
G1 X-1.158 Y1.026 E0.0038
G1 X-1.175 Y0.815 E0.0081
G1 X-1.227 Y0.642 E0.0069
G1 X-1.366 Y0.377 E0.0114
G1 X-1.482 Y0.191 E0.0084
G1 X-1.616 Y0.035 E0.0079
G1 X-3.262 Y-1.611 E0.0890
; layer 2, Z = 0.400
M126 S255
; feature inner perimeter
; tool H0.200 W0.400
G1 Z0.400 F1200
G1 X-3.370 Y1.686 F9000
G1 X-3.373 Y1.678 E0.0003 F1232
G1 X-3.409 Y1.470 E0.0070
G1 X-3.421 Y1.130 E0.0113
G1 X-3.382 Y0.714 E0.0139
G1 X-3.329 Y0.430 E0.0096
G1 X-3.277 Y0.245 E0.0064
G1 X-3.220 Y0.094 E0.0053
G1 X-3.164 Y0.195 E0.0038
G1 X-3.119 Y0.296 E0.0037
G1 X-3.093 Y0.399 E0.0035
G1 X-3.001 Y0.590 E0.0070
G1 X-2.936 Y0.881 E0.0099
G1 X-2.932 Y0.976 E0.0031
G1 X-2.944 Y1.076 E0.0034
G1 X-3.002 Y1.231 E0.0055
G1 X-3.085 Y1.367 E0.0053
G1 X-3.261 Y1.586 E0.0093
G1 X-3.370 Y1.686 E0.0049
; feature outer perimeter
G1 X-3.762 Y1.775 F9000
G1 X-3.808 Y1.512 E0.0089 F821
G1 X-3.822 Y1.119 E0.0131
G1 X-3.778 Y0.658 E0.0154
G1 X-3.719 Y0.339 E0.0108
G1 X-3.657 Y0.120 E0.0076
G1 X-3.552 Y-0.160 E0.0100
G1 X-3.461 Y-0.305 E0.0057
G1 X-3.370 Y-0.407 E0.0046
G1 X-3.294 Y-0.460 E0.0031
G1 X-3.240 Y-0.476 E0.0019
G1 X-3.191 Y-0.469 E0.0016
G1 X-3.117 Y-0.426 E0.0028
G1 X-3.070 Y-0.379 E0.0022
G1 X-2.889 Y-0.133 E0.0101
G1 X-2.806 Y0.015 E0.0057
G1 X-2.740 Y0.164 E0.0054
G1 X-2.715 Y0.262 E0.0034
G1 X-2.621 Y0.458 E0.0072
G1 X-2.538 Y0.828 E0.0126
G1 X-2.531 Y0.991 E0.0054
G1 X-2.552 Y1.171 E0.0060
G1 X-2.640 Y1.407 E0.0084
G1 X-2.758 Y1.598 E0.0075
G1 X-2.968 Y1.859 E0.0111
G1 X-3.260 Y2.129 E0.0132
G1 X-3.361 Y2.171 E0.0037
G1 X-3.464 Y2.172 E0.0034
G1 X-3.507 Y2.161 E0.0015
G1 X-3.579 Y2.118 E0.0028
G1 X-3.652 Y2.034 E0.0037
G1 X-3.729 Y1.875 E0.0059
G1 X-3.762 Y1.775 E0.0035
G1 E-1.9000 F1200
; feature support
G1 Z0.900 F1200
G1 X16.117 Y5.510 F9000
G1 Z0.400 F1200
G1 E1.9000 F1200
G1 X16.510 Y5.117 E0.0185 F1643
G1 X16.510 Y3.510 E0.0535
G1 X18.117 Y3.510 E0.0535
G1 X26.510 Y-4.883 E0.3948
G1 X26.510 Y-5.510 E0.0209
G1 X23.366 Y-5.510 E0.1046
G1 X12.346 Y5.510 E0.5183
G1 X9.490 Y5.510 E0.0950
G1 X9.490 Y4.595 E0.0304
G1 X17.595 Y-3.510 E0.3812
G1 X15.490 Y-3.510 E0.0700
G1 X15.490 Y-1.510 E0.0665
G1 X11.824 Y-1.510 E0.1219
G1 X6.804 Y3.510 E0.2361
G1 X3.033 Y3.510 E0.1254
G1 X10.053 Y-3.510 E0.3302
G1 X6.510 Y-3.510 E0.1178
G1 X6.510 Y-3.739 E0.0076
G1 X1.261 Y1.510 E0.2469
G1 X-0.442 Y1.510 E0.0566
G1 X-0.357 Y1.335 E0.0065
G1 X-0.279 Y1.042 E0.0101
G1 X-0.291 Y0.675 E0.0122
G1 X-0.373 Y0.412 E0.0091
G1 X-0.547 Y0.100 E0.0119
G1 X-0.726 Y-0.158 E0.0104
G1 X-0.780 Y-0.220 E0.0027
G1 X4.510 Y-5.510 E0.2488
G1 X0.739 Y-5.510 E0.1254
G1 X-2.585 Y-2.186 E0.1563
G1 E-1.9000 F1200
G1 Z0.900 F1200
G1 X-3.490 Y6.261 F9000
G1 Z0.400 F1200
G1 E1.9000 F1200
G1 X-4.739 Y7.510 E0.0587 F1643
G1 X-7.490 Y7.510 E0.0915
G1 X-7.490 Y9.510 E0.0665
G1 X-10.510 Y9.510 E0.1004
G1 X-4.431 Y3.431 E0.2859
G1 X-4.520 Y3.329 E0.0045
G1 X-4.713 Y2.992 E0.0129
G1 X-4.801 Y2.699 E0.0102
G1 X-4.852 Y2.412 E0.0097
G1 X-4.872 Y2.087 E0.0108
G1 X-4.858 Y1.495 E0.0197
G1 X-4.684 Y1.481 E0.0058
G1 X-4.684 Y1.473 E0.0003
G1 X-4.673 Y1.049 E0.0141
G1 X-4.583 Y0.241 E0.0270
G1 X-4.564 Y0.140 E0.0034
G1 X-4.733 Y0.099 E0.0058
G1 X-4.714 Y-0.057 E0.0052
G1 X-16.281 Y11.510 E0.5441
G1 X-17.490 Y11.510 E0.0402
G1 X-17.490 Y12.719 E0.0402
G1 X-18.281 Y13.510 E0.0372
G1 X-22.052 Y13.510 E0.1254
G1 X-3.490 Y-5.052 E0.8731
G1 X-3.490 Y-5.510 E0.0152
G1 X-5.490 Y-5.510 E0.0665
G1 X-5.490 Y-6.824 E0.0437
G1 X-23.824 Y11.510 E0.8624
G1 X-24.510 Y11.510 E0.0228
G1 X-24.510 Y9.510 E0.0665
G1 X-25.595 Y9.510 E0.0361
G1 X-8.575 Y-7.510 E0.8006
G1 X-9.490 Y-7.510 E0.0304
G1 X-9.490 Y-9.510 E0.0665
G1 X-10.346 Y-9.510 E0.0285
G1 X-27.366 Y7.510 E0.8006
G1 X-28.510 Y7.510 E0.0380
G1 X-28.510 Y5.510 E0.0665
G1 X-29.137 Y5.510 E0.0209
G1 X-13.490 Y-10.137 E0.7360
G1 X-13.490 Y-11.510 E0.0457
G1 X-15.490 Y-11.510 E0.0665
G1 X-15.490 Y-11.909 E0.0133
G1 X-30.909 Y3.510 E0.7252
G1 X-32.510 Y3.510 E0.0533
G1 X-32.510 Y1.340 E0.0722
G1 X-17.660 Y-13.510 E0.6985
G1 X-21.431 Y-13.510 E0.1254
G1 X-22.510 Y-12.431 E0.0507
G1 X-22.510 Y-11.510 E0.0306
G1 X-23.431 Y-11.510 E0.0306
G1 X-24.510 Y-10.431 E0.0507
G1 X-24.510 Y-9.510 E0.0306
G1 X-25.431 Y-9.510 E0.0306
G1 X-26.510 Y-8.431 E0.0507
G1 X-26.510 Y-7.510 E0.0306
G1 X-27.431 Y-7.510 E0.0306
G1 X-28.510 Y-6.431 E0.0507
G1 X-28.510 Y-5.510 E0.0306
G1 X-29.431 Y-5.510 E0.0306
G1 X-30.510 Y-4.431 E0.0507
G1 X-30.510 Y-3.510 E0.0306
G1 X-31.431 Y-3.510 E0.0306
G1 X-32.510 Y-2.431 E0.0507
G1 E-1.9000 F1200
G1 Z0.900 F1200
G1 X19.490 Y-5.405 F9000
G1 Z0.400 F1200
G1 E1.9000 F1200
G1 X19.595 Y-5.510 E0.0049 F1643
G1 E-1.9000 F1200
G1 Z0.900 F1200
G1 X21.889 Y3.510 F9000
