; G-Code generated by Simplify3D(R) Version 4.1.2
; Apr 6, 2020 at 12:32:20 PM
; Settings Summary
;   processName,Process1
;   applyToModels,wonka rampV1R4,wonka ramp LED bracket
;   profileName,MakerBot Replicator 2 HBP (modified)
;   profileVersion,2019-08-23 15:32:08
;   baseProfile,MakerBot Replicator 2(2)
;   printMaterial,PLA
;   printQuality,Medium
;   printExtruders,
;   extruderName,Primary Extruder
;   extruderToolheadNumber,0
;   extruderDiameter,0.4
;   extruderAutoWidth,0
;   extruderWidth,0.4
;   extrusionMultiplier,1
;   extruderUseRetract,1
;   extruderRetractionDistance,1
;   extruderExtraRestartDistance,0
;   extruderRetractionZLift,0.5
;   extruderRetractionSpeed,1200
;   extruderUseCoasting,0
;   extruderCoastingDistance,0.2
;   extruderUseWipe,0
;   extruderWipeDistance,5
;   primaryExtruder,0
;   layerHeight,0.2
;   topSolidLayers,3
;   bottomSolidLayers,3
;   perimeterOutlines,2
;   printPerimetersInsideOut,1
;   startPointOption,3
;   startPointOriginX,0
;   startPointOriginY,150
;   sequentialIslands,0
;   spiralVaseMode,0
;   firstLayerHeightPercentage,100
;   firstLayerWidthPercentage,100
;   firstLayerUnderspeed,0.5
;   useRaft,0
;   raftExtruder,0
;   raftTopLayers,2
;   raftBaseLayers,1
;   raftOffset,1
;   raftSeparationDistance,0.14
;   raftTopInfill,90
;   aboveRaftSpeedMultiplier,0.3
;   useSkirt,0
;   skirtExtruder,0
;   skirtLayers,1
;   skirtOutlines,5
;   skirtOffset,0
;   usePrimePillar,0
;   primePillarExtruder,999
;   primePillarWidth,12
;   primePillarLocation,7
;   primePillarSpeedMultiplier,1
;   useOozeShield,0
;   oozeShieldExtruder,999
;   oozeShieldOffset,2
;   oozeShieldOutlines,1
;   oozeShieldSidewallShape,1
;   oozeShieldSidewallAngle,30
;   oozeShieldSpeedMultiplier,1
;   infillExtruder,0
;   internalInfillPattern,Rectilinear
;   externalInfillPattern,Rectilinear
;   infillPercentage,15
;   outlineOverlapPercentage,20
;   infillExtrusionWidthPercentage,100
;   minInfillLength,5
;   infillLayerInterval,1
;   internalInfillAngles,45,-45
;   overlapInternalInfillAngles,0
;   externalInfillAngles,45,-45
;   generateSupport,0
;   supportExtruder,0
;   supportInfillPercentage,10
;   supportExtraInflation,0.5
;   supportBaseLayers,0
;   denseSupportExtruder,0
;   denseSupportLayers,2
;   denseSupportInfillPercentage,70
;   supportLayerInterval,1
;   supportHorizontalPartOffset,0.3
;   supportUpperSeparationLayers,1
;   supportLowerSeparationLayers,1
;   supportType,0
;   supportGridSpacing,2
;   maxOverhangAngle,45
;   supportAngles,0
;   temperatureName,Primary Extruder,Heated Build Platform
;   temperatureNumber,0,0
;   temperatureSetpointCount,1,1
;   temperatureSetpointLayers,1,1
;   temperatureSetpointTemperatures,230,60
;   temperatureStabilizeAtStartup,1,1
;   temperatureHeatedBed,0,1
;   fanLayers,1,2
;   fanSpeeds,0,100
;   blipFanToFullPower,1
;   adjustSpeedForCooling,1
;   minSpeedLayerTime,15
;   minCoolingSpeedSlowdown,20
;   increaseFanForCooling,1
;   minFanLayerTime,45
;   maxCoolingFanSpeed,100
;   increaseFanForBridging,1
;   bridgingFanSpeed,100
;   use5D,1
;   relativeEdistances,1
;   allowEaxisZeroing,0
;   independentExtruderAxes,1
;   includeM10123,0
;   stickySupport,1
;   applyToolheadOffsets,0
;   gcodeXoffset,0
;   gcodeYoffset,0
;   gcodeZoffset,0
;   overrideMachineDefinition,1
;   machineTypeOverride,0
;   strokeXoverride,280
;   strokeYoverride,150
;   strokeZoverride,150
;   originOffsetXoverride,140
;   originOffsetYoverride,75
;   originOffsetZoverride,0
;   homeXdirOverride,1
;   homeYdirOverride,1
;   homeZdirOverride,-1
;   flipXoverride,1
;   flipYoverride,-1
;   flipZoverride,1
;   toolheadOffsets,0,0|0,0|0,0|0,0|0,0|0,0
;   overrideFirmwareConfiguration,1
;   firmwareTypeOverride,MakerBot/Sailfish Firmware
;   GPXconfigOverride,r2h
;   baudRateOverride,115200
;   overridePrinterModels,1
;   printerModelsOverride,MakerBot_Replicator2.stl
;   startingGcode,; **** Replicator 2 start.gcode ****,M73 P0 ; enable build progress,G162 X Y F3000 ; home XY maximum,G161 Z F1200 ; home Z minimum,G92 Z-5 ; set Z to -5,G1 Z0 ; move Z to 0,G161 Z F100 ; home Z slowly,M132 X Y Z A B ; recall home offsets,G1 X-145 Y-75 Z30 F9000 ; move to wait position off table,G130 X20 Y20 Z20 A20 B20 ; lower stepper Vrefs while heating,M126 S[fan_speed_pwm],M140 S[bed0_temperature] T0,M134 T0 ; stabilize bed temperature,M104 S[extruder0_temperature] T0,M133 T0 ; stabilize extruder temperature,G130 X127 Y127 Z40 A127 B127 ; default stepper Vrefs,G92 A0 ; zero extruder,G1 Z0.4 ; position nozzle,G1 E25 F300 ; purge nozzle,G1 X-140 Y-70 Z0.15 F1200 ; slow wipe,G1 X-135 Y-65 Z0.5 F1200 ; lift,G92 A0 ; zero extruder,M73 P1 ;@body (notify GPX body has started),; **** end of start.gcode ****
;   layerChangeGcode,
;   retractionGcode,
;   toolChangeGcode,
;   endingGcode,; **** Replicator 2 end.gcode ****,M73 P100 ; end build progress,G1 Z155 F1000 ; send Z axis to bottom of machine,M104 S0 T0 ; cool down extruder,M140 S0 T0 ; cool down HBP,M127 ; stop blower fan,G162 X Y F3000 ; home XY maximum,M18 ; disable stepper,M0 ; stop codes,M72 P1 ; play Ta-Da song,; **** end of end.gcode ****
;   exportFileFormat,gcode
;   celebration,0
;   celebrationSong,Random Song
;   postProcessing,
;   defaultSpeed,4800
;   outlineUnderspeed,0.5
;   solidInfillUnderspeed,1
;   supportUnderspeed,1
;   rapidXYspeed,9000
;   rapidZspeed,1200
;   minBridgingArea,50
;   bridgingExtraInflation,0
;   bridgingExtrusionMultiplier,1
;   bridgingSpeedMultiplier,0.8
;   useFixedBridgingAngle,0
;   fixedBridgingAngle,0
;   applyBridgingToPerimeters,0
;   filamentDiameters,1.75|1.75|1.75|1.75|1.75|1.75
;   filamentPricesPerKg,46|46|46|46|46|46
;   filamentDensities,1.25|1.25|1.25|1.25|1.25|1.25
;   useMinPrintHeight,0
;   minPrintHeight,0
;   useMaxPrintHeight,0
;   maxPrintHeight,4.84
;   useDiaphragm,0
;   diaphragmLayerInterval,20
;   robustSlicing,1
;   mergeAllIntoSolid,0
;   onlyRetractWhenCrossingOutline,0
;   retractBetweenLayers,0
;   useRetractionMinTravel,1
;   retractionMinTravel,7
;   retractWhileWiping,1
;   onlyWipeOutlines,1
;   avoidCrossingOutline,0
;   maxMovementDetourFactor,3
;   toolChangeRetractionDistance,12
;   toolChangeExtraRestartDistance,-0.5
;   toolChangeRetractionSpeed,600
;   externalThinWallType,0
;   internalThinWallType,0
;   thinWallAllowedOverlapPercentage,10
;   singleExtrusionMinLength,1
;   singleExtrusionMinPrintingWidthPercentage,50
;   singleExtrusionMaxPrintingWidthPercentage,200
;   singleExtrusionEndpointExtension,0.2
;   horizontalSizeCompensation,0
G90
M83
; **** Replicator 2 start.gcode ****
M73 P0 ; enable build progress
G162 X Y F3000 ; home XY maximum
G161 Z F1200 ; home Z minimum
G92 Z-5 ; set Z to -5
G1 Z0 ; move Z to 0
G161 Z F100 ; home Z slowly
M132 X Y Z A B ; recall home offsets
G1 X-145 Y-75 Z30 F9000 ; move to wait position off table
G130 X20 Y20 Z20 A20 B20 ; lower stepper Vrefs while heating
M127
M140 S60 T0
M134 T0 ; stabilize bed temperature
M104 S230 T0
M133 T0 ; stabilize extruder temperature
G130 X127 Y127 Z40 A127 B127 ; default stepper Vrefs
G92 A0 ; zero extruder
G1 Z0.4 ; position nozzle
G1 E25 F300 ; purge nozzle
G1 X-140 Y-70 Z0.15 F1200 ; slow wipe
G1 X-135 Y-65 Z0.5 F1200 ; lift
G92 A0 ; zero extruder
M73 P1 ;@body (notify GPX body has started)
; **** end of start.gcode ****
; process Process1
; layer 1, Z = 0.200
M135 T0
G1 E-1.0000 F1200
; feature inner perimeter
; tool H0.200 W0.400
G1 Z0.500 F1200
G1 X5.076 Y6.004 F9000
G1 Z0.200 F1200
G1 E1.0000 F1200
G1 X-24.400 Y-8.849 E1.0978 F1800
G1 X-24.400 Y-26.378 E0.5830
G1 X-22.600 Y-26.378 E0.0599
G1 X-22.600 Y-8.615 E0.5908
G1 X5.076 Y5.340 E1.0309
G1 X5.076 Y6.004 E0.0221
; feature outer perimeter
G1 X5.476 Y6.653 F9000
G1 X-24.800 Y-8.602 E1.1276 F1200
G1 X-24.800 Y-26.778 E0.6045
G1 X-22.200 Y-26.778 E0.0865
G1 X-22.200 Y-8.861 E0.5959
G1 X5.476 Y5.094 E1.0309
G1 X5.476 Y6.653 E0.0518
G1 E-1.0000 F1200
; feature solid layer
G1 Z0.700 F1200
G1 X-24.080 Y-9.372 F9000
G1 Z0.200 F1200
G1 E1.0000 F1200
G1 X-23.422 Y-8.714 E0.0309 F2400
G1 X-22.920 Y-8.461 E0.0187
G1 X-22.920 Y-8.778 E0.0105
G1 X-24.080 Y-9.938 E0.0546
G1 X-24.080 Y-10.504 E0.0188
G1 X-22.920 Y-9.344 E0.0546
G1 X-22.920 Y-9.909 E0.0188
G1 X-24.080 Y-11.069 E0.0546
G1 X-24.080 Y-11.635 E0.0188
G1 X-22.920 Y-10.475 E0.0546
G1 X-22.920 Y-11.041 E0.0188
G1 X-24.080 Y-12.201 E0.0546
G1 X-24.080 Y-12.766 E0.0188
G1 X-22.920 Y-11.606 E0.0546
G1 X-22.920 Y-12.172 E0.0188
G1 X-24.080 Y-13.332 E0.0546
G1 X-24.080 Y-13.898 E0.0188
G1 X-22.920 Y-12.738 E0.0546
G1 X-22.920 Y-13.303 E0.0188
G1 X-24.080 Y-14.463 E0.0546
G1 X-24.080 Y-15.029 E0.0188
G1 X-22.920 Y-13.869 E0.0546
G1 X-22.920 Y-14.435 E0.0188
G1 X-24.080 Y-15.595 E0.0546
G1 X-24.080 Y-16.160 E0.0188
G1 X-22.920 Y-15.000 E0.0546
G1 X-22.920 Y-15.566 E0.0188
G1 X-24.080 Y-16.726 E0.0546
G1 X-24.080 Y-17.292 E0.0188
G1 X-22.920 Y-16.132 E0.0546
G1 X-22.920 Y-16.697 E0.0188
G1 X-24.080 Y-17.857 E0.0546
G1 X-24.080 Y-18.423 E0.0188
G1 X-22.920 Y-17.263 E0.0546
G1 X-22.920 Y-17.829 E0.0188
G1 X-24.080 Y-18.989 E0.0546
G1 X-24.080 Y-19.555 E0.0188
G1 X-22.920 Y-18.395 E0.0546
G1 X-22.920 Y-18.960 E0.0188
G1 X-24.080 Y-20.120 E0.0546
G1 X-24.080 Y-20.686 E0.0188
G1 X-22.920 Y-19.526 E0.0546
G1 X-22.920 Y-20.092 E0.0188
G1 X-24.080 Y-21.252 E0.0546
G1 X-24.080 Y-21.817 E0.0188
G1 X-22.920 Y-20.657 E0.0546
G1 X-22.920 Y-21.223 E0.0188
G1 X-24.080 Y-22.383 E0.0546
G1 X-24.080 Y-22.949 E0.0188
G1 X-22.920 Y-21.789 E0.0546
G1 X-22.920 Y-22.354 E0.0188
G1 X-24.080 Y-23.514 E0.0546
G1 X-24.080 Y-24.080 E0.0188
G1 X-22.920 Y-22.920 E0.0546
G1 X-22.920 Y-23.486 E0.0188
G1 X-24.080 Y-24.646 E0.0546
G1 X-24.080 Y-25.211 E0.0188
G1 X-22.920 Y-24.051 E0.0546
G1 X-22.920 Y-24.617 E0.0188
G1 X-24.080 Y-25.777 E0.0546
G1 X-24.080 Y-26.058 E0.0093
G1 X-23.795 Y-26.058 E0.0095
G1 X-22.920 Y-25.183 E0.0412
G1 X-22.920 Y-25.748 E0.0188
G1 X-23.229 Y-26.058 E0.0146
G1 E-1.0000 F1200
; feature inner perimeter
G1 Z0.700 F1200
G1 X24.400 Y26.378 F9000
G1 Z0.200 F1200
G1 E1.0000 F1200
G1 X-24.400 Y26.378 E1.6231 F1800
G1 X-24.400 Y12.578 E0.4590
G1 X24.400 Y12.578 E1.6231
G1 X24.400 Y26.378 E0.4590
; feature outer perimeter
G1 X24.800 Y26.778 F9000
G1 X-24.800 Y26.778 E1.6497 F1200
G1 X-24.800 Y12.178 E0.4856
G1 X24.800 Y12.178 E1.6497
G1 X24.800 Y26.778 E0.4856
G1 E-1.0000 F1200
; feature solid layer
G1 Z0.700 F1200
G1 X23.646 Y12.898 F9000
G1 Z0.200 F1200
G1 E1.0000 F1200
G1 X24.080 Y13.332 E0.0204 F2400
G1 X24.080 Y13.898 E0.0188
G1 X23.080 Y12.898 E0.0470
G1 X22.514 Y12.898 E0.0188
G1 X24.080 Y14.463 E0.0736
G1 X24.080 Y15.029 E0.0188
G1 X21.949 Y12.898 E0.1002
G1 X21.383 Y12.898 E0.0188
G1 X24.080 Y15.595 E0.1269
G1 X24.080 Y16.160 E0.0188
G1 X20.817 Y12.898 E0.1535
G1 X20.252 Y12.898 E0.0188
G1 X24.080 Y16.726 E0.1801
G1 X24.080 Y17.292 E0.0188
G1 X19.686 Y12.898 E0.2067
G1 X19.120 Y12.898 E0.0188
G1 X24.080 Y17.857 E0.2333
G1 X24.080 Y18.423 E0.0188
G1 X18.555 Y12.898 E0.2599
G1 X17.989 Y12.898 E0.0188
G1 X24.080 Y18.989 E0.2865
G1 X24.080 Y19.555 E0.0188
G1 X17.423 Y12.898 E0.3131
G1 X16.858 Y12.898 E0.0188
G1 X24.080 Y20.120 E0.3397
G1 X24.080 Y20.686 E0.0188
G1 X16.292 Y12.898 E0.3663
G1 X15.726 Y12.898 E0.0188
G1 X24.080 Y21.252 E0.3929
G1 X24.080 Y21.817 E0.0188
G1 X15.161 Y12.898 E0.4195
G1 X14.595 Y12.898 E0.0188
G1 X24.080 Y22.383 E0.4462
G1 X24.080 Y22.949 E0.0188
G1 X14.029 Y12.898 E0.4728
G1 X13.464 Y12.898 E0.0188
G1 X24.080 Y23.514 E0.4994
G1 X24.080 Y24.080 E0.0188
G1 X12.898 Y12.898 E0.5260
G1 X12.332 Y12.898 E0.0188
G1 X24.080 Y24.646 E0.5526
G1 X24.080 Y25.211 E0.0188
G1 X11.766 Y12.898 E0.5792
G1 X11.201 Y12.898 E0.0188
G1 X24.080 Y25.777 E0.6058
G1 X24.080 Y26.058 E0.0093
G1 X23.795 Y26.058 E0.0095
G1 X10.635 Y12.898 E0.6190
G1 X10.069 Y12.898 E0.0188
G1 X23.229 Y26.058 E0.6190
G1 X22.664 Y26.058 E0.0188
G1 X9.504 Y12.898 E0.6190
G1 X8.938 Y12.898 E0.0188
G1 X22.098 Y26.058 E0.6190
G1 X21.532 Y26.058 E0.0188
G1 X8.372 Y12.898 E0.6190
G1 X7.807 Y12.898 E0.0188
G1 X20.967 Y26.058 E0.6190
G1 X20.401 Y26.058 E0.0188
G1 X7.241 Y12.898 E0.6190
G1 X6.675 Y12.898 E0.0188
G1 X19.835 Y26.058 E0.6190
G1 X19.270 Y26.058 E0.0188
G1 X6.110 Y12.898 E0.6190
G1 X5.544 Y12.898 E0.0188
G1 X18.704 Y26.058 E0.6190
G1 X18.138 Y26.058 E0.0188
G1 X4.978 Y12.898 E0.6190
G1 X4.413 Y12.898 E0.0188
G1 X17.573 Y26.058 E0.6190
G1 X17.007 Y26.058 E0.0188
G1 X3.847 Y12.898 E0.6190
G1 X3.281 Y12.898 E0.0188
G1 X16.441 Y26.058 E0.6190
G1 X15.875 Y26.058 E0.0188
G1 X2.715 Y12.898 E0.6190
G1 X2.150 Y12.898 E0.0188
G1 X15.310 Y26.058 E0.6190
G1 X14.744 Y26.058 E0.0188
G1 X1.584 Y12.898 E0.6190
G1 X1.018 Y12.898 E0.0188
G1 X14.178 Y26.058 E0.6190
G1 X13.613 Y26.058 E0.0188
G1 X0.453 Y12.898 E0.6190
G1 X-0.113 Y12.898 E0.0188
G1 X13.047 Y26.058 E0.6190
G1 X12.481 Y26.058 E0.0188
G1 X-0.679 Y12.898 E0.6190
G1 X-1.244 Y12.898 E0.0188
G1 X11.916 Y26.058 E0.6190
G1 X11.350 Y26.058 E0.0188
G1 X-1.810 Y12.898 E0.6190
G1 X-2.376 Y12.898 E0.0188
G1 X10.784 Y26.058 E0.6190
G1 X10.219 Y26.058 E0.0188
G1 X-2.941 Y12.898 E0.6190
G1 X-3.507 Y12.898 E0.0188
G1 X9.653 Y26.058 E0.6190
G1 X9.087 Y26.058 E0.0188
G1 X-4.073 Y12.898 E0.6190
G1 X-4.638 Y12.898 E0.0188
G1 X8.522 Y26.058 E0.6190
G1 X7.956 Y26.058 E0.0188
G1 X-5.204 Y12.898 E0.6190
G1 X-5.770 Y12.898 E0.0188
G1 X7.390 Y26.058 E0.6190
G1 X6.825 Y26.058 E0.0188
G1 X-6.335 Y12.898 E0.6190
G1 X-6.901 Y12.898 E0.0188
G1 X6.259 Y26.058 E0.6190
G1 X5.693 Y26.058 E0.0188
G1 X-7.467 Y12.898 E0.6190
G1 X-8.033 Y12.898 E0.0188
G1 X5.127 Y26.058 E0.6190
G1 X4.562 Y26.058 E0.0188
G1 X-8.598 Y12.898 E0.6190
G1 X-9.164 Y12.898 E0.0188
G1 X3.996 Y26.058 E0.6190
G1 X3.430 Y26.058 E0.0188
G1 X-9.730 Y12.898 E0.6190
G1 X-10.295 Y12.898 E0.0188
G1 X2.865 Y26.058 E0.6190
G1 X2.299 Y26.058 E0.0188
G1 X-10.861 Y12.898 E0.6190
G1 X-11.427 Y12.898 E0.0188
G1 X1.733 Y26.058 E0.6190
G1 X1.168 Y26.058 E0.0188
G1 X-11.992 Y12.898 E0.6190
G1 X-12.558 Y12.898 E0.0188
G1 X0.602 Y26.058 E0.6190
G1 X0.036 Y26.058 E0.0188
G1 X-13.124 Y12.898 E0.6190
G1 X-13.689 Y12.898 E0.0188
G1 X-0.529 Y26.058 E0.6190
G1 X-1.095 Y26.058 E0.0188
G1 X-14.255 Y12.898 E0.6190
G1 X-14.821 Y12.898 E0.0188
G1 X-1.661 Y26.058 E0.6190
G1 X-2.226 Y26.058 E0.0188
G1 X-15.386 Y12.898 E0.6190
G1 X-15.952 Y12.898 E0.0188
G1 X-2.792 Y26.058 E0.6190
G1 X-3.358 Y26.058 E0.0188
G1 X-16.518 Y12.898 E0.6190
G1 X-17.084 Y12.898 E0.0188
G1 X-3.924 Y26.058 E0.6190
G1 X-4.489 Y26.058 E0.0188
G1 X-17.649 Y12.898 E0.6190
G1 X-18.215 Y12.898 E0.0188
G1 X-5.055 Y26.058 E0.6190
G1 X-5.621 Y26.058 E0.0188
G1 X-18.781 Y12.898 E0.6190
G1 X-19.346 Y12.898 E0.0188
G1 X-6.186 Y26.058 E0.6190
G1 X-6.752 Y26.058 E0.0188
G1 X-19.912 Y12.898 E0.6190
G1 X-20.478 Y12.898 E0.0188
G1 X-7.318 Y26.058 E0.6190
G1 X-7.883 Y26.058 E0.0188
G1 X-21.043 Y12.898 E0.6190
G1 X-21.609 Y12.898 E0.0188
G1 X-8.449 Y26.058 E0.6190
G1 X-9.015 Y26.058 E0.0188
G1 X-22.175 Y12.898 E0.6190
G1 X-22.740 Y12.898 E0.0188
G1 X-9.580 Y26.058 E0.6190
G1 X-10.146 Y26.058 E0.0188
G1 X-23.306 Y12.898 E0.6190
G1 X-23.872 Y12.898 E0.0188
G1 X-10.712 Y26.058 E0.6190
G1 X-11.277 Y26.058 E0.0188
G1 X-24.080 Y13.255 E0.6022
G1 X-24.080 Y13.821 E0.0188
G1 X-11.843 Y26.058 E0.5756
G1 X-12.409 Y26.058 E0.0188
G1 X-24.080 Y14.387 E0.5490
G1 X-24.080 Y14.952 E0.0188
G1 X-12.974 Y26.058 E0.5224
G1 X-13.540 Y26.058 E0.0188
G1 X-24.080 Y15.518 E0.4958
G1 X-24.080 Y16.084 E0.0188
G1 X-14.106 Y26.058 E0.4692
G1 X-14.672 Y26.058 E0.0188
G1 X-24.080 Y16.649 E0.4425
G1 X-24.080 Y17.215 E0.0188
G1 X-15.237 Y26.058 E0.4159
G1 X-15.803 Y26.058 E0.0188
G1 X-24.080 Y17.781 E0.3893
G1 X-24.080 Y18.346 E0.0188
G1 X-16.369 Y26.058 E0.3627
G1 X-16.934 Y26.058 E0.0188
G1 X-24.080 Y18.912 E0.3361
G1 X-24.080 Y19.478 E0.0188
G1 X-17.500 Y26.058 E0.3095
G1 X-18.066 Y26.058 E0.0188
G1 X-24.080 Y20.043 E0.2829
G1 X-24.080 Y20.609 E0.0188
G1 X-18.631 Y26.058 E0.2563
G1 X-19.197 Y26.058 E0.0188
G1 X-24.080 Y21.175 E0.2297
G1 X-24.080 Y21.741 E0.0188
G1 X-19.763 Y26.058 E0.2031
G1 X-20.328 Y26.058 E0.0188
G1 X-24.080 Y22.306 E0.1765
G1 X-24.080 Y22.872 E0.0188
G1 X-20.894 Y26.058 E0.1499
