; G-Code generated by Simplify3D(R) Version 4.1.2
; Apr 6, 2020 at 11:35:47 AM
; Settings Summary
;   processName,Process1
;   applyToModels,Sign Insert,Sign Insert(2),Sign Insert(3),Sign Insert(2)(2)
;   profileName,MakerBot Replicator 2 HBP (modified)
;   profileVersion,2020-03-12 10:48:50
;   baseProfile,MakerBot Replicator 2(2)
;   printMaterial,PLA
;   printQuality,Medium
;   printExtruders,
;   extruderName,Primary Extruder
;   extruderToolheadNumber,0
;   extruderDiameter,0.4
;   extruderAutoWidth,0
;   extruderWidth,0.4
;   extrusionMultiplier,1
;   extruderUseRetract,1
;   extruderRetractionDistance,1.9
;   extruderExtraRestartDistance,0
;   extruderRetractionZLift,0.5
;   extruderRetractionSpeed,1200
;   extruderUseCoasting,0
;   extruderCoastingDistance,0.2
;   extruderUseWipe,0
;   extruderWipeDistance,5
;   primaryExtruder,0
;   layerHeight,0.2
;   topSolidLayers,3
;   bottomSolidLayers,3
;   perimeterOutlines,2
;   printPerimetersInsideOut,1
;   startPointOption,3
;   startPointOriginX,0
;   startPointOriginY,150
;   sequentialIslands,0
;   spiralVaseMode,0
;   firstLayerHeightPercentage,100
;   firstLayerWidthPercentage,115
;   firstLayerUnderspeed,0.5
;   useRaft,0
;   raftExtruder,0
;   raftTopLayers,2
;   raftBaseLayers,1
;   raftOffset,1
;   raftSeparationDistance,0.14
;   raftTopInfill,90
;   aboveRaftSpeedMultiplier,0.3
;   useSkirt,0
;   skirtExtruder,0
;   skirtLayers,1
;   skirtOutlines,5
;   skirtOffset,0
;   usePrimePillar,0
;   primePillarExtruder,999
;   primePillarWidth,12
;   primePillarLocation,7
;   primePillarSpeedMultiplier,1
;   useOozeShield,0
;   oozeShieldExtruder,999
;   oozeShieldOffset,2
;   oozeShieldOutlines,1
;   oozeShieldSidewallShape,1
;   oozeShieldSidewallAngle,30
;   oozeShieldSpeedMultiplier,1
;   infillExtruder,0
;   internalInfillPattern,Rectilinear
;   externalInfillPattern,Rectilinear
;   infillPercentage,15
;   outlineOverlapPercentage,25
;   infillExtrusionWidthPercentage,100
;   minInfillLength,5
;   infillLayerInterval,1
;   internalInfillAngles,45,-45
;   overlapInternalInfillAngles,0
;   externalInfillAngles,45,-45
;   generateSupport,0
;   supportExtruder,0
;   supportInfillPercentage,5
;   supportExtraInflation,0.5
;   supportBaseLayers,0
;   denseSupportExtruder,0
;   denseSupportLayers,2
;   denseSupportInfillPercentage,90
;   supportLayerInterval,1
;   supportHorizontalPartOffset,0.3
;   supportUpperSeparationLayers,1
;   supportLowerSeparationLayers,1
;   supportType,1
;   supportGridSpacing,2
;   maxOverhangAngle,45
;   supportAngles,45,-45
;   temperatureName,Primary Extruder,Heated Build Platform
;   temperatureNumber,0,0
;   temperatureSetpointCount,1,1
;   temperatureSetpointLayers,1,1
;   temperatureSetpointTemperatures,230,60
;   temperatureStabilizeAtStartup,1,1
;   temperatureHeatedBed,0,1
;   fanLayers,1,2
;   fanSpeeds,0,100
;   blipFanToFullPower,1
;   adjustSpeedForCooling,1
;   minSpeedLayerTime,15
;   minCoolingSpeedSlowdown,20
;   increaseFanForCooling,1
;   minFanLayerTime,45
;   maxCoolingFanSpeed,100
;   increaseFanForBridging,1
;   bridgingFanSpeed,100
;   use5D,1
;   relativeEdistances,1
;   allowEaxisZeroing,0
;   independentExtruderAxes,1
;   includeM10123,0
;   stickySupport,1
;   applyToolheadOffsets,0
;   gcodeXoffset,0
;   gcodeYoffset,0
;   gcodeZoffset,0
;   overrideMachineDefinition,1
;   machineTypeOverride,0
;   strokeXoverride,280
;   strokeYoverride,150
;   strokeZoverride,150
;   originOffsetXoverride,140
;   originOffsetYoverride,75
;   originOffsetZoverride,0
;   homeXdirOverride,1
;   homeYdirOverride,1
;   homeZdirOverride,-1
;   flipXoverride,1
;   flipYoverride,-1
;   flipZoverride,1
;   toolheadOffsets,0,0|0,0|0,0|0,0|0,0|0,0
;   overrideFirmwareConfiguration,1
;   firmwareTypeOverride,MakerBot/Sailfish Firmware
;   GPXconfigOverride,r2h
;   baudRateOverride,115200
;   overridePrinterModels,1
;   printerModelsOverride,MakerBot_Replicator2.stl
;   startingGcode,; **** Replicator 2 start.gcode ****,M73 P0 ; enable build progress,G162 X Y F3000 ; home XY maximum,G161 Z F1200 ; home Z minimum,G92 Z-5 ; set Z to -5,G1 Z0 ; move Z to 0,G161 Z F100 ; home Z slowly,M132 X Y Z A B ; recall home offsets,G1 X-145 Y-75 Z30 F9000 ; move to wait position off table,G130 X20 Y20 Z20 A20 B20 ; lower stepper Vrefs while heating,M126 S[fan_speed_pwm],M140 S[bed0_temperature] T0,M134 T0 ; stabilize bed temperature,M104 S[extruder0_temperature] T0,M133 T0 ; stabilize extruder temperature,G130 X127 Y127 Z40 A127 B127 ; default stepper Vrefs,G92 A0 ; zero extruder,G1 Z0.4 ; position nozzle,G1 E25 F300 ; purge nozzle,G1 X-140 Y-70 Z0.15 F1200 ; slow wipe,G1 X-135 Y-65 Z0.5 F1200 ; lift,G92 A0 ; zero extruder,M73 P1 ;@body (notify GPX body has started),; **** end of start.gcode ****
;   layerChangeGcode,
;   retractionGcode,
;   toolChangeGcode,
;   endingGcode,; **** Replicator 2 end.gcode ****,M73 P100 ; end build progress,G1 Z155 F1000 ; send Z axis to bottom of machine,M104 S0 T0 ; cool down extruder,M140 S0 T0 ; cool down HBP,M127 ; stop blower fan,G162 X Y F3000 ; home XY maximum,M18 ; disable stepper,M0 ; stop codes,M72 P1 ; play Ta-Da song,; **** end of end.gcode ****
;   exportFileFormat,gcode
;   celebration,0
;   celebrationSong,Random Song
;   postProcessing,
;   defaultSpeed,4800
;   outlineUnderspeed,0.5
;   solidInfillUnderspeed,1
;   supportUnderspeed,1
;   rapidXYspeed,9000
;   rapidZspeed,1200
;   minBridgingArea,50
;   bridgingExtraInflation,0
;   bridgingExtrusionMultiplier,1
;   bridgingSpeedMultiplier,0.8
;   useFixedBridgingAngle,0
;   fixedBridgingAngle,0
;   applyBridgingToPerimeters,0
;   filamentDiameters,1.75|1.75|1.75|1.75|1.75|1.75
;   filamentPricesPerKg,46|46|46|46|46|46
;   filamentDensities,1.25|1.25|1.25|1.25|1.25|1.25
;   useMinPrintHeight,0
;   minPrintHeight,0
;   useMaxPrintHeight,0
;   maxPrintHeight,4.84
;   useDiaphragm,0
;   diaphragmLayerInterval,20
;   robustSlicing,1
;   mergeAllIntoSolid,0
;   onlyRetractWhenCrossingOutline,0
;   retractBetweenLayers,0
;   useRetractionMinTravel,1
;   retractionMinTravel,7
;   retractWhileWiping,1
;   onlyWipeOutlines,1
;   avoidCrossingOutline,0
;   maxMovementDetourFactor,3
;   toolChangeRetractionDistance,12
;   toolChangeExtraRestartDistance,-0.5
;   toolChangeRetractionSpeed,600
;   externalThinWallType,0
;   internalThinWallType,0
;   thinWallAllowedOverlapPercentage,10
;   singleExtrusionMinLength,1
;   singleExtrusionMinPrintingWidthPercentage,50
;   singleExtrusionMaxPrintingWidthPercentage,200
;   singleExtrusionEndpointExtension,0.2
;   horizontalSizeCompensation,0
G90
M83
; **** Replicator 2 start.gcode ****
M73 P0 ; enable build progress
G162 X Y F3000 ; home XY maximum
G161 Z F1200 ; home Z minimum
G92 Z-5 ; set Z to -5
G1 Z0 ; move Z to 0
G161 Z F100 ; home Z slowly
M132 X Y Z A B ; recall home offsets
G1 X-145 Y-75 Z30 F9000 ; move to wait position off table
G130 X20 Y20 Z20 A20 B20 ; lower stepper Vrefs while heating
M127
M140 S60 T0
M134 T0 ; stabilize bed temperature
M104 S230 T0
M133 T0 ; stabilize extruder temperature
G130 X127 Y127 Z40 A127 B127 ; default stepper Vrefs
G92 A0 ; zero extruder
G1 Z0.4 ; position nozzle
G1 E25 F300 ; purge nozzle
G1 X-140 Y-70 Z0.15 F1200 ; slow wipe
G1 X-135 Y-65 Z0.5 F1200 ; lift
G92 A0 ; zero extruder
M73 P1 ;@body (notify GPX body has started)
; **** end of start.gcode ****
; process Process1
; layer 1, Z = 0.200
M135 T0
G1 E-1.9000 F1200
; feature inner perimeter
; tool H0.200 W0.460
G1 Z0.500 F1200
G1 X8.399 Y-3.190 F9000
G1 Z0.200 F1200
G1 E1.9000 F1200
G1 X7.518 Y-3.263 E0.0338 F1800
G1 X6.688 Y-3.472 E0.0327
G1 X5.903 Y-3.815 E0.0327
G1 X5.186 Y-4.283 E0.0327
G1 X4.555 Y-4.861 E0.0327
G1 X4.028 Y-5.535 E0.0327
G1 X3.618 Y-6.287 E0.0327
G1 X3.338 Y-7.096 E0.0327
G1 X3.194 Y-7.939 E0.0327
G1 X3.190 Y-8.795 E0.0327
G1 X3.327 Y-9.640 E0.0327
G1 X3.601 Y-10.451 E0.0327
G1 X4.004 Y-11.206 E0.0327
G1 X4.526 Y-11.885 E0.0327
G1 X5.152 Y-12.469 E0.0327
G1 X5.857 Y-12.936 E0.0324
G1 X50.936 Y-37.740 E1.9680
G1 X51.665 Y-38.065 E0.0305
G1 X52.411 Y-38.257 E0.0294
G1 X53.207 Y-38.324 E0.0305
G1 X63.535 Y-38.324 E0.3950
G1 X64.331 Y-38.257 E0.0305
G1 X65.076 Y-38.065 E0.0294
G1 X65.805 Y-37.740 E0.0305
G1 X110.852 Y-12.957 E1.9665
G1 X111.589 Y-12.469 E0.0338
G1 X112.215 Y-11.885 E0.0327
G1 X112.737 Y-11.206 E0.0327
G1 X113.140 Y-10.451 E0.0327
G1 X113.414 Y-9.640 E0.0327
G1 X113.551 Y-8.795 E0.0327
G1 X113.548 Y-7.939 E0.0327
G1 X113.404 Y-7.096 E0.0327
G1 X113.123 Y-6.287 E0.0327
G1 X112.713 Y-5.535 E0.0327
G1 X112.186 Y-4.861 E0.0327
G1 X111.555 Y-4.283 E0.0327
G1 X110.838 Y-3.815 E0.0327
G1 X110.054 Y-3.472 E0.0327
G1 X109.224 Y-3.263 E0.0327
G1 X108.342 Y-3.190 E0.0338
G1 X8.399 Y-3.190 E3.8227
; feature outer perimeter
G1 X8.380 Y-2.730 F9000
G1 X7.442 Y-2.808 E0.0360 F1200
G1 X6.538 Y-3.036 E0.0356
G1 X5.684 Y-3.409 E0.0356
G1 X4.903 Y-3.918 E0.0357
G1 X4.216 Y-4.548 E0.0356
G1 X3.642 Y-5.282 E0.0357
G1 X3.196 Y-6.100 E0.0356
G1 X2.891 Y-6.981 E0.0356
G1 X2.734 Y-7.899 E0.0356
G1 X2.730 Y-8.832 E0.0357
G1 X2.879 Y-9.751 E0.0356
G1 X3.178 Y-10.635 E0.0357
G1 X3.617 Y-11.457 E0.0356
G1 X4.185 Y-12.195 E0.0357
G1 X4.867 Y-12.831 E0.0356
G1 X5.619 Y-13.330 E0.0345
G1 X50.731 Y-38.152 E1.9695
G1 X51.513 Y-38.501 E0.0328
G1 X52.334 Y-38.712 E0.0324
G1 X53.187 Y-38.784 E0.0328
G1 X63.554 Y-38.784 E0.3965
G1 X64.408 Y-38.712 E0.0328
G1 X65.228 Y-38.501 E0.0324
G1 X66.010 Y-38.152 E0.0328
G1 X111.090 Y-13.351 E1.9680
G1 X111.875 Y-12.831 E0.0360
G1 X112.556 Y-12.195 E0.0356
G1 X113.125 Y-11.457 E0.0357
G1 X113.564 Y-10.635 E0.0356
G1 X113.862 Y-9.751 E0.0357
G1 X114.011 Y-8.832 E0.0356
G1 X114.007 Y-7.899 E0.0357
G1 X113.851 Y-6.981 E0.0356
G1 X113.545 Y-6.100 E0.0356
G1 X113.099 Y-5.282 E0.0356
G1 X112.525 Y-4.548 E0.0357
G1 X111.838 Y-3.918 E0.0356
G1 X111.057 Y-3.409 E0.0356
G1 X110.203 Y-3.036 E0.0356
G1 X109.299 Y-2.808 E0.0356
G1 X108.361 Y-2.730 E0.0360
G1 X8.380 Y-2.730 E3.8242
; feature solid layer
G1 X6.460 Y-3.949 F9000
G1 X3.910 Y-6.499 E0.1379 F2400
G1 X3.673 Y-7.182 E0.0277
G1 X3.631 Y-7.428 E0.0096
G1 X7.414 Y-3.645 E0.2047
G1 X7.574 Y-3.604 E0.0063
G1 X8.153 Y-3.556 E0.0222
G1 X3.538 Y-8.172 E0.2497
G1 X3.535 Y-8.768 E0.0228
G1 X3.543 Y-8.817 E0.0019
G1 X8.825 Y-3.535 E0.2857
G1 X9.476 Y-3.535 E0.0249
G1 X3.634 Y-9.377 E0.3160
G1 X3.663 Y-9.557 E0.0070
G1 X3.775 Y-9.887 E0.0133
G1 X10.126 Y-3.535 E0.3436
G1 X10.777 Y-3.535 E0.0249
G1 X3.946 Y-10.365 E0.3695
G1 X4.173 Y-10.789 E0.0184
G1 X11.427 Y-3.535 E0.3924
G1 X12.078 Y-3.535 E0.0249
G1 X4.425 Y-11.188 E0.4139
G1 X4.708 Y-11.555 E0.0177
G1 X12.728 Y-3.535 E0.4338
G1 X13.379 Y-3.535 E0.0249
G1 X5.031 Y-11.883 E0.4516
G1 X5.367 Y-12.197 E0.0176
G1 X14.030 Y-3.535 E0.4686
G1 X14.680 Y-3.535 E0.0249
G1 X5.759 Y-12.456 E0.4826
G1 X6.036 Y-12.640 E0.0127
G1 X6.158 Y-12.708 E0.0053
G1 X15.331 Y-3.535 E0.4962
G1 X15.981 Y-3.535 E0.0249
G1 X6.578 Y-12.938 E0.5087
G1 X6.997 Y-13.169 E0.0183
G1 X16.632 Y-3.535 E0.5211
G1 X17.282 Y-3.535 E0.0249
G1 X7.417 Y-13.400 E0.5336
G1 X7.837 Y-13.631 E0.0183
G1 X17.933 Y-3.535 E0.5461
G1 X18.583 Y-3.535 E0.0249
G1 X8.256 Y-13.862 E0.5586
G1 X8.676 Y-14.093 E0.0183
G1 X19.234 Y-3.535 E0.5711
G1 X19.884 Y-3.535 E0.0249
G1 X9.095 Y-14.324 E0.5836
G1 X9.515 Y-14.555 E0.0183
G1 X20.535 Y-3.535 E0.5961
G1 X21.185 Y-3.535 E0.0249
G1 X9.935 Y-14.786 E0.6086
G1 X10.354 Y-15.017 E0.0183
G1 X21.836 Y-3.535 E0.6211
G1 X22.487 Y-3.535 E0.0249
G1 X10.774 Y-15.247 E0.6336
G1 X11.194 Y-15.478 E0.0183
G1 X23.137 Y-3.535 E0.6460
G1 X23.788 Y-3.535 E0.0249
G1 X11.613 Y-15.709 E0.6585
G1 X12.033 Y-15.940 E0.0183
G1 X24.438 Y-3.535 E0.6710
G1 X25.089 Y-3.535 E0.0249
G1 X12.453 Y-16.171 E0.6835
G1 X12.872 Y-16.402 E0.0183
G1 X25.739 Y-3.535 E0.6960
G1 X26.390 Y-3.535 E0.0249
G1 X13.292 Y-16.633 E0.7085
G1 X13.711 Y-16.864 E0.0183
G1 X27.040 Y-3.535 E0.7210
G1 X27.691 Y-3.535 E0.0249
G1 X14.131 Y-17.095 E0.7335
G1 X14.551 Y-17.326 E0.0183
G1 X28.341 Y-3.535 E0.7460
G1 X28.992 Y-3.535 E0.0249
G1 X14.970 Y-17.557 E0.7585
G1 X15.390 Y-17.787 E0.0183
G1 X29.642 Y-3.535 E0.7709
G1 X30.293 Y-3.535 E0.0249
G1 X15.810 Y-18.018 E0.7834
G1 X16.229 Y-18.249 E0.0183
G1 X30.944 Y-3.535 E0.7959
G1 X31.594 Y-3.535 E0.0249
G1 X16.649 Y-18.480 E0.8084
G1 X17.069 Y-18.711 E0.0183
G1 X32.245 Y-3.535 E0.8209
G1 X32.895 Y-3.535 E0.0249
G1 X17.488 Y-18.942 E0.8334
G1 X17.908 Y-19.173 E0.0183
G1 X33.546 Y-3.535 E0.8459
G1 X34.196 Y-3.535 E0.0249
G1 X18.327 Y-19.404 E0.8584
G1 X18.747 Y-19.635 E0.0183
G1 X34.847 Y-3.535 E0.8709
G1 X35.497 Y-3.535 E0.0249
G1 X19.167 Y-19.866 E0.8834
G1 X19.586 Y-20.096 E0.0183
G1 X36.148 Y-3.535 E0.8959
G1 X36.798 Y-3.535 E0.0249
G1 X20.006 Y-20.327 E0.9083
G1 X20.426 Y-20.558 E0.0183
G1 X37.449 Y-3.535 E0.9208
G1 X38.099 Y-3.535 E0.0249
G1 X20.845 Y-20.789 E0.9333
G1 X21.265 Y-21.020 E0.0183
G1 X38.750 Y-3.535 E0.9458
G1 X39.401 Y-3.535 E0.0249
G1 X21.685 Y-21.251 E0.9583
G1 X22.104 Y-21.482 E0.0183
G1 X40.051 Y-3.535 E0.9708
G1 X40.702 Y-3.535 E0.0249
G1 X22.524 Y-21.713 E0.9833
G1 X22.943 Y-21.944 E0.0183
G1 X41.352 Y-3.535 E0.9958
G1 X42.003 Y-3.535 E0.0249
G1 X23.363 Y-22.175 E1.0083
G1 X23.783 Y-22.405 E0.0183
G1 X42.653 Y-3.535 E1.0208
G1 X43.304 Y-3.535 E0.0249
G1 X24.202 Y-22.636 E1.0332
G1 X24.622 Y-22.867 E0.0183
G1 X43.954 Y-3.535 E1.0457
G1 X44.605 Y-3.535 E0.0249
G1 X25.042 Y-23.098 E1.0582
G1 X25.461 Y-23.329 E0.0183
G1 X45.255 Y-3.535 E1.0707
G1 X45.906 Y-3.535 E0.0249
G1 X25.881 Y-23.560 E1.0832
G1 X26.301 Y-23.791 E0.0183
G1 X46.556 Y-3.535 E1.0957
G1 X47.207 Y-3.535 E0.0249
G1 X26.720 Y-24.022 E1.1082
G1 X27.140 Y-24.253 E0.0183
G1 X47.858 Y-3.535 E1.1207
G1 X48.508 Y-3.535 E0.0249
G1 X27.559 Y-24.484 E1.1332
G1 X27.979 Y-24.715 E0.0183
G1 X49.159 Y-3.535 E1.1457
G1 X49.809 Y-3.535 E0.0249
G1 X28.399 Y-24.945 E1.1581
G1 X28.818 Y-25.176 E0.0183
G1 X50.460 Y-3.535 E1.1706
G1 X51.110 Y-3.535 E0.0249
G1 X29.238 Y-25.407 E1.1831
G1 X29.658 Y-25.638 E0.0183
G1 X51.761 Y-3.535 E1.1956
G1 X52.411 Y-3.535 E0.0249
G1 X30.077 Y-25.869 E1.2081
G1 X30.497 Y-26.100 E0.0183
G1 X53.062 Y-3.535 E1.2206
G1 X53.712 Y-3.535 E0.0249
G1 X30.917 Y-26.331 E1.2331
G1 X31.336 Y-26.562 E0.0183
G1 X54.363 Y-3.535 E1.2456
G1 X55.013 Y-3.535 E0.0249
G1 X31.756 Y-26.793 E1.2581
G1 X32.175 Y-27.024 E0.0183
G1 X55.664 Y-3.535 E1.2706
G1 X56.315 Y-3.535 E0.0249
G1 X32.595 Y-27.254 E1.2830
G1 X33.015 Y-27.485 E0.0183
G1 X56.965 Y-3.535 E1.2955
G1 X57.616 Y-3.535 E0.0249
G1 X33.434 Y-27.716 E1.3080
G1 X33.854 Y-27.947 E0.0183
G1 X58.266 Y-3.535 E1.3205
G1 X58.917 Y-3.535 E0.0249
G1 X34.274 Y-28.178 E1.3330
G1 X34.693 Y-28.409 E0.0183
G1 X59.567 Y-3.535 E1.3455
G1 X60.218 Y-3.535 E0.0249
G1 X35.113 Y-28.640 E1.3580
G1 X35.533 Y-28.871 E0.0183
G1 X60.868 Y-3.535 E1.3705
G1 X61.519 Y-3.535 E0.0249
G1 X35.952 Y-29.102 E1.3830
G1 X36.372 Y-29.333 E0.0183
G1 X62.169 Y-3.535 E1.3955
G1 X62.820 Y-3.535 E0.0249
G1 X36.791 Y-29.563 E1.4079
G1 X37.211 Y-29.794 E0.0183
G1 X63.470 Y-3.535 E1.4204
G1 X64.121 Y-3.535 E0.0249
G1 X37.631 Y-30.025 E1.4329
G1 X38.050 Y-30.256 E0.0183
G1 X64.772 Y-3.535 E1.4454
G1 X65.422 Y-3.535 E0.0249
G1 X38.470 Y-30.487 E1.4579
G1 X38.890 Y-30.718 E0.0183
G1 X66.073 Y-3.535 E1.4704
G1 X66.723 Y-3.535 E0.0249
G1 X39.309 Y-30.949 E1.4829
G1 X39.729 Y-31.180 E0.0183
G1 X67.374 Y-3.535 E1.4954
G1 X68.024 Y-3.535 E0.0249
G1 X40.149 Y-31.411 E1.5079
G1 X40.568 Y-31.642 E0.0183
G1 X68.675 Y-3.535 E1.5204
G1 X69.325 Y-3.535 E0.0249
G1 X40.988 Y-31.873 E1.5328
G1 X41.407 Y-32.103 E0.0183
G1 X69.976 Y-3.535 E1.5453
G1 X70.626 Y-3.535 E0.0249
G1 X41.827 Y-32.334 E1.5578
G1 X42.247 Y-32.565 E0.0183
G1 X71.277 Y-3.535 E1.5703
G1 X71.927 Y-3.535 E0.0249
G1 X42.666 Y-32.796 E1.5828
G1 X43.086 Y-33.027 E0.0183
G1 X72.578 Y-3.535 E1.5953
G1 X73.229 Y-3.535 E0.0249
G1 X43.506 Y-33.258 E1.6078
G1 X43.925 Y-33.489 E0.0183
G1 X73.879 Y-3.535 E1.6203
G1 X74.530 Y-3.535 E0.0249
G1 X44.345 Y-33.720 E1.6328
G1 X44.765 Y-33.951 E0.0183
G1 X75.180 Y-3.535 E1.6453
G1 X75.831 Y-3.535 E0.0249
G1 X45.184 Y-34.182 E1.6577
G1 X45.604 Y-34.412 E0.0183
G1 X76.481 Y-3.535 E1.6702
G1 X77.132 Y-3.535 E0.0249
