; G-Code generated by Simplify3D(R) Version 4.1.2
; Apr 6, 2020 at 11:36:49 AM
; Settings Summary
;   processName,Process1
;   applyToModels,D20Base,D20Base(2),D20Base(3),D20Base(2)(2)
;   profileName,MakerBot Replicator 2 HBP (modified)
;   profileVersion,2020-03-12 10:48:50
;   baseProfile,MakerBot Replicator 2(2)
;   printMaterial,PLA
;   printQuality,Medium
;   printExtruders,
;   extruderName,Primary Extruder
;   extruderToolheadNumber,0
;   extruderDiameter,0.4
;   extruderAutoWidth,0
;   extruderWidth,0.4
;   extrusionMultiplier,1
;   extruderUseRetract,1
;   extruderRetractionDistance,1.9
;   extruderExtraRestartDistance,0
;   extruderRetractionZLift,0.5
;   extruderRetractionSpeed,1200
;   extruderUseCoasting,0
;   extruderCoastingDistance,0.2
;   extruderUseWipe,0
;   extruderWipeDistance,5
;   primaryExtruder,0
;   layerHeight,0.2
;   topSolidLayers,3
;   bottomSolidLayers,3
;   perimeterOutlines,2
;   printPerimetersInsideOut,1
;   startPointOption,3
;   startPointOriginX,0
;   startPointOriginY,150
;   sequentialIslands,0
;   spiralVaseMode,0
;   firstLayerHeightPercentage,100
;   firstLayerWidthPercentage,115
;   firstLayerUnderspeed,0.5
;   useRaft,0
;   raftExtruder,0
;   raftTopLayers,2
;   raftBaseLayers,1
;   raftOffset,1
;   raftSeparationDistance,0.14
;   raftTopInfill,90
;   aboveRaftSpeedMultiplier,0.3
;   useSkirt,0
;   skirtExtruder,0
;   skirtLayers,1
;   skirtOutlines,5
;   skirtOffset,0
;   usePrimePillar,0
;   primePillarExtruder,999
;   primePillarWidth,12
;   primePillarLocation,7
;   primePillarSpeedMultiplier,1
;   useOozeShield,0
;   oozeShieldExtruder,999
;   oozeShieldOffset,2
;   oozeShieldOutlines,1
;   oozeShieldSidewallShape,1
;   oozeShieldSidewallAngle,30
;   oozeShieldSpeedMultiplier,1
;   infillExtruder,0
;   internalInfillPattern,Rectilinear
;   externalInfillPattern,Rectilinear
;   infillPercentage,15
;   outlineOverlapPercentage,25
;   infillExtrusionWidthPercentage,100
;   minInfillLength,5
;   infillLayerInterval,1
;   internalInfillAngles,45,-45
;   overlapInternalInfillAngles,0
;   externalInfillAngles,45,-45
;   generateSupport,0
;   supportExtruder,0
;   supportInfillPercentage,5
;   supportExtraInflation,0.5
;   supportBaseLayers,0
;   denseSupportExtruder,0
;   denseSupportLayers,2
;   denseSupportInfillPercentage,90
;   supportLayerInterval,1
;   supportHorizontalPartOffset,0.3
;   supportUpperSeparationLayers,1
;   supportLowerSeparationLayers,1
;   supportType,1
;   supportGridSpacing,2
;   maxOverhangAngle,45
;   supportAngles,45,-45
;   temperatureName,Primary Extruder,Heated Build Platform
;   temperatureNumber,0,0
;   temperatureSetpointCount,1,1
;   temperatureSetpointLayers,1,1
;   temperatureSetpointTemperatures,230,60
;   temperatureStabilizeAtStartup,1,1
;   temperatureHeatedBed,0,1
;   fanLayers,1,2
;   fanSpeeds,0,100
;   blipFanToFullPower,1
;   adjustSpeedForCooling,1
;   minSpeedLayerTime,15
;   minCoolingSpeedSlowdown,20
;   increaseFanForCooling,1
;   minFanLayerTime,45
;   maxCoolingFanSpeed,100
;   increaseFanForBridging,1
;   bridgingFanSpeed,100
;   use5D,1
;   relativeEdistances,1
;   allowEaxisZeroing,0
;   independentExtruderAxes,1
;   includeM10123,0
;   stickySupport,1
;   applyToolheadOffsets,0
;   gcodeXoffset,0
;   gcodeYoffset,0
;   gcodeZoffset,0
;   overrideMachineDefinition,1
;   machineTypeOverride,0
;   strokeXoverride,280
;   strokeYoverride,150
;   strokeZoverride,150
;   originOffsetXoverride,140
;   originOffsetYoverride,75
;   originOffsetZoverride,0
;   homeXdirOverride,1
;   homeYdirOverride,1
;   homeZdirOverride,-1
;   flipXoverride,1
;   flipYoverride,-1
;   flipZoverride,1
;   toolheadOffsets,0,0|0,0|0,0|0,0|0,0|0,0
;   overrideFirmwareConfiguration,1
;   firmwareTypeOverride,MakerBot/Sailfish Firmware
;   GPXconfigOverride,r2h
;   baudRateOverride,115200
;   overridePrinterModels,1
;   printerModelsOverride,MakerBot_Replicator2.stl
;   startingGcode,; **** Replicator 2 start.gcode ****,M73 P0 ; enable build progress,G162 X Y F3000 ; home XY maximum,G161 Z F1200 ; home Z minimum,G92 Z-5 ; set Z to -5,G1 Z0 ; move Z to 0,G161 Z F100 ; home Z slowly,M132 X Y Z A B ; recall home offsets,G1 X-145 Y-75 Z30 F9000 ; move to wait position off table,G130 X20 Y20 Z20 A20 B20 ; lower stepper Vrefs while heating,M126 S[fan_speed_pwm],M140 S[bed0_temperature] T0,M134 T0 ; stabilize bed temperature,M104 S[extruder0_temperature] T0,M133 T0 ; stabilize extruder temperature,G130 X127 Y127 Z40 A127 B127 ; default stepper Vrefs,G92 A0 ; zero extruder,G1 Z0.4 ; position nozzle,G1 E25 F300 ; purge nozzle,G1 X-140 Y-70 Z0.15 F1200 ; slow wipe,G1 X-135 Y-65 Z0.5 F1200 ; lift,G92 A0 ; zero extruder,M73 P1 ;@body (notify GPX body has started),; **** end of start.gcode ****
;   layerChangeGcode,
;   retractionGcode,
;   toolChangeGcode,
;   endingGcode,; **** Replicator 2 end.gcode ****,M73 P100 ; end build progress,G1 Z155 F1000 ; send Z axis to bottom of machine,M104 S0 T0 ; cool down extruder,M140 S0 T0 ; cool down HBP,M127 ; stop blower fan,G162 X Y F3000 ; home XY maximum,M18 ; disable stepper,M0 ; stop codes,M72 P1 ; play Ta-Da song,; **** end of end.gcode ****
;   exportFileFormat,gcode
;   celebration,0
;   celebrationSong,Random Song
;   postProcessing,
;   defaultSpeed,4800
;   outlineUnderspeed,0.5
;   solidInfillUnderspeed,1
;   supportUnderspeed,1
;   rapidXYspeed,9000
;   rapidZspeed,1200
;   minBridgingArea,50
;   bridgingExtraInflation,0
;   bridgingExtrusionMultiplier,1
;   bridgingSpeedMultiplier,0.8
;   useFixedBridgingAngle,0
;   fixedBridgingAngle,0
;   applyBridgingToPerimeters,0
;   filamentDiameters,1.75|1.75|1.75|1.75|1.75|1.75
;   filamentPricesPerKg,46|46|46|46|46|46
;   filamentDensities,1.25|1.25|1.25|1.25|1.25|1.25
;   useMinPrintHeight,0
;   minPrintHeight,0
;   useMaxPrintHeight,0
;   maxPrintHeight,4.84
;   useDiaphragm,0
;   diaphragmLayerInterval,20
;   robustSlicing,1
;   mergeAllIntoSolid,0
;   onlyRetractWhenCrossingOutline,0
;   retractBetweenLayers,0
;   useRetractionMinTravel,1
;   retractionMinTravel,7
;   retractWhileWiping,1
;   onlyWipeOutlines,1
;   avoidCrossingOutline,0
;   maxMovementDetourFactor,3
;   toolChangeRetractionDistance,12
;   toolChangeExtraRestartDistance,-0.5
;   toolChangeRetractionSpeed,600
;   externalThinWallType,0
;   internalThinWallType,0
;   thinWallAllowedOverlapPercentage,10
;   singleExtrusionMinLength,1
;   singleExtrusionMinPrintingWidthPercentage,50
;   singleExtrusionMaxPrintingWidthPercentage,200
;   singleExtrusionEndpointExtension,0.2
;   horizontalSizeCompensation,0
G90
M83
; **** Replicator 2 start.gcode ****
M73 P0 ; enable build progress
G162 X Y F3000 ; home XY maximum
G161 Z F1200 ; home Z minimum
G92 Z-5 ; set Z to -5
G1 Z0 ; move Z to 0
G161 Z F100 ; home Z slowly
M132 X Y Z A B ; recall home offsets
G1 X-145 Y-75 Z30 F9000 ; move to wait position off table
G130 X20 Y20 Z20 A20 B20 ; lower stepper Vrefs while heating
M127
M140 S60 T0
M134 T0 ; stabilize bed temperature
M104 S230 T0
M133 T0 ; stabilize extruder temperature
G130 X127 Y127 Z40 A127 B127 ; default stepper Vrefs
G92 A0 ; zero extruder
G1 Z0.4 ; position nozzle
G1 E25 F300 ; purge nozzle
G1 X-140 Y-70 Z0.15 F1200 ; slow wipe
G1 X-135 Y-65 Z0.5 F1200 ; lift
G92 A0 ; zero extruder
M73 P1 ;@body (notify GPX body has started)
; **** end of start.gcode ****
; process Process1
; layer 1, Z = 0.200
M135 T0
G1 E-1.9000 F1200
; feature inner perimeter
; tool H0.200 W0.460
G1 Z0.500 F1200
G1 X28.310 Y-3.190 F9000
G1 Z0.200 F1200
G1 E1.9000 F1200
G1 X-28.310 Y-3.190 E2.1657 F1800
G1 X-28.310 Y-71.810 E2.6247
G1 X28.310 Y-71.810 E2.1657
G1 X28.310 Y-3.190 E2.6247
; feature outer perimeter
G1 X28.770 Y-2.730 F9000
G1 X-28.770 Y-2.730 E2.2009 F1200
G1 X-28.770 Y-72.270 E2.6598
G1 X28.770 Y-72.270 E2.2009
G1 X28.770 Y-2.730 E2.6598
G1 E-1.9000 F1200
; feature inner perimeter
G1 Z0.700 F1200
G1 X15.518 Y-28.244 F9000
G1 Z0.200 F1200
G1 E1.9000 F1200
G1 X0.079 Y-43.725 E0.8363 F1800
G1 X-5.608 Y-22.614 E0.8363
G1 X15.518 Y-28.244 E0.8363
; feature outer perimeter
G1 X14.630 Y-28.483 F9000
G1 X0.316 Y-42.836 E0.7753 F1200
G1 X-4.957 Y-23.263 E0.7753
G1 X14.630 Y-28.483 E0.7753
G1 E-1.9000 F1200
; feature inner perimeter
G1 Z0.700 F1200
G1 X9.822 Y-51.617 F9000
G1 Z0.200 F1200
G1 E1.9000 F1200
G1 X10.374 Y-51.784 E0.0221 F1800
G1 X10.883 Y-52.056 E0.0221
G1 X11.329 Y-52.422 E0.0221
G1 X11.695 Y-52.869 E0.0221
G1 X11.967 Y-53.377 E0.0221
G1 X12.135 Y-53.930 E0.0221
G1 X12.191 Y-54.504 E0.0221
G1 X12.135 Y-55.078 E0.0221
G1 X11.967 Y-55.630 E0.0221
G1 X11.695 Y-56.139 E0.0221
G1 X11.329 Y-56.585 E0.0221
G1 X10.883 Y-56.951 E0.0221
G1 X10.374 Y-57.223 E0.0221
G1 X9.822 Y-57.391 E0.0221
G1 X9.248 Y-57.447 E0.0221
G1 X8.674 Y-57.391 E0.0221
G1 X8.122 Y-57.223 E0.0221
G1 X7.613 Y-56.951 E0.0221
G1 X7.167 Y-56.585 E0.0221
G1 X6.801 Y-56.139 E0.0221
G1 X6.529 Y-55.630 E0.0221
G1 X6.361 Y-55.078 E0.0221
G1 X6.305 Y-54.504 E0.0221
G1 X6.358 Y-53.959 E0.0209
G1 X6.527 Y-53.381 E0.0230
G1 X6.801 Y-52.869 E0.0222
G1 X7.167 Y-52.422 E0.0221
G1 X7.613 Y-52.056 E0.0221
G1 X8.122 Y-51.784 E0.0221
G1 X8.674 Y-51.617 E0.0221
G1 X9.248 Y-51.560 E0.0221
G1 X9.822 Y-51.617 E0.0221
; feature outer perimeter
G1 X9.732 Y-52.070 F9000
G1 X10.198 Y-52.212 E0.0186 F1200
G1 X10.627 Y-52.441 E0.0186
G1 X11.002 Y-52.749 E0.0186
G1 X11.311 Y-53.125 E0.0186
G1 X11.540 Y-53.554 E0.0186
G1 X11.681 Y-54.020 E0.0186
G1 X11.729 Y-54.504 E0.0186
G1 X11.681 Y-54.988 E0.0186
G1 X11.540 Y-55.453 E0.0186
G1 X11.311 Y-55.882 E0.0186
G1 X11.002 Y-56.258 E0.0186
G1 X10.627 Y-56.567 E0.0186
G1 X10.198 Y-56.796 E0.0186
G1 X9.732 Y-56.937 E0.0186
G1 X9.248 Y-56.985 E0.0186
G1 X8.764 Y-56.937 E0.0186
G1 X8.299 Y-56.796 E0.0186
G1 X7.870 Y-56.567 E0.0186
G1 X7.494 Y-56.258 E0.0186
G1 X7.185 Y-55.882 E0.0186
G1 X6.956 Y-55.453 E0.0186
G1 X6.815 Y-54.988 E0.0186
G1 X6.767 Y-54.504 E0.0186
G1 X6.812 Y-54.046 E0.0176
G1 X6.955 Y-53.555 E0.0196
G1 X7.185 Y-53.125 E0.0187
G1 X7.494 Y-52.749 E0.0186
G1 X7.870 Y-52.441 E0.0186
G1 X8.299 Y-52.212 E0.0186
G1 X8.764 Y-52.070 E0.0186
G1 X9.248 Y-52.023 E0.0186
G1 X9.732 Y-52.070 E0.0186
G1 E-1.9000 F1200
; feature inner perimeter
G1 Z0.700 F1200
G1 X-20.522 Y-65.116 F9000
G1 Z0.200 F1200
G1 E1.9000 F1200
G1 X-20.355 Y-65.668 E0.0221 F1800
G1 X-20.298 Y-66.242 E0.0221
G1 X-20.352 Y-66.787 E0.0209
G1 X-20.520 Y-67.365 E0.0230
G1 X-20.794 Y-67.878 E0.0222
G1 X-21.160 Y-68.324 E0.0221
G1 X-21.606 Y-68.690 E0.0221
G1 X-22.115 Y-68.962 E0.0221
G1 X-22.667 Y-69.129 E0.0221
G1 X-23.241 Y-69.186 E0.0221
G1 X-23.816 Y-69.129 E0.0221
G1 X-24.368 Y-68.962 E0.0221
G1 X-24.877 Y-68.690 E0.0221
G1 X-25.323 Y-68.324 E0.0221
G1 X-25.689 Y-67.878 E0.0221
G1 X-25.961 Y-67.369 E0.0221
G1 X-26.128 Y-66.816 E0.0221
G1 X-26.185 Y-66.242 E0.0221
G1 X-26.128 Y-65.668 E0.0221
G1 X-25.961 Y-65.116 E0.0221
G1 X-25.689 Y-64.607 E0.0221
G1 X-25.323 Y-64.161 E0.0221
G1 X-24.877 Y-63.795 E0.0221
G1 X-24.368 Y-63.523 E0.0221
G1 X-23.816 Y-63.355 E0.0221
G1 X-23.241 Y-63.299 E0.0221
G1 X-22.667 Y-63.355 E0.0221
G1 X-22.115 Y-63.523 E0.0221
G1 X-21.606 Y-63.795 E0.0221
G1 X-21.160 Y-64.161 E0.0221
G1 X-20.794 Y-64.607 E0.0221
G1 X-20.522 Y-65.116 E0.0221
; feature outer perimeter
G1 X-20.949 Y-65.293 F9000
G1 X-20.808 Y-65.758 E0.0186 F1200
G1 X-20.760 Y-66.242 E0.0186
G1 X-20.805 Y-66.700 E0.0176
G1 X-20.949 Y-67.191 E0.0196
G1 X-21.178 Y-67.621 E0.0187
G1 X-21.487 Y-67.997 E0.0186
G1 X-21.863 Y-68.305 E0.0186
G1 X-22.292 Y-68.535 E0.0186
G1 X-22.757 Y-68.676 E0.0186
G1 X-23.241 Y-68.723 E0.0186
G1 X-23.725 Y-68.676 E0.0186
G1 X-24.191 Y-68.535 E0.0186
G1 X-24.620 Y-68.305 E0.0186
G1 X-24.996 Y-67.997 E0.0186
G1 X-25.304 Y-67.621 E0.0186
G1 X-25.534 Y-67.192 E0.0186
G1 X-25.675 Y-66.726 E0.0186
G1 X-25.722 Y-66.242 E0.0186
G1 X-25.675 Y-65.758 E0.0186
G1 X-25.534 Y-65.293 E0.0186
G1 X-25.304 Y-64.864 E0.0186
G1 X-24.996 Y-64.488 E0.0186
G1 X-24.620 Y-64.179 E0.0186
G1 X-24.191 Y-63.950 E0.0186
G1 X-23.725 Y-63.809 E0.0186
G1 X-23.241 Y-63.761 E0.0186
G1 X-22.757 Y-63.809 E0.0186
G1 X-22.292 Y-63.950 E0.0186
G1 X-21.863 Y-64.179 E0.0186
G1 X-21.487 Y-64.488 E0.0186
G1 X-21.178 Y-64.864 E0.0186
G1 X-20.949 Y-65.293 E0.0186
G1 E-1.9000 F1200
; feature inner perimeter
G1 Z0.700 F1200
G1 X-23.241 Y-34.190 F9000
G1 Z0.200 F1200
G1 E1.9000 F1200
G1 X-23.816 Y-34.134 E0.0221 F1800
G1 X-24.368 Y-33.966 E0.0221
G1 X-24.877 Y-33.694 E0.0221
G1 X-25.323 Y-33.328 E0.0221
G1 X-25.689 Y-32.882 E0.0221
G1 X-25.961 Y-32.373 E0.0221
G1 X-26.128 Y-31.821 E0.0221
G1 X-26.185 Y-31.247 E0.0221
G1 X-26.128 Y-30.673 E0.0221
G1 X-25.961 Y-30.121 E0.0221
G1 X-25.689 Y-29.612 E0.0221
G1 X-25.323 Y-29.166 E0.0221
G1 X-24.877 Y-28.800 E0.0221
G1 X-24.368 Y-28.528 E0.0221
G1 X-23.816 Y-28.360 E0.0221
G1 X-23.241 Y-28.304 E0.0221
G1 X-22.667 Y-28.360 E0.0221
G1 X-22.115 Y-28.528 E0.0221
G1 X-21.606 Y-28.800 E0.0221
G1 X-21.160 Y-29.166 E0.0221
G1 X-20.794 Y-29.612 E0.0221
G1 X-20.522 Y-30.121 E0.0221
G1 X-20.355 Y-30.673 E0.0221
G1 X-20.298 Y-31.247 E0.0221
G1 X-20.352 Y-31.792 E0.0209
G1 X-20.520 Y-32.370 E0.0230
G1 X-20.794 Y-32.882 E0.0222
G1 X-21.160 Y-33.328 E0.0221
G1 X-21.606 Y-33.694 E0.0221
G1 X-22.115 Y-33.966 E0.0221
G1 X-22.667 Y-34.134 E0.0221
G1 X-23.241 Y-34.190 E0.0221
; feature outer perimeter
G1 X-23.241 Y-33.728 F9000
G1 X-23.725 Y-33.681 E0.0186 F1200
G1 X-24.191 Y-33.539 E0.0186
G1 X-24.620 Y-33.310 E0.0186
G1 X-24.996 Y-33.002 E0.0186
G1 X-25.304 Y-32.626 E0.0186
G1 X-25.534 Y-32.197 E0.0186
G1 X-25.675 Y-31.731 E0.0186
G1 X-25.722 Y-31.247 E0.0186
G1 X-25.675 Y-30.763 E0.0186
G1 X-25.534 Y-30.298 E0.0186
G1 X-25.304 Y-29.869 E0.0186
G1 X-24.996 Y-29.493 E0.0186
G1 X-24.620 Y-29.184 E0.0186
G1 X-24.191 Y-28.955 E0.0186
G1 X-23.725 Y-28.814 E0.0186
G1 X-23.241 Y-28.766 E0.0186
G1 X-22.757 Y-28.814 E0.0186
G1 X-22.292 Y-28.955 E0.0186
G1 X-21.863 Y-29.184 E0.0186
G1 X-21.487 Y-29.493 E0.0186
G1 X-21.178 Y-29.869 E0.0186
G1 X-20.949 Y-30.298 E0.0186
G1 X-20.808 Y-30.763 E0.0186
G1 X-20.760 Y-31.247 E0.0186
G1 X-20.805 Y-31.704 E0.0176
G1 X-20.949 Y-32.196 E0.0196
G1 X-21.178 Y-32.626 E0.0187
G1 X-21.487 Y-33.002 E0.0186
G1 X-21.863 Y-33.310 E0.0186
G1 X-22.292 Y-33.539 E0.0186
G1 X-22.757 Y-33.681 E0.0186
G1 X-23.241 Y-33.728 E0.0186
; feature solid layer
G1 X-19.997 Y-31.706 F9000
G1 X8.175 Y-3.535 E1.5239 F2400
G1 X7.524 Y-3.535 E0.0249
G1 X-19.973 Y-31.032 E1.4874
G1 X-20.015 Y-30.605 E0.0164
G1 X-20.057 Y-30.466 E0.0056
G1 X6.874 Y-3.535 E1.4567
G1 X6.223 Y-3.535 E0.0249
G1 X-20.212 Y-29.970 E1.4299
G1 X-20.438 Y-29.546 E0.0184
G1 X5.573 Y-3.535 E1.4070
G1 X4.922 Y-3.535 E0.0249
G1 X-20.712 Y-29.169 E1.3866
G1 X-20.915 Y-28.921 E0.0123
G1 X-21.024 Y-28.831 E0.0054
G1 X4.271 Y-3.535 E1.3683
G1 X3.621 Y-3.535 E0.0249
G1 X-21.382 Y-28.538 E1.3525
G1 X-21.414 Y-28.512 E0.0016
G1 X-21.800 Y-28.305 E0.0168
G1 X2.970 Y-3.535 E1.3399
G1 X2.320 Y-3.535 E0.0249
G1 X-22.266 Y-28.121 E1.3299
G1 X-22.599 Y-28.020 E0.0133
G1 X-22.797 Y-28.001 E0.0076
G1 X1.669 Y-3.535 E1.3234
G1 X1.019 Y-3.535 E0.0249
G1 X-23.421 Y-27.975 E1.3220
G1 E-1.9000 F1200
G1 Z0.700 F1200
G1 X-5.912 Y-22.176 F9000
G1 Z0.200 F1200
G1 E1.9000 F1200
G1 X12.728 Y-3.535 E1.0083 F2400
G1 X13.379 Y-3.535 E0.0249
G1 X-5.398 Y-22.312 E1.0157
G1 X-4.885 Y-22.449 E0.0203
G1 X14.030 Y-3.535 E1.0231
G1 X14.680 Y-3.535 E0.0249
G1 X-4.371 Y-22.586 E1.0305
G1 X-3.858 Y-22.723 E0.0203
G1 X15.331 Y-3.535 E1.0379
G1 X15.981 Y-3.535 E0.0249
G1 X-3.344 Y-22.860 E1.0453
G1 X-2.830 Y-22.997 E0.0203
G1 X16.632 Y-3.535 E1.0527
G1 X17.282 Y-3.535 E0.0249
G1 X-2.317 Y-23.134 E1.0601
G1 X-1.803 Y-23.271 E0.0203
G1 X17.933 Y-3.535 E1.0676
G1 X18.583 Y-3.535 E0.0249
G1 X-1.289 Y-23.408 E1.0750
G1 X-0.776 Y-23.545 E0.0203
G1 X19.234 Y-3.535 E1.0824
G1 X19.884 Y-3.535 E0.0249
G1 X-0.262 Y-23.681 E1.0898
G1 X0.252 Y-23.818 E0.0203
G1 X20.535 Y-3.535 E1.0972
G1 X21.185 Y-3.535 E0.0249
G1 X0.765 Y-23.955 E1.1046
G1 X1.279 Y-24.092 E0.0203
G1 X21.836 Y-3.535 E1.1120
G1 X22.487 Y-3.535 E0.0249
G1 X1.793 Y-24.229 E1.1194
G1 X2.306 Y-24.366 E0.0203
G1 X23.137 Y-3.535 E1.1268
G1 X23.788 Y-3.535 E0.0249
