; G-Code generated by Simplify3D(R) Version 4.1.2
; Apr 6, 2020 at 11:36:37 AM
; Settings Summary
;   processName,Process1
;   applyToModels,D20Base,D20Base(2)
;   profileName,MakerBot Replicator 2 HBP (modified)
;   profileVersion,2020-03-12 10:48:50
;   baseProfile,MakerBot Replicator 2(2)
;   printMaterial,PLA
;   printQuality,Medium
;   printExtruders,
;   extruderName,Primary Extruder
;   extruderToolheadNumber,0
;   extruderDiameter,0.4
;   extruderAutoWidth,0
;   extruderWidth,0.4
;   extrusionMultiplier,1
;   extruderUseRetract,1
;   extruderRetractionDistance,1.9
;   extruderExtraRestartDistance,0
;   extruderRetractionZLift,0.5
;   extruderRetractionSpeed,1200
;   extruderUseCoasting,0
;   extruderCoastingDistance,0.2
;   extruderUseWipe,0
;   extruderWipeDistance,5
;   primaryExtruder,0
;   layerHeight,0.2
;   topSolidLayers,3
;   bottomSolidLayers,3
;   perimeterOutlines,2
;   printPerimetersInsideOut,1
;   startPointOption,3
;   startPointOriginX,0
;   startPointOriginY,150
;   sequentialIslands,0
;   spiralVaseMode,0
;   firstLayerHeightPercentage,100
;   firstLayerWidthPercentage,115
;   firstLayerUnderspeed,0.5
;   useRaft,0
;   raftExtruder,0
;   raftTopLayers,2
;   raftBaseLayers,1
;   raftOffset,1
;   raftSeparationDistance,0.14
;   raftTopInfill,90
;   aboveRaftSpeedMultiplier,0.3
;   useSkirt,0
;   skirtExtruder,0
;   skirtLayers,1
;   skirtOutlines,5
;   skirtOffset,0
;   usePrimePillar,0
;   primePillarExtruder,999
;   primePillarWidth,12
;   primePillarLocation,7
;   primePillarSpeedMultiplier,1
;   useOozeShield,0
;   oozeShieldExtruder,999
;   oozeShieldOffset,2
;   oozeShieldOutlines,1
;   oozeShieldSidewallShape,1
;   oozeShieldSidewallAngle,30
;   oozeShieldSpeedMultiplier,1
;   infillExtruder,0
;   internalInfillPattern,Rectilinear
;   externalInfillPattern,Rectilinear
;   infillPercentage,15
;   outlineOverlapPercentage,25
;   infillExtrusionWidthPercentage,100
;   minInfillLength,5
;   infillLayerInterval,1
;   internalInfillAngles,45,-45
;   overlapInternalInfillAngles,0
;   externalInfillAngles,45,-45
;   generateSupport,0
;   supportExtruder,0
;   supportInfillPercentage,5
;   supportExtraInflation,0.5
;   supportBaseLayers,0
;   denseSupportExtruder,0
;   denseSupportLayers,2
;   denseSupportInfillPercentage,90
;   supportLayerInterval,1
;   supportHorizontalPartOffset,0.3
;   supportUpperSeparationLayers,1
;   supportLowerSeparationLayers,1
;   supportType,1
;   supportGridSpacing,2
;   maxOverhangAngle,45
;   supportAngles,45,-45
;   temperatureName,Primary Extruder,Heated Build Platform
;   temperatureNumber,0,0
;   temperatureSetpointCount,1,1
;   temperatureSetpointLayers,1,1
;   temperatureSetpointTemperatures,230,60
;   temperatureStabilizeAtStartup,1,1
;   temperatureHeatedBed,0,1
;   fanLayers,1,2
;   fanSpeeds,0,100
;   blipFanToFullPower,1
;   adjustSpeedForCooling,1
;   minSpeedLayerTime,15
;   minCoolingSpeedSlowdown,20
;   increaseFanForCooling,1
;   minFanLayerTime,45
;   maxCoolingFanSpeed,100
;   increaseFanForBridging,1
;   bridgingFanSpeed,100
;   use5D,1
;   relativeEdistances,1
;   allowEaxisZeroing,0
;   independentExtruderAxes,1
;   includeM10123,0
;   stickySupport,1
;   applyToolheadOffsets,0
;   gcodeXoffset,0
;   gcodeYoffset,0
;   gcodeZoffset,0
;   overrideMachineDefinition,1
;   machineTypeOverride,0
;   strokeXoverride,280
;   strokeYoverride,150
;   strokeZoverride,150
;   originOffsetXoverride,140
;   originOffsetYoverride,75
;   originOffsetZoverride,0
;   homeXdirOverride,1
;   homeYdirOverride,1
;   homeZdirOverride,-1
;   flipXoverride,1
;   flipYoverride,-1
;   flipZoverride,1
;   toolheadOffsets,0,0|0,0|0,0|0,0|0,0|0,0
;   overrideFirmwareConfiguration,1
;   firmwareTypeOverride,MakerBot/Sailfish Firmware
;   GPXconfigOverride,r2h
;   baudRateOverride,115200
;   overridePrinterModels,1
;   printerModelsOverride,MakerBot_Replicator2.stl
;   startingGcode,; **** Replicator 2 start.gcode ****,M73 P0 ; enable build progress,G162 X Y F3000 ; home XY maximum,G161 Z F1200 ; home Z minimum,G92 Z-5 ; set Z to -5,G1 Z0 ; move Z to 0,G161 Z F100 ; home Z slowly,M132 X Y Z A B ; recall home offsets,G1 X-145 Y-75 Z30 F9000 ; move to wait position off table,G130 X20 Y20 Z20 A20 B20 ; lower stepper Vrefs while heating,M126 S[fan_speed_pwm],M140 S[bed0_temperature] T0,M134 T0 ; stabilize bed temperature,M104 S[extruder0_temperature] T0,M133 T0 ; stabilize extruder temperature,G130 X127 Y127 Z40 A127 B127 ; default stepper Vrefs,G92 A0 ; zero extruder,G1 Z0.4 ; position nozzle,G1 E25 F300 ; purge nozzle,G1 X-140 Y-70 Z0.15 F1200 ; slow wipe,G1 X-135 Y-65 Z0.5 F1200 ; lift,G92 A0 ; zero extruder,M73 P1 ;@body (notify GPX body has started),; **** end of start.gcode ****
;   layerChangeGcode,
;   retractionGcode,
;   toolChangeGcode,
;   endingGcode,; **** Replicator 2 end.gcode ****,M73 P100 ; end build progress,G1 Z155 F1000 ; send Z axis to bottom of machine,M104 S0 T0 ; cool down extruder,M140 S0 T0 ; cool down HBP,M127 ; stop blower fan,G162 X Y F3000 ; home XY maximum,M18 ; disable stepper,M0 ; stop codes,M72 P1 ; play Ta-Da song,; **** end of end.gcode ****
;   exportFileFormat,gcode
;   celebration,0
;   celebrationSong,Random Song
;   postProcessing,
;   defaultSpeed,4800
;   outlineUnderspeed,0.5
;   solidInfillUnderspeed,1
;   supportUnderspeed,1
;   rapidXYspeed,9000
;   rapidZspeed,1200
;   minBridgingArea,50
;   bridgingExtraInflation,0
;   bridgingExtrusionMultiplier,1
;   bridgingSpeedMultiplier,0.8
;   useFixedBridgingAngle,0
;   fixedBridgingAngle,0
;   applyBridgingToPerimeters,0
;   filamentDiameters,1.75|1.75|1.75|1.75|1.75|1.75
;   filamentPricesPerKg,46|46|46|46|46|46
;   filamentDensities,1.25|1.25|1.25|1.25|1.25|1.25
;   useMinPrintHeight,0
;   minPrintHeight,0
;   useMaxPrintHeight,0
;   maxPrintHeight,4.84
;   useDiaphragm,0
;   diaphragmLayerInterval,20
;   robustSlicing,1
;   mergeAllIntoSolid,0
;   onlyRetractWhenCrossingOutline,0
;   retractBetweenLayers,0
;   useRetractionMinTravel,1
;   retractionMinTravel,7
;   retractWhileWiping,1
;   onlyWipeOutlines,1
;   avoidCrossingOutline,0
;   maxMovementDetourFactor,3
;   toolChangeRetractionDistance,12
;   toolChangeExtraRestartDistance,-0.5
;   toolChangeRetractionSpeed,600
;   externalThinWallType,0
;   internalThinWallType,0
;   thinWallAllowedOverlapPercentage,10
;   singleExtrusionMinLength,1
;   singleExtrusionMinPrintingWidthPercentage,50
;   singleExtrusionMaxPrintingWidthPercentage,200
;   singleExtrusionEndpointExtension,0.2
;   horizontalSizeCompensation,0
G90
M83
; **** Replicator 2 start.gcode ****
M73 P0 ; enable build progress
G162 X Y F3000 ; home XY maximum
G161 Z F1200 ; home Z minimum
G92 Z-5 ; set Z to -5
G1 Z0 ; move Z to 0
G161 Z F100 ; home Z slowly
M132 X Y Z A B ; recall home offsets
G1 X-145 Y-75 Z30 F9000 ; move to wait position off table
G130 X20 Y20 Z20 A20 B20 ; lower stepper Vrefs while heating
M127
M140 S60 T0
M134 T0 ; stabilize bed temperature
M104 S230 T0
M133 T0 ; stabilize extruder temperature
G130 X127 Y127 Z40 A127 B127 ; default stepper Vrefs
G92 A0 ; zero extruder
G1 Z0.4 ; position nozzle
G1 E25 F300 ; purge nozzle
G1 X-140 Y-70 Z0.15 F1200 ; slow wipe
G1 X-135 Y-65 Z0.5 F1200 ; lift
G92 A0 ; zero extruder
M73 P1 ;@body (notify GPX body has started)
; **** end of start.gcode ****
; process Process1
; layer 1, Z = 0.200
M135 T0
G1 E-1.9000 F1200
; feature inner perimeter
; tool H0.200 W0.460
G1 Z0.500 F1200
G1 X3.190 Y34.310 F9000
G1 Z0.200 F1200
G1 E1.9000 F1200
G1 X3.190 Y-34.310 E2.6247 F1800
G1 X59.810 Y-34.310 E2.1657
G1 X59.810 Y34.310 E2.6247
G1 X3.190 Y34.310 E2.1657
; feature outer perimeter
G1 X2.730 Y34.770 F9000
G1 X2.730 Y-34.770 E2.6598 F1200
G1 X60.270 Y-34.770 E2.2009
G1 X60.270 Y34.770 E2.6598
G1 X2.730 Y34.770 E2.2009
G1 E-1.9000 F1200
; feature inner perimeter
G1 Z0.700 F1200
G1 X7.684 Y9.140 F9000
G1 Z0.200 F1200
G1 E1.9000 F1200
G1 X8.259 Y9.196 E0.0221 F1800
G1 X8.833 Y9.140 E0.0221
G1 X9.385 Y8.972 E0.0221
G1 X9.894 Y8.700 E0.0221
G1 X10.340 Y8.334 E0.0221
G1 X10.706 Y7.888 E0.0221
G1 X10.978 Y7.379 E0.0221
G1 X11.145 Y6.827 E0.0221
G1 X11.202 Y6.253 E0.0221
G1 X11.148 Y5.708 E0.0209
G1 X10.980 Y5.130 E0.0230
G1 X10.706 Y4.618 E0.0222
G1 X10.340 Y4.172 E0.0221
G1 X9.894 Y3.806 E0.0221
G1 X9.385 Y3.534 E0.0221
G1 X8.833 Y3.366 E0.0221
G1 X8.259 Y3.310 E0.0221
G1 X7.684 Y3.366 E0.0221
G1 X7.132 Y3.534 E0.0221
G1 X6.623 Y3.806 E0.0221
G1 X6.177 Y4.172 E0.0221
G1 X5.811 Y4.618 E0.0221
G1 X5.539 Y5.126 E0.0221
G1 X5.372 Y5.679 E0.0221
G1 X5.315 Y6.253 E0.0221
G1 X5.372 Y6.827 E0.0221
G1 X5.539 Y7.379 E0.0221
G1 X5.811 Y7.888 E0.0221
G1 X6.177 Y8.334 E0.0221
G1 X6.623 Y8.700 E0.0221
G1 X7.132 Y8.972 E0.0221
G1 X7.684 Y9.140 E0.0221
; feature outer perimeter
G1 X7.775 Y8.686 F9000
G1 X8.259 Y8.734 E0.0186 F1200
G1 X8.743 Y8.686 E0.0186
G1 X9.208 Y8.545 E0.0186
G1 X9.637 Y8.316 E0.0186
G1 X10.013 Y8.007 E0.0186
G1 X10.322 Y7.631 E0.0186
G1 X10.551 Y7.202 E0.0186
G1 X10.692 Y6.737 E0.0186
G1 X10.740 Y6.253 E0.0186
G1 X10.695 Y5.796 E0.0176
G1 X10.551 Y5.304 E0.0196
G1 X10.322 Y4.874 E0.0187
G1 X10.013 Y4.498 E0.0186
G1 X9.637 Y4.190 E0.0186
G1 X9.208 Y3.961 E0.0186
G1 X8.743 Y3.819 E0.0186
G1 X8.259 Y3.772 E0.0186
G1 X7.775 Y3.819 E0.0186
G1 X7.309 Y3.961 E0.0186
G1 X6.880 Y4.190 E0.0186
G1 X6.504 Y4.498 E0.0186
G1 X6.196 Y4.874 E0.0186
G1 X5.966 Y5.303 E0.0186
G1 X5.825 Y5.769 E0.0186
G1 X5.778 Y6.253 E0.0186
G1 X5.825 Y6.737 E0.0186
G1 X5.966 Y7.202 E0.0186
G1 X6.196 Y7.631 E0.0186
G1 X6.504 Y8.007 E0.0186
G1 X6.880 Y8.316 E0.0186
G1 X7.309 Y8.545 E0.0186
G1 X7.775 Y8.686 E0.0186
G1 E-1.9000 F1200
; feature inner perimeter
G1 Z0.700 F1200
G1 X25.892 Y14.886 F9000
G1 Z0.200 F1200
G1 E1.9000 F1200
G1 X47.019 Y9.256 E0.8363 F1800
G1 X31.579 Y-6.225 E0.8363
G1 X25.892 Y14.886 E0.8363
; feature outer perimeter
G1 X26.543 Y14.237 F9000
G1 X46.130 Y9.017 E0.7753 F1200
G1 X31.816 Y-5.336 E0.7753
G1 X26.543 Y14.237 E0.7753
G1 E-1.9000 F1200
; feature inner perimeter
G1 Z0.700 F1200
G1 X39.622 Y-14.284 F9000
G1 Z0.200 F1200
G1 E1.9000 F1200
G1 X40.174 Y-14.117 E0.0221 F1800
G1 X40.748 Y-14.060 E0.0221
G1 X41.322 Y-14.117 E0.0221
G1 X41.874 Y-14.284 E0.0221
G1 X42.383 Y-14.556 E0.0221
G1 X42.829 Y-14.922 E0.0221
G1 X43.195 Y-15.369 E0.0221
G1 X43.467 Y-15.877 E0.0221
G1 X43.635 Y-16.430 E0.0221
G1 X43.691 Y-17.004 E0.0221
G1 X43.635 Y-17.578 E0.0221
G1 X43.467 Y-18.130 E0.0221
G1 X43.195 Y-18.639 E0.0221
G1 X42.829 Y-19.085 E0.0221
G1 X42.383 Y-19.451 E0.0221
G1 X41.874 Y-19.723 E0.0221
G1 X41.322 Y-19.891 E0.0221
G1 X40.748 Y-19.947 E0.0221
G1 X40.174 Y-19.891 E0.0221
G1 X39.622 Y-19.723 E0.0221
G1 X39.113 Y-19.451 E0.0221
G1 X38.667 Y-19.085 E0.0221
G1 X38.301 Y-18.639 E0.0221
G1 X38.029 Y-18.130 E0.0221
G1 X37.861 Y-17.578 E0.0221
G1 X37.805 Y-17.004 E0.0221
G1 X37.858 Y-16.459 E0.0209
G1 X38.027 Y-15.881 E0.0230
G1 X38.301 Y-15.369 E0.0222
G1 X38.667 Y-14.922 E0.0221
G1 X39.113 Y-14.556 E0.0221
G1 X39.622 Y-14.284 E0.0221
; feature outer perimeter
G1 X39.799 Y-14.711 F9000
G1 X40.264 Y-14.570 E0.0186 F1200
G1 X40.748 Y-14.523 E0.0186
G1 X41.232 Y-14.570 E0.0186
G1 X41.698 Y-14.711 E0.0186
G1 X42.127 Y-14.941 E0.0186
G1 X42.502 Y-15.249 E0.0186
G1 X42.811 Y-15.625 E0.0186
G1 X43.040 Y-16.054 E0.0186
G1 X43.181 Y-16.520 E0.0186
G1 X43.229 Y-17.004 E0.0186
G1 X43.181 Y-17.488 E0.0186
G1 X43.040 Y-17.953 E0.0186
G1 X42.811 Y-18.382 E0.0186
G1 X42.502 Y-18.758 E0.0186
G1 X42.127 Y-19.067 E0.0186
G1 X41.698 Y-19.296 E0.0186
G1 X41.232 Y-19.437 E0.0186
G1 X40.748 Y-19.485 E0.0186
G1 X40.264 Y-19.437 E0.0186
G1 X39.799 Y-19.296 E0.0186
G1 X39.370 Y-19.067 E0.0186
G1 X38.994 Y-18.758 E0.0186
G1 X38.685 Y-18.382 E0.0186
G1 X38.456 Y-17.953 E0.0186
G1 X38.315 Y-17.488 E0.0186
G1 X38.267 Y-17.004 E0.0186
G1 X38.312 Y-16.546 E0.0176
G1 X38.455 Y-16.055 E0.0196
G1 X38.685 Y-15.625 E0.0187
G1 X38.994 Y-15.249 E0.0186
G1 X39.370 Y-14.941 E0.0186
G1 X39.799 Y-14.711 E0.0186
G1 E-1.9000 F1200
; feature inner perimeter
G1 Z0.700 F1200
G1 X10.978 Y-27.616 F9000
G1 Z0.200 F1200
G1 E1.9000 F1200
G1 X11.145 Y-28.168 E0.0221 F1800
G1 X11.202 Y-28.742 E0.0221
G1 X11.148 Y-29.287 E0.0209
G1 X10.980 Y-29.865 E0.0230
G1 X10.706 Y-30.378 E0.0222
G1 X10.340 Y-30.824 E0.0221
G1 X9.894 Y-31.190 E0.0221
G1 X9.385 Y-31.462 E0.0221
G1 X8.833 Y-31.629 E0.0221
G1 X8.259 Y-31.686 E0.0221
G1 X7.684 Y-31.629 E0.0221
G1 X7.132 Y-31.462 E0.0221
G1 X6.623 Y-31.190 E0.0221
G1 X6.177 Y-30.824 E0.0221
G1 X5.811 Y-30.378 E0.0221
G1 X5.539 Y-29.869 E0.0221
G1 X5.372 Y-29.317 E0.0221
G1 X5.315 Y-28.742 E0.0221
G1 X5.372 Y-28.168 E0.0221
G1 X5.539 Y-27.616 E0.0221
G1 X5.811 Y-27.107 E0.0221
G1 X6.177 Y-26.661 E0.0221
G1 X6.623 Y-26.295 E0.0221
G1 X7.132 Y-26.023 E0.0221
G1 X7.684 Y-25.856 E0.0221
G1 X8.259 Y-25.799 E0.0221
G1 X8.833 Y-25.856 E0.0221
G1 X9.385 Y-26.023 E0.0221
G1 X9.894 Y-26.295 E0.0221
G1 X10.340 Y-26.661 E0.0221
G1 X10.706 Y-27.107 E0.0221
G1 X10.978 Y-27.616 E0.0221
; feature outer perimeter
G1 X10.551 Y-27.793 F9000
G1 X10.692 Y-28.258 E0.0186 F1200
G1 X10.740 Y-28.742 E0.0186
G1 X10.695 Y-29.200 E0.0176
G1 X10.551 Y-29.691 E0.0196
G1 X10.322 Y-30.121 E0.0187
G1 X10.013 Y-30.497 E0.0186
G1 X9.637 Y-30.805 E0.0186
G1 X9.208 Y-31.035 E0.0186
G1 X8.743 Y-31.176 E0.0186
G1 X8.259 Y-31.223 E0.0186
G1 X7.775 Y-31.176 E0.0186
G1 X7.309 Y-31.035 E0.0186
G1 X6.880 Y-30.805 E0.0186
G1 X6.504 Y-30.497 E0.0186
G1 X6.196 Y-30.121 E0.0186
G1 X5.966 Y-29.692 E0.0186
G1 X5.825 Y-29.226 E0.0186
G1 X5.778 Y-28.742 E0.0186
G1 X5.825 Y-28.258 E0.0186
G1 X5.966 Y-27.793 E0.0186
G1 X6.196 Y-27.364 E0.0186
G1 X6.504 Y-26.988 E0.0186
G1 X6.880 Y-26.679 E0.0186
G1 X7.309 Y-26.450 E0.0186
G1 X7.775 Y-26.309 E0.0186
G1 X8.259 Y-26.261 E0.0186
G1 X8.743 Y-26.309 E0.0186
G1 X9.208 Y-26.450 E0.0186
G1 X9.637 Y-26.679 E0.0186
G1 X10.013 Y-26.988 E0.0186
G1 X10.322 Y-27.364 E0.0186
G1 X10.551 Y-27.793 E0.0186
; feature solid layer
G1 X11.430 Y-29.554 F9000
G1 X59.465 Y18.481 E2.5983 F2400
G1 X59.465 Y19.132 E0.0249
G1 X11.544 Y-28.789 E2.5922
G1 X11.549 Y-28.742 E0.0018
G1 X11.494 Y-28.189 E0.0213
G1 X59.465 Y19.782 E2.5949
G1 X59.465 Y20.433 E0.0249
G1 X11.357 Y-27.676 E2.6023
G1 X11.298 Y-27.483 E0.0077
G1 X11.159 Y-27.223 E0.0113
G1 X59.465 Y21.083 E2.6130
G1 X59.465 Y21.734 E0.0249
G1 X47.276 Y9.544 E0.6594
G1 X47.685 Y9.435 E0.0162
G1 X31.402 Y-6.892 E0.8820
G1 X31.282 Y-6.449 E0.0175
G1 X10.914 Y-26.817 E1.1018
G1 X10.621 Y-26.460 E0.0177
G1 X31.144 Y-5.936 E1.1102
G1 X31.006 Y-5.424 E0.0203
G1 X10.272 Y-26.159 E1.1216
G1 X10.086 Y-26.007 E0.0092
G1 X9.882 Y-25.898 E0.0089
G1 X30.868 Y-4.911 E1.1352
G1 X30.730 Y-4.399 E0.0203
G1 X9.448 Y-25.681 E1.1512
G1 X8.948 Y-25.530 E0.0200
G1 X30.592 Y-3.887 E1.1708
G1 X30.454 Y-3.374 E0.0203
G1 X8.365 Y-25.463 E1.1948
G1 X8.259 Y-25.452 E0.0041
G1 X7.667 Y-25.511 E0.0227
G1 X30.316 Y-2.862 E1.2251
G1 X30.178 Y-2.349 E0.0203
G1 X6.623 Y-25.904 E1.2742
G1 E-1.9000 F1200
G1 Z0.700 F1200
G1 X11.485 Y5.630 F9000
G1 Z0.200 F1200
G1 E1.9000 F1200
G1 X39.820 Y33.965 E1.5327 F2400
G1 X39.169 Y33.965 E0.0249
G1 X11.540 Y6.336 E1.4945
G1 X11.485 Y6.895 E0.0215
G1 X11.477 Y6.923 E0.0011
G1 X38.519 Y33.965 E1.4628
G1 X37.868 Y33.965 E0.0249
G1 X11.325 Y7.422 E1.4358
G1 X11.298 Y7.512 E0.0036
G1 X11.112 Y7.860 E0.0151
G1 X37.218 Y33.965 E1.4121
G1 X36.567 Y33.965 E0.0249
G1 X10.854 Y8.252 E1.3909
G1 X10.585 Y8.579 E0.0162
G1 X10.555 Y8.604 E0.0015
G1 X35.917 Y33.965 E1.3719
G1 X35.266 Y33.965 E0.0249
G1 X10.198 Y8.897 E1.3560
G1 X10.086 Y8.988 E0.0055
G1 X9.795 Y9.144 E0.0126
G1 X34.616 Y33.965 E1.3426
G1 X33.965 Y33.965 E0.0249
G1 X9.345 Y9.345 E1.3318
G1 X8.900 Y9.480 E0.0178
G1 X8.836 Y9.486 E0.0025
G1 X33.314 Y33.965 E1.3241
G1 X32.664 Y33.965 E0.0249
G1 X8.240 Y9.541 E1.3212
G1 X7.617 Y9.480 E0.0240
G1 X7.489 Y9.441 E0.0051
G1 X32.013 Y33.965 E1.3266
G1 X31.363 Y33.965 E0.0249
G1 X6.182 Y8.785 E1.3621
G1 E-1.9000 F1200
G1 Z0.700 F1200
G1 X25.702 Y15.294 F9000
G1 Z0.200 F1200
G1 E1.9000 F1200
G1 X44.374 Y33.965 E1.0100 F2400
G1 X45.024 Y33.965 E0.0249
G1 X26.216 Y15.157 E1.0174
G1 X26.730 Y15.020 E0.0203
G1 X45.675 Y33.965 E1.0248
