; G-Code generated by Simplify3D(R) Version 4.1.2
; Apr 6, 2020 at 11:34:08 AM
; Settings Summary
;   processName,Process1
;   applyToModels,DT Bank BracketV1R2,DT Bank BracketV1R2(2)
;   profileName,MakerBot Replicator 2 HBP (modified)
;   profileVersion,2020-03-12 10:48:50
;   baseProfile,MakerBot Replicator 2(2)
;   printMaterial,PLA
;   printQuality,Medium
;   printExtruders,
;   extruderName,Primary Extruder
;   extruderToolheadNumber,0
;   extruderDiameter,0.4
;   extruderAutoWidth,0
;   extruderWidth,0.4
;   extrusionMultiplier,1
;   extruderUseRetract,1
;   extruderRetractionDistance,1.9
;   extruderExtraRestartDistance,0
;   extruderRetractionZLift,0.5
;   extruderRetractionSpeed,1200
;   extruderUseCoasting,0
;   extruderCoastingDistance,0.2
;   extruderUseWipe,0
;   extruderWipeDistance,5
;   primaryExtruder,0
;   layerHeight,0.2
;   topSolidLayers,3
;   bottomSolidLayers,3
;   perimeterOutlines,2
;   printPerimetersInsideOut,1
;   startPointOption,3
;   startPointOriginX,0
;   startPointOriginY,150
;   sequentialIslands,0
;   spiralVaseMode,0
;   firstLayerHeightPercentage,100
;   firstLayerWidthPercentage,115
;   firstLayerUnderspeed,0.5
;   useRaft,0
;   raftExtruder,0
;   raftTopLayers,2
;   raftBaseLayers,1
;   raftOffset,1
;   raftSeparationDistance,0.14
;   raftTopInfill,90
;   aboveRaftSpeedMultiplier,0.3
;   useSkirt,0
;   skirtExtruder,0
;   skirtLayers,1
;   skirtOutlines,5
;   skirtOffset,0
;   usePrimePillar,0
;   primePillarExtruder,999
;   primePillarWidth,12
;   primePillarLocation,7
;   primePillarSpeedMultiplier,1
;   useOozeShield,0
;   oozeShieldExtruder,999
;   oozeShieldOffset,2
;   oozeShieldOutlines,1
;   oozeShieldSidewallShape,1
;   oozeShieldSidewallAngle,30
;   oozeShieldSpeedMultiplier,1
;   infillExtruder,0
;   internalInfillPattern,Rectilinear
;   externalInfillPattern,Rectilinear
;   infillPercentage,15
;   outlineOverlapPercentage,25
;   infillExtrusionWidthPercentage,100
;   minInfillLength,5
;   infillLayerInterval,1
;   internalInfillAngles,45,-45
;   overlapInternalInfillAngles,0
;   externalInfillAngles,45,-45
;   generateSupport,0
;   supportExtruder,0
;   supportInfillPercentage,5
;   supportExtraInflation,0.5
;   supportBaseLayers,0
;   denseSupportExtruder,0
;   denseSupportLayers,2
;   denseSupportInfillPercentage,90
;   supportLayerInterval,1
;   supportHorizontalPartOffset,0.3
;   supportUpperSeparationLayers,1
;   supportLowerSeparationLayers,1
;   supportType,1
;   supportGridSpacing,2
;   maxOverhangAngle,45
;   supportAngles,45,-45
;   temperatureName,Primary Extruder,Heated Build Platform
;   temperatureNumber,0,0
;   temperatureSetpointCount,1,1
;   temperatureSetpointLayers,1,1
;   temperatureSetpointTemperatures,230,60
;   temperatureStabilizeAtStartup,1,1
;   temperatureHeatedBed,0,1
;   fanLayers,1,2
;   fanSpeeds,0,100
;   blipFanToFullPower,1
;   adjustSpeedForCooling,1
;   minSpeedLayerTime,15
;   minCoolingSpeedSlowdown,20
;   increaseFanForCooling,1
;   minFanLayerTime,45
;   maxCoolingFanSpeed,100
;   increaseFanForBridging,1
;   bridgingFanSpeed,100
;   use5D,1
;   relativeEdistances,1
;   allowEaxisZeroing,0
;   independentExtruderAxes,1
;   includeM10123,0
;   stickySupport,1
;   applyToolheadOffsets,0
;   gcodeXoffset,0
;   gcodeYoffset,0
;   gcodeZoffset,0
;   overrideMachineDefinition,1
;   machineTypeOverride,0
;   strokeXoverride,280
;   strokeYoverride,150
;   strokeZoverride,150
;   originOffsetXoverride,140
;   originOffsetYoverride,75
;   originOffsetZoverride,0
;   homeXdirOverride,1
;   homeYdirOverride,1
;   homeZdirOverride,-1
;   flipXoverride,1
;   flipYoverride,-1
;   flipZoverride,1
;   toolheadOffsets,0,0|0,0|0,0|0,0|0,0|0,0
;   overrideFirmwareConfiguration,1
;   firmwareTypeOverride,MakerBot/Sailfish Firmware
;   GPXconfigOverride,r2h
;   baudRateOverride,115200
;   overridePrinterModels,1
;   printerModelsOverride,MakerBot_Replicator2.stl
;   startingGcode,; **** Replicator 2 start.gcode ****,M73 P0 ; enable build progress,G162 X Y F3000 ; home XY maximum,G161 Z F1200 ; home Z minimum,G92 Z-5 ; set Z to -5,G1 Z0 ; move Z to 0,G161 Z F100 ; home Z slowly,M132 X Y Z A B ; recall home offsets,G1 X-145 Y-75 Z30 F9000 ; move to wait position off table,G130 X20 Y20 Z20 A20 B20 ; lower stepper Vrefs while heating,M126 S[fan_speed_pwm],M140 S[bed0_temperature] T0,M134 T0 ; stabilize bed temperature,M104 S[extruder0_temperature] T0,M133 T0 ; stabilize extruder temperature,G130 X127 Y127 Z40 A127 B127 ; default stepper Vrefs,G92 A0 ; zero extruder,G1 Z0.4 ; position nozzle,G1 E25 F300 ; purge nozzle,G1 X-140 Y-70 Z0.15 F1200 ; slow wipe,G1 X-135 Y-65 Z0.5 F1200 ; lift,G92 A0 ; zero extruder,M73 P1 ;@body (notify GPX body has started),; **** end of start.gcode ****
;   layerChangeGcode,
;   retractionGcode,
;   toolChangeGcode,
;   endingGcode,; **** Replicator 2 end.gcode ****,M73 P100 ; end build progress,G1 Z155 F1000 ; send Z axis to bottom of machine,M104 S0 T0 ; cool down extruder,M140 S0 T0 ; cool down HBP,M127 ; stop blower fan,G162 X Y F3000 ; home XY maximum,M18 ; disable stepper,M0 ; stop codes,M72 P1 ; play Ta-Da song,; **** end of end.gcode ****
;   exportFileFormat,gcode
;   celebration,0
;   celebrationSong,Random Song
;   postProcessing,
;   defaultSpeed,4800
;   outlineUnderspeed,0.5
;   solidInfillUnderspeed,1
;   supportUnderspeed,1
;   rapidXYspeed,9000
;   rapidZspeed,1200
;   minBridgingArea,50
;   bridgingExtraInflation,0
;   bridgingExtrusionMultiplier,1
;   bridgingSpeedMultiplier,0.8
;   useFixedBridgingAngle,0
;   fixedBridgingAngle,0
;   applyBridgingToPerimeters,0
;   filamentDiameters,1.75|1.75|1.75|1.75|1.75|1.75
;   filamentPricesPerKg,46|46|46|46|46|46
;   filamentDensities,1.25|1.25|1.25|1.25|1.25|1.25
;   useMinPrintHeight,0
;   minPrintHeight,0
;   useMaxPrintHeight,0
;   maxPrintHeight,4.84
;   useDiaphragm,0
;   diaphragmLayerInterval,20
;   robustSlicing,1
;   mergeAllIntoSolid,0
;   onlyRetractWhenCrossingOutline,0
;   retractBetweenLayers,0
;   useRetractionMinTravel,1
;   retractionMinTravel,7
;   retractWhileWiping,1
;   onlyWipeOutlines,1
;   avoidCrossingOutline,0
;   maxMovementDetourFactor,3
;   toolChangeRetractionDistance,12
;   toolChangeExtraRestartDistance,-0.5
;   toolChangeRetractionSpeed,600
;   externalThinWallType,0
;   internalThinWallType,0
;   thinWallAllowedOverlapPercentage,10
;   singleExtrusionMinLength,1
;   singleExtrusionMinPrintingWidthPercentage,50
;   singleExtrusionMaxPrintingWidthPercentage,200
;   singleExtrusionEndpointExtension,0.2
;   horizontalSizeCompensation,0
G90
M83
; **** Replicator 2 start.gcode ****
M73 P0 ; enable build progress
G162 X Y F3000 ; home XY maximum
G161 Z F1200 ; home Z minimum
G92 Z-5 ; set Z to -5
G1 Z0 ; move Z to 0
G161 Z F100 ; home Z slowly
M132 X Y Z A B ; recall home offsets
G1 X-145 Y-75 Z30 F9000 ; move to wait position off table
G130 X20 Y20 Z20 A20 B20 ; lower stepper Vrefs while heating
M127
M140 S60 T0
M134 T0 ; stabilize bed temperature
M104 S230 T0
M133 T0 ; stabilize extruder temperature
G130 X127 Y127 Z40 A127 B127 ; default stepper Vrefs
G92 A0 ; zero extruder
G1 Z0.4 ; position nozzle
G1 E25 F300 ; purge nozzle
G1 X-140 Y-70 Z0.15 F1200 ; slow wipe
G1 X-135 Y-65 Z0.5 F1200 ; lift
G92 A0 ; zero extruder
M73 P1 ;@body (notify GPX body has started)
; **** end of start.gcode ****
; process Process1
; layer 1, Z = 0.200
M135 T0
G1 E-1.9000 F1200
; feature inner perimeter
; tool H0.200 W0.460
G1 Z0.500 F1200
G1 X50.299 Y11.101 F9000
G1 Z0.200 F1200
G1 E1.9000 F1200
G1 X44.219 Y4.605 E0.3403 F1800
G1 X-44.219 Y4.605 E3.3827
G1 X-50.299 Y11.101 E0.3403
G1 X-68.716 Y11.101 E0.7044
G1 X-68.716 Y3.190 E0.3026
G1 X68.716 Y3.190 E5.2566
G1 X68.716 Y11.101 E0.3026
G1 X50.299 Y11.101 E0.7044
; feature outer perimeter
G1 X50.100 Y11.562 F9000
G1 X44.020 Y5.065 E0.3403 F1200
G1 X-44.020 Y5.065 E3.3674
G1 X-50.100 Y11.562 E0.3403
G1 X-69.176 Y11.562 E0.7296
G1 X-69.176 Y2.730 E0.3378
G1 X69.176 Y2.730 E5.2918
G1 X69.176 Y11.562 E0.3378
G1 X50.100 Y11.562 E0.7296
G1 E-1.9000 F1200
; feature inner perimeter
G1 Z0.700 F1200
G1 X61.378 Y7.866 F9000
G1 Z0.200 F1200
G1 E1.9000 F1200
G1 X61.588 Y8.559 E0.0277 F1800
G1 X61.929 Y9.198 E0.0277
G1 X62.388 Y9.757 E0.0277
G1 X62.948 Y10.217 E0.0277
G1 X63.587 Y10.558 E0.0277
G1 X64.279 Y10.768 E0.0277
G1 X65.000 Y10.839 E0.0277
G1 X65.721 Y10.768 E0.0277
G1 X66.413 Y10.558 E0.0277
G1 X67.052 Y10.217 E0.0277
G1 X67.612 Y9.757 E0.0277
G1 X68.071 Y9.198 E0.0277
G1 X68.412 Y8.559 E0.0277
G1 X68.622 Y7.866 E0.0277
G1 X68.693 Y7.146 E0.0277
G1 X68.622 Y6.425 E0.0277
G1 X68.412 Y5.732 E0.0277
G1 X68.071 Y5.094 E0.0277
G1 X67.612 Y4.534 E0.0277
G1 X67.052 Y4.075 E0.0277
G1 X66.413 Y3.734 E0.0277
G1 X65.721 Y3.523 E0.0277
G1 X65.000 Y3.452 E0.0277
G1 X64.279 Y3.523 E0.0277
G1 X63.587 Y3.734 E0.0277
G1 X62.948 Y4.075 E0.0277
G1 X62.388 Y4.534 E0.0277
G1 X61.929 Y5.094 E0.0277
G1 X61.588 Y5.732 E0.0277
G1 X61.378 Y6.425 E0.0277
G1 X61.307 Y7.146 E0.0277
G1 X61.378 Y7.866 E0.0277
; feature outer perimeter
G1 X61.831 Y7.776 F9000
G1 X62.015 Y8.382 E0.0242 F1200
G1 X62.313 Y8.941 E0.0242
G1 X62.715 Y9.430 E0.0242
G1 X63.205 Y9.832 E0.0242
G1 X63.763 Y10.131 E0.0242
G1 X64.370 Y10.315 E0.0242
G1 X65.000 Y10.377 E0.0242
G1 X65.630 Y10.315 E0.0242
G1 X66.236 Y10.131 E0.0242
G1 X66.795 Y9.832 E0.0242
G1 X67.285 Y9.430 E0.0242
G1 X67.687 Y8.941 E0.0242
G1 X67.985 Y8.382 E0.0242
G1 X68.169 Y7.776 E0.0242
G1 X68.231 Y7.146 E0.0242
G1 X68.169 Y6.515 E0.0242
G1 X67.985 Y5.909 E0.0242
G1 X67.687 Y5.351 E0.0242
G1 X67.285 Y4.861 E0.0242
G1 X66.795 Y4.459 E0.0242
G1 X66.236 Y4.161 E0.0242
G1 X65.630 Y3.977 E0.0242
G1 X65.000 Y3.915 E0.0242
G1 X64.370 Y3.977 E0.0242
G1 X63.763 Y4.161 E0.0242
G1 X63.205 Y4.459 E0.0242
G1 X62.715 Y4.861 E0.0242
G1 X62.313 Y5.351 E0.0242
G1 X62.015 Y5.909 E0.0242
G1 X61.831 Y6.515 E0.0242
G1 X61.769 Y7.146 E0.0242
G1 X61.831 Y7.776 E0.0242
G1 E-1.9000 F1200
; feature inner perimeter
G1 Z0.700 F1200
G1 X-61.307 Y7.146 F9000
G1 Z0.200 F1200
G1 E1.9000 F1200
G1 X-61.378 Y6.425 E0.0277 F1800
G1 X-61.588 Y5.732 E0.0277
G1 X-61.929 Y5.094 E0.0277
G1 X-62.388 Y4.534 E0.0277
G1 X-62.948 Y4.075 E0.0277
G1 X-63.587 Y3.734 E0.0277
G1 X-64.279 Y3.523 E0.0277
G1 X-65.000 Y3.452 E0.0277
G1 X-65.688 Y3.520 E0.0264
G1 X-66.410 Y3.732 E0.0288
G1 X-67.052 Y4.075 E0.0278
G1 X-67.612 Y4.534 E0.0277
G1 X-68.071 Y5.094 E0.0277
G1 X-68.412 Y5.732 E0.0277
G1 X-68.622 Y6.425 E0.0277
G1 X-68.693 Y7.146 E0.0277
G1 X-68.622 Y7.866 E0.0277
G1 X-68.412 Y8.559 E0.0277
G1 X-68.071 Y9.198 E0.0277
G1 X-67.612 Y9.757 E0.0277
G1 X-67.052 Y10.217 E0.0277
G1 X-66.413 Y10.558 E0.0277
G1 X-65.721 Y10.768 E0.0277
G1 X-65.000 Y10.839 E0.0277
G1 X-64.279 Y10.768 E0.0277
G1 X-63.587 Y10.558 E0.0277
G1 X-62.948 Y10.217 E0.0277
G1 X-62.388 Y9.757 E0.0277
G1 X-61.929 Y9.198 E0.0277
G1 X-61.588 Y8.559 E0.0277
G1 X-61.378 Y7.866 E0.0277
G1 X-61.307 Y7.146 E0.0277
; feature outer perimeter
G1 X-61.769 Y7.146 F9000
G1 X-61.831 Y6.515 E0.0242 F1200
G1 X-62.015 Y5.909 E0.0242
G1 X-62.313 Y5.351 E0.0242
G1 X-62.715 Y4.861 E0.0242
G1 X-63.205 Y4.459 E0.0242
G1 X-63.764 Y4.161 E0.0242
G1 X-64.370 Y3.977 E0.0242
G1 X-65.000 Y3.915 E0.0242
G1 X-65.600 Y3.974 E0.0231
G1 X-66.236 Y4.160 E0.0253
G1 X-66.795 Y4.459 E0.0243
G1 X-67.285 Y4.861 E0.0242
G1 X-67.687 Y5.351 E0.0242
G1 X-67.985 Y5.909 E0.0242
G1 X-68.169 Y6.515 E0.0242
G1 X-68.231 Y7.146 E0.0242
G1 X-68.169 Y7.776 E0.0242
G1 X-67.985 Y8.382 E0.0242
G1 X-67.687 Y8.941 E0.0242
G1 X-67.285 Y9.430 E0.0242
G1 X-66.795 Y9.832 E0.0242
G1 X-66.236 Y10.131 E0.0242
G1 X-65.630 Y10.315 E0.0242
G1 X-65.000 Y10.377 E0.0242
G1 X-64.370 Y10.315 E0.0242
G1 X-63.764 Y10.131 E0.0242
G1 X-63.205 Y9.832 E0.0242
G1 X-62.715 Y9.430 E0.0242
G1 X-62.313 Y8.941 E0.0242
G1 X-62.015 Y8.382 E0.0242
G1 X-61.831 Y7.776 E0.0242
G1 X-61.769 Y7.146 E0.0242
; feature solid layer
G1 X-62.754 Y10.757 F9000
G1 X-62.919 Y10.592 E0.0089 F2400
G1 X-62.755 Y10.505 E0.0071
G1 X-62.536 Y10.325 E0.0109
G1 X-62.104 Y10.757 E0.0234
G1 X-61.453 Y10.757 E0.0249
G1 X-62.178 Y10.031 E0.0392
G1 X-62.143 Y10.002 E0.0017
G1 X-61.879 Y9.680 E0.0159
G1 X-60.803 Y10.757 E0.0582
G1 X-60.152 Y10.757 E0.0249
G1 X-61.598 Y9.310 E0.0782
G1 X-61.372 Y8.887 E0.0184
G1 X-59.502 Y10.757 E0.1012
G1 X-58.851 Y10.757 E0.0249
G1 X-61.186 Y8.422 E0.1263
G1 X-61.038 Y7.934 E0.0195
G1 X-61.036 Y7.921 E0.0005
G1 X-58.201 Y10.757 E0.1534
G1 X-57.550 Y10.757 E0.0249
G1 X-60.978 Y7.329 E0.1854
G1 X-60.960 Y7.146 E0.0070
G1 X-61.009 Y6.647 E0.0192
G1 X-56.899 Y10.757 E0.2223
G1 X-56.249 Y10.757 E0.0249
G1 X-61.207 Y5.798 E0.2682
G1 X-61.268 Y5.600 E0.0079
G1 X-61.641 Y4.901 E0.0303
G1 X-62.143 Y4.289 E0.0303
G1 X-62.755 Y3.787 E0.0303
G1 X-63.226 Y3.535 E0.0204
G1 X-62.820 Y3.535 E0.0155
G1 X-55.598 Y10.757 E0.3906
G1 X-54.948 Y10.757 E0.0249
G1 X-62.169 Y3.535 E0.3906
G1 X-61.519 Y3.535 E0.0249
G1 X-54.297 Y10.757 E0.3906
G1 X-53.647 Y10.757 E0.0249
G1 X-60.868 Y3.535 E0.3906
G1 X-60.218 Y3.535 E0.0249
G1 X-52.996 Y10.757 E0.3906
G1 X-52.346 Y10.757 E0.0249
G1 X-59.567 Y3.535 E0.3906
G1 X-58.917 Y3.535 E0.0249
G1 X-51.695 Y10.757 E0.3906
G1 X-51.045 Y10.757 E0.0249
G1 X-58.266 Y3.535 E0.3906
G1 X-57.616 Y3.535 E0.0249
G1 X-50.422 Y10.728 E0.3891
G1 X-50.108 Y10.392 E0.0176
G1 X-56.965 Y3.535 E0.3709
G1 X-56.315 Y3.535 E0.0249
G1 X-49.793 Y10.056 E0.3527
G1 X-49.479 Y9.720 E0.0176
G1 X-55.664 Y3.535 E0.3346
G1 X-55.013 Y3.535 E0.0249
G1 X-49.164 Y9.384 E0.3164
G1 X-48.850 Y9.048 E0.0176
G1 X-54.363 Y3.535 E0.2982
G1 X-53.712 Y3.535 E0.0249
G1 X-48.535 Y8.712 E0.2800
G1 X-48.221 Y8.376 E0.0176
G1 X-53.062 Y3.535 E0.2619
G1 X-52.411 Y3.535 E0.0249
G1 X-47.906 Y8.040 E0.2437
G1 X-47.592 Y7.704 E0.0176
G1 X-51.761 Y3.535 E0.2255
G1 X-51.110 Y3.535 E0.0249
G1 X-47.277 Y7.368 E0.2073
G1 X-46.963 Y7.032 E0.0176
G1 X-50.460 Y3.535 E0.1892
G1 X-49.809 Y3.535 E0.0249
G1 X-46.648 Y6.696 E0.1710
G1 X-46.334 Y6.360 E0.0176
G1 X-49.159 Y3.535 E0.1528
G1 X-48.508 Y3.535 E0.0249
G1 X-46.019 Y6.024 E0.1346
G1 X-45.705 Y5.688 E0.0176
G1 X-47.858 Y3.535 E0.1164
G1 X-47.207 Y3.535 E0.0249
G1 X-45.390 Y5.352 E0.0983
G1 X-45.076 Y5.016 E0.0176
G1 X-46.556 Y3.535 E0.0801
G1 X-45.906 Y3.535 E0.0249
G1 X-44.761 Y4.680 E0.0619
G1 X-44.447 Y4.344 E0.0176
G1 X-45.255 Y3.535 E0.0437
G1 X-44.605 Y3.535 E0.0249
G1 X-43.879 Y4.260 E0.0392
G1 X-43.229 Y4.260 E0.0249
G1 X-43.954 Y3.535 E0.0392
G1 X-43.304 Y3.535 E0.0249
G1 X-42.578 Y4.260 E0.0392
G1 X-41.928 Y4.260 E0.0249
G1 X-42.653 Y3.535 E0.0392
G1 X-42.003 Y3.535 E0.0249
G1 X-41.277 Y4.260 E0.0392
G1 X-40.627 Y4.260 E0.0249
G1 X-41.352 Y3.535 E0.0392
G1 X-40.702 Y3.535 E0.0249
G1 X-39.976 Y4.260 E0.0392
G1 X-39.326 Y4.260 E0.0249
G1 X-40.051 Y3.535 E0.0392
G1 X-39.401 Y3.535 E0.0249
G1 X-38.675 Y4.260 E0.0392
G1 X-38.025 Y4.260 E0.0249
G1 X-38.750 Y3.535 E0.0392
G1 X-38.099 Y3.535 E0.0249
G1 X-37.374 Y4.260 E0.0392
G1 X-36.723 Y4.260 E0.0249
G1 X-37.449 Y3.535 E0.0392
G1 X-36.798 Y3.535 E0.0249
G1 X-36.073 Y4.260 E0.0392
G1 X-35.422 Y4.260 E0.0249
G1 X-36.148 Y3.535 E0.0392
G1 X-35.497 Y3.535 E0.0249
G1 X-34.772 Y4.260 E0.0392
G1 X-34.121 Y4.260 E0.0249
G1 X-34.847 Y3.535 E0.0392
G1 X-34.196 Y3.535 E0.0249
G1 X-33.471 Y4.260 E0.0392
G1 X-32.820 Y4.260 E0.0249
G1 X-33.546 Y3.535 E0.0392
G1 X-32.895 Y3.535 E0.0249
G1 X-32.170 Y4.260 E0.0392
G1 X-31.519 Y4.260 E0.0249
G1 X-32.245 Y3.535 E0.0392
G1 X-31.594 Y3.535 E0.0249
G1 X-30.869 Y4.260 E0.0392
G1 X-30.218 Y4.260 E0.0249
G1 X-30.944 Y3.535 E0.0392
G1 X-30.293 Y3.535 E0.0249
G1 X-29.568 Y4.260 E0.0392
G1 X-28.917 Y4.260 E0.0249
G1 X-29.642 Y3.535 E0.0392
G1 X-28.992 Y3.535 E0.0249
G1 X-28.266 Y4.260 E0.0392
G1 X-27.616 Y4.260 E0.0249
G1 X-28.341 Y3.535 E0.0392
G1 X-27.691 Y3.535 E0.0249
G1 X-26.965 Y4.260 E0.0392
G1 X-26.315 Y4.260 E0.0249
G1 X-27.040 Y3.535 E0.0392
G1 X-26.390 Y3.535 E0.0249
G1 X-25.664 Y4.260 E0.0392
G1 X-25.014 Y4.260 E0.0249
G1 X-25.739 Y3.535 E0.0392
G1 X-25.089 Y3.535 E0.0249
G1 X-24.363 Y4.260 E0.0392
G1 X-23.713 Y4.260 E0.0249
G1 X-24.438 Y3.535 E0.0392
G1 X-23.788 Y3.535 E0.0249
G1 X-23.062 Y4.260 E0.0392
G1 X-22.412 Y4.260 E0.0249
