; G-Code generated by Simplify3D(R) Version 4.1.2
; Apr 6, 2020 at 11:35:04 AM
; Settings Summary
;   processName,Process1
;   applyToModels,Camaro Bracket,Camaro Bracket(2),Camaro Bracket(3),Camaro Bracket(2)(2)
;   profileName,MakerBot Replicator 2 HBP (modified)
;   profileVersion,2020-03-12 10:48:50
;   baseProfile,MakerBot Replicator 2(2)
;   printMaterial,PLA
;   printQuality,Medium
;   printExtruders,
;   extruderName,Primary Extruder
;   extruderToolheadNumber,0
;   extruderDiameter,0.4
;   extruderAutoWidth,0
;   extruderWidth,0.4
;   extrusionMultiplier,1
;   extruderUseRetract,1
;   extruderRetractionDistance,1.9
;   extruderExtraRestartDistance,0
;   extruderRetractionZLift,0.5
;   extruderRetractionSpeed,1200
;   extruderUseCoasting,0
;   extruderCoastingDistance,0.2
;   extruderUseWipe,0
;   extruderWipeDistance,5
;   primaryExtruder,0
;   layerHeight,0.2
;   topSolidLayers,3
;   bottomSolidLayers,3
;   perimeterOutlines,2
;   printPerimetersInsideOut,1
;   startPointOption,3
;   startPointOriginX,0
;   startPointOriginY,150
;   sequentialIslands,0
;   spiralVaseMode,0
;   firstLayerHeightPercentage,100
;   firstLayerWidthPercentage,115
;   firstLayerUnderspeed,0.5
;   useRaft,0
;   raftExtruder,0
;   raftTopLayers,2
;   raftBaseLayers,1
;   raftOffset,1
;   raftSeparationDistance,0.14
;   raftTopInfill,90
;   aboveRaftSpeedMultiplier,0.3
;   useSkirt,0
;   skirtExtruder,0
;   skirtLayers,1
;   skirtOutlines,5
;   skirtOffset,0
;   usePrimePillar,0
;   primePillarExtruder,999
;   primePillarWidth,12
;   primePillarLocation,7
;   primePillarSpeedMultiplier,1
;   useOozeShield,0
;   oozeShieldExtruder,999
;   oozeShieldOffset,2
;   oozeShieldOutlines,1
;   oozeShieldSidewallShape,1
;   oozeShieldSidewallAngle,30
;   oozeShieldSpeedMultiplier,1
;   infillExtruder,0
;   internalInfillPattern,Rectilinear
;   externalInfillPattern,Rectilinear
;   infillPercentage,15
;   outlineOverlapPercentage,25
;   infillExtrusionWidthPercentage,100
;   minInfillLength,5
;   infillLayerInterval,1
;   internalInfillAngles,45,-45
;   overlapInternalInfillAngles,0
;   externalInfillAngles,45,-45
;   generateSupport,0
;   supportExtruder,0
;   supportInfillPercentage,5
;   supportExtraInflation,0.5
;   supportBaseLayers,0
;   denseSupportExtruder,0
;   denseSupportLayers,2
;   denseSupportInfillPercentage,90
;   supportLayerInterval,1
;   supportHorizontalPartOffset,0.3
;   supportUpperSeparationLayers,1
;   supportLowerSeparationLayers,1
;   supportType,1
;   supportGridSpacing,2
;   maxOverhangAngle,45
;   supportAngles,45,-45
;   temperatureName,Primary Extruder,Heated Build Platform
;   temperatureNumber,0,0
;   temperatureSetpointCount,1,1
;   temperatureSetpointLayers,1,1
;   temperatureSetpointTemperatures,230,60
;   temperatureStabilizeAtStartup,1,1
;   temperatureHeatedBed,0,1
;   fanLayers,1,2
;   fanSpeeds,0,100
;   blipFanToFullPower,1
;   adjustSpeedForCooling,1
;   minSpeedLayerTime,15
;   minCoolingSpeedSlowdown,20
;   increaseFanForCooling,1
;   minFanLayerTime,45
;   maxCoolingFanSpeed,100
;   increaseFanForBridging,1
;   bridgingFanSpeed,100
;   use5D,1
;   relativeEdistances,1
;   allowEaxisZeroing,0
;   independentExtruderAxes,1
;   includeM10123,0
;   stickySupport,1
;   applyToolheadOffsets,0
;   gcodeXoffset,0
;   gcodeYoffset,0
;   gcodeZoffset,0
;   overrideMachineDefinition,1
;   machineTypeOverride,0
;   strokeXoverride,280
;   strokeYoverride,150
;   strokeZoverride,150
;   originOffsetXoverride,140
;   originOffsetYoverride,75
;   originOffsetZoverride,0
;   homeXdirOverride,1
;   homeYdirOverride,1
;   homeZdirOverride,-1
;   flipXoverride,1
;   flipYoverride,-1
;   flipZoverride,1
;   toolheadOffsets,0,0|0,0|0,0|0,0|0,0|0,0
;   overrideFirmwareConfiguration,1
;   firmwareTypeOverride,MakerBot/Sailfish Firmware
;   GPXconfigOverride,r2h
;   baudRateOverride,115200
;   overridePrinterModels,1
;   printerModelsOverride,MakerBot_Replicator2.stl
;   startingGcode,; **** Replicator 2 start.gcode ****,M73 P0 ; enable build progress,G162 X Y F3000 ; home XY maximum,G161 Z F1200 ; home Z minimum,G92 Z-5 ; set Z to -5,G1 Z0 ; move Z to 0,G161 Z F100 ; home Z slowly,M132 X Y Z A B ; recall home offsets,G1 X-145 Y-75 Z30 F9000 ; move to wait position off table,G130 X20 Y20 Z20 A20 B20 ; lower stepper Vrefs while heating,M126 S[fan_speed_pwm],M140 S[bed0_temperature] T0,M134 T0 ; stabilize bed temperature,M104 S[extruder0_temperature] T0,M133 T0 ; stabilize extruder temperature,G130 X127 Y127 Z40 A127 B127 ; default stepper Vrefs,G92 A0 ; zero extruder,G1 Z0.4 ; position nozzle,G1 E25 F300 ; purge nozzle,G1 X-140 Y-70 Z0.15 F1200 ; slow wipe,G1 X-135 Y-65 Z0.5 F1200 ; lift,G92 A0 ; zero extruder,M73 P1 ;@body (notify GPX body has started),; **** end of start.gcode ****
;   layerChangeGcode,
;   retractionGcode,
;   toolChangeGcode,
;   endingGcode,; **** Replicator 2 end.gcode ****,M73 P100 ; end build progress,G1 Z155 F1000 ; send Z axis to bottom of machine,M104 S0 T0 ; cool down extruder,M140 S0 T0 ; cool down HBP,M127 ; stop blower fan,G162 X Y F3000 ; home XY maximum,M18 ; disable stepper,M0 ; stop codes,M72 P1 ; play Ta-Da song,; **** end of end.gcode ****
;   exportFileFormat,gcode
;   celebration,0
;   celebrationSong,Random Song
;   postProcessing,
;   defaultSpeed,4800
;   outlineUnderspeed,0.5
;   solidInfillUnderspeed,1
;   supportUnderspeed,1
;   rapidXYspeed,9000
;   rapidZspeed,1200
;   minBridgingArea,50
;   bridgingExtraInflation,0
;   bridgingExtrusionMultiplier,1
;   bridgingSpeedMultiplier,0.8
;   useFixedBridgingAngle,0
;   fixedBridgingAngle,0
;   applyBridgingToPerimeters,0
;   filamentDiameters,1.75|1.75|1.75|1.75|1.75|1.75
;   filamentPricesPerKg,46|46|46|46|46|46
;   filamentDensities,1.25|1.25|1.25|1.25|1.25|1.25
;   useMinPrintHeight,0
;   minPrintHeight,0
;   useMaxPrintHeight,0
;   maxPrintHeight,4.84
;   useDiaphragm,0
;   diaphragmLayerInterval,20
;   robustSlicing,1
;   mergeAllIntoSolid,0
;   onlyRetractWhenCrossingOutline,0
;   retractBetweenLayers,0
;   useRetractionMinTravel,1
;   retractionMinTravel,7
;   retractWhileWiping,1
;   onlyWipeOutlines,1
;   avoidCrossingOutline,0
;   maxMovementDetourFactor,3
;   toolChangeRetractionDistance,12
;   toolChangeExtraRestartDistance,-0.5
;   toolChangeRetractionSpeed,600
;   externalThinWallType,0
;   internalThinWallType,0
;   thinWallAllowedOverlapPercentage,10
;   singleExtrusionMinLength,1
;   singleExtrusionMinPrintingWidthPercentage,50
;   singleExtrusionMaxPrintingWidthPercentage,200
;   singleExtrusionEndpointExtension,0.2
;   horizontalSizeCompensation,0
G90
M83
; **** Replicator 2 start.gcode ****
M73 P0 ; enable build progress
G162 X Y F3000 ; home XY maximum
G161 Z F1200 ; home Z minimum
G92 Z-5 ; set Z to -5
G1 Z0 ; move Z to 0
G161 Z F100 ; home Z slowly
M132 X Y Z A B ; recall home offsets
G1 X-145 Y-75 Z30 F9000 ; move to wait position off table
G130 X20 Y20 Z20 A20 B20 ; lower stepper Vrefs while heating
M127
M140 S60 T0
M134 T0 ; stabilize bed temperature
M104 S230 T0
M133 T0 ; stabilize extruder temperature
G130 X127 Y127 Z40 A127 B127 ; default stepper Vrefs
G92 A0 ; zero extruder
G1 Z0.4 ; position nozzle
G1 E25 F300 ; purge nozzle
G1 X-140 Y-70 Z0.15 F1200 ; slow wipe
G1 X-135 Y-65 Z0.5 F1200 ; lift
G92 A0 ; zero extruder
M73 P1 ;@body (notify GPX body has started)
; **** end of start.gcode ****
; process Process1
; layer 1, Z = 0.200
M135 T0
G1 E-1.9000 F1200
; feature inner perimeter
; tool H0.200 W0.460
G1 Z0.500 F1200
G1 X3.190 Y-3.190 F9000
G1 Z0.200 F1200
G1 E1.9000 F1200
G1 X3.190 Y-50.510 E1.8100 F1800
G1 X21.918 Y-50.510 E0.7163
G1 X29.692 Y-57.539 E0.4009
G1 X30.791 Y-58.394 E0.0533
G1 X31.981 Y-59.067 E0.0523
G1 X33.257 Y-59.559 E0.0523
G1 X34.591 Y-59.858 E0.0523
G1 X35.980 Y-59.960 E0.0533
G1 X42.098 Y-59.960 E0.2340
G1 X43.487 Y-59.858 E0.0533
G1 X44.821 Y-59.559 E0.0523
G1 X46.097 Y-59.067 E0.0523
G1 X47.287 Y-58.394 E0.0523
G1 X48.386 Y-57.539 E0.0533
G1 X56.161 Y-50.510 E0.4009
G1 X95.510 Y-50.510 E1.5051
G1 X95.510 Y-3.190 E1.8100
G1 X3.190 Y-3.190 E3.5312
; feature outer perimeter
G1 X2.730 Y-2.730 F9000
G1 X2.730 Y-50.970 E1.8451 F1200
G1 X21.741 Y-50.970 E0.7271
G1 X29.396 Y-57.891 E0.3947
G1 X30.535 Y-58.778 E0.0552
G1 X31.784 Y-59.484 E0.0549
G1 X33.123 Y-60.000 E0.0549
G1 X34.523 Y-60.314 E0.0549
G1 X35.963 Y-60.420 E0.0552
G1 X42.115 Y-60.420 E0.2353
G1 X43.555 Y-60.314 E0.0552
G1 X44.955 Y-60.000 E0.0549
G1 X46.294 Y-59.484 E0.0549
G1 X47.543 Y-58.778 E0.0549
G1 X48.682 Y-57.891 E0.0552
G1 X56.338 Y-50.970 E0.3947
G1 X95.970 Y-50.970 E1.5159
G1 X95.970 Y-2.730 E1.8451
G1 X2.730 Y-2.730 E3.5664
G1 E-1.9000 F1200
; feature inner perimeter
G1 Z0.700 F1200
G1 X6.840 Y-9.143 F9000
G1 Z0.200 F1200
G1 E1.9000 F1200
G1 X10.720 Y-9.143 E0.1484 F1800
G1 X10.720 Y-15.023 E0.2249
G1 X6.840 Y-15.023 E0.1484
G1 X6.840 Y-9.143 E0.2249
; feature outer perimeter
G1 X7.300 Y-9.603 F9000
G1 X10.260 Y-9.603 E0.1132 F1200
G1 X10.260 Y-14.563 E0.1897
G1 X7.300 Y-14.563 E0.1132
G1 X7.300 Y-9.603 E0.1897
; feature inner perimeter
G1 X13.840 Y-9.143 F9000
G1 X17.720 Y-9.143 E0.1484 F1800
G1 X17.720 Y-15.023 E0.2249
G1 X13.840 Y-15.023 E0.1484
G1 X13.840 Y-9.143 E0.2249
; feature outer perimeter
G1 X14.300 Y-9.603 F9000
G1 X17.260 Y-9.603 E0.1132 F1200
G1 X17.260 Y-14.563 E0.1897
G1 X14.300 Y-14.563 E0.1132
G1 X14.300 Y-9.603 E0.1897
G1 E-1.9000 F1200
; feature inner perimeter
G1 Z0.700 F1200
G1 X37.693 Y-52.118 F9000
G1 Z0.200 F1200
G1 E1.9000 F1200
G1 X38.121 Y-51.919 E0.0181 F1800
G1 X38.592 Y-51.797 E0.0186
G1 X39.039 Y-51.757 E0.0172
G1 X39.507 Y-51.798 E0.0180
G1 X39.960 Y-51.920 E0.0180
G1 X40.385 Y-52.118 E0.0180
G1 X40.770 Y-52.387 E0.0180
G1 X41.102 Y-52.719 E0.0180
G1 X41.371 Y-53.104 E0.0180
G1 X41.569 Y-53.529 E0.0180
G1 X41.691 Y-53.982 E0.0180
G1 X41.732 Y-54.450 E0.0180
G1 X41.691 Y-54.918 E0.0180
G1 X41.569 Y-55.371 E0.0180
G1 X41.371 Y-55.796 E0.0180
G1 X41.102 Y-56.181 E0.0180
G1 X40.770 Y-56.513 E0.0180
G1 X40.385 Y-56.782 E0.0180
G1 X39.960 Y-56.980 E0.0180
G1 X39.507 Y-57.102 E0.0180
G1 X39.039 Y-57.143 E0.0180
G1 X38.572 Y-57.102 E0.0180
G1 X38.118 Y-56.980 E0.0180
G1 X37.693 Y-56.782 E0.0180
G1 X37.308 Y-56.513 E0.0180
G1 X36.976 Y-56.181 E0.0180
G1 X36.707 Y-55.796 E0.0180
G1 X36.509 Y-55.371 E0.0180
G1 X36.387 Y-54.918 E0.0180
G1 X36.346 Y-54.450 E0.0180
G1 X36.387 Y-53.982 E0.0180
G1 X36.509 Y-53.529 E0.0180
G1 X36.707 Y-53.104 E0.0180
G1 X36.976 Y-52.719 E0.0180
G1 X37.308 Y-52.387 E0.0180
G1 X37.693 Y-52.118 E0.0180
; feature outer perimeter
G1 X37.924 Y-52.518 F9000
G1 X38.277 Y-52.353 E0.0149 F1200
G1 X38.670 Y-52.251 E0.0155
G1 X39.039 Y-52.219 E0.0142
G1 X39.426 Y-52.253 E0.0149
G1 X39.802 Y-52.354 E0.0149
G1 X40.155 Y-52.518 E0.0149
G1 X40.473 Y-52.741 E0.0149
G1 X40.748 Y-53.016 E0.0149
G1 X40.971 Y-53.335 E0.0149
G1 X41.135 Y-53.687 E0.0149
G1 X41.236 Y-54.063 E0.0149
G1 X41.270 Y-54.450 E0.0149
G1 X41.236 Y-54.837 E0.0149
G1 X41.135 Y-55.213 E0.0149
G1 X40.971 Y-55.565 E0.0149
G1 X40.748 Y-55.884 E0.0149
G1 X40.473 Y-56.159 E0.0149
G1 X40.155 Y-56.382 E0.0149
G1 X39.802 Y-56.546 E0.0149
G1 X39.426 Y-56.647 E0.0149
G1 X39.039 Y-56.681 E0.0149
G1 X38.652 Y-56.647 E0.0149
G1 X38.276 Y-56.546 E0.0149
G1 X37.924 Y-56.382 E0.0149
G1 X37.605 Y-56.159 E0.0149
G1 X37.330 Y-55.884 E0.0149
G1 X37.107 Y-55.565 E0.0149
G1 X36.943 Y-55.213 E0.0149
G1 X36.842 Y-54.837 E0.0149
G1 X36.808 Y-54.450 E0.0149
G1 X36.842 Y-54.063 E0.0149
G1 X36.943 Y-53.687 E0.0149
G1 X37.107 Y-53.335 E0.0149
G1 X37.330 Y-53.016 E0.0149
G1 X37.605 Y-52.741 E0.0149
G1 X37.924 Y-52.518 E0.0149
G1 E-1.9000 F1200
; feature inner perimeter
G1 Z0.700 F1200
G1 X80.560 Y-44.390 F9000
G1 Z0.200 F1200
G1 E1.9000 F1200
G1 X80.560 Y-38.510 E0.2249 F1800
G1 X84.440 Y-38.510 E0.1484
G1 X84.440 Y-44.390 E0.2249
G1 X80.560 Y-44.390 E0.1484
; feature outer perimeter
G1 X81.020 Y-43.930 F9000
G1 X81.020 Y-38.970 E0.1897 F1200
G1 X83.980 Y-38.970 E0.1132
G1 X83.980 Y-43.930 E0.1897
G1 X81.020 Y-43.930 E0.1132
; feature inner perimeter
G1 X87.560 Y-44.390 F9000
G1 X87.560 Y-38.510 E0.2249 F1800
G1 X91.440 Y-38.510 E0.1484
G1 X91.440 Y-44.390 E0.2249
G1 X87.560 Y-44.390 E0.1484
; feature outer perimeter
G1 X88.020 Y-43.930 F9000
G1 X88.020 Y-38.970 E0.1897 F1200
G1 X90.980 Y-38.970 E0.1132
G1 X90.980 Y-43.930 E0.1897
G1 X88.020 Y-43.930 E0.1132
; feature solid layer
G1 X87.215 Y-42.242 F9000
G1 X84.785 Y-44.672 E0.1314 F2400
G1 X84.785 Y-44.022 E0.0249
G1 X87.215 Y-41.592 E0.1314
G1 X87.215 Y-40.941 E0.0249
G1 X84.785 Y-43.371 E0.1314
G1 X84.785 Y-42.721 E0.0249
G1 X87.215 Y-40.291 E0.1314
G1 X87.215 Y-39.640 E0.0249
G1 X84.785 Y-42.070 E0.1314
G1 X84.785 Y-41.419 E0.0249
G1 X87.215 Y-38.989 E0.1314
G1 X87.215 Y-38.339 E0.0249
G1 X84.785 Y-40.769 E0.1314
G1 X84.785 Y-40.118 E0.0249
G1 X95.165 Y-29.738 E0.5615
G1 X95.165 Y-30.389 E0.0249
G1 X87.389 Y-38.165 E0.4206
G1 X88.039 Y-38.165 E0.0249
G1 X95.165 Y-31.039 E0.3854
G1 X95.165 Y-31.690 E0.0249
G1 X88.690 Y-38.165 E0.3502
G1 X89.341 Y-38.165 E0.0249
G1 X95.165 Y-32.341 E0.3151
G1 X95.165 Y-32.991 E0.0249
G1 X89.991 Y-38.165 E0.2799
G1 X90.642 Y-38.165 E0.0249
G1 X95.165 Y-33.642 E0.2447
G1 X95.165 Y-34.292 E0.0249
G1 X91.292 Y-38.165 E0.2095
G1 X91.785 Y-38.165 E0.0189
G1 X91.785 Y-38.323 E0.0060
G1 X95.165 Y-34.943 E0.1828
G1 X95.165 Y-35.593 E0.0249
G1 X91.785 Y-38.973 E0.1828
G1 X91.785 Y-39.624 E0.0249
G1 X95.165 Y-36.244 E0.1828
G1 X95.165 Y-36.894 E0.0249
G1 X91.785 Y-40.274 E0.1828
G1 X91.785 Y-40.925 E0.0249
G1 X95.165 Y-37.545 E0.1828
G1 X95.165 Y-38.195 E0.0249
G1 X91.785 Y-41.575 E0.1828
G1 X91.785 Y-42.226 E0.0249
G1 X95.165 Y-38.846 E0.1828
G1 X95.165 Y-39.496 E0.0249
G1 X91.785 Y-42.876 E0.1828
G1 X91.785 Y-43.527 E0.0249
G1 X95.165 Y-40.147 E0.1828
G1 X95.165 Y-40.798 E0.0249
G1 X91.785 Y-44.178 E0.1828
G1 X94.905 Y-50.165 F9000
G1 X95.165 Y-49.905 E0.0141 F2400
G1 X95.165 Y-49.255 E0.0249
G1 X94.255 Y-50.165 E0.0493
G1 X93.604 Y-50.165 E0.0249
G1 X95.165 Y-48.604 E0.0844
G1 X95.165 Y-47.953 E0.0249
G1 X92.953 Y-50.165 E0.1196
G1 X92.303 Y-50.165 E0.0249
G1 X95.165 Y-47.303 E0.1548
G1 X95.165 Y-46.652 E0.0249
G1 X91.652 Y-50.165 E0.1900
G1 X91.002 Y-50.165 E0.0249
G1 X95.165 Y-46.002 E0.2252
G1 X95.165 Y-45.351 E0.0249
G1 X90.351 Y-50.165 E0.2604
G1 X89.701 Y-50.165 E0.0249
G1 X95.165 Y-44.701 E0.2956
G1 X95.165 Y-44.050 E0.0249
G1 X89.050 Y-50.165 E0.3308
G1 X88.400 Y-50.165 E0.0249
G1 X95.165 Y-43.400 E0.3660
G1 X95.165 Y-42.749 E0.0249
G1 X87.749 Y-50.165 E0.4011
G1 X87.099 Y-50.165 E0.0249
G1 X95.165 Y-42.099 E0.4363
G1 X95.165 Y-41.448 E0.0249
G1 X86.448 Y-50.165 E0.4715
G1 X85.798 Y-50.165 E0.0249
G1 X91.228 Y-44.735 E0.2937
G1 X90.577 Y-44.735 E0.0249
G1 X85.147 Y-50.165 E0.2937
G1 X84.496 Y-50.165 E0.0249
G1 X89.926 Y-44.735 E0.2937
G1 X89.276 Y-44.735 E0.0249
G1 X83.846 Y-50.165 E0.2937
G1 X83.195 Y-50.165 E0.0249
G1 X88.625 Y-44.735 E0.2937
G1 X87.975 Y-44.735 E0.0249
G1 X82.545 Y-50.165 E0.2937
G1 X81.894 Y-50.165 E0.0249
G1 X87.324 Y-44.735 E0.2937
G1 X87.215 Y-44.735 E0.0042
G1 X87.215 Y-44.194 E0.0207
G1 X81.244 Y-50.165 E0.3230
G1 X80.593 Y-50.165 E0.0249
G1 X87.215 Y-43.543 E0.3582
G1 X87.215 Y-42.893 E0.0249
G1 X79.943 Y-50.165 E0.3934
G1 X79.292 Y-50.165 E0.0249
G1 X84.722 Y-44.735 E0.2937
G1 X84.072 Y-44.735 E0.0249
G1 X78.642 Y-50.165 E0.2937
G1 X77.991 Y-50.165 E0.0249
G1 X83.421 Y-44.735 E0.2937
G1 X82.771 Y-44.735 E0.0249
G1 X77.341 Y-50.165 E0.2937
G1 X76.690 Y-50.165 E0.0249
G1 X82.120 Y-44.735 E0.2937
G1 X81.469 Y-44.735 E0.0249
G1 X76.039 Y-50.165 E0.2937
G1 X75.389 Y-50.165 E0.0249
G1 X80.819 Y-44.735 E0.2937
G1 X80.215 Y-44.735 E0.0231
G1 X80.215 Y-44.688 E0.0018
G1 X74.738 Y-50.165 E0.2962
G1 X74.088 Y-50.165 E0.0249
G1 X80.215 Y-44.038 E0.3314
G1 X80.215 Y-43.387 E0.0249
G1 X73.437 Y-50.165 E0.3666
G1 X72.787 Y-50.165 E0.0249
G1 X80.215 Y-42.737 E0.4018
G1 X80.215 Y-42.086 E0.0249
G1 X72.136 Y-50.165 E0.4370
G1 X71.486 Y-50.165 E0.0249
G1 X80.215 Y-41.436 E0.4722
G1 X80.215 Y-40.785 E0.0249
G1 X70.835 Y-50.165 E0.5074
G1 X70.185 Y-50.165 E0.0249
G1 X80.215 Y-40.135 E0.5426
G1 X80.215 Y-39.484 E0.0249
