; G-Code generated by Simplify3D(R) Version 4.1.2
; Apr 6, 2020 at 11:34:45 AM
; Settings Summary
;   processName,Process1
;   applyToModels,Camaro Bracket,Camaro Bracket(2)
;   profileName,MakerBot Replicator 2 HBP (modified)
;   profileVersion,2020-03-12 10:48:50
;   baseProfile,MakerBot Replicator 2(2)
;   printMaterial,PLA
;   printQuality,Medium
;   printExtruders,
;   extruderName,Primary Extruder
;   extruderToolheadNumber,0
;   extruderDiameter,0.4
;   extruderAutoWidth,0
;   extruderWidth,0.4
;   extrusionMultiplier,1
;   extruderUseRetract,1
;   extruderRetractionDistance,1.9
;   extruderExtraRestartDistance,0
;   extruderRetractionZLift,0.5
;   extruderRetractionSpeed,1200
;   extruderUseCoasting,0
;   extruderCoastingDistance,0.2
;   extruderUseWipe,0
;   extruderWipeDistance,5
;   primaryExtruder,0
;   layerHeight,0.2
;   topSolidLayers,3
;   bottomSolidLayers,3
;   perimeterOutlines,2
;   printPerimetersInsideOut,1
;   startPointOption,3
;   startPointOriginX,0
;   startPointOriginY,150
;   sequentialIslands,0
;   spiralVaseMode,0
;   firstLayerHeightPercentage,100
;   firstLayerWidthPercentage,115
;   firstLayerUnderspeed,0.5
;   useRaft,0
;   raftExtruder,0
;   raftTopLayers,2
;   raftBaseLayers,1
;   raftOffset,1
;   raftSeparationDistance,0.14
;   raftTopInfill,90
;   aboveRaftSpeedMultiplier,0.3
;   useSkirt,0
;   skirtExtruder,0
;   skirtLayers,1
;   skirtOutlines,5
;   skirtOffset,0
;   usePrimePillar,0
;   primePillarExtruder,999
;   primePillarWidth,12
;   primePillarLocation,7
;   primePillarSpeedMultiplier,1
;   useOozeShield,0
;   oozeShieldExtruder,999
;   oozeShieldOffset,2
;   oozeShieldOutlines,1
;   oozeShieldSidewallShape,1
;   oozeShieldSidewallAngle,30
;   oozeShieldSpeedMultiplier,1
;   infillExtruder,0
;   internalInfillPattern,Rectilinear
;   externalInfillPattern,Rectilinear
;   infillPercentage,15
;   outlineOverlapPercentage,25
;   infillExtrusionWidthPercentage,100
;   minInfillLength,5
;   infillLayerInterval,1
;   internalInfillAngles,45,-45
;   overlapInternalInfillAngles,0
;   externalInfillAngles,45,-45
;   generateSupport,0
;   supportExtruder,0
;   supportInfillPercentage,5
;   supportExtraInflation,0.5
;   supportBaseLayers,0
;   denseSupportExtruder,0
;   denseSupportLayers,2
;   denseSupportInfillPercentage,90
;   supportLayerInterval,1
;   supportHorizontalPartOffset,0.3
;   supportUpperSeparationLayers,1
;   supportLowerSeparationLayers,1
;   supportType,1
;   supportGridSpacing,2
;   maxOverhangAngle,45
;   supportAngles,45,-45
;   temperatureName,Primary Extruder,Heated Build Platform
;   temperatureNumber,0,0
;   temperatureSetpointCount,1,1
;   temperatureSetpointLayers,1,1
;   temperatureSetpointTemperatures,230,60
;   temperatureStabilizeAtStartup,1,1
;   temperatureHeatedBed,0,1
;   fanLayers,1,2
;   fanSpeeds,0,100
;   blipFanToFullPower,1
;   adjustSpeedForCooling,1
;   minSpeedLayerTime,15
;   minCoolingSpeedSlowdown,20
;   increaseFanForCooling,1
;   minFanLayerTime,45
;   maxCoolingFanSpeed,100
;   increaseFanForBridging,1
;   bridgingFanSpeed,100
;   use5D,1
;   relativeEdistances,1
;   allowEaxisZeroing,0
;   independentExtruderAxes,1
;   includeM10123,0
;   stickySupport,1
;   applyToolheadOffsets,0
;   gcodeXoffset,0
;   gcodeYoffset,0
;   gcodeZoffset,0
;   overrideMachineDefinition,1
;   machineTypeOverride,0
;   strokeXoverride,280
;   strokeYoverride,150
;   strokeZoverride,150
;   originOffsetXoverride,140
;   originOffsetYoverride,75
;   originOffsetZoverride,0
;   homeXdirOverride,1
;   homeYdirOverride,1
;   homeZdirOverride,-1
;   flipXoverride,1
;   flipYoverride,-1
;   flipZoverride,1
;   toolheadOffsets,0,0|0,0|0,0|0,0|0,0|0,0
;   overrideFirmwareConfiguration,1
;   firmwareTypeOverride,MakerBot/Sailfish Firmware
;   GPXconfigOverride,r2h
;   baudRateOverride,115200
;   overridePrinterModels,1
;   printerModelsOverride,MakerBot_Replicator2.stl
;   startingGcode,; **** Replicator 2 start.gcode ****,M73 P0 ; enable build progress,G162 X Y F3000 ; home XY maximum,G161 Z F1200 ; home Z minimum,G92 Z-5 ; set Z to -5,G1 Z0 ; move Z to 0,G161 Z F100 ; home Z slowly,M132 X Y Z A B ; recall home offsets,G1 X-145 Y-75 Z30 F9000 ; move to wait position off table,G130 X20 Y20 Z20 A20 B20 ; lower stepper Vrefs while heating,M126 S[fan_speed_pwm],M140 S[bed0_temperature] T0,M134 T0 ; stabilize bed temperature,M104 S[extruder0_temperature] T0,M133 T0 ; stabilize extruder temperature,G130 X127 Y127 Z40 A127 B127 ; default stepper Vrefs,G92 A0 ; zero extruder,G1 Z0.4 ; position nozzle,G1 E25 F300 ; purge nozzle,G1 X-140 Y-70 Z0.15 F1200 ; slow wipe,G1 X-135 Y-65 Z0.5 F1200 ; lift,G92 A0 ; zero extruder,M73 P1 ;@body (notify GPX body has started),; **** end of start.gcode ****
;   layerChangeGcode,
;   retractionGcode,
;   toolChangeGcode,
;   endingGcode,; **** Replicator 2 end.gcode ****,M73 P100 ; end build progress,G1 Z155 F1000 ; send Z axis to bottom of machine,M104 S0 T0 ; cool down extruder,M140 S0 T0 ; cool down HBP,M127 ; stop blower fan,G162 X Y F3000 ; home XY maximum,M18 ; disable stepper,M0 ; stop codes,M72 P1 ; play Ta-Da song,; **** end of end.gcode ****
;   exportFileFormat,gcode
;   celebration,0
;   celebrationSong,Random Song
;   postProcessing,
;   defaultSpeed,4800
;   outlineUnderspeed,0.5
;   solidInfillUnderspeed,1
;   supportUnderspeed,1
;   rapidXYspeed,9000
;   rapidZspeed,1200
;   minBridgingArea,50
;   bridgingExtraInflation,0
;   bridgingExtrusionMultiplier,1
;   bridgingSpeedMultiplier,0.8
;   useFixedBridgingAngle,0
;   fixedBridgingAngle,0
;   applyBridgingToPerimeters,0
;   filamentDiameters,1.75|1.75|1.75|1.75|1.75|1.75
;   filamentPricesPerKg,46|46|46|46|46|46
;   filamentDensities,1.25|1.25|1.25|1.25|1.25|1.25
;   useMinPrintHeight,0
;   minPrintHeight,0
;   useMaxPrintHeight,0
;   maxPrintHeight,4.84
;   useDiaphragm,0
;   diaphragmLayerInterval,20
;   robustSlicing,1
;   mergeAllIntoSolid,0
;   onlyRetractWhenCrossingOutline,0
;   retractBetweenLayers,0
;   useRetractionMinTravel,1
;   retractionMinTravel,7
;   retractWhileWiping,1
;   onlyWipeOutlines,1
;   avoidCrossingOutline,0
;   maxMovementDetourFactor,3
;   toolChangeRetractionDistance,12
;   toolChangeExtraRestartDistance,-0.5
;   toolChangeRetractionSpeed,600
;   externalThinWallType,0
;   internalThinWallType,0
;   thinWallAllowedOverlapPercentage,10
;   singleExtrusionMinLength,1
;   singleExtrusionMinPrintingWidthPercentage,50
;   singleExtrusionMaxPrintingWidthPercentage,200
;   singleExtrusionEndpointExtension,0.2
;   horizontalSizeCompensation,0
G90
M83
; **** Replicator 2 start.gcode ****
M73 P0 ; enable build progress
G162 X Y F3000 ; home XY maximum
G161 Z F1200 ; home Z minimum
G92 Z-5 ; set Z to -5
G1 Z0 ; move Z to 0
G161 Z F100 ; home Z slowly
M132 X Y Z A B ; recall home offsets
G1 X-145 Y-75 Z30 F9000 ; move to wait position off table
G130 X20 Y20 Z20 A20 B20 ; lower stepper Vrefs while heating
M127
M140 S60 T0
M134 T0 ; stabilize bed temperature
M104 S230 T0
M133 T0 ; stabilize extruder temperature
G130 X127 Y127 Z40 A127 B127 ; default stepper Vrefs
G92 A0 ; zero extruder
G1 Z0.4 ; position nozzle
G1 E25 F300 ; purge nozzle
G1 X-140 Y-70 Z0.15 F1200 ; slow wipe
G1 X-135 Y-65 Z0.5 F1200 ; lift
G92 A0 ; zero extruder
M73 P1 ;@body (notify GPX body has started)
; **** end of start.gcode ****
; process Process1
; layer 1, Z = 0.200
M135 T0
G1 E-1.9000 F1200
; feature inner perimeter
; tool H0.200 W0.460
G1 Z0.500 F1200
G1 X46.160 Y59.960 F9000
G1 Z0.200 F1200
G1 E1.9000 F1200
G1 X-46.160 Y59.960 E3.5312 F1800
G1 X-46.160 Y12.640 E1.8100
G1 X-27.432 Y12.640 E0.7163
G1 X-19.658 Y5.611 E0.4009
G1 X-18.559 Y4.756 E0.0533
G1 X-17.369 Y4.083 E0.0523
G1 X-16.093 Y3.591 E0.0523
G1 X-14.759 Y3.292 E0.0523
G1 X-13.370 Y3.190 E0.0533
G1 X-7.252 Y3.190 E0.2340
G1 X-5.863 Y3.292 E0.0533
G1 X-4.529 Y3.591 E0.0523
G1 X-3.253 Y4.083 E0.0523
G1 X-2.062 Y4.756 E0.0523
G1 X-0.964 Y5.611 E0.0533
G1 X6.811 Y12.640 E0.4009
G1 X46.160 Y12.640 E1.5051
G1 X46.160 Y59.960 E1.8100
; feature outer perimeter
G1 X46.620 Y60.420 F9000
G1 X-46.620 Y60.420 E3.5664 F1200
G1 X-46.620 Y12.180 E1.8451
G1 X-27.609 Y12.180 E0.7271
G1 X-19.954 Y5.259 E0.3947
G1 X-18.815 Y4.372 E0.0552
G1 X-17.566 Y3.666 E0.0549
G1 X-16.227 Y3.150 E0.0549
G1 X-14.827 Y2.836 E0.0549
G1 X-13.387 Y2.730 E0.0552
G1 X-7.235 Y2.730 E0.2353
G1 X-5.795 Y2.836 E0.0552
G1 X-4.395 Y3.150 E0.0549
G1 X-3.056 Y3.666 E0.0549
G1 X-1.807 Y4.372 E0.0549
G1 X-0.668 Y5.258 E0.0552
G1 X6.988 Y12.180 E0.3948
G1 X46.620 Y12.180 E1.5159
G1 X46.620 Y60.420 E1.8451
G1 E-1.9000 F1200
; feature inner perimeter
G1 Z0.700 F1200
G1 X42.090 Y24.640 F9000
G1 Z0.200 F1200
G1 E1.9000 F1200
G1 X42.090 Y18.760 E0.2249 F1800
G1 X38.210 Y18.760 E0.1484
G1 X38.210 Y24.640 E0.2249
G1 X42.090 Y24.640 E0.1484
; feature outer perimeter
G1 X41.630 Y24.180 F9000
G1 X41.630 Y19.220 E0.1897 F1200
G1 X38.670 Y19.220 E0.1132
G1 X38.670 Y24.180 E0.1897
G1 X41.630 Y24.180 E0.1132
; feature inner perimeter
G1 X35.090 Y24.640 F9000
G1 X35.090 Y18.760 E0.2249 F1800
G1 X31.210 Y18.760 E0.1484
G1 X31.210 Y24.640 E0.2249
G1 X35.090 Y24.640 E0.1484
; feature outer perimeter
G1 X34.630 Y24.180 F9000
G1 X34.630 Y19.220 E0.1897 F1200
G1 X31.670 Y19.220 E0.1132
G1 X31.670 Y24.180 E0.1897
G1 X34.630 Y24.180 E0.1132
G1 E-1.9000 F1200
; feature inner perimeter
G1 Z0.700 F1200
G1 X-7.781 Y9.621 F9000
G1 Z0.200 F1200
G1 E1.9000 F1200
G1 X-7.659 Y9.168 E0.0180 F1800
G1 X-7.618 Y8.700 E0.0180
G1 X-7.659 Y8.232 E0.0180
G1 X-7.781 Y7.779 E0.0180
G1 X-7.979 Y7.354 E0.0180
G1 X-8.248 Y6.969 E0.0180
G1 X-8.580 Y6.637 E0.0180
G1 X-8.965 Y6.368 E0.0180
G1 X-9.390 Y6.170 E0.0180
G1 X-9.843 Y6.048 E0.0180
G1 X-10.311 Y6.007 E0.0180
G1 X-10.778 Y6.048 E0.0180
G1 X-11.232 Y6.170 E0.0180
G1 X-11.657 Y6.368 E0.0180
G1 X-12.042 Y6.637 E0.0180
G1 X-12.374 Y6.969 E0.0180
G1 X-12.643 Y7.354 E0.0180
G1 X-12.841 Y7.779 E0.0180
G1 X-12.963 Y8.232 E0.0180
G1 X-13.004 Y8.700 E0.0180
G1 X-12.963 Y9.168 E0.0180
G1 X-12.841 Y9.621 E0.0180
G1 X-12.643 Y10.046 E0.0180
G1 X-12.374 Y10.431 E0.0180
G1 X-12.042 Y10.763 E0.0180
G1 X-11.657 Y11.032 E0.0180
G1 X-11.229 Y11.231 E0.0181
G1 X-10.758 Y11.353 E0.0186
G1 X-10.311 Y11.393 E0.0172
G1 X-9.843 Y11.352 E0.0180
G1 X-9.390 Y11.230 E0.0180
G1 X-8.965 Y11.032 E0.0180
G1 X-8.580 Y10.763 E0.0180
G1 X-8.248 Y10.431 E0.0180
G1 X-7.979 Y10.046 E0.0180
G1 X-7.781 Y9.621 E0.0180
; feature outer perimeter
G1 X-8.215 Y9.463 F9000
G1 X-8.114 Y9.087 E0.0149 F1200
G1 X-8.080 Y8.700 E0.0149
G1 X-8.114 Y8.313 E0.0149
G1 X-8.215 Y7.937 E0.0149
G1 X-8.379 Y7.585 E0.0149
G1 X-8.602 Y7.266 E0.0149
G1 X-8.877 Y6.991 E0.0149
G1 X-9.195 Y6.768 E0.0149
G1 X-9.548 Y6.604 E0.0149
G1 X-9.924 Y6.503 E0.0149
G1 X-10.311 Y6.469 E0.0149
G1 X-10.698 Y6.503 E0.0149
G1 X-11.074 Y6.604 E0.0149
G1 X-11.426 Y6.768 E0.0149
G1 X-11.745 Y6.991 E0.0149
G1 X-12.020 Y7.266 E0.0149
G1 X-12.243 Y7.585 E0.0149
G1 X-12.407 Y7.937 E0.0149
G1 X-12.508 Y8.313 E0.0149
G1 X-12.542 Y8.700 E0.0149
G1 X-12.508 Y9.087 E0.0149
G1 X-12.407 Y9.463 E0.0149
G1 X-12.243 Y9.815 E0.0149
G1 X-12.020 Y10.134 E0.0149
G1 X-11.745 Y10.409 E0.0149
G1 X-11.426 Y10.632 E0.0149
G1 X-11.073 Y10.797 E0.0149
G1 X-10.680 Y10.899 E0.0155
G1 X-10.311 Y10.931 E0.0142
G1 X-9.924 Y10.897 E0.0149
G1 X-9.548 Y10.796 E0.0149
G1 X-9.195 Y10.632 E0.0149
G1 X-8.877 Y10.409 E0.0149
G1 X-8.602 Y10.134 E0.0149
G1 X-8.379 Y9.815 E0.0149
G1 X-8.215 Y9.463 E0.0149
G1 E-1.9000 F1200
; feature inner perimeter
G1 Z0.700 F1200
G1 X-31.630 Y48.127 F9000
G1 Z0.200 F1200
G1 E1.9000 F1200
G1 X-35.510 Y48.127 E0.1484 F1800
G1 X-35.510 Y54.007 E0.2249
G1 X-31.630 Y54.007 E0.1484
G1 X-31.630 Y48.127 E0.2249
; feature outer perimeter
G1 X-32.090 Y48.587 F9000
G1 X-35.050 Y48.587 E0.1132 F1200
G1 X-35.050 Y53.547 E0.1897
G1 X-32.090 Y53.547 E0.1132
G1 X-32.090 Y48.587 E0.1897
; feature inner perimeter
G1 X-38.630 Y48.127 F9000
G1 X-42.510 Y48.127 E0.1484 F1800
G1 X-42.510 Y54.007 E0.2249
G1 X-38.630 Y54.007 E0.1484
G1 X-38.630 Y48.127 E0.2249
; feature outer perimeter
G1 X-39.090 Y48.587 F9000
G1 X-42.050 Y48.587 E0.1132 F1200
G1 X-42.050 Y53.547 E0.1897
G1 X-39.090 Y53.547 E0.1132
G1 X-39.090 Y48.587 E0.1897
; feature solid layer
G1 X-35.855 Y51.317 F9000
G1 X-38.285 Y48.887 E0.1314 F2400
G1 X-38.285 Y49.538 E0.0249
G1 X-35.855 Y51.968 E0.1314
G1 X-35.855 Y52.618 E0.0249
G1 X-38.285 Y50.188 E0.1314
G1 X-38.285 Y50.839 E0.0249
G1 X-35.855 Y53.269 E0.1314
G1 X-35.855 Y53.919 E0.0249
G1 X-38.285 Y51.489 E0.1314
G1 X-38.285 Y52.140 E0.0249
G1 X-30.810 Y59.615 E0.4043
G1 X-30.159 Y59.615 E0.0249
G1 X-35.422 Y54.352 E0.2847
G1 X-34.772 Y54.352 E0.0249
G1 X-29.509 Y59.615 E0.2847
G1 X-28.858 Y59.615 E0.0249
G1 X-34.121 Y54.352 E0.2847
G1 X-33.470 Y54.352 E0.0249
G1 X-28.208 Y59.615 E0.2847
G1 X-27.557 Y59.615 E0.0249
G1 X-32.820 Y54.352 E0.2847
G1 X-32.169 Y54.352 E0.0249
G1 X-26.907 Y59.615 E0.2847
G1 X-26.256 Y59.615 E0.0249
G1 X-31.519 Y54.352 E0.2847
G1 X-31.285 Y54.352 E0.0090
G1 X-31.285 Y53.936 E0.0159
G1 X-25.606 Y59.615 E0.3072
G1 X-24.955 Y59.615 E0.0249
G1 X-31.285 Y53.285 E0.3424
G1 X-31.285 Y52.635 E0.0249
G1 X-24.304 Y59.615 E0.3776
G1 X-23.654 Y59.615 E0.0249
G1 X-31.285 Y51.984 E0.4128
G1 X-31.285 Y51.334 E0.0249
G1 X-23.003 Y59.615 E0.4480
G1 X-22.353 Y59.615 E0.0249
G1 X-31.285 Y50.683 E0.4832
G1 X-31.285 Y50.032 E0.0249
G1 X-21.702 Y59.615 E0.5183
G1 X-21.052 Y59.615 E0.0249
G1 X-31.285 Y49.382 E0.5535
G1 X-31.285 Y48.731 E0.0249
G1 X-20.401 Y59.615 E0.5887
G1 X-19.751 Y59.615 E0.0249
G1 X-31.285 Y48.081 E0.6239
G1 E-1.9000 F1200
G1 Z0.700 F1200
G1 X-38.285 Y52.791 F9000
G1 Z0.200 F1200
G1 E1.9000 F1200
G1 X-31.460 Y59.615 E0.3692 F2400
G1 X-32.111 Y59.615 E0.0249
G1 X-38.285 Y53.441 E0.3340
G1 X-38.285 Y54.092 E0.0249
G1 X-32.761 Y59.615 E0.2988
G1 X-33.412 Y59.615 E0.0249
G1 X-38.675 Y54.352 E0.2847
G1 X-39.325 Y54.352 E0.0249
G1 X-34.063 Y59.615 E0.2847
G1 X-34.713 Y59.615 E0.0249
G1 X-39.976 Y54.352 E0.2847
G1 X-40.626 Y54.352 E0.0249
G1 X-35.364 Y59.615 E0.2847
G1 X-36.014 Y59.615 E0.0249
G1 X-41.277 Y54.352 E0.2847
G1 X-41.927 Y54.352 E0.0249
G1 X-36.665 Y59.615 E0.2847
G1 X-37.315 Y59.615 E0.0249
G1 X-42.578 Y54.352 E0.2847
G1 X-45.772 Y59.615 F9000
G1 X-45.815 Y59.572 E0.0023 F2400
G1 X-45.815 Y58.922 E0.0249
G1 X-45.122 Y59.615 E0.0375
G1 X-44.471 Y59.615 E0.0249
G1 X-45.815 Y58.271 E0.0727
G1 X-45.815 Y57.621 E0.0249
G1 X-43.821 Y59.615 E0.1079
G1 X-43.170 Y59.615 E0.0249
G1 X-45.815 Y56.970 E0.1431
G1 X-45.815 Y56.320 E0.0249
G1 X-42.520 Y59.615 E0.1783
G1 X-41.869 Y59.615 E0.0249
G1 X-45.815 Y55.669 E0.2135
G1 X-45.815 Y55.018 E0.0249
G1 X-41.218 Y59.615 E0.2486
G1 X-40.568 Y59.615 E0.0249
G1 X-45.815 Y54.368 E0.2838
G1 X-45.815 Y53.717 E0.0249
G1 X-39.917 Y59.615 E0.3190
G1 X-39.267 Y59.615 E0.0249
G1 X-45.815 Y53.067 E0.3542
G1 X-45.815 Y52.416 E0.0249
G1 X-38.616 Y59.615 E0.3894
G1 X-37.966 Y59.615 E0.0249
G1 X-45.815 Y51.766 E0.4246
G1 X-45.815 Y51.115 E0.0249
G1 X-42.855 Y54.075 E0.1601
G1 X-42.855 Y53.425 E0.0249
G1 X-45.815 Y50.465 E0.1601
G1 X-45.815 Y49.814 E0.0249
G1 X-42.855 Y52.774 E0.1601
G1 X-42.855 Y52.124 E0.0249
G1 X-45.815 Y49.164 E0.1601
G1 X-45.815 Y48.513 E0.0249
G1 X-42.855 Y51.473 E0.1601
G1 X-42.855 Y50.823 E0.0249
G1 X-45.815 Y47.863 E0.1601
G1 X-45.815 Y47.212 E0.0249
G1 X-42.855 Y50.172 E0.1601
G1 X-42.855 Y49.522 E0.0249
G1 X-45.815 Y46.561 E0.1601
G1 X-45.815 Y45.911 E0.0249
G1 X-42.855 Y48.871 E0.1601
G1 X-42.855 Y48.221 E0.0249
G1 X-45.815 Y45.260 E0.1601
G1 X-45.815 Y44.610 E0.0249
G1 X-42.643 Y47.782 E0.1716
G1 X-41.992 Y47.782 E0.0249
G1 X-45.815 Y43.959 E0.2068
G1 X-45.815 Y43.309 E0.0249
G1 X-41.341 Y47.782 E0.2420
G1 X-40.691 Y47.782 E0.0249
G1 X-45.815 Y42.658 E0.2772
G1 X-45.815 Y42.008 E0.0249
G1 X-40.040 Y47.782 E0.3124
G1 X-39.390 Y47.782 E0.0249
G1 X-45.815 Y41.357 E0.3476
G1 X-45.815 Y40.707 E0.0249
G1 X-38.739 Y47.782 E0.3827
G1 X-38.285 Y47.782 E0.0174
G1 X-38.285 Y48.237 E0.0174
G1 X-35.855 Y50.667 E0.1314
G1 X-35.855 Y50.016 E0.0249
G1 X-45.815 Y40.056 E0.5388
G1 X-45.815 Y39.406 E0.0249
G1 X-35.855 Y49.366 E0.5388
G1 X-35.855 Y48.715 E0.0249
