; G-Code generated by Simplify3D(R) Version 4.1.2
; Apr 6, 2020 at 12:12:44 PM
; Settings Summary
;   processName,Process1
;   applyToModels,WoZ Fire Pot,WoZ Fire Pot(2)
;   profileName,MakerBot Replicator 2 HBP (modified)
;   profileVersion,2020-03-12 10:48:50
;   baseProfile,MakerBot Replicator 2(2)
;   printMaterial,PLA
;   printQuality,Medium
;   printExtruders,
;   extruderName,Primary Extruder
;   extruderToolheadNumber,0
;   extruderDiameter,0.4
;   extruderAutoWidth,0
;   extruderWidth,0.4
;   extrusionMultiplier,1
;   extruderUseRetract,1
;   extruderRetractionDistance,1.9
;   extruderExtraRestartDistance,0
;   extruderRetractionZLift,0.5
;   extruderRetractionSpeed,1200
;   extruderUseCoasting,0
;   extruderCoastingDistance,0.2
;   extruderUseWipe,0
;   extruderWipeDistance,5
;   primaryExtruder,0
;   layerHeight,0.2
;   topSolidLayers,3
;   bottomSolidLayers,3
;   perimeterOutlines,3
;   printPerimetersInsideOut,1
;   startPointOption,3
;   startPointOriginX,0
;   startPointOriginY,150
;   sequentialIslands,0
;   spiralVaseMode,0
;   firstLayerHeightPercentage,100
;   firstLayerWidthPercentage,115
;   firstLayerUnderspeed,0.5
;   useRaft,0
;   raftExtruder,0
;   raftTopLayers,2
;   raftBaseLayers,1
;   raftOffset,1
;   raftSeparationDistance,0.14
;   raftTopInfill,90
;   aboveRaftSpeedMultiplier,0.3
;   useSkirt,0
;   skirtExtruder,0
;   skirtLayers,1
;   skirtOutlines,5
;   skirtOffset,0
;   usePrimePillar,0
;   primePillarExtruder,999
;   primePillarWidth,12
;   primePillarLocation,7
;   primePillarSpeedMultiplier,1
;   useOozeShield,0
;   oozeShieldExtruder,999
;   oozeShieldOffset,2
;   oozeShieldOutlines,1
;   oozeShieldSidewallShape,1
;   oozeShieldSidewallAngle,30
;   oozeShieldSpeedMultiplier,1
;   infillExtruder,0
;   internalInfillPattern,Rectilinear
;   externalInfillPattern,Rectilinear
;   infillPercentage,15
;   outlineOverlapPercentage,25
;   infillExtrusionWidthPercentage,100
;   minInfillLength,5
;   infillLayerInterval,1
;   internalInfillAngles,45,-45
;   overlapInternalInfillAngles,0
;   externalInfillAngles,45,-45
;   generateSupport,1
;   supportExtruder,0
;   supportInfillPercentage,15
;   supportExtraInflation,0.5
;   supportBaseLayers,0
;   denseSupportExtruder,0
;   denseSupportLayers,2
;   denseSupportInfillPercentage,90
;   supportLayerInterval,1
;   supportHorizontalPartOffset,0.3
;   supportUpperSeparationLayers,1
;   supportLowerSeparationLayers,1
;   supportType,1
;   supportGridSpacing,2
;   maxOverhangAngle,45
;   supportAngles,45,-45
;   temperatureName,Primary Extruder,Heated Build Platform
;   temperatureNumber,0,0
;   temperatureSetpointCount,1,1
;   temperatureSetpointLayers,1,1
;   temperatureSetpointTemperatures,230,60
;   temperatureStabilizeAtStartup,1,1
;   temperatureHeatedBed,0,1
;   fanLayers,1,2
;   fanSpeeds,0,100
;   blipFanToFullPower,1
;   adjustSpeedForCooling,1
;   minSpeedLayerTime,15
;   minCoolingSpeedSlowdown,20
;   increaseFanForCooling,1
;   minFanLayerTime,45
;   maxCoolingFanSpeed,100
;   increaseFanForBridging,1
;   bridgingFanSpeed,100
;   use5D,1
;   relativeEdistances,1
;   allowEaxisZeroing,0
;   independentExtruderAxes,1
;   includeM10123,0
;   stickySupport,1
;   applyToolheadOffsets,0
;   gcodeXoffset,0
;   gcodeYoffset,0
;   gcodeZoffset,0
;   overrideMachineDefinition,1
;   machineTypeOverride,0
;   strokeXoverride,280
;   strokeYoverride,150
;   strokeZoverride,150
;   originOffsetXoverride,140
;   originOffsetYoverride,75
;   originOffsetZoverride,0
;   homeXdirOverride,1
;   homeYdirOverride,1
;   homeZdirOverride,-1
;   flipXoverride,1
;   flipYoverride,-1
;   flipZoverride,1
;   toolheadOffsets,0,0|0,0|0,0|0,0|0,0|0,0
;   overrideFirmwareConfiguration,1
;   firmwareTypeOverride,MakerBot/Sailfish Firmware
;   GPXconfigOverride,r2h
;   baudRateOverride,115200
;   overridePrinterModels,1
;   printerModelsOverride,MakerBot_Replicator2.stl
;   startingGcode,; **** Replicator 2 start.gcode ****,M73 P0 ; enable build progress,G162 X Y F3000 ; home XY maximum,G161 Z F1200 ; home Z minimum,G92 Z-5 ; set Z to -5,G1 Z0 ; move Z to 0,G161 Z F100 ; home Z slowly,M132 X Y Z A B ; recall home offsets,G1 X-145 Y-75 Z30 F9000 ; move to wait position off table,G130 X20 Y20 Z20 A20 B20 ; lower stepper Vrefs while heating,M126 S[fan_speed_pwm],M140 S[bed0_temperature] T0,M134 T0 ; stabilize bed temperature,M104 S[extruder0_temperature] T0,M133 T0 ; stabilize extruder temperature,G130 X127 Y127 Z40 A127 B127 ; default stepper Vrefs,G92 A0 ; zero extruder,G1 Z0.4 ; position nozzle,G1 E25 F300 ; purge nozzle,G1 X-140 Y-70 Z0.15 F1200 ; slow wipe,G1 X-135 Y-65 Z0.5 F1200 ; lift,G92 A0 ; zero extruder,M73 P1 ;@body (notify GPX body has started),; **** end of start.gcode ****
;   layerChangeGcode,
;   retractionGcode,
;   toolChangeGcode,
;   endingGcode,; **** Replicator 2 end.gcode ****,M73 P100 ; end build progress,G1 Z155 F1000 ; send Z axis to bottom of machine,M104 S0 T0 ; cool down extruder,M140 S0 T0 ; cool down HBP,M127 ; stop blower fan,G162 X Y F3000 ; home XY maximum,M18 ; disable stepper,M0 ; stop codes,M72 P1 ; play Ta-Da song,; **** end of end.gcode ****
;   exportFileFormat,gcode
;   celebration,0
;   celebrationSong,Random Song
;   postProcessing,
;   defaultSpeed,4800
;   outlineUnderspeed,0.5
;   solidInfillUnderspeed,1
;   supportUnderspeed,1
;   rapidXYspeed,9000
;   rapidZspeed,1200
;   minBridgingArea,50
;   bridgingExtraInflation,0
;   bridgingExtrusionMultiplier,1
;   bridgingSpeedMultiplier,0.8
;   useFixedBridgingAngle,0
;   fixedBridgingAngle,0
;   applyBridgingToPerimeters,0
;   filamentDiameters,1.75|1.75|1.75|1.75|1.75|1.75
;   filamentPricesPerKg,46|46|46|46|46|46
;   filamentDensities,1.25|1.25|1.25|1.25|1.25|1.25
;   useMinPrintHeight,0
;   minPrintHeight,0
;   useMaxPrintHeight,0
;   maxPrintHeight,4.84
;   useDiaphragm,0
;   diaphragmLayerInterval,20
;   robustSlicing,1
;   mergeAllIntoSolid,0
;   onlyRetractWhenCrossingOutline,0
;   retractBetweenLayers,0
;   useRetractionMinTravel,1
;   retractionMinTravel,7
;   retractWhileWiping,1
;   onlyWipeOutlines,1
;   avoidCrossingOutline,0
;   maxMovementDetourFactor,3
;   toolChangeRetractionDistance,12
;   toolChangeExtraRestartDistance,-0.5
;   toolChangeRetractionSpeed,600
;   externalThinWallType,0
;   internalThinWallType,0
;   thinWallAllowedOverlapPercentage,10
;   singleExtrusionMinLength,1
;   singleExtrusionMinPrintingWidthPercentage,50
;   singleExtrusionMaxPrintingWidthPercentage,200
;   singleExtrusionEndpointExtension,0.2
;   horizontalSizeCompensation,0
G90
M83
; **** Replicator 2 start.gcode ****
M73 P0 ; enable build progress
G162 X Y F3000 ; home XY maximum
G161 Z F1200 ; home Z minimum
G92 Z-5 ; set Z to -5
G1 Z0 ; move Z to 0
G161 Z F100 ; home Z slowly
M132 X Y Z A B ; recall home offsets
G1 X-145 Y-75 Z30 F9000 ; move to wait position off table
G130 X20 Y20 Z20 A20 B20 ; lower stepper Vrefs while heating
M126 S37
M140 S60 T0
M134 T0 ; stabilize bed temperature
M104 S230 T0
M133 T0 ; stabilize extruder temperature
G130 X127 Y127 Z40 A127 B127 ; default stepper Vrefs
G92 A0 ; zero extruder
G1 Z0.4 ; position nozzle
G1 E25 F300 ; purge nozzle
G1 X-140 Y-70 Z0.15 F1200 ; slow wipe
G1 X-135 Y-65 Z0.5 F1200 ; lift
G92 A0 ; zero extruder
M73 P1 ;@body (notify GPX body has started)
; **** end of start.gcode ****
; process Process1
; layer 1, Z = 0.200
M135 T0
G1 E-1.9000 F1200
; feature inner perimeter
; tool H0.200 W0.460
G1 Z0.500 F1200
G1 X11.828 Y8.824 F9000
G1 Z0.200 F1200
G1 E1.9000 F1200
G1 X11.520 Y8.795 E0.0118 F1800
G1 X10.855 Y8.695 E0.0257
G1 X10.199 Y8.545 E0.0257
G1 X9.902 Y8.460 E0.0118
G1 X9.257 Y8.234 E0.0261
G1 X8.971 Y8.115 E0.0118
G1 X8.365 Y7.824 E0.0257
G1 X7.783 Y7.487 E0.0257
G1 X7.524 Y7.318 E0.0118
G1 X6.983 Y6.919 E0.0257
G1 X6.473 Y6.480 E0.0257
G1 X6.250 Y6.265 E0.0118
G1 X5.793 Y5.772 E0.0257
G1 X5.380 Y5.255 E0.0253
G1 X5.001 Y4.699 E0.0257
G1 X4.841 Y4.434 E0.0118
G1 X4.522 Y3.830 E0.0261
G1 X4.389 Y3.539 E0.0122
G1 X4.266 Y3.243 E0.0123
G1 X4.044 Y2.608 E0.0257
G1 X3.873 Y1.969 E0.0253
G1 X3.748 Y1.308 E0.0257
G1 X3.707 Y1.001 E0.0118
G1 X3.656 Y0.320 E0.0261
G1 X3.650 Y0.011 E0.0118
G1 X3.676 Y-0.661 E0.0257
G1 X3.751 Y-1.330 E0.0257
G1 X3.803 Y-1.635 E0.0118
G1 X3.952 Y-2.291 E0.0257
G1 X4.147 Y-2.923 E0.0253
G1 X4.393 Y-3.549 E0.0257
G1 X4.527 Y-3.840 E0.0122
G1 X4.671 Y-4.126 E0.0123
G1 X5.013 Y-4.717 E0.0261
G1 X5.182 Y-4.976 E0.0118
G1 X5.581 Y-5.517 E0.0257
G1 X6.020 Y-6.027 E0.0257
G1 X6.242 Y-6.258 E0.0123
G1 X6.473 Y-6.480 E0.0123
G1 X6.983 Y-6.919 E0.0257
G1 X7.524 Y-7.318 E0.0257
G1 X7.783 Y-7.488 E0.0118
G1 X8.365 Y-7.824 E0.0257
G1 X8.971 Y-8.115 E0.0257
G1 X9.257 Y-8.234 E0.0118
G1 X9.892 Y-8.456 E0.0257
G1 X10.541 Y-8.630 E0.0257
G1 X10.844 Y-8.693 E0.0118
G1 X11.520 Y-8.795 E0.0261
G1 X11.828 Y-8.824 E0.0118
G1 X12.500 Y-8.849 E0.0257
G1 X13.161 Y-8.824 E0.0253
G1 X13.830 Y-8.749 E0.0257
G1 X14.134 Y-8.697 E0.0118
G1 X14.790 Y-8.548 E0.0257
G1 X15.423 Y-8.353 E0.0253
G1 X16.049 Y-8.107 E0.0257
G1 X16.340 Y-7.973 E0.0123
G1 X16.625 Y-7.829 E0.0122
G1 X17.217 Y-7.487 E0.0261
G1 X17.476 Y-7.318 E0.0118
G1 X18.017 Y-6.919 E0.0257
G1 X18.527 Y-6.480 E0.0257
G1 X18.750 Y-6.265 E0.0118
G1 X19.207 Y-5.772 E0.0257
G1 X19.627 Y-5.246 E0.0257
G1 X19.806 Y-4.994 E0.0118
G1 X20.169 Y-4.416 E0.0261
G1 X20.324 Y-4.135 E0.0122
G1 X20.468 Y-3.850 E0.0122
G1 X20.737 Y-3.233 E0.0257
G1 X20.956 Y-2.608 E0.0253
G1 X21.130 Y-1.959 E0.0257
G1 X21.193 Y-1.656 E0.0118
G1 X21.294 Y-0.991 E0.0257
G1 X21.343 Y-0.331 E0.0253
G1 X21.343 Y0.341 E0.0257
G1 X21.325 Y0.662 E0.0123
G1 X21.295 Y0.980 E0.0122
G1 X21.193 Y1.656 E0.0261
G1 X21.130 Y1.959 E0.0118
G1 X20.956 Y2.608 E0.0257
G1 X20.737 Y3.233 E0.0253
G1 X20.468 Y3.850 E0.0257
G1 X20.329 Y4.126 E0.0118
G1 X19.993 Y4.708 E0.0257
G1 X19.614 Y5.264 E0.0257
G1 X19.423 Y5.512 E0.0120
G1 X19.105 Y5.887 E0.0188
G1 X18.752 Y6.263 E0.0197
G1 X18.525 Y6.482 E0.0121
G1 X18.137 Y6.820 E0.0197
G1 X17.749 Y7.125 E0.0188
G1 X17.486 Y7.312 E0.0124
G1 X17.217 Y7.488 E0.0123
G1 X16.635 Y7.824 E0.0257
G1 X16.039 Y8.111 E0.0253
G1 X15.413 Y8.357 E0.0257
G1 X15.119 Y8.453 E0.0118
G1 X14.459 Y8.630 E0.0261
G1 X14.156 Y8.693 E0.0118
G1 X13.480 Y8.795 E0.0261
G1 X13.172 Y8.824 E0.0118
G1 X12.500 Y8.849 E0.0257
G1 X11.828 Y8.824 E0.0257
G1 X11.798 Y9.283 F9000
G1 X11.464 Y9.252 E0.0128 F1800
G1 X10.769 Y9.147 E0.0269
G1 X10.084 Y8.991 E0.0269
G1 X9.762 Y8.898 E0.0128
G1 X9.093 Y8.664 E0.0271
G1 X8.783 Y8.536 E0.0128
G1 X8.150 Y8.231 E0.0269
G1 X7.541 Y7.879 E0.0269
G1 X7.261 Y7.696 E0.0128
G1 X6.696 Y7.278 E0.0269
G1 X6.163 Y6.820 E0.0269
G1 X5.921 Y6.587 E0.0128
G1 X5.444 Y6.073 E0.0269
G1 X5.010 Y5.528 E0.0266
G1 X4.614 Y4.948 E0.0269
G1 X4.441 Y4.661 E0.0128
G1 X4.109 Y4.033 E0.0271
G1 X3.967 Y3.723 E0.0131
G1 X3.836 Y3.407 E0.0131
G1 X3.604 Y2.744 E0.0269
G1 X3.424 Y2.071 E0.0266
G1 X3.293 Y1.381 E0.0269
G1 X3.249 Y1.049 E0.0128
G1 X3.197 Y0.342 E0.0271
G1 X3.190 Y0.007 E0.0128
G1 X3.217 Y-0.696 E0.0269
G1 X3.295 Y-1.394 E0.0269
G1 X3.351 Y-1.724 E0.0128
G1 X3.508 Y-2.410 E0.0269
G1 X3.713 Y-3.075 E0.0266
G1 X3.970 Y-3.729 E0.0269
G1 X4.112 Y-4.039 E0.0131
G1 X4.266 Y-4.344 E0.0131
G1 X4.621 Y-4.959 E0.0271
G1 X4.804 Y-5.239 E0.0128
G1 X5.222 Y-5.804 E0.0269
G1 X5.680 Y-6.337 E0.0269
G1 X5.917 Y-6.583 E0.0131
G1 X6.163 Y-6.820 E0.0131
G1 X6.696 Y-7.278 E0.0269
G1 X7.261 Y-7.696 E0.0269
G1 X7.541 Y-7.879 E0.0128
G1 X8.150 Y-8.231 E0.0269
G1 X8.783 Y-8.536 E0.0269
G1 X9.093 Y-8.664 E0.0128
G1 X9.756 Y-8.896 E0.0269
G1 X10.435 Y-9.078 E0.0269
G1 X10.763 Y-9.146 E0.0128
G1 X11.464 Y-9.252 E0.0271
G1 X11.798 Y-9.283 E0.0128
G1 X12.500 Y-9.310 E0.0269
G1 X13.196 Y-9.283 E0.0266
G1 X13.894 Y-9.205 E0.0269
G1 X14.224 Y-9.149 E0.0128
G1 X14.909 Y-8.992 E0.0269
G1 X15.575 Y-8.787 E0.0266
G1 X16.229 Y-8.530 E0.0269
G1 X16.539 Y-8.388 E0.0131
G1 X16.844 Y-8.234 E0.0131
G1 X17.458 Y-7.879 E0.0271
G1 X17.739 Y-7.696 E0.0128
G1 X18.304 Y-7.278 E0.0269
G1 X18.837 Y-6.820 E0.0269
G1 X19.078 Y-6.588 E0.0128
G1 X19.556 Y-6.072 E0.0269
G1 X19.994 Y-5.523 E0.0269
G1 X20.189 Y-5.250 E0.0128
G1 X20.566 Y-4.649 E0.0271
G1 X20.731 Y-4.350 E0.0131
G1 X20.885 Y-4.045 E0.0131
G1 X21.166 Y-3.401 E0.0269
G1 X21.396 Y-2.744 E0.0266
G1 X21.578 Y-2.065 E0.0269
G1 X21.646 Y-1.737 E0.0128
G1 X21.751 Y-1.042 E0.0269
G1 X21.803 Y-0.348 E0.0266
G1 X21.803 Y0.354 E0.0269
G1 X21.784 Y0.696 E0.0131
G1 X21.752 Y1.036 E0.0131
G1 X21.646 Y1.737 E0.0271
G1 X21.578 Y2.065 E0.0128
G1 X21.396 Y2.744 E0.0269
G1 X21.166 Y3.401 E0.0266
G1 X20.885 Y4.045 E0.0269
G1 X20.734 Y4.344 E0.0128
G1 X20.383 Y4.953 E0.0269
G1 X19.987 Y5.534 E0.0269
G1 X19.781 Y5.801 E0.0129
G1 X19.448 Y6.194 E0.0197
G1 X19.080 Y6.586 E0.0206
G1 X18.836 Y6.822 E0.0130
G1 X18.430 Y7.175 E0.0206
G1 X18.025 Y7.493 E0.0197
G1 X17.745 Y7.692 E0.0131
G1 X17.458 Y7.879 E0.0131
G1 X16.850 Y8.231 E0.0269
G1 X16.223 Y8.533 E0.0266
G1 X15.569 Y8.789 E0.0269
G1 X15.250 Y8.894 E0.0128
G1 X14.565 Y9.078 E0.0271
G1 X14.237 Y9.146 E0.0128
G1 X13.536 Y9.252 E0.0271
G1 X13.202 Y9.283 E0.0128
G1 X12.500 Y9.310 E0.0269
G1 X11.798 Y9.283 E0.0269
; feature outer perimeter
G1 X11.768 Y9.742 F9000
G1 X11.408 Y9.709 E0.0138 F1200
G1 X10.684 Y9.600 E0.0280
G1 X9.969 Y9.436 E0.0280
G1 X9.622 Y9.336 E0.0138
G1 X8.929 Y9.094 E0.0281
G1 X8.595 Y8.956 E0.0138
G1 X7.935 Y8.638 E0.0280
G1 X7.300 Y8.271 E0.0280
G1 X6.998 Y8.074 E0.0138
G1 X6.409 Y7.638 E0.0280
G1 X5.853 Y7.160 E0.0280
G1 X5.593 Y6.910 E0.0138
G1 X5.095 Y6.373 E0.0280
G1 X4.639 Y5.801 E0.0279
G1 X4.226 Y5.196 E0.0280
G1 X4.040 Y4.887 E0.0138
G1 X3.697 Y4.237 E0.0281
G1 X3.545 Y3.907 E0.0139
G1 X3.406 Y3.571 E0.0139
G1 X3.164 Y2.880 E0.0280
G1 X2.975 Y2.174 E0.0279
G1 X2.839 Y1.454 E0.0280
G1 X2.792 Y1.096 E0.0138
G1 X2.737 Y0.363 E0.0281
G1 X2.730 Y0.002 E0.0138
G1 X2.758 Y-0.730 E0.0280
G1 X2.840 Y-1.458 E0.0280
G1 X2.900 Y-1.814 E0.0138
G1 X3.063 Y-2.529 E0.0280
G1 X3.278 Y-3.227 E0.0279
G1 X3.546 Y-3.909 E0.0280
G1 X3.698 Y-4.239 E0.0139
G1 X3.861 Y-4.563 E0.0139
G1 X4.229 Y-5.200 E0.0281
G1 X4.426 Y-5.502 E0.0138
G1 X4.862 Y-6.091 E0.0280
G1 X5.340 Y-6.647 E0.0280
G1 X5.592 Y-6.908 E0.0139
G1 X5.853 Y-7.160 E0.0139
G1 X6.409 Y-7.638 E0.0280
G1 X6.998 Y-8.074 E0.0280
G1 X7.300 Y-8.271 E0.0138
G1 X7.935 Y-8.638 E0.0280
G1 X8.595 Y-8.956 E0.0280
G1 X8.929 Y-9.094 E0.0138
G1 X9.620 Y-9.336 E0.0280
G1 X10.328 Y-9.525 E0.0280
G1 X10.682 Y-9.599 E0.0138
G1 X11.408 Y-9.709 E0.0281
G1 X11.768 Y-9.742 E0.0138
G1 X12.500 Y-9.770 E0.0280
G1 X13.230 Y-9.743 E0.0279
G1 X13.958 Y-9.660 E0.0280
G1 X14.314 Y-9.600 E0.0138
G1 X15.029 Y-9.437 E0.0280
G1 X15.727 Y-9.222 E0.0279
G1 X16.409 Y-8.954 E0.0280
G1 X16.739 Y-8.802 E0.0139
G1 X17.063 Y-8.639 E0.0139
G1 X17.700 Y-8.271 E0.0281
G1 X18.002 Y-8.073 E0.0138
G1 X18.591 Y-7.638 E0.0280
G1 X19.147 Y-7.160 E0.0280
G1 X19.407 Y-6.910 E0.0138
G1 X19.905 Y-6.373 E0.0280
G1 X20.362 Y-5.800 E0.0280
G1 X20.571 Y-5.505 E0.0138
G1 X20.962 Y-4.883 E0.0281
G1 X21.138 Y-4.565 E0.0139
G1 X21.301 Y-4.241 E0.0139
G1 X21.595 Y-3.569 E0.0280
G1 X21.836 Y-2.880 E0.0279
G1 X22.025 Y-2.172 E0.0280
G1 X22.099 Y-1.818 E0.0138
G1 X22.208 Y-1.094 E0.0280
G1 X22.263 Y-0.365 E0.0279
G1 X22.263 Y0.367 E0.0280
G1 X22.243 Y0.730 E0.0139
G1 X22.209 Y1.092 E0.0139
G1 X22.099 Y1.818 E0.0281
G1 X22.025 Y2.172 E0.0138
G1 X21.836 Y2.880 E0.0280
G1 X21.595 Y3.569 E0.0279
G1 X21.301 Y4.241 E0.0280
G1 X21.139 Y4.563 E0.0138
G1 X20.772 Y5.198 E0.0280
G1 X20.360 Y5.803 E0.0280
G1 X20.139 Y6.090 E0.0138
G1 X19.791 Y6.500 E0.0206
G1 X19.407 Y6.910 E0.0215
G1 X19.146 Y7.161 E0.0139
G1 X18.723 Y7.529 E0.0215
G1 X18.300 Y7.862 E0.0206
G1 X18.004 Y8.072 E0.0139
G1 X17.700 Y8.271 E0.0139
G1 X17.065 Y8.638 E0.0280
G1 X16.407 Y8.955 E0.0280
G1 X15.725 Y9.222 E0.0280
G1 X15.382 Y9.335 E0.0138
G1 X14.672 Y9.525 E0.0281
G1 X14.318 Y9.599 E0.0138
G1 X13.592 Y9.709 E0.0281
G1 X13.232 Y9.742 E0.0138
G1 X12.500 Y9.770 E0.0280
G1 X11.768 Y9.742 E0.0280
; feature inner perimeter
G1 X12.500 Y4.318 F9000
G1 X13.342 Y4.235 E0.0324 F1800
G1 X14.152 Y3.989 E0.0324
G1 X14.899 Y3.590 E0.0324
G1 X15.553 Y3.053 E0.0324
G1 X16.090 Y2.399 E0.0324
