; G-Code generated by Simplify3D(R) Version 4.1.2
; Apr 6, 2020 at 12:13:57 PM
; Settings Summary
;   processName,Process1
;   applyToModels,WoZ Fire Pot Flame,WoZ Fire Pot Flame(2)
;   profileName,MakerBot Replicator 2 HBP (modified)
;   profileVersion,2020-03-12 10:48:50
;   baseProfile,MakerBot Replicator 2(2)
;   printMaterial,PLA
;   printQuality,Medium
;   printExtruders,
;   extruderName,Primary Extruder
;   extruderToolheadNumber,0
;   extruderDiameter,0.4
;   extruderAutoWidth,0
;   extruderWidth,0.4
;   extrusionMultiplier,1
;   extruderUseRetract,1
;   extruderRetractionDistance,1.9
;   extruderExtraRestartDistance,0
;   extruderRetractionZLift,0.5
;   extruderRetractionSpeed,1200
;   extruderUseCoasting,0
;   extruderCoastingDistance,0.2
;   extruderUseWipe,0
;   extruderWipeDistance,5
;   primaryExtruder,0
;   layerHeight,0.2
;   topSolidLayers,3
;   bottomSolidLayers,3
;   perimeterOutlines,3
;   printPerimetersInsideOut,1
;   startPointOption,3
;   startPointOriginX,0
;   startPointOriginY,150
;   sequentialIslands,0
;   spiralVaseMode,0
;   firstLayerHeightPercentage,100
;   firstLayerWidthPercentage,115
;   firstLayerUnderspeed,0.5
;   useRaft,0
;   raftExtruder,0
;   raftTopLayers,2
;   raftBaseLayers,1
;   raftOffset,1
;   raftSeparationDistance,0.14
;   raftTopInfill,90
;   aboveRaftSpeedMultiplier,0.3
;   useSkirt,0
;   skirtExtruder,0
;   skirtLayers,1
;   skirtOutlines,5
;   skirtOffset,0
;   usePrimePillar,0
;   primePillarExtruder,999
;   primePillarWidth,12
;   primePillarLocation,7
;   primePillarSpeedMultiplier,1
;   useOozeShield,0
;   oozeShieldExtruder,999
;   oozeShieldOffset,2
;   oozeShieldOutlines,1
;   oozeShieldSidewallShape,1
;   oozeShieldSidewallAngle,30
;   oozeShieldSpeedMultiplier,1
;   infillExtruder,0
;   internalInfillPattern,Rectilinear
;   externalInfillPattern,Rectilinear
;   infillPercentage,15
;   outlineOverlapPercentage,25
;   infillExtrusionWidthPercentage,100
;   minInfillLength,5
;   infillLayerInterval,1
;   internalInfillAngles,45,-45
;   overlapInternalInfillAngles,0
;   externalInfillAngles,45,-45
;   generateSupport,0
;   supportExtruder,0
;   supportInfillPercentage,15
;   supportExtraInflation,0.5
;   supportBaseLayers,0
;   denseSupportExtruder,0
;   denseSupportLayers,2
;   denseSupportInfillPercentage,90
;   supportLayerInterval,1
;   supportHorizontalPartOffset,0.3
;   supportUpperSeparationLayers,1
;   supportLowerSeparationLayers,1
;   supportType,1
;   supportGridSpacing,2
;   maxOverhangAngle,45
;   supportAngles,45,-45
;   temperatureName,Primary Extruder,Heated Build Platform
;   temperatureNumber,0,0
;   temperatureSetpointCount,1,1
;   temperatureSetpointLayers,1,1
;   temperatureSetpointTemperatures,230,60
;   temperatureStabilizeAtStartup,1,1
;   temperatureHeatedBed,0,1
;   fanLayers,1,2
;   fanSpeeds,0,100
;   blipFanToFullPower,1
;   adjustSpeedForCooling,1
;   minSpeedLayerTime,15
;   minCoolingSpeedSlowdown,20
;   increaseFanForCooling,1
;   minFanLayerTime,45
;   maxCoolingFanSpeed,100
;   increaseFanForBridging,1
;   bridgingFanSpeed,100
;   use5D,1
;   relativeEdistances,1
;   allowEaxisZeroing,0
;   independentExtruderAxes,1
;   includeM10123,0
;   stickySupport,1
;   applyToolheadOffsets,0
;   gcodeXoffset,0
;   gcodeYoffset,0
;   gcodeZoffset,0
;   overrideMachineDefinition,1
;   machineTypeOverride,0
;   strokeXoverride,280
;   strokeYoverride,150
;   strokeZoverride,150
;   originOffsetXoverride,140
;   originOffsetYoverride,75
;   originOffsetZoverride,0
;   homeXdirOverride,1
;   homeYdirOverride,1
;   homeZdirOverride,-1
;   flipXoverride,1
;   flipYoverride,-1
;   flipZoverride,1
;   toolheadOffsets,0,0|0,0|0,0|0,0|0,0|0,0
;   overrideFirmwareConfiguration,1
;   firmwareTypeOverride,MakerBot/Sailfish Firmware
;   GPXconfigOverride,r2h
;   baudRateOverride,115200
;   overridePrinterModels,1
;   printerModelsOverride,MakerBot_Replicator2.stl
;   startingGcode,; **** Replicator 2 start.gcode ****,M73 P0 ; enable build progress,G162 X Y F3000 ; home XY maximum,G161 Z F1200 ; home Z minimum,G92 Z-5 ; set Z to -5,G1 Z0 ; move Z to 0,G161 Z F100 ; home Z slowly,M132 X Y Z A B ; recall home offsets,G1 X-145 Y-75 Z30 F9000 ; move to wait position off table,G130 X20 Y20 Z20 A20 B20 ; lower stepper Vrefs while heating,M126 S[fan_speed_pwm],M140 S[bed0_temperature] T0,M134 T0 ; stabilize bed temperature,M104 S[extruder0_temperature] T0,M133 T0 ; stabilize extruder temperature,G130 X127 Y127 Z40 A127 B127 ; default stepper Vrefs,G92 A0 ; zero extruder,G1 Z0.4 ; position nozzle,G1 E25 F300 ; purge nozzle,G1 X-140 Y-70 Z0.15 F1200 ; slow wipe,G1 X-135 Y-65 Z0.5 F1200 ; lift,G92 A0 ; zero extruder,M73 P1 ;@body (notify GPX body has started),; **** end of start.gcode ****
;   layerChangeGcode,
;   retractionGcode,
;   toolChangeGcode,
;   endingGcode,; **** Replicator 2 end.gcode ****,M73 P100 ; end build progress,G1 Z155 F1000 ; send Z axis to bottom of machine,M104 S0 T0 ; cool down extruder,M140 S0 T0 ; cool down HBP,M127 ; stop blower fan,G162 X Y F3000 ; home XY maximum,M18 ; disable stepper,M0 ; stop codes,M72 P1 ; play Ta-Da song,; **** end of end.gcode ****
;   exportFileFormat,gcode
;   celebration,0
;   celebrationSong,Random Song
;   postProcessing,
;   defaultSpeed,4800
;   outlineUnderspeed,0.5
;   solidInfillUnderspeed,1
;   supportUnderspeed,1
;   rapidXYspeed,9000
;   rapidZspeed,1200
;   minBridgingArea,50
;   bridgingExtraInflation,0
;   bridgingExtrusionMultiplier,1
;   bridgingSpeedMultiplier,0.8
;   useFixedBridgingAngle,0
;   fixedBridgingAngle,0
;   applyBridgingToPerimeters,0
;   filamentDiameters,1.75|1.75|1.75|1.75|1.75|1.75
;   filamentPricesPerKg,46|46|46|46|46|46
;   filamentDensities,1.25|1.25|1.25|1.25|1.25|1.25
;   useMinPrintHeight,0
;   minPrintHeight,0
;   useMaxPrintHeight,0
;   maxPrintHeight,4.84
;   useDiaphragm,0
;   diaphragmLayerInterval,20
;   robustSlicing,1
;   mergeAllIntoSolid,0
;   onlyRetractWhenCrossingOutline,0
;   retractBetweenLayers,0
;   useRetractionMinTravel,1
;   retractionMinTravel,7
;   retractWhileWiping,1
;   onlyWipeOutlines,1
;   avoidCrossingOutline,0
;   maxMovementDetourFactor,3
;   toolChangeRetractionDistance,12
;   toolChangeExtraRestartDistance,-0.5
;   toolChangeRetractionSpeed,600
;   externalThinWallType,0
;   internalThinWallType,0
;   thinWallAllowedOverlapPercentage,10
;   singleExtrusionMinLength,1
;   singleExtrusionMinPrintingWidthPercentage,50
;   singleExtrusionMaxPrintingWidthPercentage,200
;   singleExtrusionEndpointExtension,0.2
;   horizontalSizeCompensation,0
G90
M83
; **** Replicator 2 start.gcode ****
M73 P0 ; enable build progress
G162 X Y F3000 ; home XY maximum
G161 Z F1200 ; home Z minimum
G92 Z-5 ; set Z to -5
G1 Z0 ; move Z to 0
G161 Z F100 ; home Z slowly
M132 X Y Z A B ; recall home offsets
G1 X-145 Y-75 Z30 F9000 ; move to wait position off table
G130 X20 Y20 Z20 A20 B20 ; lower stepper Vrefs while heating
M126 S170
M140 S60 T0
M134 T0 ; stabilize bed temperature
M104 S230 T0
M133 T0 ; stabilize extruder temperature
G130 X127 Y127 Z40 A127 B127 ; default stepper Vrefs
G92 A0 ; zero extruder
G1 Z0.4 ; position nozzle
G1 E25 F300 ; purge nozzle
G1 X-140 Y-70 Z0.15 F1200 ; slow wipe
G1 X-135 Y-65 Z0.5 F1200 ; lift
G92 A0 ; zero extruder
M73 P1 ;@body (notify GPX body has started)
; **** end of start.gcode ****
; process Process1
; layer 1, Z = 0.200
M135 T0
G1 E-1.9000 F1200
; feature inner perimeter
; tool H0.200 W0.460
G1 Z0.500 F1200
G1 X-6.635 Y6.600 F9000
G1 Z0.200 F1200
G1 E1.9000 F1200
G1 X-6.862 Y6.459 E0.0102 F595
G1 X-7.416 Y6.076 E0.0258
G1 X-7.403 Y6.062 E0.0007
G1 X-6.885 Y5.608 E0.0264
G1 X-6.242 Y5.124 E0.0308
G1 X-5.905 Y4.902 E0.0154
G1 X-5.555 Y4.689 E0.0157
G1 X-4.944 Y4.361 E0.0265
G1 X-4.316 Y4.074 E0.0264
G1 X-3.300 Y3.706 E0.0413
G1 X-2.711 Y3.540 E0.0234
G1 X-2.105 Y3.405 E0.0238
G1 X-1.517 Y3.306 E0.0228
G1 X-0.925 Y3.237 E0.0228
G1 X-0.248 Y3.196 E0.0259
G1 X0.545 Y3.198 E0.0303
G1 X0.985 Y3.222 E0.0168
G1 X1.504 Y3.272 E0.0199
G1 X2.013 Y3.344 E0.0197
G1 X2.705 Y3.481 E0.0270
G1 X3.286 Y3.631 E0.0230
G1 X3.861 Y3.813 E0.0230
G1 X4.419 Y4.025 E0.0228
G1 X5.018 Y4.293 E0.0251
G1 X5.218 Y4.400 E0.0087
G1 X4.648 Y5.065 E0.0335
G1 X4.389 Y4.929 E0.0112
G1 X3.858 Y4.691 E0.0222
G1 X3.364 Y4.504 E0.0202
G1 X2.859 Y4.344 E0.0203
G1 X2.345 Y4.211 E0.0203
G1 X1.747 Y4.093 E0.0233
G1 X1.290 Y4.028 E0.0177
G1 X0.458 Y3.963 E0.0319
G1 X-0.089 Y3.958 E0.0209
G1 X-0.818 Y3.997 E0.0280
G1 X-1.344 Y4.058 E0.0202
G1 X-1.859 Y4.145 E0.0200
G1 X-2.389 Y4.263 E0.0208
G1 X-2.917 Y4.411 E0.0210
G1 X-3.786 Y4.727 E0.0354
G1 X-4.350 Y4.984 E0.0237
G1 X-4.902 Y5.282 E0.0240
G1 X-5.499 Y5.660 E0.0270
G1 X-5.805 Y5.881 E0.0145
G1 X-6.327 Y6.308 E0.0258
G1 X-6.544 Y6.505 E0.0112
G1 X-6.635 Y6.600 E0.0050
; feature outer perimeter
G1 X-6.223 Y6.835 F9000
G1 X-6.562 Y7.186 E0.0187 F397
G1 X-7.114 Y6.844 E0.0248
G1 X-8.129 Y6.142 E0.0472
G1 X-7.718 Y5.727 E0.0223
G1 X-7.175 Y5.251 E0.0276
G1 X-6.507 Y4.748 E0.0320
G1 X-6.152 Y4.513 E0.0163
G1 X-5.783 Y4.289 E0.0165
G1 X-5.148 Y3.949 E0.0275
G1 X-4.490 Y3.648 E0.0277
G1 X-3.441 Y3.267 E0.0427
G1 X-2.824 Y3.094 E0.0245
G1 X-2.193 Y2.954 E0.0247
G1 X-1.582 Y2.851 E0.0237
G1 X-0.965 Y2.779 E0.0237
G1 X-0.261 Y2.736 E0.0270
G1 X0.558 Y2.738 E0.0313
G1 X1.020 Y2.763 E0.0177
G1 X1.558 Y2.815 E0.0207
G1 X2.090 Y2.891 E0.0205
G1 X2.807 Y3.032 E0.0280
G1 X3.413 Y3.189 E0.0239
G1 X4.012 Y3.379 E0.0240
G1 X4.594 Y3.599 E0.0238
G1 X5.220 Y3.880 E0.0262
G1 X5.882 Y4.233 E0.0287
G1 X5.934 Y4.272 E0.0025
G1 X4.994 Y5.369 E0.0553
G1 X4.773 Y5.658 E0.0139
G1 X4.673 Y5.598 E0.0045
G1 X4.187 Y5.343 E0.0210
G1 X3.683 Y5.116 E0.0211
G1 X3.213 Y4.938 E0.0192
G1 X2.732 Y4.786 E0.0193
G1 X2.243 Y4.660 E0.0193
G1 X1.670 Y4.546 E0.0224
G1 X1.239 Y4.485 E0.0166
G1 X0.439 Y4.423 E0.0307
G1 X-0.079 Y4.419 E0.0198
G1 X-0.780 Y4.456 E0.0269
G1 X-1.279 Y4.514 E0.0192
G1 X-1.770 Y4.597 E0.0190
G1 X-2.276 Y4.709 E0.0198
G1 X-2.776 Y4.850 E0.0199
G1 X-3.612 Y5.153 E0.0340
G1 X-4.145 Y5.396 E0.0224
G1 X-4.670 Y5.679 E0.0228
G1 X-5.241 Y6.041 E0.0259
G1 X-5.525 Y6.246 E0.0134
G1 X-6.026 Y6.656 E0.0248
G1 X-6.223 Y6.835 E0.0102
G1 E-1.9000 F1200
; feature inner perimeter
G1 Z0.700 F1200
G1 X-6.635 Y-6.758 F9000
G1 Z0.200 F1200
G1 E1.9000 F1200
G1 X-6.862 Y-6.899 E0.0102 F595
G1 X-7.416 Y-7.282 E0.0258
G1 X-7.403 Y-7.295 E0.0007
G1 X-6.885 Y-7.750 E0.0264
G1 X-6.242 Y-8.234 E0.0308
G1 X-5.905 Y-8.456 E0.0154
G1 X-5.555 Y-8.669 E0.0157
G1 X-4.944 Y-8.997 E0.0265
G1 X-4.316 Y-9.284 E0.0264
G1 X-3.300 Y-9.652 E0.0413
G1 X-2.711 Y-9.818 E0.0234
G1 X-2.105 Y-9.953 E0.0238
G1 X-1.517 Y-10.052 E0.0228
G1 X-0.925 Y-10.120 E0.0228
G1 X-0.248 Y-10.162 E0.0259
G1 X0.545 Y-10.160 E0.0303
G1 X0.985 Y-10.136 E0.0168
G1 X1.503 Y-10.086 E0.0199
G1 X2.013 Y-10.014 E0.0197
G1 X2.705 Y-9.877 E0.0270
G1 X3.286 Y-9.727 E0.0230
G1 X3.861 Y-9.545 E0.0230
G1 X4.419 Y-9.333 E0.0228
G1 X5.018 Y-9.065 E0.0251
G1 X5.218 Y-8.958 E0.0087
G1 X4.648 Y-8.293 E0.0335
G1 X4.389 Y-8.429 E0.0112
G1 X3.858 Y-8.667 E0.0222
G1 X3.364 Y-8.854 E0.0202
G1 X2.859 Y-9.014 E0.0203
G1 X2.345 Y-9.147 E0.0203
G1 X1.747 Y-9.265 E0.0233
G1 X1.290 Y-9.330 E0.0177
G1 X0.458 Y-9.395 E0.0319
G1 X-0.089 Y-9.400 E0.0209
G1 X-0.818 Y-9.361 E0.0280
G1 X-1.344 Y-9.300 E0.0202
G1 X-1.859 Y-9.213 E0.0200
G1 X-2.389 Y-9.095 E0.0208
G1 X-2.917 Y-8.947 E0.0210
G1 X-3.786 Y-8.631 E0.0354
G1 X-4.350 Y-8.374 E0.0237
G1 X-4.902 Y-8.076 E0.0240
G1 X-5.499 Y-7.698 E0.0270
G1 X-5.805 Y-7.477 E0.0145
G1 X-6.327 Y-7.050 E0.0258
G1 X-6.544 Y-6.853 E0.0112
G1 X-6.635 Y-6.758 E0.0050
; feature outer perimeter
G1 X-6.223 Y-6.523 F9000
G1 X-6.562 Y-6.172 E0.0187 F397
G1 X-7.114 Y-6.514 E0.0248
G1 X-8.129 Y-7.216 E0.0472
G1 X-7.718 Y-7.631 E0.0223
G1 X-7.175 Y-8.107 E0.0276
G1 X-6.507 Y-8.610 E0.0320
G1 X-6.152 Y-8.845 E0.0163
G1 X-5.783 Y-9.069 E0.0165
G1 X-5.148 Y-9.409 E0.0275
G1 X-4.490 Y-9.710 E0.0277
G1 X-3.441 Y-10.091 E0.0427
G1 X-2.824 Y-10.264 E0.0245
G1 X-2.193 Y-10.404 E0.0247
G1 X-1.582 Y-10.507 E0.0237
G1 X-0.965 Y-10.579 E0.0237
G1 X-0.261 Y-10.622 E0.0270
G1 X0.558 Y-10.620 E0.0313
G1 X1.020 Y-10.595 E0.0177
G1 X1.558 Y-10.543 E0.0207
G1 X2.090 Y-10.467 E0.0205
G1 X2.807 Y-10.326 E0.0280
G1 X3.413 Y-10.169 E0.0239
G1 X4.012 Y-9.979 E0.0240
G1 X4.594 Y-9.759 E0.0238
G1 X5.220 Y-9.478 E0.0262
G1 X5.882 Y-9.125 E0.0287
G1 X5.934 Y-9.086 E0.0025
G1 X4.994 Y-7.989 E0.0553
G1 X4.773 Y-7.700 E0.0139
G1 X4.673 Y-7.760 E0.0045
G1 X4.187 Y-8.015 E0.0210
G1 X3.683 Y-8.242 E0.0212
G1 X3.213 Y-8.420 E0.0192
G1 X2.732 Y-8.572 E0.0193
G1 X2.243 Y-8.698 E0.0193
G1 X1.670 Y-8.812 E0.0224
G1 X1.239 Y-8.873 E0.0166
G1 X0.439 Y-8.935 E0.0307
G1 X-0.079 Y-8.939 E0.0198
G1 X-0.780 Y-8.902 E0.0269
G1 X-1.279 Y-8.844 E0.0192
G1 X-1.770 Y-8.761 E0.0190
G1 X-2.276 Y-8.649 E0.0198
G1 X-2.776 Y-8.508 E0.0199
G1 X-3.612 Y-8.205 E0.0340
G1 X-4.145 Y-7.962 E0.0224
G1 X-4.670 Y-7.679 E0.0228
G1 X-5.241 Y-7.317 E0.0259
G1 X-5.525 Y-7.112 E0.0134
G1 X-6.026 Y-6.702 E0.0248
G1 X-6.223 Y-6.523 E0.0102
; layer 2, Z = 0.400
M126 S255
; feature inner perimeter
; tool H0.200 W0.400
G1 Z0.400 F1200
G1 X-6.899 Y-6.934 F9000
G1 X-7.159 Y-7.097 E0.0102 F861
G1 X-6.694 Y-7.505 E0.0206
G1 X-6.070 Y-7.975 E0.0260
G1 X-5.392 Y-8.404 E0.0267
G1 X-4.805 Y-8.719 E0.0222
G1 X-4.197 Y-8.997 E0.0222
G1 X-3.205 Y-9.357 E0.0351
G1 X-2.635 Y-9.517 E0.0197
G1 X-2.045 Y-9.649 E0.0201
G1 X-1.473 Y-9.745 E0.0193
G1 X-0.894 Y-9.812 E0.0194
G1 X-0.404 Y-9.845 E0.0164
G1 X0.095 Y-9.858 E0.0166
G1 X0.530 Y-9.851 E0.0145
G1 X0.961 Y-9.827 E0.0144
G1 X1.469 Y-9.778 E0.0170
G1 X1.961 Y-9.708 E0.0165
G1 X2.636 Y-9.575 E0.0229
G1 X3.201 Y-9.429 E0.0194
G1 X3.759 Y-9.252 E0.0195
G1 X4.300 Y-9.047 E0.0193
G1 X4.884 Y-8.785 E0.0213
G1 X5.339 Y-8.545 E0.0171
G1 X5.165 Y-8.363 E0.0084
G1 X5.051 Y-8.431 E0.0044
G1 X4.524 Y-8.708 E0.0198
G1 X3.977 Y-8.954 E0.0200
G1 X3.466 Y-9.147 E0.0182
G1 X2.944 Y-9.313 E0.0182
G1 X2.414 Y-9.449 E0.0182
G1 X1.799 Y-9.571 E0.0209
G1 X1.326 Y-9.638 E0.0159
G1 X0.472 Y-9.704 E0.0285
G1 X-0.096 Y-9.710 E0.0189
G1 X-0.845 Y-9.670 E0.0249
G1 X-1.388 Y-9.607 E0.0182
G1 X-1.918 Y-9.517 E0.0179
G1 X-2.464 Y-9.396 E0.0186
G1 X-3.012 Y-9.242 E0.0189
G1 X-3.903 Y-8.918 E0.0315
G1 X-4.488 Y-8.652 E0.0214
G1 X-5.050 Y-8.349 E0.0212
G1 X-5.375 Y-8.152 E0.0126
G1 X-5.979 Y-7.734 E0.0244
G1 X-6.282 Y-7.496 E0.0128
G1 X-6.749 Y-7.086 E0.0207
G1 X-6.899 Y-6.934 E0.0071
G1 X-6.474 Y-6.795 F9000
G1 X-6.839 Y-6.426 E0.0172 F861
G1 X-7.799 Y-7.023 E0.0376
G1 X-7.464 Y-7.361 E0.0158
G1 X-6.947 Y-7.816 E0.0229
G1 X-6.298 Y-8.304 E0.0270
G1 X-5.594 Y-8.750 E0.0277
G1 X-4.983 Y-9.078 E0.0231
G1 X-4.349 Y-9.367 E0.0232
G1 X-3.328 Y-9.738 E0.0361
G1 X-2.733 Y-9.905 E0.0205
G1 X-2.122 Y-10.041 E0.0208
G1 X-1.530 Y-10.141 E0.0200
G1 X-0.931 Y-10.210 E0.0201
G1 X-0.422 Y-10.245 E0.0170
G1 X0.093 Y-10.258 E0.0171
G1 X0.544 Y-10.251 E0.0150
G1 X0.991 Y-10.226 E0.0149
G1 X1.516 Y-10.175 E0.0175
G1 X2.028 Y-10.102 E0.0172
G1 X2.725 Y-9.965 E0.0236
G1 X3.311 Y-9.813 E0.0201
G1 X3.890 Y-9.630 E0.0202
G1 X4.453 Y-9.416 E0.0200
G1 X5.059 Y-9.145 E0.0221
G1 X5.642 Y-8.838 E0.0219
G1 X5.979 Y-8.635 E0.0131
G1 X5.232 Y-7.855 E0.0359
G1 X4.854 Y-8.083 E0.0147
G1 X4.349 Y-8.348 E0.0190
G1 X3.824 Y-8.584 E0.0191
G1 X3.334 Y-8.769 E0.0174
G1 X2.834 Y-8.928 E0.0175
G1 X2.325 Y-9.059 E0.0175
G1 X1.732 Y-9.176 E0.0201
G1 X1.282 Y-9.240 E0.0151
G1 X0.455 Y-9.305 E0.0276
G1 X-0.087 Y-9.310 E0.0180
G1 X-0.811 Y-9.271 E0.0241
G1 X-1.331 Y-9.211 E0.0174
G1 X-1.841 Y-9.125 E0.0172
G1 X-2.367 Y-9.008 E0.0179
G1 X-2.890 Y-8.861 E0.0181
G1 X-3.752 Y-8.548 E0.0305
G1 X-4.310 Y-8.293 E0.0204
G1 X-4.851 Y-8.002 E0.0205
G1 X-5.157 Y-7.816 E0.0119
G1 X-5.741 Y-7.412 E0.0236
G1 X-6.026 Y-7.189 E0.0120
G1 X-6.474 Y-6.795 E0.0199
; feature outer perimeter
G1 X-6.200 Y-6.503 F9000
G1 X-6.584 Y-6.114 E0.0182 F574
G1 X-6.760 Y-5.911 E0.0089
G1 X-6.838 Y-5.954 E0.0029
G1 X-8.419 Y-6.938 E0.0620
G1 X-8.206 Y-7.181 E0.0107
G1 X-7.739 Y-7.653 E0.0221
G1 X-7.200 Y-8.126 E0.0239
G1 X-6.525 Y-8.633 E0.0281
G1 X-5.796 Y-9.096 E0.0287
G1 X-5.160 Y-9.437 E0.0240
G1 X-4.500 Y-9.738 E0.0241
