; G-Code generated by Simplify3D(R) Version 4.1.2
; Apr 6, 2020 at 11:23:39 AM
; Settings Summary
;   processName,Process1
;   applyToModels,BoP Bracket Pro,BoP Bracket Pro(2)
;   profileName,MakerBot Replicator 2 HBP (modified)
;   profileVersion,2020-03-12 10:48:50
;   baseProfile,MakerBot Replicator 2(2)
;   printMaterial,PLA
;   printQuality,Medium
;   printExtruders,
;   extruderName,Primary Extruder
;   extruderToolheadNumber,0
;   extruderDiameter,0.4
;   extruderAutoWidth,0
;   extruderWidth,0.4
;   extrusionMultiplier,1
;   extruderUseRetract,1
;   extruderRetractionDistance,1.9
;   extruderExtraRestartDistance,0
;   extruderRetractionZLift,0.5
;   extruderRetractionSpeed,1200
;   extruderUseCoasting,0
;   extruderCoastingDistance,0.2
;   extruderUseWipe,0
;   extruderWipeDistance,5
;   primaryExtruder,0
;   layerHeight,0.2
;   topSolidLayers,3
;   bottomSolidLayers,3
;   perimeterOutlines,2
;   printPerimetersInsideOut,1
;   startPointOption,3
;   startPointOriginX,0
;   startPointOriginY,150
;   sequentialIslands,0
;   spiralVaseMode,0
;   firstLayerHeightPercentage,100
;   firstLayerWidthPercentage,115
;   firstLayerUnderspeed,0.5
;   useRaft,0
;   raftExtruder,0
;   raftTopLayers,2
;   raftBaseLayers,1
;   raftOffset,1
;   raftSeparationDistance,0.14
;   raftTopInfill,90
;   aboveRaftSpeedMultiplier,0.3
;   useSkirt,0
;   skirtExtruder,0
;   skirtLayers,1
;   skirtOutlines,5
;   skirtOffset,0
;   usePrimePillar,0
;   primePillarExtruder,999
;   primePillarWidth,12
;   primePillarLocation,7
;   primePillarSpeedMultiplier,1
;   useOozeShield,0
;   oozeShieldExtruder,999
;   oozeShieldOffset,2
;   oozeShieldOutlines,1
;   oozeShieldSidewallShape,1
;   oozeShieldSidewallAngle,30
;   oozeShieldSpeedMultiplier,1
;   infillExtruder,0
;   internalInfillPattern,Rectilinear
;   externalInfillPattern,Rectilinear
;   infillPercentage,15
;   outlineOverlapPercentage,25
;   infillExtrusionWidthPercentage,100
;   minInfillLength,5
;   infillLayerInterval,1
;   internalInfillAngles,45,-45
;   overlapInternalInfillAngles,0
;   externalInfillAngles,45,-45
;   generateSupport,0
;   supportExtruder,0
;   supportInfillPercentage,5
;   supportExtraInflation,0.5
;   supportBaseLayers,0
;   denseSupportExtruder,0
;   denseSupportLayers,2
;   denseSupportInfillPercentage,90
;   supportLayerInterval,1
;   supportHorizontalPartOffset,0.3
;   supportUpperSeparationLayers,1
;   supportLowerSeparationLayers,1
;   supportType,1
;   supportGridSpacing,2
;   maxOverhangAngle,45
;   supportAngles,45,-45
;   temperatureName,Primary Extruder,Heated Build Platform
;   temperatureNumber,0,0
;   temperatureSetpointCount,1,1
;   temperatureSetpointLayers,1,1
;   temperatureSetpointTemperatures,230,60
;   temperatureStabilizeAtStartup,1,1
;   temperatureHeatedBed,0,1
;   fanLayers,1,2
;   fanSpeeds,0,100
;   blipFanToFullPower,1
;   adjustSpeedForCooling,1
;   minSpeedLayerTime,15
;   minCoolingSpeedSlowdown,20
;   increaseFanForCooling,1
;   minFanLayerTime,45
;   maxCoolingFanSpeed,100
;   increaseFanForBridging,1
;   bridgingFanSpeed,100
;   use5D,1
;   relativeEdistances,1
;   allowEaxisZeroing,0
;   independentExtruderAxes,1
;   includeM10123,0
;   stickySupport,1
;   applyToolheadOffsets,0
;   gcodeXoffset,0
;   gcodeYoffset,0
;   gcodeZoffset,0
;   overrideMachineDefinition,1
;   machineTypeOverride,0
;   strokeXoverride,280
;   strokeYoverride,150
;   strokeZoverride,150
;   originOffsetXoverride,140
;   originOffsetYoverride,75
;   originOffsetZoverride,0
;   homeXdirOverride,1
;   homeYdirOverride,1
;   homeZdirOverride,-1
;   flipXoverride,1
;   flipYoverride,-1
;   flipZoverride,1
;   toolheadOffsets,0,0|0,0|0,0|0,0|0,0|0,0
;   overrideFirmwareConfiguration,1
;   firmwareTypeOverride,MakerBot/Sailfish Firmware
;   GPXconfigOverride,r2h
;   baudRateOverride,115200
;   overridePrinterModels,1
;   printerModelsOverride,MakerBot_Replicator2.stl
;   startingGcode,; **** Replicator 2 start.gcode ****,M73 P0 ; enable build progress,G162 X Y F3000 ; home XY maximum,G161 Z F1200 ; home Z minimum,G92 Z-5 ; set Z to -5,G1 Z0 ; move Z to 0,G161 Z F100 ; home Z slowly,M132 X Y Z A B ; recall home offsets,G1 X-145 Y-75 Z30 F9000 ; move to wait position off table,G130 X20 Y20 Z20 A20 B20 ; lower stepper Vrefs while heating,M126 S[fan_speed_pwm],M140 S[bed0_temperature] T0,M134 T0 ; stabilize bed temperature,M104 S[extruder0_temperature] T0,M133 T0 ; stabilize extruder temperature,G130 X127 Y127 Z40 A127 B127 ; default stepper Vrefs,G92 A0 ; zero extruder,G1 Z0.4 ; position nozzle,G1 E25 F300 ; purge nozzle,G1 X-140 Y-70 Z0.15 F1200 ; slow wipe,G1 X-135 Y-65 Z0.5 F1200 ; lift,G92 A0 ; zero extruder,M73 P1 ;@body (notify GPX body has started),; **** end of start.gcode ****
;   layerChangeGcode,
;   retractionGcode,
;   toolChangeGcode,
;   endingGcode,; **** Replicator 2 end.gcode ****,M73 P100 ; end build progress,G1 Z155 F1000 ; send Z axis to bottom of machine,M104 S0 T0 ; cool down extruder,M140 S0 T0 ; cool down HBP,M127 ; stop blower fan,G162 X Y F3000 ; home XY maximum,M18 ; disable stepper,M0 ; stop codes,M72 P1 ; play Ta-Da song,; **** end of end.gcode ****
;   exportFileFormat,gcode
;   celebration,0
;   celebrationSong,Random Song
;   postProcessing,
;   defaultSpeed,4800
;   outlineUnderspeed,0.5
;   solidInfillUnderspeed,1
;   supportUnderspeed,1
;   rapidXYspeed,9000
;   rapidZspeed,1200
;   minBridgingArea,50
;   bridgingExtraInflation,0
;   bridgingExtrusionMultiplier,1
;   bridgingSpeedMultiplier,0.8
;   useFixedBridgingAngle,0
;   fixedBridgingAngle,0
;   applyBridgingToPerimeters,0
;   filamentDiameters,1.75|1.75|1.75|1.75|1.75|1.75
;   filamentPricesPerKg,46|46|46|46|46|46
;   filamentDensities,1.25|1.25|1.25|1.25|1.25|1.25
;   useMinPrintHeight,0
;   minPrintHeight,0
;   useMaxPrintHeight,0
;   maxPrintHeight,4.84
;   useDiaphragm,0
;   diaphragmLayerInterval,20
;   robustSlicing,1
;   mergeAllIntoSolid,0
;   onlyRetractWhenCrossingOutline,0
;   retractBetweenLayers,0
;   useRetractionMinTravel,1
;   retractionMinTravel,7
;   retractWhileWiping,1
;   onlyWipeOutlines,1
;   avoidCrossingOutline,0
;   maxMovementDetourFactor,3
;   toolChangeRetractionDistance,12
;   toolChangeExtraRestartDistance,-0.5
;   toolChangeRetractionSpeed,600
;   externalThinWallType,0
;   internalThinWallType,0
;   thinWallAllowedOverlapPercentage,10
;   singleExtrusionMinLength,1
;   singleExtrusionMinPrintingWidthPercentage,50
;   singleExtrusionMaxPrintingWidthPercentage,200
;   singleExtrusionEndpointExtension,0.2
;   horizontalSizeCompensation,0
G90
M83
; **** Replicator 2 start.gcode ****
M73 P0 ; enable build progress
G162 X Y F3000 ; home XY maximum
G161 Z F1200 ; home Z minimum
G92 Z-5 ; set Z to -5
G1 Z0 ; move Z to 0
G161 Z F100 ; home Z slowly
M132 X Y Z A B ; recall home offsets
G1 X-145 Y-75 Z30 F9000 ; move to wait position off table
G130 X20 Y20 Z20 A20 B20 ; lower stepper Vrefs while heating
M126 S11
M140 S60 T0
M134 T0 ; stabilize bed temperature
M104 S230 T0
M133 T0 ; stabilize extruder temperature
G130 X127 Y127 Z40 A127 B127 ; default stepper Vrefs
G92 A0 ; zero extruder
G1 Z0.4 ; position nozzle
G1 E25 F300 ; purge nozzle
G1 X-140 Y-70 Z0.15 F1200 ; slow wipe
G1 X-135 Y-65 Z0.5 F1200 ; lift
G92 A0 ; zero extruder
M73 P1 ;@body (notify GPX body has started)
; **** end of start.gcode ****
; process Process1
; layer 1, Z = 0.200
M135 T0
G1 E-1.9000 F1200
; feature inner perimeter
; tool H0.200 W0.460
G1 Z0.500 F1200
G1 X20.070 Y9.840 F9000
G1 Z0.200 F1200
G1 E1.9000 F1200
G1 X-20.070 Y9.840 E1.5353 F1800
G1 X-20.070 Y3.190 E0.2544
G1 X20.070 Y3.190 E1.5353
G1 X20.070 Y9.840 E0.2544
; feature outer perimeter
G1 X20.530 Y10.300 F9000
G1 X-20.530 Y10.300 E1.5705 F1200
G1 X-20.530 Y2.730 E0.2895
G1 X20.530 Y2.730 E1.5705
G1 X20.530 Y10.300 E0.2895
G1 E-1.9000 F1200
; feature inner perimeter
G1 Z0.700 F1200
G1 X-12.991 Y7.108 F9000
G1 Z0.200 F1200
G1 E1.9000 F1200
G1 X-12.930 Y6.483 E0.0240 F1800
G1 X-12.991 Y5.858 E0.0240
G1 X-13.174 Y5.257 E0.0240
G1 X-13.470 Y4.704 E0.0240
G1 X-13.868 Y4.218 E0.0240
G1 X-14.353 Y3.820 E0.0240
G1 X-14.907 Y3.524 E0.0240
G1 X-15.508 Y3.342 E0.0240
G1 X-16.132 Y3.280 E0.0240
G1 X-16.757 Y3.342 E0.0240
G1 X-17.358 Y3.524 E0.0240
G1 X-17.912 Y3.820 E0.0240
G1 X-18.397 Y4.218 E0.0240
G1 X-18.795 Y4.704 E0.0240
G1 X-19.091 Y5.257 E0.0240
G1 X-19.274 Y5.858 E0.0240
G1 X-19.335 Y6.483 E0.0240
G1 X-19.274 Y7.108 E0.0240
G1 X-19.091 Y7.709 E0.0240
G1 X-18.795 Y8.262 E0.0240
G1 X-18.397 Y8.748 E0.0240
G1 X-17.912 Y9.146 E0.0240
G1 X-17.358 Y9.442 E0.0240
G1 X-16.757 Y9.624 E0.0240
G1 X-16.132 Y9.686 E0.0240
G1 X-15.508 Y9.624 E0.0240
G1 X-14.907 Y9.442 E0.0240
G1 X-14.353 Y9.146 E0.0240
G1 X-13.868 Y8.748 E0.0240
G1 X-13.470 Y8.262 E0.0240
G1 X-13.174 Y7.709 E0.0240
G1 X-12.991 Y7.108 E0.0240
; feature outer perimeter
G1 X-13.445 Y7.018 F9000
G1 X-13.392 Y6.483 E0.0205 F1200
G1 X-13.445 Y5.948 E0.0205
G1 X-13.601 Y5.434 E0.0205
G1 X-13.854 Y4.961 E0.0205
G1 X-14.195 Y4.545 E0.0205
G1 X-14.610 Y4.204 E0.0205
G1 X-15.084 Y3.951 E0.0205
G1 X-15.598 Y3.795 E0.0205
G1 X-16.132 Y3.743 E0.0205
G1 X-16.667 Y3.795 E0.0205
G1 X-17.181 Y3.951 E0.0205
G1 X-17.655 Y4.204 E0.0205
G1 X-18.070 Y4.545 E0.0205
G1 X-18.411 Y4.961 E0.0205
G1 X-18.664 Y5.434 E0.0205
G1 X-18.820 Y5.948 E0.0205
G1 X-18.873 Y6.483 E0.0205
G1 X-18.820 Y7.018 E0.0205
G1 X-18.664 Y7.532 E0.0205
G1 X-18.411 Y8.006 E0.0205
G1 X-18.070 Y8.421 E0.0205
G1 X-17.655 Y8.762 E0.0205
G1 X-17.181 Y9.015 E0.0205
G1 X-16.667 Y9.171 E0.0205
G1 X-16.132 Y9.224 E0.0205
G1 X-15.598 Y9.171 E0.0205
G1 X-15.084 Y9.015 E0.0205
G1 X-14.610 Y8.762 E0.0205
G1 X-14.195 Y8.421 E0.0205
G1 X-13.854 Y8.006 E0.0205
G1 X-13.601 Y7.532 E0.0205
G1 X-13.445 Y7.018 E0.0205
; feature solid layer
G1 X-13.924 Y9.495 F9000
G1 X-14.064 Y9.355 E0.0076 F2400
G1 X-13.707 Y9.062 E0.0177
G1 X-13.274 Y9.495 E0.0234
G1 X-12.623 Y9.495 E0.0249
G1 X-13.399 Y8.720 E0.0419
G1 X-13.181 Y8.455 E0.0131
G1 X-13.123 Y8.345 E0.0048
G1 X-11.973 Y9.495 E0.0622
G1 X-11.322 Y9.495 E0.0249
G1 X-12.896 Y7.921 E0.0851
G1 X-12.853 Y7.841 E0.0035
G1 X-12.730 Y7.436 E0.0162
G1 X-10.672 Y9.495 E0.1114
G1 X-10.021 Y9.495 E0.0249
G1 X-12.623 Y6.893 E0.1408
G1 X-12.583 Y6.483 E0.0157
G1 X-12.605 Y6.261 E0.0086
G1 X-9.371 Y9.495 E0.1750
G1 X-8.720 Y9.495 E0.0249
G1 X-12.750 Y5.465 E0.2180
G1 X-12.853 Y5.125 E0.0136
G1 X-13.181 Y4.511 E0.0266
G1 X-13.623 Y3.973 E0.0266
G1 X-14.157 Y3.535 E0.0264
G1 X-14.030 Y3.535 E0.0049
G1 X-8.070 Y9.495 E0.3224
G1 X-7.419 Y9.495 E0.0249
G1 X-13.379 Y3.535 E0.3224
G1 X-12.728 Y3.535 E0.0249
G1 X-6.769 Y9.495 E0.3224
G1 X-6.118 Y9.495 E0.0249
G1 X-12.078 Y3.535 E0.3224
G1 X-11.427 Y3.535 E0.0249
G1 X-5.467 Y9.495 E0.3224
G1 X-4.817 Y9.495 E0.0249
G1 X-10.777 Y3.535 E0.3224
G1 X-10.126 Y3.535 E0.0249
G1 X-4.166 Y9.495 E0.3224
G1 X-3.516 Y9.495 E0.0249
G1 X-9.476 Y3.535 E0.3224
G1 X-8.825 Y3.535 E0.0249
G1 X-2.865 Y9.495 E0.3224
G1 X-2.215 Y9.495 E0.0249
G1 X-8.175 Y3.535 E0.3224
G1 X-7.524 Y3.535 E0.0249
G1 X-1.564 Y9.495 E0.3224
G1 X-0.914 Y9.495 E0.0249
G1 X-6.874 Y3.535 E0.3224
G1 X-6.223 Y3.535 E0.0249
G1 X-0.263 Y9.495 E0.3224
G1 X0.387 Y9.495 E0.0249
G1 X-5.573 Y3.535 E0.3224
G1 X-4.922 Y3.535 E0.0249
G1 X1.038 Y9.495 E0.3224
G1 X1.688 Y9.495 E0.0249
G1 X-4.271 Y3.535 E0.3224
G1 X-3.621 Y3.535 E0.0249
G1 X2.339 Y9.495 E0.3224
G1 X2.990 Y9.495 E0.0249
G1 X-2.970 Y3.535 E0.3224
G1 X-2.320 Y3.535 E0.0249
G1 X3.640 Y9.495 E0.3224
G1 X4.291 Y9.495 E0.0249
G1 X-1.669 Y3.535 E0.3224
G1 X-1.019 Y3.535 E0.0249
G1 X4.941 Y9.495 E0.3224
G1 X5.592 Y9.495 E0.0249
G1 X-0.368 Y3.535 E0.3224
G1 X0.282 Y3.535 E0.0249
G1 X6.242 Y9.495 E0.3224
G1 X6.893 Y9.495 E0.0249
G1 X0.933 Y3.535 E0.3224
G1 X1.583 Y3.535 E0.0249
G1 X7.543 Y9.495 E0.3224
G1 X8.194 Y9.495 E0.0249
G1 X2.234 Y3.535 E0.3224
G1 X2.884 Y3.535 E0.0249
G1 X8.844 Y9.495 E0.3224
G1 X9.495 Y9.495 E0.0249
G1 X3.535 Y3.535 E0.3224
G1 X4.186 Y3.535 E0.0249
G1 X10.145 Y9.495 E0.3224
G1 X10.796 Y9.495 E0.0249
G1 X4.836 Y3.535 E0.3224
G1 X5.487 Y3.535 E0.0249
G1 X11.447 Y9.495 E0.3224
G1 X12.097 Y9.495 E0.0249
G1 X6.137 Y3.535 E0.3224
G1 X6.788 Y3.535 E0.0249
G1 X12.748 Y9.495 E0.3224
G1 X13.398 Y9.495 E0.0249
G1 X7.438 Y3.535 E0.3224
G1 X8.089 Y3.535 E0.0249
G1 X14.049 Y9.495 E0.3224
G1 X14.699 Y9.495 E0.0249
G1 X8.739 Y3.535 E0.3224
G1 X9.390 Y3.535 E0.0249
G1 X15.350 Y9.495 E0.3224
G1 X16.000 Y9.495 E0.0249
G1 X10.040 Y3.535 E0.3224
G1 X10.691 Y3.535 E0.0249
G1 X16.651 Y9.495 E0.3224
G1 X17.301 Y9.495 E0.0249
G1 X11.341 Y3.535 E0.3224
G1 X11.992 Y3.535 E0.0249
G1 X17.952 Y9.495 E0.3224
G1 X18.602 Y9.495 E0.0249
G1 X12.643 Y3.535 E0.3224
G1 X13.293 Y3.535 E0.0249
G1 X19.253 Y9.495 E0.3224
G1 X19.725 Y9.495 E0.0181
G1 X19.725 Y9.316 E0.0068
G1 X13.944 Y3.535 E0.3127
G1 X14.594 Y3.535 E0.0249
G1 X19.725 Y8.666 E0.2775
G1 X19.725 Y8.015 E0.0249
G1 X15.245 Y3.535 E0.2423
G1 X15.895 Y3.535 E0.0249
G1 X19.725 Y7.365 E0.2072
G1 X19.725 Y6.714 E0.0249
G1 X16.546 Y3.535 E0.1720
G1 X17.196 Y3.535 E0.0249
G1 X19.725 Y6.064 E0.1368
G1 X19.725 Y5.413 E0.0249
G1 X17.847 Y3.535 E0.1016
G1 X18.497 Y3.535 E0.0249
G1 X19.725 Y4.763 E0.0664
G1 X19.725 Y4.112 E0.0249
G1 X19.148 Y3.535 E0.0312
G1 E-1.9000 F1200
G1 Z0.700 F1200
G1 X-18.583 Y3.535 F9000
G1 Z0.200 F1200
G1 E1.9000 F1200
G1 X-18.369 Y3.749 E0.0116 F2400
G1 X-18.642 Y3.973 E0.0135
G1 X-18.711 Y4.057 E0.0042
G1 X-19.234 Y3.535 E0.0283
G1 X-19.725 Y3.535 E0.0188
G1 X-19.725 Y3.694 E0.0061
G1 X-19.005 Y4.415 E0.0390
G1 X-19.084 Y4.511 E0.0048
G1 X-19.249 Y4.821 E0.0134
G1 X-19.725 Y4.345 E0.0257
G1 X-19.725 Y4.996 E0.0249
G1 X-19.454 Y5.266 E0.0146
G1 X-19.606 Y5.765 E0.0200
G1 X-19.725 Y5.646 E0.0064
G1 X-19.725 Y6.297 E0.0249
G1 X-19.669 Y6.353 E0.0030
G1 X-19.682 Y6.483 E0.0050
G1 X-19.626 Y7.046 E0.0216
G1 X-19.725 Y6.947 E0.0053
G1 X-19.725 Y7.598 E0.0249
G1 X-19.332 Y7.991 E0.0213
G1 X-19.084 Y8.455 E0.0201
G1 X-18.642 Y8.993 E0.0266
G1 X-18.104 Y9.434 E0.0266
G1 X-17.991 Y9.495 E0.0049
G1 X-18.478 Y9.495 E0.0186
G1 X-19.725 Y8.248 E0.0674
G1 X-19.725 Y8.899 E0.0249
G1 X-19.129 Y9.495 E0.0322
G1 E-1.9000 F1200
; feature inner perimeter
G1 Z0.700 F1200
G1 X20.070 Y-3.190 F9000
G1 Z0.200 F1200
G1 E1.9000 F1200
G1 X-20.070 Y-3.190 E1.5353 F1800
G1 X-20.070 Y-9.840 E0.2544
G1 X20.070 Y-9.840 E1.5353
G1 X20.070 Y-3.190 E0.2544
; feature outer perimeter
G1 X20.530 Y-2.730 F9000
G1 X-20.530 Y-2.730 E1.5705 F1200
G1 X-20.530 Y-10.300 E0.2895
G1 X20.530 Y-10.300 E1.5705
G1 X20.530 Y-2.730 E0.2895
G1 E-1.9000 F1200
; feature inner perimeter
G1 Z0.700 F1200
G1 X-12.991 Y-5.922 F9000
G1 Z0.200 F1200
G1 E1.9000 F1200
G1 X-12.930 Y-6.547 E0.0240 F1800
G1 X-12.991 Y-7.172 E0.0240
G1 X-13.174 Y-7.772 E0.0240
G1 X-13.470 Y-8.326 E0.0240
G1 X-13.868 Y-8.811 E0.0240
G1 X-14.353 Y-9.210 E0.0240
G1 X-14.907 Y-9.506 E0.0240
G1 X-15.508 Y-9.688 E0.0240
G1 X-16.132 Y-9.750 E0.0240
G1 X-16.757 Y-9.688 E0.0240
G1 X-17.358 Y-9.506 E0.0240
G1 X-17.912 Y-9.210 E0.0240
G1 X-18.397 Y-8.811 E0.0240
G1 X-18.795 Y-8.326 E0.0240
G1 X-19.091 Y-7.772 E0.0240
G1 X-19.274 Y-7.172 E0.0240
G1 X-19.335 Y-6.547 E0.0240
G1 X-19.274 Y-5.922 E0.0240
G1 X-19.091 Y-5.321 E0.0240
G1 X-18.795 Y-4.768 E0.0240
G1 X-18.397 Y-4.282 E0.0240
G1 X-17.912 Y-3.884 E0.0240
G1 X-17.358 Y-3.588 E0.0240
G1 X-16.757 Y-3.406 E0.0240
G1 X-16.132 Y-3.344 E0.0240
G1 X-15.508 Y-3.406 E0.0240
G1 X-14.907 Y-3.588 E0.0240
G1 X-14.353 Y-3.884 E0.0240
G1 X-13.868 Y-4.282 E0.0240
G1 X-13.470 Y-4.768 E0.0240
G1 X-13.174 Y-5.321 E0.0240
G1 X-12.991 Y-5.922 E0.0240
; feature outer perimeter
G1 X-13.445 Y-6.012 F9000
G1 X-13.392 Y-6.547 E0.0205 F1200
G1 X-13.445 Y-7.081 E0.0205
G1 X-13.601 Y-7.596 E0.0205
G1 X-13.854 Y-8.069 E0.0205
G1 X-14.195 Y-8.485 E0.0205
G1 X-14.610 Y-8.825 E0.0205
G1 X-15.084 Y-9.079 E0.0205
G1 X-15.598 Y-9.235 E0.0205
G1 X-16.132 Y-9.287 E0.0205
G1 X-16.667 Y-9.235 E0.0205
G1 X-17.181 Y-9.079 E0.0205
G1 X-17.655 Y-8.825 E0.0205
G1 X-18.070 Y-8.485 E0.0205
G1 X-18.411 Y-8.069 E0.0205
G1 X-18.664 Y-7.596 E0.0205
G1 X-18.820 Y-7.081 E0.0205
G1 X-18.873 Y-6.547 E0.0205
G1 X-18.820 Y-6.012 E0.0205
G1 X-18.664 Y-5.498 E0.0205
