; G-Code generated by Simplify3D(R) Version 4.1.2
; Apr 6, 2020 at 11:24:43 AM
; Settings Summary
;   processName,Process1
;   applyToModels,diffuser,diffuser(2),diffuser(3),diffuser(2)(2)
;   profileName,MakerBot Replicator 2 HBP (modified)
;   profileVersion,2020-03-12 10:48:50
;   baseProfile,MakerBot Replicator 2(2)
;   printMaterial,PLA
;   printQuality,Medium
;   printExtruders,
;   extruderName,Primary Extruder
;   extruderToolheadNumber,0
;   extruderDiameter,0.4
;   extruderAutoWidth,0
;   extruderWidth,0.4
;   extrusionMultiplier,1
;   extruderUseRetract,1
;   extruderRetractionDistance,1.9
;   extruderExtraRestartDistance,0
;   extruderRetractionZLift,0.5
;   extruderRetractionSpeed,1200
;   extruderUseCoasting,0
;   extruderCoastingDistance,0.2
;   extruderUseWipe,0
;   extruderWipeDistance,5
;   primaryExtruder,0
;   layerHeight,0.2
;   topSolidLayers,3
;   bottomSolidLayers,3
;   perimeterOutlines,2
;   printPerimetersInsideOut,1
;   startPointOption,3
;   startPointOriginX,0
;   startPointOriginY,150
;   sequentialIslands,0
;   spiralVaseMode,0
;   firstLayerHeightPercentage,100
;   firstLayerWidthPercentage,115
;   firstLayerUnderspeed,0.5
;   useRaft,0
;   raftExtruder,0
;   raftTopLayers,2
;   raftBaseLayers,1
;   raftOffset,1
;   raftSeparationDistance,0.14
;   raftTopInfill,90
;   aboveRaftSpeedMultiplier,0.3
;   useSkirt,0
;   skirtExtruder,0
;   skirtLayers,1
;   skirtOutlines,5
;   skirtOffset,0
;   usePrimePillar,0
;   primePillarExtruder,999
;   primePillarWidth,12
;   primePillarLocation,7
;   primePillarSpeedMultiplier,1
;   useOozeShield,0
;   oozeShieldExtruder,999
;   oozeShieldOffset,2
;   oozeShieldOutlines,1
;   oozeShieldSidewallShape,1
;   oozeShieldSidewallAngle,30
;   oozeShieldSpeedMultiplier,1
;   infillExtruder,0
;   internalInfillPattern,Rectilinear
;   externalInfillPattern,Rectilinear
;   infillPercentage,15
;   outlineOverlapPercentage,25
;   infillExtrusionWidthPercentage,100
;   minInfillLength,5
;   infillLayerInterval,1
;   internalInfillAngles,45,-45
;   overlapInternalInfillAngles,0
;   externalInfillAngles,45,-45
;   generateSupport,0
;   supportExtruder,0
;   supportInfillPercentage,5
;   supportExtraInflation,0.5
;   supportBaseLayers,0
;   denseSupportExtruder,0
;   denseSupportLayers,2
;   denseSupportInfillPercentage,90
;   supportLayerInterval,1
;   supportHorizontalPartOffset,0.3
;   supportUpperSeparationLayers,1
;   supportLowerSeparationLayers,1
;   supportType,1
;   supportGridSpacing,2
;   maxOverhangAngle,45
;   supportAngles,45,-45
;   temperatureName,Primary Extruder,Heated Build Platform
;   temperatureNumber,0,0
;   temperatureSetpointCount,1,1
;   temperatureSetpointLayers,1,1
;   temperatureSetpointTemperatures,230,60
;   temperatureStabilizeAtStartup,1,1
;   temperatureHeatedBed,0,1
;   fanLayers,1,2
;   fanSpeeds,0,100
;   blipFanToFullPower,1
;   adjustSpeedForCooling,1
;   minSpeedLayerTime,15
;   minCoolingSpeedSlowdown,20
;   increaseFanForCooling,1
;   minFanLayerTime,45
;   maxCoolingFanSpeed,100
;   increaseFanForBridging,1
;   bridgingFanSpeed,100
;   use5D,1
;   relativeEdistances,1
;   allowEaxisZeroing,0
;   independentExtruderAxes,1
;   includeM10123,0
;   stickySupport,1
;   applyToolheadOffsets,0
;   gcodeXoffset,0
;   gcodeYoffset,0
;   gcodeZoffset,0
;   overrideMachineDefinition,1
;   machineTypeOverride,0
;   strokeXoverride,280
;   strokeYoverride,150
;   strokeZoverride,150
;   originOffsetXoverride,140
;   originOffsetYoverride,75
;   originOffsetZoverride,0
;   homeXdirOverride,1
;   homeYdirOverride,1
;   homeZdirOverride,-1
;   flipXoverride,1
;   flipYoverride,-1
;   flipZoverride,1
;   toolheadOffsets,0,0|0,0|0,0|0,0|0,0|0,0
;   overrideFirmwareConfiguration,1
;   firmwareTypeOverride,MakerBot/Sailfish Firmware
;   GPXconfigOverride,r2h
;   baudRateOverride,115200
;   overridePrinterModels,1
;   printerModelsOverride,MakerBot_Replicator2.stl
;   startingGcode,; **** Replicator 2 start.gcode ****,M73 P0 ; enable build progress,G162 X Y F3000 ; home XY maximum,G161 Z F1200 ; home Z minimum,G92 Z-5 ; set Z to -5,G1 Z0 ; move Z to 0,G161 Z F100 ; home Z slowly,M132 X Y Z A B ; recall home offsets,G1 X-145 Y-75 Z30 F9000 ; move to wait position off table,G130 X20 Y20 Z20 A20 B20 ; lower stepper Vrefs while heating,M126 S[fan_speed_pwm],M140 S[bed0_temperature] T0,M134 T0 ; stabilize bed temperature,M104 S[extruder0_temperature] T0,M133 T0 ; stabilize extruder temperature,G130 X127 Y127 Z40 A127 B127 ; default stepper Vrefs,G92 A0 ; zero extruder,G1 Z0.4 ; position nozzle,G1 E25 F300 ; purge nozzle,G1 X-140 Y-70 Z0.15 F1200 ; slow wipe,G1 X-135 Y-65 Z0.5 F1200 ; lift,G92 A0 ; zero extruder,M73 P1 ;@body (notify GPX body has started),; **** end of start.gcode ****
;   layerChangeGcode,
;   retractionGcode,
;   toolChangeGcode,
;   endingGcode,; **** Replicator 2 end.gcode ****,M73 P100 ; end build progress,G1 Z155 F1000 ; send Z axis to bottom of machine,M104 S0 T0 ; cool down extruder,M140 S0 T0 ; cool down HBP,M127 ; stop blower fan,G162 X Y F3000 ; home XY maximum,M18 ; disable stepper,M0 ; stop codes,M72 P1 ; play Ta-Da song,; **** end of end.gcode ****
;   exportFileFormat,gcode
;   celebration,0
;   celebrationSong,Random Song
;   postProcessing,
;   defaultSpeed,4800
;   outlineUnderspeed,0.5
;   solidInfillUnderspeed,1
;   supportUnderspeed,1
;   rapidXYspeed,9000
;   rapidZspeed,1200
;   minBridgingArea,50
;   bridgingExtraInflation,0
;   bridgingExtrusionMultiplier,1
;   bridgingSpeedMultiplier,0.8
;   useFixedBridgingAngle,0
;   fixedBridgingAngle,0
;   applyBridgingToPerimeters,0
;   filamentDiameters,1.75|1.75|1.75|1.75|1.75|1.75
;   filamentPricesPerKg,46|46|46|46|46|46
;   filamentDensities,1.25|1.25|1.25|1.25|1.25|1.25
;   useMinPrintHeight,0
;   minPrintHeight,0
;   useMaxPrintHeight,0
;   maxPrintHeight,4.84
;   useDiaphragm,0
;   diaphragmLayerInterval,20
;   robustSlicing,1
;   mergeAllIntoSolid,0
;   onlyRetractWhenCrossingOutline,0
;   retractBetweenLayers,0
;   useRetractionMinTravel,1
;   retractionMinTravel,7
;   retractWhileWiping,1
;   onlyWipeOutlines,1
;   avoidCrossingOutline,0
;   maxMovementDetourFactor,3
;   toolChangeRetractionDistance,12
;   toolChangeExtraRestartDistance,-0.5
;   toolChangeRetractionSpeed,600
;   externalThinWallType,0
;   internalThinWallType,0
;   thinWallAllowedOverlapPercentage,10
;   singleExtrusionMinLength,1
;   singleExtrusionMinPrintingWidthPercentage,50
;   singleExtrusionMaxPrintingWidthPercentage,200
;   singleExtrusionEndpointExtension,0.2
;   horizontalSizeCompensation,0
G90
M83
; **** Replicator 2 start.gcode ****
M73 P0 ; enable build progress
G162 X Y F3000 ; home XY maximum
G161 Z F1200 ; home Z minimum
G92 Z-5 ; set Z to -5
G1 Z0 ; move Z to 0
G161 Z F100 ; home Z slowly
M132 X Y Z A B ; recall home offsets
G1 X-145 Y-75 Z30 F9000 ; move to wait position off table
G130 X20 Y20 Z20 A20 B20 ; lower stepper Vrefs while heating
M127
M140 S60 T0
M134 T0 ; stabilize bed temperature
M104 S230 T0
M133 T0 ; stabilize extruder temperature
G130 X127 Y127 Z40 A127 B127 ; default stepper Vrefs
G92 A0 ; zero extruder
G1 Z0.4 ; position nozzle
G1 E25 F300 ; purge nozzle
G1 X-140 Y-70 Z0.15 F1200 ; slow wipe
G1 X-135 Y-65 Z0.5 F1200 ; lift
G92 A0 ; zero extruder
M73 P1 ;@body (notify GPX body has started)
; **** end of start.gcode ****
; process Process1
; layer 1, Z = 0.200
M135 T0
G1 E-1.9000 F1200
; feature inner perimeter
; tool H0.200 W0.460
G1 Z0.500 F1200
G1 X-3.190 Y32.060 F9000
G1 Z0.200 F1200
G1 E1.9000 F1200
G1 X-43.810 Y32.060 E1.5537 F1800
G1 X-43.810 Y-16.205 E1.8461
G1 X-21.783 Y-16.131 E0.8425
G1 X-21.783 Y-32.060 E0.6093
G1 X-3.190 Y-32.060 E0.7112
G1 X-3.190 Y1.744 E1.2930
G1 X-7.746 Y6.334 E0.2474
G1 X-10.654 Y6.334 E0.1113
G1 X-10.835 Y18.190 E0.4535
G1 X-3.190 Y18.190 E0.2924
G1 X-3.190 Y32.060 E0.5305
; feature outer perimeter
G1 X-2.730 Y32.520 F9000
G1 X-44.270 Y32.520 E1.5889 F1200
G1 X-44.270 Y-16.666 E1.8813
G1 X-22.243 Y-16.592 E0.8425
G1 X-22.243 Y-32.520 E0.6092
G1 X-2.730 Y-32.520 E0.7463
G1 X-2.730 Y1.933 E1.3178
G1 X-7.554 Y6.794 E0.2619
G1 X-10.201 Y6.794 E0.1013
G1 X-10.368 Y17.730 E0.4183
G1 X-2.730 Y17.730 E0.2921
G1 X-2.730 Y32.520 E0.5657
G1 E-1.9000 F1200
; feature solid layer
G1 Z0.700 F1200
G1 X-3.535 Y25.089 F9000
G1 Z0.200 F1200
G1 E1.9000 F1200
G1 X-10.089 Y18.535 E0.3545 F2400
G1 X-9.438 Y18.535 E0.0249
G1 X-3.535 Y24.438 E0.3193
G1 X-3.535 Y23.788 E0.0249
G1 X-8.788 Y18.535 E0.2841
G1 X-8.137 Y18.535 E0.0249
G1 X-3.535 Y23.137 E0.2489
G1 X-3.535 Y22.487 E0.0249
G1 X-7.487 Y18.535 E0.2138
G1 X-6.836 Y18.535 E0.0249
G1 X-3.535 Y21.836 E0.1786
G1 X-3.535 Y21.185 E0.0249
G1 X-6.186 Y18.535 E0.1434
G1 X-5.535 Y18.535 E0.0249
G1 X-3.535 Y20.535 E0.1082
G1 X-3.535 Y19.884 E0.0249
G1 X-4.884 Y18.535 E0.0730
G1 X-4.234 Y18.535 E0.0249
G1 X-3.535 Y19.234 E0.0378
G1 X-3.535 Y18.583 E0.0249
G1 X-3.583 Y18.535 E0.0026
G1 E-1.9000 F1200
G1 Z0.700 F1200
G1 X-43.097 Y31.715 F9000
G1 Z0.200 F1200
G1 E1.9000 F1200
G1 X-43.465 Y31.347 E0.0199 F2400
G1 X-43.465 Y30.696 E0.0249
G1 X-42.446 Y31.715 E0.0551
G1 X-41.796 Y31.715 E0.0249
G1 X-43.465 Y30.046 E0.0903
G1 X-43.465 Y29.395 E0.0249
G1 X-41.145 Y31.715 E0.1255
G1 X-40.495 Y31.715 E0.0249
G1 X-43.465 Y28.745 E0.1607
G1 X-43.465 Y28.094 E0.0249
G1 X-39.844 Y31.715 E0.1959
G1 X-39.194 Y31.715 E0.0249
G1 X-43.465 Y27.444 E0.2310
G1 X-43.465 Y26.793 E0.0249
G1 X-38.543 Y31.715 E0.2662
G1 X-37.893 Y31.715 E0.0249
G1 X-43.465 Y26.143 E0.3014
G1 X-43.465 Y25.492 E0.0249
G1 X-37.242 Y31.715 E0.3366
G1 X-36.592 Y31.715 E0.0249
G1 X-43.465 Y24.842 E0.3718
G1 X-43.465 Y24.191 E0.0249
G1 X-35.941 Y31.715 E0.4070
G1 X-35.290 Y31.715 E0.0249
G1 X-43.465 Y23.540 E0.4422
G1 X-43.465 Y22.890 E0.0249
G1 X-34.640 Y31.715 E0.4774
G1 X-33.989 Y31.715 E0.0249
G1 X-43.465 Y22.239 E0.5126
G1 X-43.465 Y21.589 E0.0249
G1 X-33.339 Y31.715 E0.5477
G1 X-32.688 Y31.715 E0.0249
G1 X-43.465 Y20.938 E0.5829
G1 X-43.465 Y20.288 E0.0249
G1 X-32.038 Y31.715 E0.6181
G1 X-31.387 Y31.715 E0.0249
G1 X-43.465 Y19.637 E0.6533
G1 X-43.465 Y18.987 E0.0249
G1 X-30.737 Y31.715 E0.6885
G1 X-30.086 Y31.715 E0.0249
G1 X-43.465 Y18.336 E0.7237
G1 X-43.465 Y17.686 E0.0249
G1 X-29.436 Y31.715 E0.7589
G1 X-28.785 Y31.715 E0.0249
G1 X-43.465 Y17.035 E0.7941
G1 X-43.465 Y16.385 E0.0249
G1 X-28.135 Y31.715 E0.8293
G1 X-27.484 Y31.715 E0.0249
G1 X-43.465 Y15.734 E0.8645
G1 X-43.465 Y15.083 E0.0249
G1 X-26.833 Y31.715 E0.8996
G1 X-26.183 Y31.715 E0.0249
G1 X-43.465 Y14.433 E0.9348
G1 X-43.465 Y13.782 E0.0249
G1 X-25.532 Y31.715 E0.9700
G1 X-24.882 Y31.715 E0.0249
G1 X-43.465 Y13.132 E1.0052
G1 X-43.465 Y12.481 E0.0249
G1 X-24.231 Y31.715 E1.0404
G1 X-23.581 Y31.715 E0.0249
G1 X-43.465 Y11.831 E1.0756
G1 X-43.465 Y11.180 E0.0249
G1 X-22.930 Y31.715 E1.1108
G1 X-22.280 Y31.715 E0.0249
G1 X-43.465 Y10.530 E1.1460
G1 X-43.465 Y9.879 E0.0249
G1 X-21.629 Y31.715 E1.1812
G1 X-20.979 Y31.715 E0.0249
G1 X-43.465 Y9.229 E1.2163
G1 X-43.465 Y8.578 E0.0249
G1 X-20.328 Y31.715 E1.2515
G1 X-19.678 Y31.715 E0.0249
G1 X-43.465 Y7.928 E1.2867
G1 X-43.465 Y7.277 E0.0249
G1 X-19.027 Y31.715 E1.3219
G1 X-18.376 Y31.715 E0.0249
G1 X-43.465 Y6.626 E1.3571
G1 X-43.465 Y5.976 E0.0249
G1 X-17.726 Y31.715 E1.3923
G1 X-17.075 Y31.715 E0.0249
G1 X-43.465 Y5.325 E1.4275
G1 X-43.465 Y4.675 E0.0249
G1 X-16.425 Y31.715 E1.4627
G1 X-15.774 Y31.715 E0.0249
G1 X-43.465 Y4.024 E1.4979
G1 X-43.465 Y3.374 E0.0249
G1 X-15.124 Y31.715 E1.5330
G1 X-14.473 Y31.715 E0.0249
G1 X-43.465 Y2.723 E1.5682
G1 X-43.465 Y2.073 E0.0249
G1 X-13.823 Y31.715 E1.6034
G1 X-13.172 Y31.715 E0.0249
G1 X-43.465 Y1.422 E1.6386
G1 X-43.465 Y0.772 E0.0249
G1 X-12.522 Y31.715 E1.6738
G1 X-11.871 Y31.715 E0.0249
G1 X-43.465 Y0.121 E1.7090
G1 X-43.465 Y-0.529 E0.0249
G1 X-11.221 Y31.715 E1.7442
G1 X-10.570 Y31.715 E0.0249
G1 X-43.465 Y-1.180 E1.7794
G1 X-43.465 Y-1.831 E0.0249
G1 X-9.919 Y31.715 E1.8146
G1 X-9.269 Y31.715 E0.0249
G1 X-43.465 Y-2.481 E1.8497
G1 X-43.465 Y-3.132 E0.0249
G1 X-8.618 Y31.715 E1.8849
G1 X-7.968 Y31.715 E0.0249
G1 X-43.465 Y-3.782 E1.9201
G1 X-43.465 Y-4.433 E0.0249
G1 X-7.317 Y31.715 E1.9553
G1 X-6.667 Y31.715 E0.0249
G1 X-43.465 Y-5.083 E1.9905
G1 X-43.465 Y-5.734 E0.0249
G1 X-6.016 Y31.715 E2.0257
G1 X-5.366 Y31.715 E0.0249
G1 X-43.465 Y-6.384 E2.0609
G1 X-43.465 Y-7.035 E0.0249
G1 X-4.715 Y31.715 E2.0961
G1 X-4.065 Y31.715 E0.0249
G1 X-43.465 Y-7.685 E2.1313
G1 X-43.465 Y-8.336 E0.0249
G1 X-3.535 Y31.594 E2.1599
G1 X-3.535 Y30.944 E0.0249
G1 X-43.465 Y-8.986 E2.1599
G1 X-43.465 Y-9.637 E0.0249
G1 X-3.535 Y30.293 E2.1599
G1 X-3.535 Y29.642 E0.0249
G1 X-43.465 Y-10.288 E2.1599
G1 X-43.465 Y-10.938 E0.0249
G1 X-3.535 Y28.992 E2.1599
G1 X-3.535 Y28.341 E0.0249
G1 X-43.465 Y-11.589 E2.1599
G1 X-43.465 Y-12.239 E0.0249
G1 X-3.535 Y27.691 E2.1599
G1 X-3.535 Y27.040 E0.0249
G1 X-43.465 Y-12.890 E2.1599
G1 X-43.465 Y-13.540 E0.0249
G1 X-3.535 Y26.390 E2.1599
G1 X-3.535 Y25.739 E0.0249
G1 X-10.739 Y18.535 E0.3897
G1 X-11.185 Y18.535 E0.0171
G1 X-11.179 Y18.096 E0.0168
G1 X-43.465 Y-14.191 E1.7464
G1 X-43.465 Y-14.841 E0.0249
G1 X-11.169 Y17.455 E1.7470
G1 X-11.159 Y16.814 E0.0245
G1 X-43.465 Y-15.492 E1.7475
G1 X-43.465 Y-15.859 E0.0140
G1 X-43.180 Y-15.858 E0.0109
G1 X-11.149 Y16.173 E1.7326
G1 X-11.140 Y15.532 E0.0245
G1 X-42.528 Y-15.856 E1.6979
G1 X-41.875 Y-15.853 E0.0250
G1 X-11.130 Y14.892 E1.6631
G1 X-11.120 Y14.251 E0.0245
G1 X-41.222 Y-15.851 E1.6283
G1 X-40.569 Y-15.849 E0.0250
G1 X-11.110 Y13.610 E1.5935
G1 X-11.101 Y12.969 E0.0245
G1 X-39.917 Y-15.847 E1.5587
G1 X-39.264 Y-15.845 E0.0250
G1 X-11.091 Y12.329 E1.5240
G1 X-11.081 Y11.688 E0.0245
G1 X-38.611 Y-15.842 E1.4892
G1 X-37.958 Y-15.840 E0.0250
G1 X-11.071 Y11.047 E1.4544
G1 X-11.061 Y10.406 E0.0245
G1 X-37.306 Y-15.838 E1.4196
G1 X-36.653 Y-15.836 E0.0250
G1 X-11.052 Y9.766 E1.3848
G1 X-11.042 Y9.125 E0.0245
G1 X-36.000 Y-15.834 E1.3501
G1 X-35.347 Y-15.831 E0.0250
G1 X-11.032 Y8.484 E1.3153
G1 X-11.022 Y7.843 E0.0245
G1 X-34.695 Y-15.829 E1.2805
G1 X-34.042 Y-15.827 E0.0250
G1 X-11.013 Y7.202 E1.2457
G1 X-11.003 Y6.562 E0.0245
G1 X-33.389 Y-15.825 E1.2109
G1 X-32.736 Y-15.823 E0.0250
G1 X-10.925 Y5.989 E1.1798
G1 X-10.274 Y5.989 E0.0249
G1 X-32.084 Y-15.820 E1.1797
G1 X-31.431 Y-15.818 E0.0250
G1 X-9.624 Y5.989 E1.1796
G1 X-8.973 Y5.989 E0.0249
G1 X-30.778 Y-15.816 E1.1795
G1 X-30.126 Y-15.814 E0.0250
G1 X-8.323 Y5.989 E1.1794
G1 X-7.889 Y5.989 E0.0166
G1 X-7.781 Y5.880 E0.0059
G1 X-29.473 Y-15.811 E1.1734
G1 X-28.820 Y-15.809 E0.0250
G1 X-7.457 Y5.554 E1.1556
G1 X-7.133 Y5.227 E0.0176
G1 X-28.167 Y-15.807 E1.1378
G1 X-27.515 Y-15.805 E0.0250
G1 X-6.809 Y4.901 E1.1200
G1 X-6.485 Y4.574 E0.0176
G1 X-26.862 Y-15.803 E1.1022
G1 X-26.209 Y-15.800 E0.0250
G1 X-6.161 Y4.248 E1.0845
G1 X-5.837 Y3.921 E0.0176
G1 X-25.556 Y-15.798 E1.0667
G1 X-24.904 Y-15.796 E0.0250
G1 X-5.513 Y3.595 E1.0489
G1 X-5.189 Y3.268 E0.0176
G1 X-24.251 Y-15.794 E1.0311
G1 X-23.598 Y-15.792 E0.0250
G1 X-4.865 Y2.942 E1.0133
G1 X-4.541 Y2.615 E0.0176
G1 X-22.945 Y-15.789 E0.9955
G1 X-22.293 Y-15.787 E0.0250
G1 X-4.217 Y2.289 E0.9778
G1 X-3.893 Y1.962 E0.0176
G1 X-21.640 Y-15.785 E0.9600
G1 X-21.438 Y-15.784 E0.0077
G1 X-21.438 Y-16.233 E0.0172
G1 X-3.569 Y1.636 E0.9666
G1 X-3.535 Y1.601 E0.0018
G1 X-3.535 Y1.019 E0.0223
G1 X-21.438 Y-16.884 E0.9684
G1 X-21.438 Y-17.534 E0.0249
G1 X-3.535 Y0.368 E0.9684
G1 X-3.535 Y-0.282 E0.0249
G1 X-21.438 Y-18.185 E0.9684
G1 X-21.438 Y-18.836 E0.0249
G1 X-3.535 Y-0.933 E0.9684
G1 X-3.535 Y-1.583 E0.0249
G1 X-21.438 Y-19.486 E0.9684
G1 X-21.438 Y-20.137 E0.0249
G1 X-3.535 Y-2.234 E0.9684
G1 X-3.535 Y-2.884 E0.0249
G1 X-21.438 Y-20.787 E0.9684
G1 X-21.438 Y-21.438 E0.0249
G1 X-3.535 Y-3.535 E0.9684
G1 X-3.535 Y-4.186 E0.0249
G1 X-21.438 Y-22.088 E0.9684
G1 X-21.438 Y-22.739 E0.0249
G1 X-3.535 Y-4.836 E0.9684
G1 X-3.535 Y-5.487 E0.0249
G1 X-21.438 Y-23.389 E0.9684
G1 X-21.438 Y-24.040 E0.0249
G1 X-3.535 Y-6.137 E0.9684
G1 X-3.535 Y-6.788 E0.0249
G1 X-21.438 Y-24.690 E0.9684
G1 X-21.438 Y-25.341 E0.0249
G1 X-3.535 Y-7.438 E0.9684
G1 X-3.535 Y-8.089 E0.0249
G1 X-21.438 Y-25.991 E0.9684
