; G-Code generated by Simplify3D(R) Version 4.1.2
; Apr 6, 2020 at 11:25:17 AM
; Settings Summary
;   processName,Process1
;   applyToModels,diffuserBox,diffuserBox(2)
;   profileName,MakerBot Replicator 2 HBP (modified)
;   profileVersion,2020-03-12 10:48:50
;   baseProfile,MakerBot Replicator 2(2)
;   printMaterial,PLA
;   printQuality,Medium
;   printExtruders,
;   extruderName,Primary Extruder
;   extruderToolheadNumber,0
;   extruderDiameter,0.4
;   extruderAutoWidth,0
;   extruderWidth,0.4
;   extrusionMultiplier,1
;   extruderUseRetract,1
;   extruderRetractionDistance,1.9
;   extruderExtraRestartDistance,0
;   extruderRetractionZLift,0.5
;   extruderRetractionSpeed,1200
;   extruderUseCoasting,0
;   extruderCoastingDistance,0.2
;   extruderUseWipe,0
;   extruderWipeDistance,5
;   primaryExtruder,0
;   layerHeight,0.2
;   topSolidLayers,3
;   bottomSolidLayers,3
;   perimeterOutlines,2
;   printPerimetersInsideOut,1
;   startPointOption,3
;   startPointOriginX,0
;   startPointOriginY,150
;   sequentialIslands,0
;   spiralVaseMode,0
;   firstLayerHeightPercentage,100
;   firstLayerWidthPercentage,115
;   firstLayerUnderspeed,0.5
;   useRaft,0
;   raftExtruder,0
;   raftTopLayers,2
;   raftBaseLayers,1
;   raftOffset,1
;   raftSeparationDistance,0.14
;   raftTopInfill,90
;   aboveRaftSpeedMultiplier,0.3
;   useSkirt,0
;   skirtExtruder,0
;   skirtLayers,1
;   skirtOutlines,5
;   skirtOffset,0
;   usePrimePillar,0
;   primePillarExtruder,999
;   primePillarWidth,12
;   primePillarLocation,7
;   primePillarSpeedMultiplier,1
;   useOozeShield,0
;   oozeShieldExtruder,999
;   oozeShieldOffset,2
;   oozeShieldOutlines,1
;   oozeShieldSidewallShape,1
;   oozeShieldSidewallAngle,30
;   oozeShieldSpeedMultiplier,1
;   infillExtruder,0
;   internalInfillPattern,Rectilinear
;   externalInfillPattern,Rectilinear
;   infillPercentage,15
;   outlineOverlapPercentage,25
;   infillExtrusionWidthPercentage,100
;   minInfillLength,5
;   infillLayerInterval,1
;   internalInfillAngles,45,-45
;   overlapInternalInfillAngles,0
;   externalInfillAngles,45,-45
;   generateSupport,0
;   supportExtruder,0
;   supportInfillPercentage,5
;   supportExtraInflation,0.5
;   supportBaseLayers,0
;   denseSupportExtruder,0
;   denseSupportLayers,2
;   denseSupportInfillPercentage,90
;   supportLayerInterval,1
;   supportHorizontalPartOffset,0.3
;   supportUpperSeparationLayers,1
;   supportLowerSeparationLayers,1
;   supportType,1
;   supportGridSpacing,2
;   maxOverhangAngle,45
;   supportAngles,45,-45
;   temperatureName,Primary Extruder,Heated Build Platform
;   temperatureNumber,0,0
;   temperatureSetpointCount,1,1
;   temperatureSetpointLayers,1,1
;   temperatureSetpointTemperatures,230,60
;   temperatureStabilizeAtStartup,1,1
;   temperatureHeatedBed,0,1
;   fanLayers,1,2
;   fanSpeeds,0,100
;   blipFanToFullPower,1
;   adjustSpeedForCooling,1
;   minSpeedLayerTime,15
;   minCoolingSpeedSlowdown,20
;   increaseFanForCooling,1
;   minFanLayerTime,45
;   maxCoolingFanSpeed,100
;   increaseFanForBridging,1
;   bridgingFanSpeed,100
;   use5D,1
;   relativeEdistances,1
;   allowEaxisZeroing,0
;   independentExtruderAxes,1
;   includeM10123,0
;   stickySupport,1
;   applyToolheadOffsets,0
;   gcodeXoffset,0
;   gcodeYoffset,0
;   gcodeZoffset,0
;   overrideMachineDefinition,1
;   machineTypeOverride,0
;   strokeXoverride,280
;   strokeYoverride,150
;   strokeZoverride,150
;   originOffsetXoverride,140
;   originOffsetYoverride,75
;   originOffsetZoverride,0
;   homeXdirOverride,1
;   homeYdirOverride,1
;   homeZdirOverride,-1
;   flipXoverride,1
;   flipYoverride,-1
;   flipZoverride,1
;   toolheadOffsets,0,0|0,0|0,0|0,0|0,0|0,0
;   overrideFirmwareConfiguration,1
;   firmwareTypeOverride,MakerBot/Sailfish Firmware
;   GPXconfigOverride,r2h
;   baudRateOverride,115200
;   overridePrinterModels,1
;   printerModelsOverride,MakerBot_Replicator2.stl
;   startingGcode,; **** Replicator 2 start.gcode ****,M73 P0 ; enable build progress,G162 X Y F3000 ; home XY maximum,G161 Z F1200 ; home Z minimum,G92 Z-5 ; set Z to -5,G1 Z0 ; move Z to 0,G161 Z F100 ; home Z slowly,M132 X Y Z A B ; recall home offsets,G1 X-145 Y-75 Z30 F9000 ; move to wait position off table,G130 X20 Y20 Z20 A20 B20 ; lower stepper Vrefs while heating,M126 S[fan_speed_pwm],M140 S[bed0_temperature] T0,M134 T0 ; stabilize bed temperature,M104 S[extruder0_temperature] T0,M133 T0 ; stabilize extruder temperature,G130 X127 Y127 Z40 A127 B127 ; default stepper Vrefs,G92 A0 ; zero extruder,G1 Z0.4 ; position nozzle,G1 E25 F300 ; purge nozzle,G1 X-140 Y-70 Z0.15 F1200 ; slow wipe,G1 X-135 Y-65 Z0.5 F1200 ; lift,G92 A0 ; zero extruder,M73 P1 ;@body (notify GPX body has started),; **** end of start.gcode ****
;   layerChangeGcode,
;   retractionGcode,
;   toolChangeGcode,
;   endingGcode,; **** Replicator 2 end.gcode ****,M73 P100 ; end build progress,G1 Z155 F1000 ; send Z axis to bottom of machine,M104 S0 T0 ; cool down extruder,M140 S0 T0 ; cool down HBP,M127 ; stop blower fan,G162 X Y F3000 ; home XY maximum,M18 ; disable stepper,M0 ; stop codes,M72 P1 ; play Ta-Da song,; **** end of end.gcode ****
;   exportFileFormat,gcode
;   celebration,0
;   celebrationSong,Random Song
;   postProcessing,
;   defaultSpeed,4800
;   outlineUnderspeed,0.5
;   solidInfillUnderspeed,1
;   supportUnderspeed,1
;   rapidXYspeed,9000
;   rapidZspeed,1200
;   minBridgingArea,50
;   bridgingExtraInflation,0
;   bridgingExtrusionMultiplier,1
;   bridgingSpeedMultiplier,0.8
;   useFixedBridgingAngle,0
;   fixedBridgingAngle,0
;   applyBridgingToPerimeters,0
;   filamentDiameters,1.75|1.75|1.75|1.75|1.75|1.75
;   filamentPricesPerKg,46|46|46|46|46|46
;   filamentDensities,1.25|1.25|1.25|1.25|1.25|1.25
;   useMinPrintHeight,0
;   minPrintHeight,0
;   useMaxPrintHeight,0
;   maxPrintHeight,4.84
;   useDiaphragm,0
;   diaphragmLayerInterval,20
;   robustSlicing,1
;   mergeAllIntoSolid,0
;   onlyRetractWhenCrossingOutline,0
;   retractBetweenLayers,0
;   useRetractionMinTravel,1
;   retractionMinTravel,7
;   retractWhileWiping,1
;   onlyWipeOutlines,1
;   avoidCrossingOutline,0
;   maxMovementDetourFactor,3
;   toolChangeRetractionDistance,12
;   toolChangeExtraRestartDistance,-0.5
;   toolChangeRetractionSpeed,600
;   externalThinWallType,0
;   internalThinWallType,0
;   thinWallAllowedOverlapPercentage,10
;   singleExtrusionMinLength,1
;   singleExtrusionMinPrintingWidthPercentage,50
;   singleExtrusionMaxPrintingWidthPercentage,200
;   singleExtrusionEndpointExtension,0.2
;   horizontalSizeCompensation,0
G90
M83
; **** Replicator 2 start.gcode ****
M73 P0 ; enable build progress
G162 X Y F3000 ; home XY maximum
G161 Z F1200 ; home Z minimum
G92 Z-5 ; set Z to -5
G1 Z0 ; move Z to 0
G161 Z F100 ; home Z slowly
M132 X Y Z A B ; recall home offsets
G1 X-145 Y-75 Z30 F9000 ; move to wait position off table
G130 X20 Y20 Z20 A20 B20 ; lower stepper Vrefs while heating
M127
M140 S60 T0
M134 T0 ; stabilize bed temperature
M104 S230 T0
M133 T0 ; stabilize extruder temperature
G130 X127 Y127 Z40 A127 B127 ; default stepper Vrefs
G92 A0 ; zero extruder
G1 Z0.4 ; position nozzle
G1 E25 F300 ; purge nozzle
G1 X-140 Y-70 Z0.15 F1200 ; slow wipe
G1 X-135 Y-65 Z0.5 F1200 ; lift
G92 A0 ; zero extruder
M73 P1 ;@body (notify GPX body has started)
; **** end of start.gcode ****
; process Process1
; layer 1, Z = 0.200
M135 T0
G1 E-1.9000 F1200
; feature inner perimeter
; tool H0.200 W0.460
G1 Z0.500 F1200
G1 X3.190 Y27.508 F9000
G1 Z0.200 F1200
G1 E1.9000 F1200
G1 X3.190 Y-36.810 E2.4601 F1800
G1 X60.810 Y-36.810 E2.2039
G1 X60.810 Y27.508 E2.4601
G1 X3.190 Y27.508 E2.2039
; feature outer perimeter
G1 X2.730 Y27.968 F9000
G1 X2.730 Y-37.270 E2.4953 F1200
G1 X61.270 Y-37.270 E2.2391
G1 X61.270 Y27.968 E2.4953
G1 X2.730 Y27.968 E2.2391
; feature solid layer
G1 X3.744 Y27.163 F9000
G1 X3.535 Y26.954 E0.0113 F2400
G1 X3.535 Y26.304 E0.0249
G1 X4.394 Y27.163 E0.0465
G1 X5.045 Y27.163 E0.0249
G1 X3.535 Y25.653 E0.0817
G1 X3.535 Y25.003 E0.0249
G1 X5.696 Y27.163 E0.1169
G1 X6.346 Y27.163 E0.0249
G1 X3.535 Y24.352 E0.1521
G1 X3.535 Y23.702 E0.0249
G1 X6.997 Y27.163 E0.1872
G1 X7.647 Y27.163 E0.0249
G1 X3.535 Y23.051 E0.2224
G1 X3.535 Y22.401 E0.0249
G1 X8.298 Y27.163 E0.2576
G1 X8.948 Y27.163 E0.0249
G1 X3.535 Y21.750 E0.2928
G1 X3.535 Y21.100 E0.0249
G1 X9.599 Y27.163 E0.3280
G1 X10.249 Y27.163 E0.0249
G1 X3.535 Y20.449 E0.3632
G1 X3.535 Y19.798 E0.0249
G1 X10.900 Y27.163 E0.3984
G1 X11.550 Y27.163 E0.0249
G1 X3.535 Y19.148 E0.4336
G1 X3.535 Y18.497 E0.0249
G1 X12.201 Y27.163 E0.4688
G1 X12.852 Y27.163 E0.0249
G1 X3.535 Y17.847 E0.5040
G1 X3.535 Y17.196 E0.0249
G1 X13.502 Y27.163 E0.5391
G1 X14.153 Y27.163 E0.0249
G1 X3.535 Y16.546 E0.5743
G1 X3.535 Y15.895 E0.0249
G1 X14.803 Y27.163 E0.6095
G1 X15.454 Y27.163 E0.0249
G1 X3.535 Y15.245 E0.6447
G1 X3.535 Y14.594 E0.0249
G1 X16.104 Y27.163 E0.6799
G1 X16.755 Y27.163 E0.0249
G1 X3.535 Y13.944 E0.7151
G1 X3.535 Y13.293 E0.0249
G1 X17.405 Y27.163 E0.7503
G1 X18.056 Y27.163 E0.0249
G1 X3.535 Y12.643 E0.7855
G1 X3.535 Y11.992 E0.0249
G1 X18.706 Y27.163 E0.8207
G1 X19.357 Y27.163 E0.0249
G1 X3.535 Y11.341 E0.8558
G1 X3.535 Y10.691 E0.0249
G1 X20.007 Y27.163 E0.8910
G1 X20.658 Y27.163 E0.0249
G1 X3.535 Y10.040 E0.9262
G1 X3.535 Y9.390 E0.0249
G1 X21.309 Y27.163 E0.9614
G1 X21.959 Y27.163 E0.0249
G1 X3.535 Y8.739 E0.9966
G1 X3.535 Y8.089 E0.0249
G1 X22.610 Y27.163 E1.0318
G1 X23.260 Y27.163 E0.0249
G1 X3.535 Y7.438 E1.0670
G1 X3.535 Y6.788 E0.0249
G1 X23.911 Y27.163 E1.1022
G1 X24.561 Y27.163 E0.0249
G1 X3.535 Y6.137 E1.1374
G1 X3.535 Y5.487 E0.0249
G1 X25.212 Y27.163 E1.1725
G1 X25.862 Y27.163 E0.0249
G1 X3.535 Y4.836 E1.2077
G1 X3.535 Y4.186 E0.0249
G1 X26.513 Y27.163 E1.2429
G1 X27.163 Y27.163 E0.0249
G1 X3.535 Y3.535 E1.2781
G1 X3.535 Y2.884 E0.0249
G1 X27.814 Y27.163 E1.3133
G1 X28.464 Y27.163 E0.0249
G1 X3.535 Y2.234 E1.3485
G1 X3.535 Y1.583 E0.0249
G1 X29.115 Y27.163 E1.3837
G1 X29.766 Y27.163 E0.0249
G1 X3.535 Y0.933 E1.4189
G1 X3.535 Y0.282 E0.0249
G1 X30.416 Y27.163 E1.4541
G1 X31.067 Y27.163 E0.0249
G1 X3.535 Y-0.368 E1.4892
G1 X3.535 Y-1.019 E0.0249
G1 X31.717 Y27.163 E1.5244
G1 X32.368 Y27.163 E0.0249
G1 X3.535 Y-1.669 E1.5596
G1 X3.535 Y-2.320 E0.0249
G1 X33.018 Y27.163 E1.5948
G1 X33.669 Y27.163 E0.0249
G1 X3.535 Y-2.970 E1.6300
G1 X3.535 Y-3.621 E0.0249
G1 X34.319 Y27.163 E1.6652
G1 X34.970 Y27.163 E0.0249
G1 X3.535 Y-4.271 E1.7004
G1 X3.535 Y-4.922 E0.0249
G1 X35.620 Y27.163 E1.7356
G1 X36.271 Y27.163 E0.0249
G1 X3.535 Y-5.572 E1.7708
G1 X3.535 Y-6.223 E0.0249
G1 X36.921 Y27.163 E1.8060
G1 X37.572 Y27.163 E0.0249
G1 X3.535 Y-6.874 E1.8411
G1 X3.535 Y-7.524 E0.0249
G1 X38.223 Y27.163 E1.8763
G1 X38.873 Y27.163 E0.0249
G1 X3.535 Y-8.175 E1.9115
G1 X3.535 Y-8.825 E0.0249
G1 X39.524 Y27.163 E1.9467
G1 X40.174 Y27.163 E0.0249
G1 X3.535 Y-9.476 E1.9819
G1 X3.535 Y-10.126 E0.0249
G1 X40.825 Y27.163 E2.0171
G1 X41.475 Y27.163 E0.0249
G1 X3.535 Y-10.777 E2.0523
G1 X3.535 Y-11.427 E0.0249
G1 X42.126 Y27.163 E2.0875
G1 X42.776 Y27.163 E0.0249
G1 X3.535 Y-12.078 E2.1227
G1 X3.535 Y-12.728 E0.0249
G1 X43.427 Y27.163 E2.1578
G1 X44.077 Y27.163 E0.0249
G1 X3.535 Y-13.379 E2.1930
G1 X3.535 Y-14.029 E0.0249
G1 X44.728 Y27.163 E2.2282
G1 X45.378 Y27.163 E0.0249
G1 X3.535 Y-14.680 E2.2634
G1 X3.535 Y-15.331 E0.0249
G1 X46.029 Y27.163 E2.2986
G1 X46.680 Y27.163 E0.0249
G1 X3.535 Y-15.981 E2.3338
G1 X3.535 Y-16.632 E0.0249
G1 X47.330 Y27.163 E2.3690
G1 X47.981 Y27.163 E0.0249
G1 X3.535 Y-17.282 E2.4042
G1 X3.535 Y-17.933 E0.0249
G1 X48.631 Y27.163 E2.4394
G1 X49.282 Y27.163 E0.0249
G1 X3.535 Y-18.583 E2.4745
G1 X3.535 Y-19.234 E0.0249
G1 X49.932 Y27.163 E2.5097
G1 X50.583 Y27.163 E0.0249
G1 X3.535 Y-19.884 E2.5449
G1 X3.535 Y-20.535 E0.0249
G1 X51.233 Y27.163 E2.5801
G1 X51.884 Y27.163 E0.0249
G1 X3.535 Y-21.185 E2.6153
G1 X3.535 Y-21.836 E0.0249
G1 X52.534 Y27.163 E2.6505
G1 X53.185 Y27.163 E0.0249
G1 X3.535 Y-22.486 E2.6857
G1 X3.535 Y-23.137 E0.0249
G1 X53.835 Y27.163 E2.7209
G1 X54.486 Y27.163 E0.0249
G1 X3.535 Y-23.788 E2.7561
G1 X3.535 Y-24.438 E0.0249
G1 X55.137 Y27.163 E2.7912
G1 X55.787 Y27.163 E0.0249
G1 X3.535 Y-25.089 E2.8264
G1 X3.535 Y-25.739 E0.0249
G1 X56.438 Y27.163 E2.8616
G1 X57.088 Y27.163 E0.0249
G1 X3.535 Y-26.390 E2.8968
G1 X3.535 Y-27.040 E0.0249
G1 X57.739 Y27.163 E2.9320
G1 X58.389 Y27.163 E0.0249
G1 X3.535 Y-27.691 E2.9672
G1 X3.535 Y-28.341 E0.0249
G1 X59.040 Y27.163 E3.0024
G1 X59.690 Y27.163 E0.0249
G1 X3.535 Y-28.992 E3.0376
G1 X3.535 Y-29.642 E0.0249
G1 X60.341 Y27.163 E3.0728
G1 X60.465 Y27.163 E0.0047
G1 X60.465 Y26.637 E0.0201
G1 X3.535 Y-30.293 E3.0795
G1 X3.535 Y-30.943 E0.0249
G1 X60.465 Y25.986 E3.0795
G1 X60.465 Y25.336 E0.0249
G1 X3.535 Y-31.594 E3.0795
G1 X3.535 Y-32.245 E0.0249
G1 X60.465 Y24.685 E3.0795
G1 X60.465 Y24.035 E0.0249
G1 X3.535 Y-32.895 E3.0795
G1 X3.535 Y-33.546 E0.0249
G1 X60.465 Y23.384 E3.0795
G1 X60.465 Y22.734 E0.0249
G1 X3.535 Y-34.196 E3.0795
G1 X3.535 Y-34.847 E0.0249
G1 X60.465 Y22.083 E3.0795
G1 X60.465 Y21.433 E0.0249
G1 X3.535 Y-35.497 E3.0795
G1 X3.535 Y-36.148 E0.0249
G1 X60.465 Y20.782 E3.0795
G1 X60.465 Y20.132 E0.0249
G1 X3.868 Y-36.465 E3.0615
G1 X4.519 Y-36.465 E0.0249
G1 X60.465 Y19.481 E3.0263
G1 X60.465 Y18.831 E0.0249
G1 X5.169 Y-36.465 E2.9911
G1 X5.820 Y-36.465 E0.0249
G1 X60.465 Y18.180 E2.9559
G1 X60.465 Y17.529 E0.0249
G1 X6.470 Y-36.465 E2.9207
G1 X7.121 Y-36.465 E0.0249
G1 X60.465 Y16.879 E2.8855
G1 X60.465 Y16.228 E0.0249
G1 X7.772 Y-36.465 E2.8503
G1 X8.422 Y-36.465 E0.0249
G1 X60.465 Y15.578 E2.8151
G1 X60.465 Y14.927 E0.0249
G1 X9.073 Y-36.465 E2.7799
G1 X9.723 Y-36.465 E0.0249
G1 X60.465 Y14.277 E2.7448
G1 X60.465 Y13.626 E0.0249
G1 X10.374 Y-36.465 E2.7096
G1 X11.024 Y-36.465 E0.0249
G1 X60.465 Y12.976 E2.6744
G1 X60.465 Y12.325 E0.0249
G1 X11.675 Y-36.465 E2.6392
G1 X12.325 Y-36.465 E0.0249
G1 X60.465 Y11.675 E2.6040
G1 X60.465 Y11.024 E0.0249
G1 X12.976 Y-36.465 E2.5688
G1 X13.626 Y-36.465 E0.0249
G1 X60.465 Y10.374 E2.5336
G1 X60.465 Y9.723 E0.0249
G1 X14.277 Y-36.465 E2.4984
G1 X14.928 Y-36.465 E0.0249
G1 X60.465 Y9.072 E2.4632
G1 X60.465 Y8.422 E0.0249
G1 X15.578 Y-36.465 E2.4280
G1 X16.229 Y-36.465 E0.0249
G1 X60.465 Y7.771 E2.3929
G1 X60.465 Y7.121 E0.0249
G1 X16.879 Y-36.465 E2.3577
G1 X17.530 Y-36.465 E0.0249
G1 X60.465 Y6.470 E2.3225
G1 X60.465 Y5.820 E0.0249
G1 X18.180 Y-36.465 E2.2873
G1 X18.831 Y-36.465 E0.0249
G1 X60.465 Y5.169 E2.2521
G1 X60.465 Y4.519 E0.0249
G1 X19.481 Y-36.465 E2.2169
G1 X20.132 Y-36.465 E0.0249
G1 X60.465 Y3.868 E2.1817
G1 X60.465 Y3.218 E0.0249
G1 X20.782 Y-36.465 E2.1465
G1 X21.433 Y-36.465 E0.0249
G1 X60.465 Y2.567 E2.1113
G1 X60.465 Y1.917 E0.0249
G1 X22.083 Y-36.465 E2.0762
G1 X22.734 Y-36.465 E0.0249
G1 X60.465 Y1.266 E2.0410
G1 X60.465 Y0.615 E0.0249
G1 X23.385 Y-36.465 E2.0058
G1 X24.035 Y-36.465 E0.0249
G1 X60.465 Y-0.035 E1.9706
G1 X60.465 Y-0.686 E0.0249
G1 X24.686 Y-36.465 E1.9354
G1 X25.336 Y-36.465 E0.0249
G1 X60.465 Y-1.336 E1.9002
G1 X60.465 Y-1.987 E0.0249
G1 X25.987 Y-36.465 E1.8650
G1 X26.637 Y-36.465 E0.0249
G1 X60.465 Y-2.637 E1.8298
G1 X60.465 Y-3.288 E0.0249
G1 X27.288 Y-36.465 E1.7946
G1 X27.938 Y-36.465 E0.0249
G1 X60.465 Y-3.938 E1.7595
G1 X60.465 Y-4.589 E0.0249
G1 X28.589 Y-36.465 E1.7243
G1 X29.239 Y-36.465 E0.0249
G1 X60.465 Y-5.239 E1.6891
G1 X60.465 Y-5.890 E0.0249
G1 X29.890 Y-36.465 E1.6539
G1 X30.540 Y-36.465 E0.0249
G1 X60.465 Y-6.540 E1.6187
G1 X60.465 Y-7.191 E0.0249
G1 X31.191 Y-36.465 E1.5835
G1 X31.842 Y-36.465 E0.0249
G1 X60.465 Y-7.841 E1.5483
G1 X60.465 Y-8.492 E0.0249
G1 X32.492 Y-36.465 E1.5131
G1 X33.143 Y-36.465 E0.0249
G1 X60.465 Y-9.143 E1.4779
G1 X60.465 Y-9.793 E0.0249
G1 X33.793 Y-36.465 E1.4427
G1 X34.444 Y-36.465 E0.0249
G1 X60.465 Y-10.444 E1.4076
G1 X60.465 Y-11.094 E0.0249
G1 X35.094 Y-36.465 E1.3724
G1 X35.745 Y-36.465 E0.0249
G1 X60.465 Y-11.745 E1.3372
G1 X60.465 Y-12.395 E0.0249
G1 X36.395 Y-36.465 E1.3020
G1 X37.046 Y-36.465 E0.0249
G1 X60.465 Y-13.046 E1.2668
G1 X60.465 Y-13.696 E0.0249
G1 X37.696 Y-36.465 E1.2316
G1 X38.347 Y-36.465 E0.0249
G1 X60.465 Y-14.347 E1.1964
