; G-Code generated by Simplify3D(R) Version 4.1.2
; Apr 6, 2020 at 11:29:12 AM
; Settings Summary
;   processName,Process1
;   applyToModels,Explosion Prem Bracket,Explosion Prem Bracket(2)
;   profileName,MakerBot Replicator 2 HBP (modified)
;   profileVersion,2020-03-12 10:48:50
;   baseProfile,MakerBot Replicator 2(2)
;   printMaterial,PLA
;   printQuality,Medium
;   printExtruders,
;   extruderName,Primary Extruder
;   extruderToolheadNumber,0
;   extruderDiameter,0.4
;   extruderAutoWidth,0
;   extruderWidth,0.4
;   extrusionMultiplier,1
;   extruderUseRetract,1
;   extruderRetractionDistance,1.9
;   extruderExtraRestartDistance,0
;   extruderRetractionZLift,0.5
;   extruderRetractionSpeed,1200
;   extruderUseCoasting,0
;   extruderCoastingDistance,0.2
;   extruderUseWipe,0
;   extruderWipeDistance,5
;   primaryExtruder,0
;   layerHeight,0.2
;   topSolidLayers,3
;   bottomSolidLayers,3
;   perimeterOutlines,2
;   printPerimetersInsideOut,1
;   startPointOption,3
;   startPointOriginX,0
;   startPointOriginY,150
;   sequentialIslands,0
;   spiralVaseMode,0
;   firstLayerHeightPercentage,100
;   firstLayerWidthPercentage,115
;   firstLayerUnderspeed,0.5
;   useRaft,0
;   raftExtruder,0
;   raftTopLayers,2
;   raftBaseLayers,1
;   raftOffset,1
;   raftSeparationDistance,0.14
;   raftTopInfill,90
;   aboveRaftSpeedMultiplier,0.3
;   useSkirt,0
;   skirtExtruder,0
;   skirtLayers,1
;   skirtOutlines,5
;   skirtOffset,0
;   usePrimePillar,0
;   primePillarExtruder,999
;   primePillarWidth,12
;   primePillarLocation,7
;   primePillarSpeedMultiplier,1
;   useOozeShield,0
;   oozeShieldExtruder,999
;   oozeShieldOffset,2
;   oozeShieldOutlines,1
;   oozeShieldSidewallShape,1
;   oozeShieldSidewallAngle,30
;   oozeShieldSpeedMultiplier,1
;   infillExtruder,0
;   internalInfillPattern,Rectilinear
;   externalInfillPattern,Rectilinear
;   infillPercentage,15
;   outlineOverlapPercentage,25
;   infillExtrusionWidthPercentage,100
;   minInfillLength,5
;   infillLayerInterval,1
;   internalInfillAngles,45,-45
;   overlapInternalInfillAngles,0
;   externalInfillAngles,45,-45
;   generateSupport,0
;   supportExtruder,0
;   supportInfillPercentage,5
;   supportExtraInflation,0.5
;   supportBaseLayers,0
;   denseSupportExtruder,0
;   denseSupportLayers,2
;   denseSupportInfillPercentage,90
;   supportLayerInterval,1
;   supportHorizontalPartOffset,0.3
;   supportUpperSeparationLayers,1
;   supportLowerSeparationLayers,1
;   supportType,1
;   supportGridSpacing,2
;   maxOverhangAngle,45
;   supportAngles,45,-45
;   temperatureName,Primary Extruder,Heated Build Platform
;   temperatureNumber,0,0
;   temperatureSetpointCount,1,1
;   temperatureSetpointLayers,1,1
;   temperatureSetpointTemperatures,230,60
;   temperatureStabilizeAtStartup,1,1
;   temperatureHeatedBed,0,1
;   fanLayers,1,2
;   fanSpeeds,0,100
;   blipFanToFullPower,1
;   adjustSpeedForCooling,1
;   minSpeedLayerTime,15
;   minCoolingSpeedSlowdown,20
;   increaseFanForCooling,1
;   minFanLayerTime,45
;   maxCoolingFanSpeed,100
;   increaseFanForBridging,1
;   bridgingFanSpeed,100
;   use5D,1
;   relativeEdistances,1
;   allowEaxisZeroing,0
;   independentExtruderAxes,1
;   includeM10123,0
;   stickySupport,1
;   applyToolheadOffsets,0
;   gcodeXoffset,0
;   gcodeYoffset,0
;   gcodeZoffset,0
;   overrideMachineDefinition,1
;   machineTypeOverride,0
;   strokeXoverride,280
;   strokeYoverride,150
;   strokeZoverride,150
;   originOffsetXoverride,140
;   originOffsetYoverride,75
;   originOffsetZoverride,0
;   homeXdirOverride,1
;   homeYdirOverride,1
;   homeZdirOverride,-1
;   flipXoverride,1
;   flipYoverride,-1
;   flipZoverride,1
;   toolheadOffsets,0,0|0,0|0,0|0,0|0,0|0,0
;   overrideFirmwareConfiguration,1
;   firmwareTypeOverride,MakerBot/Sailfish Firmware
;   GPXconfigOverride,r2h
;   baudRateOverride,115200
;   overridePrinterModels,1
;   printerModelsOverride,MakerBot_Replicator2.stl
;   startingGcode,; **** Replicator 2 start.gcode ****,M73 P0 ; enable build progress,G162 X Y F3000 ; home XY maximum,G161 Z F1200 ; home Z minimum,G92 Z-5 ; set Z to -5,G1 Z0 ; move Z to 0,G161 Z F100 ; home Z slowly,M132 X Y Z A B ; recall home offsets,G1 X-145 Y-75 Z30 F9000 ; move to wait position off table,G130 X20 Y20 Z20 A20 B20 ; lower stepper Vrefs while heating,M126 S[fan_speed_pwm],M140 S[bed0_temperature] T0,M134 T0 ; stabilize bed temperature,M104 S[extruder0_temperature] T0,M133 T0 ; stabilize extruder temperature,G130 X127 Y127 Z40 A127 B127 ; default stepper Vrefs,G92 A0 ; zero extruder,G1 Z0.4 ; position nozzle,G1 E25 F300 ; purge nozzle,G1 X-140 Y-70 Z0.15 F1200 ; slow wipe,G1 X-135 Y-65 Z0.5 F1200 ; lift,G92 A0 ; zero extruder,M73 P1 ;@body (notify GPX body has started),; **** end of start.gcode ****
;   layerChangeGcode,
;   retractionGcode,
;   toolChangeGcode,
;   endingGcode,; **** Replicator 2 end.gcode ****,M73 P100 ; end build progress,G1 Z155 F1000 ; send Z axis to bottom of machine,M104 S0 T0 ; cool down extruder,M140 S0 T0 ; cool down HBP,M127 ; stop blower fan,G162 X Y F3000 ; home XY maximum,M18 ; disable stepper,M0 ; stop codes,M72 P1 ; play Ta-Da song,; **** end of end.gcode ****
;   exportFileFormat,gcode
;   celebration,0
;   celebrationSong,Random Song
;   postProcessing,
;   defaultSpeed,4800
;   outlineUnderspeed,0.5
;   solidInfillUnderspeed,1
;   supportUnderspeed,1
;   rapidXYspeed,9000
;   rapidZspeed,1200
;   minBridgingArea,50
;   bridgingExtraInflation,0
;   bridgingExtrusionMultiplier,1
;   bridgingSpeedMultiplier,0.8
;   useFixedBridgingAngle,0
;   fixedBridgingAngle,0
;   applyBridgingToPerimeters,0
;   filamentDiameters,1.75|1.75|1.75|1.75|1.75|1.75
;   filamentPricesPerKg,46|46|46|46|46|46
;   filamentDensities,1.25|1.25|1.25|1.25|1.25|1.25
;   useMinPrintHeight,0
;   minPrintHeight,0
;   useMaxPrintHeight,0
;   maxPrintHeight,4.84
;   useDiaphragm,0
;   diaphragmLayerInterval,20
;   robustSlicing,1
;   mergeAllIntoSolid,0
;   onlyRetractWhenCrossingOutline,0
;   retractBetweenLayers,0
;   useRetractionMinTravel,1
;   retractionMinTravel,7
;   retractWhileWiping,1
;   onlyWipeOutlines,1
;   avoidCrossingOutline,0
;   maxMovementDetourFactor,3
;   toolChangeRetractionDistance,12
;   toolChangeExtraRestartDistance,-0.5
;   toolChangeRetractionSpeed,600
;   externalThinWallType,0
;   internalThinWallType,0
;   thinWallAllowedOverlapPercentage,10
;   singleExtrusionMinLength,1
;   singleExtrusionMinPrintingWidthPercentage,50
;   singleExtrusionMaxPrintingWidthPercentage,200
;   singleExtrusionEndpointExtension,0.2
;   horizontalSizeCompensation,0
G90
M83
; **** Replicator 2 start.gcode ****
M73 P0 ; enable build progress
G162 X Y F3000 ; home XY maximum
G161 Z F1200 ; home Z minimum
G92 Z-5 ; set Z to -5
G1 Z0 ; move Z to 0
G161 Z F100 ; home Z slowly
M132 X Y Z A B ; recall home offsets
G1 X-145 Y-75 Z30 F9000 ; move to wait position off table
G130 X20 Y20 Z20 A20 B20 ; lower stepper Vrefs while heating
M127
M140 S60 T0
M134 T0 ; stabilize bed temperature
M104 S230 T0
M133 T0 ; stabilize extruder temperature
G130 X127 Y127 Z40 A127 B127 ; default stepper Vrefs
G92 A0 ; zero extruder
G1 Z0.4 ; position nozzle
G1 E25 F300 ; purge nozzle
G1 X-140 Y-70 Z0.15 F1200 ; slow wipe
G1 X-135 Y-65 Z0.5 F1200 ; lift
G92 A0 ; zero extruder
M73 P1 ;@body (notify GPX body has started)
; **** end of start.gcode ****
; process Process1
; layer 1, Z = 0.200
M135 T0
G1 E-1.9000 F1200
; feature inner perimeter
; tool H0.200 W0.460
G1 Z0.500 F1200
G1 X-29.090 Y36.810 F9000
G1 Z0.200 F1200
G1 E1.9000 F1200
G1 X-32.909 Y36.810 E0.1461 F1800
G1 X-33.143 Y36.747 E0.0093
G1 X-33.247 Y36.643 E0.0057
G1 X-33.310 Y36.409 E0.0093
G1 X-33.310 Y30.309 E0.2333
G1 X-33.515 Y29.542 E0.0303
G1 X-34.143 Y28.915 E0.0339
G1 X-34.909 Y28.709 E0.0303
G1 X-41.922 Y28.709 E0.2682
G1 X-42.156 Y28.647 E0.0093
G1 X-42.260 Y28.542 E0.0057
G1 X-42.323 Y28.309 E0.0093
G1 X-42.323 Y19.391 E0.3411
G1 X-42.260 Y19.157 E0.0093
G1 X-42.156 Y19.052 E0.0057
G1 X-41.922 Y18.990 E0.0093
G1 X-34.909 Y18.990 E0.2682
G1 X-34.143 Y18.784 E0.0303
G1 X-33.515 Y18.157 E0.0339
G1 X-33.310 Y17.391 E0.0303
G1 X-33.310 Y3.591 E0.5278
G1 X-33.247 Y3.357 E0.0093
G1 X-33.143 Y3.253 E0.0057
G1 X-32.909 Y3.190 E0.0093
G1 X32.909 Y3.190 E2.5175
G1 X33.143 Y3.253 E0.0093
G1 X33.247 Y3.357 E0.0057
G1 X33.310 Y3.591 E0.0093
G1 X33.310 Y17.391 E0.5278
G1 X33.515 Y18.157 E0.0303
G1 X34.143 Y18.784 E0.0339
G1 X34.909 Y18.990 E0.0303
G1 X41.922 Y18.990 E0.2682
G1 X42.156 Y19.052 E0.0093
G1 X42.260 Y19.157 E0.0057
G1 X42.323 Y19.391 E0.0093
G1 X42.323 Y28.309 E0.3411
G1 X42.260 Y28.542 E0.0093
G1 X42.156 Y28.647 E0.0057
G1 X41.922 Y28.709 E0.0093
G1 X34.909 Y28.709 E0.2682
G1 X34.143 Y28.915 E0.0303
G1 X33.515 Y29.542 E0.0339
G1 X33.310 Y30.309 E0.0303
G1 X33.310 Y36.409 E0.2333
G1 X33.247 Y36.643 E0.0093
G1 X33.143 Y36.747 E0.0057
G1 X32.909 Y36.810 E0.0093
G1 X29.092 Y36.810 E0.1460
G1 X28.859 Y36.747 E0.0093
G1 X28.754 Y36.643 E0.0057
G1 X28.692 Y36.409 E0.0093
G1 X28.692 Y30.309 E0.2333
G1 X28.486 Y29.542 E0.0303
G1 X27.859 Y28.915 E0.0339
G1 X27.092 Y28.709 E0.0303
G1 X-27.090 Y28.709 E2.0724
G1 X-27.856 Y28.915 E0.0303
G1 X-28.483 Y29.542 E0.0339
G1 X-28.689 Y30.309 E0.0303
G1 X-28.689 Y36.409 E0.2333
G1 X-28.751 Y36.643 E0.0093
G1 X-28.856 Y36.747 E0.0057
G1 X-29.090 Y36.810 E0.0093
; feature outer perimeter
G1 X-29.029 Y37.270 F9000
G1 X-32.970 Y37.270 E0.1507 F1200
G1 X-33.381 Y37.160 E0.0163
G1 X-33.660 Y36.881 E0.0151
G1 X-33.770 Y36.470 E0.0163
G1 X-33.770 Y30.369 E0.2333
G1 X-33.928 Y29.780 E0.0233
G1 X-34.381 Y29.327 E0.0245
G1 X-34.970 Y29.169 E0.0233
G1 X-41.982 Y29.169 E0.2682
G1 X-42.394 Y29.059 E0.0163
G1 X-42.673 Y28.780 E0.0151
G1 X-42.783 Y28.369 E0.0163
G1 X-42.783 Y19.330 E0.3457
G1 X-42.673 Y18.919 E0.0163
G1 X-42.394 Y18.640 E0.0151
G1 X-41.982 Y18.530 E0.0163
G1 X-34.970 Y18.530 E0.2682
G1 X-34.381 Y18.372 E0.0233
G1 X-33.928 Y17.919 E0.0245
G1 X-33.770 Y17.330 E0.0233
G1 X-33.770 Y3.530 E0.5278
G1 X-33.660 Y3.119 E0.0163
G1 X-33.381 Y2.840 E0.0151
G1 X-32.970 Y2.730 E0.0163
G1 X32.970 Y2.730 E2.5221
G1 X33.381 Y2.840 E0.0163
G1 X33.660 Y3.119 E0.0151
G1 X33.770 Y3.530 E0.0163
G1 X33.770 Y17.330 E0.5278
G1 X33.928 Y17.919 E0.0233
G1 X34.381 Y18.372 E0.0245
G1 X34.970 Y18.530 E0.0233
G1 X41.982 Y18.530 E0.2682
G1 X42.394 Y18.640 E0.0163
G1 X42.673 Y18.919 E0.0151
G1 X42.783 Y19.330 E0.0163
G1 X42.783 Y28.369 E0.3457
G1 X42.673 Y28.780 E0.0163
G1 X42.394 Y29.059 E0.0151
G1 X41.982 Y29.169 E0.0163
G1 X34.970 Y29.169 E0.2682
G1 X34.381 Y29.327 E0.0233
G1 X33.928 Y29.780 E0.0245
G1 X33.770 Y30.369 E0.0233
G1 X33.770 Y36.470 E0.2333
G1 X33.660 Y36.881 E0.0163
G1 X33.381 Y37.160 E0.0151
G1 X32.970 Y37.270 E0.0163
G1 X29.032 Y37.270 E0.1506
G1 X28.621 Y37.160 E0.0163
G1 X28.342 Y36.881 E0.0151
G1 X28.232 Y36.470 E0.0163
G1 X28.232 Y30.369 E0.2333
G1 X28.074 Y29.780 E0.0233
G1 X27.621 Y29.327 E0.0245
G1 X27.032 Y29.169 E0.0233
G1 X-27.029 Y29.169 E2.0678
G1 X-27.618 Y29.327 E0.0233
G1 X-28.071 Y29.780 E0.0245
G1 X-28.229 Y30.369 E0.0233
G1 X-28.229 Y36.470 E0.2333
G1 X-28.339 Y36.881 E0.0163
G1 X-28.618 Y37.160 E0.0151
G1 X-29.029 Y37.270 E0.0163
G1 E-1.9000 F1200
; feature inner perimeter
G1 Z0.700 F1200
G1 X-33.291 Y26.800 F9000
G1 Z0.200 F1200
G1 E1.9000 F1200
G1 X-32.739 Y26.505 E0.0239 F1800
G1 X-32.255 Y26.108 E0.0239
G1 X-31.858 Y25.624 E0.0239
G1 X-31.562 Y25.072 E0.0239
G1 X-31.381 Y24.473 E0.0239
G1 X-31.319 Y23.850 E0.0239
G1 X-31.381 Y23.227 E0.0239
G1 X-31.562 Y22.628 E0.0239
G1 X-31.858 Y22.075 E0.0239
G1 X-32.255 Y21.592 E0.0239
G1 X-32.739 Y21.194 E0.0239
G1 X-33.291 Y20.899 E0.0239
G1 X-33.861 Y20.726 E0.0228
G1 X-34.509 Y20.656 E0.0249
G1 X-35.136 Y20.718 E0.0241
G1 X-35.735 Y20.899 E0.0239
G1 X-36.287 Y21.194 E0.0239
G1 X-36.771 Y21.592 E0.0239
G1 X-37.168 Y22.075 E0.0239
G1 X-37.463 Y22.628 E0.0239
G1 X-37.645 Y23.227 E0.0239
G1 X-37.706 Y23.850 E0.0239
G1 X-37.645 Y24.473 E0.0239
G1 X-37.463 Y25.072 E0.0239
G1 X-37.168 Y25.624 E0.0239
G1 X-36.771 Y26.108 E0.0239
G1 X-36.287 Y26.505 E0.0239
G1 X-35.735 Y26.800 E0.0239
G1 X-35.136 Y26.982 E0.0239
G1 X-34.513 Y27.043 E0.0239
G1 X-33.890 Y26.982 E0.0239
G1 X-33.291 Y26.800 E0.0239
; feature outer perimeter
G1 X-33.468 Y26.373 F9000
G1 X-32.995 Y26.120 E0.0205 F1200
G1 X-32.582 Y25.781 E0.0205
G1 X-32.242 Y25.367 E0.0205
G1 X-31.990 Y24.895 E0.0205
G1 X-31.834 Y24.382 E0.0205
G1 X-31.782 Y23.850 E0.0205
G1 X-31.834 Y23.317 E0.0205
G1 X-31.990 Y22.804 E0.0205
G1 X-32.242 Y22.332 E0.0205
G1 X-32.582 Y21.918 E0.0205
G1 X-32.995 Y21.579 E0.0205
G1 X-33.468 Y21.326 E0.0205
G1 X-33.954 Y21.179 E0.0194
G1 X-34.512 Y21.118 E0.0215
G1 X-35.046 Y21.171 E0.0205
G1 X-35.558 Y21.326 E0.0205
G1 X-36.030 Y21.579 E0.0205
G1 X-36.444 Y21.918 E0.0205
G1 X-36.784 Y22.332 E0.0205
G1 X-37.036 Y22.804 E0.0205
G1 X-37.191 Y23.317 E0.0205
G1 X-37.244 Y23.850 E0.0205
G1 X-37.191 Y24.382 E0.0205
G1 X-37.036 Y24.895 E0.0205
G1 X-36.784 Y25.367 E0.0205
G1 X-36.444 Y25.781 E0.0205
G1 X-36.030 Y26.120 E0.0205
G1 X-35.558 Y26.373 E0.0205
G1 X-35.046 Y26.528 E0.0205
G1 X-34.513 Y26.581 E0.0205
G1 X-33.980 Y26.528 E0.0205
G1 X-33.468 Y26.373 E0.0205
G1 E-1.9000 F1200
; feature inner perimeter
G1 Z0.700 F1200
G1 X-6.184 Y17.561 F9000
G1 Z0.200 F1200
G1 E1.9000 F1200
G1 X-5.565 Y18.719 E0.0502 F1800
G1 X-4.733 Y19.733 E0.0502
G1 X-3.719 Y20.565 E0.0502
G1 X-2.561 Y21.184 E0.0502
G1 X-1.306 Y21.565 E0.0502
G1 X0.000 Y21.693 E0.0502
G1 X1.306 Y21.565 E0.0502
G1 X2.561 Y21.184 E0.0502
G1 X3.719 Y20.565 E0.0502
G1 X4.733 Y19.733 E0.0502
G1 X5.565 Y18.719 E0.0502
G1 X6.184 Y17.561 E0.0502
G1 X6.565 Y16.306 E0.0502
G1 X6.693 Y15.000 E0.0502
G1 X6.565 Y13.694 E0.0502
G1 X6.184 Y12.439 E0.0502
G1 X5.565 Y11.281 E0.0502
G1 X4.733 Y10.267 E0.0502
G1 X3.719 Y9.435 E0.0502
G1 X2.561 Y8.816 E0.0502
G1 X1.306 Y8.435 E0.0502
G1 X0.000 Y8.307 E0.0502
G1 X-1.306 Y8.435 E0.0502
G1 X-2.561 Y8.816 E0.0502
G1 X-3.719 Y9.435 E0.0502
G1 X-4.733 Y10.267 E0.0502
G1 X-5.565 Y11.281 E0.0502
G1 X-6.184 Y12.439 E0.0502
G1 X-6.565 Y13.694 E0.0502
G1 X-6.693 Y15.000 E0.0502
G1 X-6.565 Y16.306 E0.0502
G1 X-6.184 Y17.561 E0.0502
; feature outer perimeter
G1 X-5.757 Y17.385 F9000
G1 X-5.181 Y18.462 E0.0467 F1200
G1 X-4.406 Y19.406 E0.0467
G1 X-3.462 Y20.181 E0.0467
G1 X-2.385 Y20.757 E0.0467
G1 X-1.216 Y21.111 E0.0467
G1 X0.000 Y21.231 E0.0467
G1 X1.216 Y21.111 E0.0467
G1 X2.385 Y20.757 E0.0467
G1 X3.462 Y20.181 E0.0467
G1 X4.406 Y19.406 E0.0467
G1 X5.181 Y18.462 E0.0467
G1 X5.757 Y17.385 E0.0467
G1 X6.111 Y16.216 E0.0467
G1 X6.231 Y15.000 E0.0467
G1 X6.111 Y13.784 E0.0467
G1 X5.757 Y12.615 E0.0467
G1 X5.181 Y11.538 E0.0467
G1 X4.406 Y10.594 E0.0467
G1 X3.462 Y9.819 E0.0467
G1 X2.385 Y9.243 E0.0467
G1 X1.216 Y8.889 E0.0467
G1 X0.000 Y8.769 E0.0467
G1 X-1.216 Y8.889 E0.0467
G1 X-2.385 Y9.243 E0.0467
G1 X-3.462 Y9.819 E0.0467
G1 X-4.406 Y10.594 E0.0467
G1 X-5.181 Y11.538 E0.0467
G1 X-5.757 Y12.615 E0.0467
G1 X-6.111 Y13.784 E0.0467
G1 X-6.231 Y15.000 E0.0467
G1 X-6.111 Y16.216 E0.0467
G1 X-5.757 Y17.385 E0.0467
G1 E-1.9000 F1200
; feature inner perimeter
G1 Z0.700 F1200
G1 X31.381 Y23.227 F9000
G1 Z0.200 F1200
G1 E1.9000 F1200
G1 X31.319 Y23.850 E0.0239 F1800
G1 X31.381 Y24.473 E0.0239
G1 X31.562 Y25.072 E0.0239
G1 X31.858 Y25.624 E0.0239
G1 X32.255 Y26.108 E0.0239
G1 X32.739 Y26.505 E0.0239
G1 X33.291 Y26.800 E0.0239
G1 X33.890 Y26.982 E0.0239
G1 X34.513 Y27.043 E0.0239
G1 X35.136 Y26.982 E0.0239
G1 X35.735 Y26.800 E0.0239
G1 X36.287 Y26.505 E0.0239
G1 X36.771 Y26.108 E0.0239
G1 X37.168 Y25.624 E0.0239
G1 X37.463 Y25.072 E0.0239
G1 X37.645 Y24.473 E0.0239
G1 X37.706 Y23.850 E0.0239
G1 X37.645 Y23.227 E0.0239
G1 X37.463 Y22.628 E0.0239
G1 X37.168 Y22.075 E0.0239
G1 X36.771 Y21.592 E0.0239
G1 X36.287 Y21.194 E0.0239
G1 X35.735 Y20.899 E0.0239
G1 X35.136 Y20.718 E0.0239
G1 X34.513 Y20.656 E0.0239
G1 X33.890 Y20.718 E0.0239
G1 X33.291 Y20.899 E0.0239
G1 X32.739 Y21.194 E0.0239
G1 X32.255 Y21.592 E0.0239
G1 X31.858 Y22.075 E0.0239
G1 X31.562 Y22.628 E0.0239
G1 X31.381 Y23.227 E0.0239
; feature outer perimeter
G1 X31.834 Y23.317 F9000
G1 X31.782 Y23.850 E0.0205 F1200
