; G-Code generated by Simplify3D(R) Version 4.1.2
; Apr 6, 2020 at 11:29:26 AM
; Settings Summary
;   processName,Process1
;   applyToModels,Explosion Prem Bracket,Explosion Prem Bracket(2),Explosion Prem Bracket(3),Explosion Prem Bracket(2)(2)
;   profileName,MakerBot Replicator 2 HBP (modified)
;   profileVersion,2020-03-12 10:48:50
;   baseProfile,MakerBot Replicator 2(2)
;   printMaterial,PLA
;   printQuality,Medium
;   printExtruders,
;   extruderName,Primary Extruder
;   extruderToolheadNumber,0
;   extruderDiameter,0.4
;   extruderAutoWidth,0
;   extruderWidth,0.4
;   extrusionMultiplier,1
;   extruderUseRetract,1
;   extruderRetractionDistance,1.9
;   extruderExtraRestartDistance,0
;   extruderRetractionZLift,0.5
;   extruderRetractionSpeed,1200
;   extruderUseCoasting,0
;   extruderCoastingDistance,0.2
;   extruderUseWipe,0
;   extruderWipeDistance,5
;   primaryExtruder,0
;   layerHeight,0.2
;   topSolidLayers,3
;   bottomSolidLayers,3
;   perimeterOutlines,2
;   printPerimetersInsideOut,1
;   startPointOption,3
;   startPointOriginX,0
;   startPointOriginY,150
;   sequentialIslands,0
;   spiralVaseMode,0
;   firstLayerHeightPercentage,100
;   firstLayerWidthPercentage,115
;   firstLayerUnderspeed,0.5
;   useRaft,0
;   raftExtruder,0
;   raftTopLayers,2
;   raftBaseLayers,1
;   raftOffset,1
;   raftSeparationDistance,0.14
;   raftTopInfill,90
;   aboveRaftSpeedMultiplier,0.3
;   useSkirt,0
;   skirtExtruder,0
;   skirtLayers,1
;   skirtOutlines,5
;   skirtOffset,0
;   usePrimePillar,0
;   primePillarExtruder,999
;   primePillarWidth,12
;   primePillarLocation,7
;   primePillarSpeedMultiplier,1
;   useOozeShield,0
;   oozeShieldExtruder,999
;   oozeShieldOffset,2
;   oozeShieldOutlines,1
;   oozeShieldSidewallShape,1
;   oozeShieldSidewallAngle,30
;   oozeShieldSpeedMultiplier,1
;   infillExtruder,0
;   internalInfillPattern,Rectilinear
;   externalInfillPattern,Rectilinear
;   infillPercentage,15
;   outlineOverlapPercentage,25
;   infillExtrusionWidthPercentage,100
;   minInfillLength,5
;   infillLayerInterval,1
;   internalInfillAngles,45,-45
;   overlapInternalInfillAngles,0
;   externalInfillAngles,45,-45
;   generateSupport,0
;   supportExtruder,0
;   supportInfillPercentage,5
;   supportExtraInflation,0.5
;   supportBaseLayers,0
;   denseSupportExtruder,0
;   denseSupportLayers,2
;   denseSupportInfillPercentage,90
;   supportLayerInterval,1
;   supportHorizontalPartOffset,0.3
;   supportUpperSeparationLayers,1
;   supportLowerSeparationLayers,1
;   supportType,1
;   supportGridSpacing,2
;   maxOverhangAngle,45
;   supportAngles,45,-45
;   temperatureName,Primary Extruder,Heated Build Platform
;   temperatureNumber,0,0
;   temperatureSetpointCount,1,1
;   temperatureSetpointLayers,1,1
;   temperatureSetpointTemperatures,230,60
;   temperatureStabilizeAtStartup,1,1
;   temperatureHeatedBed,0,1
;   fanLayers,1,2
;   fanSpeeds,0,100
;   blipFanToFullPower,1
;   adjustSpeedForCooling,1
;   minSpeedLayerTime,15
;   minCoolingSpeedSlowdown,20
;   increaseFanForCooling,1
;   minFanLayerTime,45
;   maxCoolingFanSpeed,100
;   increaseFanForBridging,1
;   bridgingFanSpeed,100
;   use5D,1
;   relativeEdistances,1
;   allowEaxisZeroing,0
;   independentExtruderAxes,1
;   includeM10123,0
;   stickySupport,1
;   applyToolheadOffsets,0
;   gcodeXoffset,0
;   gcodeYoffset,0
;   gcodeZoffset,0
;   overrideMachineDefinition,1
;   machineTypeOverride,0
;   strokeXoverride,280
;   strokeYoverride,150
;   strokeZoverride,150
;   originOffsetXoverride,140
;   originOffsetYoverride,75
;   originOffsetZoverride,0
;   homeXdirOverride,1
;   homeYdirOverride,1
;   homeZdirOverride,-1
;   flipXoverride,1
;   flipYoverride,-1
;   flipZoverride,1
;   toolheadOffsets,0,0|0,0|0,0|0,0|0,0|0,0
;   overrideFirmwareConfiguration,1
;   firmwareTypeOverride,MakerBot/Sailfish Firmware
;   GPXconfigOverride,r2h
;   baudRateOverride,115200
;   overridePrinterModels,1
;   printerModelsOverride,MakerBot_Replicator2.stl
;   startingGcode,; **** Replicator 2 start.gcode ****,M73 P0 ; enable build progress,G162 X Y F3000 ; home XY maximum,G161 Z F1200 ; home Z minimum,G92 Z-5 ; set Z to -5,G1 Z0 ; move Z to 0,G161 Z F100 ; home Z slowly,M132 X Y Z A B ; recall home offsets,G1 X-145 Y-75 Z30 F9000 ; move to wait position off table,G130 X20 Y20 Z20 A20 B20 ; lower stepper Vrefs while heating,M126 S[fan_speed_pwm],M140 S[bed0_temperature] T0,M134 T0 ; stabilize bed temperature,M104 S[extruder0_temperature] T0,M133 T0 ; stabilize extruder temperature,G130 X127 Y127 Z40 A127 B127 ; default stepper Vrefs,G92 A0 ; zero extruder,G1 Z0.4 ; position nozzle,G1 E25 F300 ; purge nozzle,G1 X-140 Y-70 Z0.15 F1200 ; slow wipe,G1 X-135 Y-65 Z0.5 F1200 ; lift,G92 A0 ; zero extruder,M73 P1 ;@body (notify GPX body has started),; **** end of start.gcode ****
;   layerChangeGcode,
;   retractionGcode,
;   toolChangeGcode,
;   endingGcode,; **** Replicator 2 end.gcode ****,M73 P100 ; end build progress,G1 Z155 F1000 ; send Z axis to bottom of machine,M104 S0 T0 ; cool down extruder,M140 S0 T0 ; cool down HBP,M127 ; stop blower fan,G162 X Y F3000 ; home XY maximum,M18 ; disable stepper,M0 ; stop codes,M72 P1 ; play Ta-Da song,; **** end of end.gcode ****
;   exportFileFormat,gcode
;   celebration,0
;   celebrationSong,Random Song
;   postProcessing,
;   defaultSpeed,4800
;   outlineUnderspeed,0.5
;   solidInfillUnderspeed,1
;   supportUnderspeed,1
;   rapidXYspeed,9000
;   rapidZspeed,1200
;   minBridgingArea,50
;   bridgingExtraInflation,0
;   bridgingExtrusionMultiplier,1
;   bridgingSpeedMultiplier,0.8
;   useFixedBridgingAngle,0
;   fixedBridgingAngle,0
;   applyBridgingToPerimeters,0
;   filamentDiameters,1.75|1.75|1.75|1.75|1.75|1.75
;   filamentPricesPerKg,46|46|46|46|46|46
;   filamentDensities,1.25|1.25|1.25|1.25|1.25|1.25
;   useMinPrintHeight,0
;   minPrintHeight,0
;   useMaxPrintHeight,0
;   maxPrintHeight,4.84
;   useDiaphragm,0
;   diaphragmLayerInterval,20
;   robustSlicing,1
;   mergeAllIntoSolid,0
;   onlyRetractWhenCrossingOutline,0
;   retractBetweenLayers,0
;   useRetractionMinTravel,1
;   retractionMinTravel,7
;   retractWhileWiping,1
;   onlyWipeOutlines,1
;   avoidCrossingOutline,0
;   maxMovementDetourFactor,3
;   toolChangeRetractionDistance,12
;   toolChangeExtraRestartDistance,-0.5
;   toolChangeRetractionSpeed,600
;   externalThinWallType,0
;   internalThinWallType,0
;   thinWallAllowedOverlapPercentage,10
;   singleExtrusionMinLength,1
;   singleExtrusionMinPrintingWidthPercentage,50
;   singleExtrusionMaxPrintingWidthPercentage,200
;   singleExtrusionEndpointExtension,0.2
;   horizontalSizeCompensation,0
G90
M83
; **** Replicator 2 start.gcode ****
M73 P0 ; enable build progress
G162 X Y F3000 ; home XY maximum
G161 Z F1200 ; home Z minimum
G92 Z-5 ; set Z to -5
G1 Z0 ; move Z to 0
G161 Z F100 ; home Z slowly
M132 X Y Z A B ; recall home offsets
G1 X-145 Y-75 Z30 F9000 ; move to wait position off table
G130 X20 Y20 Z20 A20 B20 ; lower stepper Vrefs while heating
M127
M140 S60 T0
M134 T0 ; stabilize bed temperature
M104 S230 T0
M133 T0 ; stabilize extruder temperature
G130 X127 Y127 Z40 A127 B127 ; default stepper Vrefs
G92 A0 ; zero extruder
G1 Z0.4 ; position nozzle
G1 E25 F300 ; purge nozzle
G1 X-140 Y-70 Z0.15 F1200 ; slow wipe
G1 X-135 Y-65 Z0.5 F1200 ; lift
G92 A0 ; zero extruder
M73 P1 ;@body (notify GPX body has started)
; **** end of start.gcode ****
; process Process1
; layer 1, Z = 0.200
M135 T0
G1 E-1.9000 F1200
; feature inner perimeter
; tool H0.200 W0.460
G1 Z0.500 F1200
G1 X-12.604 Y-3.190 F9000
G1 Z0.200 F1200
G1 E1.9000 F1200
G1 X-16.420 Y-3.190 E0.1460 F1800
G1 X-16.654 Y-3.253 E0.0093
G1 X-16.758 Y-3.357 E0.0057
G1 X-16.821 Y-3.591 E0.0093
G1 X-16.821 Y-9.691 E0.2333
G1 X-17.026 Y-10.458 E0.0303
G1 X-17.654 Y-11.085 E0.0339
G1 X-18.420 Y-11.291 E0.0303
G1 X-72.602 Y-11.291 E2.0724
G1 X-73.369 Y-11.085 E0.0303
G1 X-73.996 Y-10.458 E0.0339
G1 X-74.201 Y-9.691 E0.0303
G1 X-74.201 Y-3.591 E0.2333
G1 X-74.264 Y-3.357 E0.0093
G1 X-74.369 Y-3.253 E0.0057
G1 X-74.602 Y-3.190 E0.0093
G1 X-78.422 Y-3.190 E0.1461
G1 X-78.656 Y-3.253 E0.0093
G1 X-78.760 Y-3.357 E0.0057
G1 X-78.823 Y-3.591 E0.0093
G1 X-78.823 Y-9.691 E0.2333
G1 X-79.028 Y-10.458 E0.0303
G1 X-79.656 Y-11.085 E0.0339
G1 X-80.422 Y-11.291 E0.0303
G1 X-87.435 Y-11.291 E0.2682
G1 X-87.668 Y-11.353 E0.0093
G1 X-87.773 Y-11.458 E0.0057
G1 X-87.835 Y-11.691 E0.0093
G1 X-87.835 Y-20.609 E0.3411
G1 X-87.773 Y-20.843 E0.0093
G1 X-87.668 Y-20.948 E0.0057
G1 X-87.435 Y-21.010 E0.0093
G1 X-80.422 Y-21.010 E0.2682
G1 X-79.656 Y-21.216 E0.0303
G1 X-79.028 Y-21.843 E0.0339
G1 X-78.823 Y-22.609 E0.0303
G1 X-78.823 Y-36.409 E0.5278
G1 X-78.760 Y-36.643 E0.0093
G1 X-78.656 Y-36.747 E0.0057
G1 X-78.422 Y-36.810 E0.0093
G1 X-12.604 Y-36.810 E2.5175
G1 X-12.370 Y-36.747 E0.0093
G1 X-12.265 Y-36.643 E0.0057
G1 X-12.203 Y-36.409 E0.0093
G1 X-12.203 Y-22.609 E0.5278
G1 X-11.997 Y-21.843 E0.0303
G1 X-11.370 Y-21.216 E0.0339
G1 X-10.604 Y-21.010 E0.0303
G1 X-3.591 Y-21.010 E0.2682
G1 X-3.357 Y-20.948 E0.0093
G1 X-3.253 Y-20.843 E0.0057
G1 X-3.190 Y-20.609 E0.0093
G1 X-3.190 Y-11.691 E0.3411
G1 X-3.253 Y-11.458 E0.0093
G1 X-3.357 Y-11.353 E0.0057
G1 X-3.591 Y-11.291 E0.0093
G1 X-10.604 Y-11.291 E0.2682
G1 X-11.370 Y-11.085 E0.0303
G1 X-11.997 Y-10.458 E0.0339
G1 X-12.203 Y-9.691 E0.0303
G1 X-12.203 Y-3.591 E0.2333
G1 X-12.265 Y-3.357 E0.0093
G1 X-12.370 Y-3.253 E0.0057
G1 X-12.604 Y-3.190 E0.0093
; feature outer perimeter
G1 X-12.543 Y-2.730 F9000
G1 X-16.481 Y-2.730 E0.1506 F1200
G1 X-16.892 Y-2.840 E0.0163
G1 X-17.171 Y-3.119 E0.0151
G1 X-17.281 Y-3.530 E0.0163
G1 X-17.281 Y-9.631 E0.2333
G1 X-17.439 Y-10.220 E0.0233
G1 X-17.892 Y-10.673 E0.0245
G1 X-18.481 Y-10.831 E0.0233
G1 X-72.542 Y-10.831 E2.0678
G1 X-73.131 Y-10.673 E0.0233
G1 X-73.584 Y-10.220 E0.0245
G1 X-73.741 Y-9.631 E0.0233
G1 X-73.741 Y-3.530 E0.2333
G1 X-73.852 Y-3.119 E0.0163
G1 X-74.131 Y-2.840 E0.0151
G1 X-74.542 Y-2.730 E0.0163
G1 X-78.482 Y-2.730 E0.1507
G1 X-78.894 Y-2.840 E0.0163
G1 X-79.173 Y-3.119 E0.0151
G1 X-79.283 Y-3.530 E0.0163
G1 X-79.283 Y-9.631 E0.2333
G1 X-79.441 Y-10.220 E0.0233
G1 X-79.894 Y-10.673 E0.0245
G1 X-80.482 Y-10.831 E0.0233
G1 X-87.495 Y-10.831 E0.2682
G1 X-87.906 Y-10.941 E0.0163
G1 X-88.185 Y-11.220 E0.0151
G1 X-88.295 Y-11.631 E0.0163
G1 X-88.295 Y-20.670 E0.3457
G1 X-88.185 Y-21.081 E0.0163
G1 X-87.906 Y-21.360 E0.0151
G1 X-87.495 Y-21.470 E0.0163
G1 X-80.482 Y-21.470 E0.2682
G1 X-79.894 Y-21.628 E0.0233
G1 X-79.441 Y-22.081 E0.0245
G1 X-79.283 Y-22.670 E0.0233
G1 X-79.283 Y-36.470 E0.5278
G1 X-79.173 Y-36.881 E0.0163
G1 X-78.894 Y-37.160 E0.0151
G1 X-78.482 Y-37.270 E0.0163
G1 X-12.543 Y-37.270 E2.5221
G1 X-12.132 Y-37.160 E0.0163
G1 X-11.853 Y-36.881 E0.0151
G1 X-11.743 Y-36.470 E0.0163
G1 X-11.743 Y-22.670 E0.5278
G1 X-11.585 Y-22.081 E0.0233
G1 X-11.132 Y-21.628 E0.0245
G1 X-10.543 Y-21.470 E0.0233
G1 X-3.530 Y-21.470 E0.2682
G1 X-3.119 Y-21.360 E0.0163
G1 X-2.840 Y-21.081 E0.0151
G1 X-2.730 Y-20.670 E0.0163
G1 X-2.730 Y-11.631 E0.3457
G1 X-2.840 Y-11.220 E0.0163
G1 X-3.119 Y-10.941 E0.0151
G1 X-3.530 Y-10.831 E0.0163
G1 X-10.543 Y-10.831 E0.2682
G1 X-11.132 Y-10.673 E0.0233
G1 X-11.585 Y-10.220 E0.0245
G1 X-11.743 Y-9.631 E0.0233
G1 X-11.743 Y-3.530 E0.2333
G1 X-11.853 Y-3.119 E0.0163
G1 X-12.132 Y-2.840 E0.0151
G1 X-12.543 Y-2.730 E0.0163
G1 E-1.9000 F1200
; feature inner perimeter
G1 Z0.700 F1200
G1 X-11.623 Y-13.018 F9000
G1 Z0.200 F1200
G1 E1.9000 F1200
G1 X-11.000 Y-12.957 E0.0239 F1800
G1 X-10.377 Y-13.018 E0.0239
G1 X-9.778 Y-13.200 E0.0239
G1 X-9.226 Y-13.495 E0.0239
G1 X-8.742 Y-13.892 E0.0239
G1 X-8.345 Y-14.376 E0.0239
G1 X-8.050 Y-14.928 E0.0239
G1 X-7.868 Y-15.527 E0.0239
G1 X-7.807 Y-16.150 E0.0239
G1 X-7.868 Y-16.773 E0.0239
G1 X-8.050 Y-17.372 E0.0239
G1 X-8.345 Y-17.925 E0.0239
G1 X-8.742 Y-18.408 E0.0239
G1 X-9.226 Y-18.806 E0.0239
G1 X-9.778 Y-19.101 E0.0239
G1 X-10.377 Y-19.282 E0.0239
G1 X-11.000 Y-19.344 E0.0239
G1 X-11.623 Y-19.282 E0.0239
G1 X-12.222 Y-19.101 E0.0239
G1 X-12.774 Y-18.806 E0.0239
G1 X-13.258 Y-18.408 E0.0239
G1 X-13.655 Y-17.925 E0.0239
G1 X-13.950 Y-17.372 E0.0239
G1 X-14.132 Y-16.773 E0.0239
G1 X-14.193 Y-16.150 E0.0239
G1 X-14.132 Y-15.527 E0.0239
G1 X-13.950 Y-14.928 E0.0239
G1 X-13.655 Y-14.376 E0.0239
G1 X-13.258 Y-13.892 E0.0239
G1 X-12.774 Y-13.495 E0.0239
G1 X-12.222 Y-13.200 E0.0239
G1 X-11.623 Y-13.018 E0.0239
; feature outer perimeter
G1 X-11.533 Y-13.472 F9000
G1 X-11.000 Y-13.419 E0.0205 F1200
G1 X-10.467 Y-13.472 E0.0205
G1 X-9.955 Y-13.627 E0.0205
G1 X-9.483 Y-13.880 E0.0205
G1 X-9.069 Y-14.219 E0.0205
G1 X-8.729 Y-14.633 E0.0205
G1 X-8.477 Y-15.105 E0.0205
G1 X-8.321 Y-15.618 E0.0205
G1 X-8.269 Y-16.150 E0.0205
G1 X-8.321 Y-16.683 E0.0205
G1 X-8.477 Y-17.196 E0.0205
G1 X-8.729 Y-17.668 E0.0205
G1 X-9.069 Y-18.082 E0.0205
G1 X-9.483 Y-18.421 E0.0205
G1 X-9.955 Y-18.674 E0.0205
G1 X-10.467 Y-18.829 E0.0205
G1 X-11.000 Y-18.882 E0.0205
G1 X-11.533 Y-18.829 E0.0205
G1 X-12.045 Y-18.674 E0.0205
G1 X-12.517 Y-18.421 E0.0205
G1 X-12.931 Y-18.082 E0.0205
G1 X-13.271 Y-17.668 E0.0205
G1 X-13.523 Y-17.196 E0.0205
G1 X-13.679 Y-16.683 E0.0205
G1 X-13.731 Y-16.150 E0.0205
G1 X-13.679 Y-15.618 E0.0205
G1 X-13.523 Y-15.105 E0.0205
G1 X-13.271 Y-14.633 E0.0205
G1 X-12.931 Y-14.219 E0.0205
G1 X-12.517 Y-13.880 E0.0205
G1 X-12.045 Y-13.627 E0.0205
G1 X-11.533 Y-13.472 E0.0205
G1 E-1.9000 F1200
; feature inner perimeter
G1 Z0.700 F1200
G1 X-39.329 Y-22.439 F9000
G1 Z0.200 F1200
G1 E1.9000 F1200
G1 X-38.948 Y-23.694 E0.0502 F1800
G1 X-38.819 Y-25.000 E0.0502
G1 X-38.948 Y-26.306 E0.0502
G1 X-39.329 Y-27.561 E0.0502
G1 X-39.947 Y-28.719 E0.0502
G1 X-40.780 Y-29.733 E0.0502
G1 X-41.794 Y-30.565 E0.0502
G1 X-42.951 Y-31.184 E0.0502
G1 X-44.207 Y-31.565 E0.0502
G1 X-45.513 Y-31.693 E0.0502
G1 X-46.819 Y-31.565 E0.0502
G1 X-48.074 Y-31.184 E0.0502
G1 X-49.231 Y-30.565 E0.0502
G1 X-50.246 Y-29.733 E0.0502
G1 X-51.078 Y-28.719 E0.0502
G1 X-51.697 Y-27.561 E0.0502
G1 X-52.077 Y-26.306 E0.0502
G1 X-52.206 Y-25.000 E0.0502
G1 X-52.077 Y-23.694 E0.0502
G1 X-51.697 Y-22.439 E0.0502
G1 X-51.078 Y-21.281 E0.0502
G1 X-50.246 Y-20.267 E0.0502
G1 X-49.231 Y-19.435 E0.0502
G1 X-48.074 Y-18.816 E0.0502
G1 X-46.819 Y-18.435 E0.0502
G1 X-45.513 Y-18.307 E0.0502
G1 X-44.207 Y-18.435 E0.0502
G1 X-42.951 Y-18.816 E0.0502
G1 X-41.794 Y-19.435 E0.0502
G1 X-40.780 Y-20.267 E0.0502
G1 X-39.947 Y-21.281 E0.0502
G1 X-39.329 Y-22.439 E0.0502
; feature outer perimeter
G1 X-39.756 Y-22.615 F9000
G1 X-39.401 Y-23.784 E0.0467 F1200
G1 X-39.282 Y-25.000 E0.0467
G1 X-39.401 Y-26.216 E0.0467
G1 X-39.756 Y-27.385 E0.0467
G1 X-40.332 Y-28.462 E0.0467
G1 X-41.107 Y-29.406 E0.0467
G1 X-42.051 Y-30.181 E0.0467
G1 X-43.128 Y-30.757 E0.0467
G1 X-44.297 Y-31.111 E0.0467
G1 X-45.513 Y-31.231 E0.0467
G1 X-46.728 Y-31.111 E0.0467
G1 X-47.897 Y-30.757 E0.0467
G1 X-48.975 Y-30.181 E0.0467
G1 X-49.919 Y-29.406 E0.0467
G1 X-50.694 Y-28.462 E0.0467
G1 X-51.270 Y-27.385 E0.0467
G1 X-51.624 Y-26.216 E0.0467
G1 X-51.744 Y-25.000 E0.0467
G1 X-51.624 Y-23.784 E0.0467
G1 X-51.270 Y-22.615 E0.0467
G1 X-50.694 Y-21.538 E0.0467
G1 X-49.919 Y-20.594 E0.0467
G1 X-48.975 Y-19.819 E0.0467
G1 X-47.897 Y-19.243 E0.0467
G1 X-46.728 Y-18.889 E0.0467
G1 X-45.513 Y-18.769 E0.0467
G1 X-44.297 Y-18.889 E0.0467
G1 X-43.128 Y-19.243 E0.0467
G1 X-42.051 Y-19.819 E0.0467
G1 X-41.107 Y-20.594 E0.0467
G1 X-40.332 Y-21.538 E0.0467
G1 X-39.756 Y-22.615 E0.0467
G1 E-1.9000 F1200
; feature inner perimeter
G1 Z0.700 F1200
G1 X-76.894 Y-16.773 F9000
G1 Z0.200 F1200
G1 E1.9000 F1200
G1 X-77.075 Y-17.372 E0.0239 F1800
G1 X-77.370 Y-17.925 E0.0239
G1 X-77.767 Y-18.408 E0.0239
G1 X-78.251 Y-18.806 E0.0239
G1 X-78.803 Y-19.101 E0.0239
G1 X-79.374 Y-19.274 E0.0228
G1 X-80.022 Y-19.344 E0.0249
G1 X-80.648 Y-19.282 E0.0241
G1 X-81.248 Y-19.101 E0.0239
G1 X-81.800 Y-18.806 E0.0239
G1 X-82.284 Y-18.408 E0.0239
G1 X-82.681 Y-17.925 E0.0239
G1 X-82.976 Y-17.372 E0.0239
G1 X-83.157 Y-16.773 E0.0239
G1 X-83.219 Y-16.150 E0.0239
G1 X-83.157 Y-15.527 E0.0239
G1 X-82.976 Y-14.928 E0.0239
G1 X-82.681 Y-14.376 E0.0239
