; G-Code generated by Simplify3D(R) Version 4.1.2
; Apr 6, 2020 at 11:31:32 AM
; Settings Summary
;   processName,Process1
;   applyToModels,Explosion Pro,Explosion Pro(2)
;   profileName,MakerBot Replicator 2 HBP (modified)
;   profileVersion,2020-03-12 10:48:50
;   baseProfile,MakerBot Replicator 2(2)
;   printMaterial,PLA
;   printQuality,Medium
;   printExtruders,
;   extruderName,Primary Extruder
;   extruderToolheadNumber,0
;   extruderDiameter,0.4
;   extruderAutoWidth,0
;   extruderWidth,0.4
;   extrusionMultiplier,1
;   extruderUseRetract,1
;   extruderRetractionDistance,1.9
;   extruderExtraRestartDistance,0
;   extruderRetractionZLift,0.5
;   extruderRetractionSpeed,1200
;   extruderUseCoasting,0
;   extruderCoastingDistance,0.2
;   extruderUseWipe,0
;   extruderWipeDistance,5
;   primaryExtruder,0
;   layerHeight,0.2
;   topSolidLayers,3
;   bottomSolidLayers,3
;   perimeterOutlines,2
;   printPerimetersInsideOut,1
;   startPointOption,3
;   startPointOriginX,0
;   startPointOriginY,150
;   sequentialIslands,0
;   spiralVaseMode,0
;   firstLayerHeightPercentage,100
;   firstLayerWidthPercentage,115
;   firstLayerUnderspeed,0.5
;   useRaft,0
;   raftExtruder,0
;   raftTopLayers,2
;   raftBaseLayers,1
;   raftOffset,1
;   raftSeparationDistance,0.14
;   raftTopInfill,90
;   aboveRaftSpeedMultiplier,0.3
;   useSkirt,0
;   skirtExtruder,0
;   skirtLayers,1
;   skirtOutlines,5
;   skirtOffset,0
;   usePrimePillar,0
;   primePillarExtruder,999
;   primePillarWidth,12
;   primePillarLocation,7
;   primePillarSpeedMultiplier,1
;   useOozeShield,0
;   oozeShieldExtruder,999
;   oozeShieldOffset,2
;   oozeShieldOutlines,1
;   oozeShieldSidewallShape,1
;   oozeShieldSidewallAngle,30
;   oozeShieldSpeedMultiplier,1
;   infillExtruder,0
;   internalInfillPattern,Rectilinear
;   externalInfillPattern,Rectilinear
;   infillPercentage,15
;   outlineOverlapPercentage,25
;   infillExtrusionWidthPercentage,100
;   minInfillLength,5
;   infillLayerInterval,1
;   internalInfillAngles,45,-45
;   overlapInternalInfillAngles,0
;   externalInfillAngles,45,-45
;   generateSupport,0
;   supportExtruder,0
;   supportInfillPercentage,5
;   supportExtraInflation,0.5
;   supportBaseLayers,0
;   denseSupportExtruder,0
;   denseSupportLayers,2
;   denseSupportInfillPercentage,90
;   supportLayerInterval,1
;   supportHorizontalPartOffset,0.3
;   supportUpperSeparationLayers,1
;   supportLowerSeparationLayers,1
;   supportType,1
;   supportGridSpacing,2
;   maxOverhangAngle,45
;   supportAngles,45,-45
;   temperatureName,Primary Extruder,Heated Build Platform
;   temperatureNumber,0,0
;   temperatureSetpointCount,1,1
;   temperatureSetpointLayers,1,1
;   temperatureSetpointTemperatures,230,60
;   temperatureStabilizeAtStartup,1,1
;   temperatureHeatedBed,0,1
;   fanLayers,1,2
;   fanSpeeds,0,100
;   blipFanToFullPower,1
;   adjustSpeedForCooling,1
;   minSpeedLayerTime,15
;   minCoolingSpeedSlowdown,20
;   increaseFanForCooling,1
;   minFanLayerTime,45
;   maxCoolingFanSpeed,100
;   increaseFanForBridging,1
;   bridgingFanSpeed,100
;   use5D,1
;   relativeEdistances,1
;   allowEaxisZeroing,0
;   independentExtruderAxes,1
;   includeM10123,0
;   stickySupport,1
;   applyToolheadOffsets,0
;   gcodeXoffset,0
;   gcodeYoffset,0
;   gcodeZoffset,0
;   overrideMachineDefinition,1
;   machineTypeOverride,0
;   strokeXoverride,280
;   strokeYoverride,150
;   strokeZoverride,150
;   originOffsetXoverride,140
;   originOffsetYoverride,75
;   originOffsetZoverride,0
;   homeXdirOverride,1
;   homeYdirOverride,1
;   homeZdirOverride,-1
;   flipXoverride,1
;   flipYoverride,-1
;   flipZoverride,1
;   toolheadOffsets,0,0|0,0|0,0|0,0|0,0|0,0
;   overrideFirmwareConfiguration,1
;   firmwareTypeOverride,MakerBot/Sailfish Firmware
;   GPXconfigOverride,r2h
;   baudRateOverride,115200
;   overridePrinterModels,1
;   printerModelsOverride,MakerBot_Replicator2.stl
;   startingGcode,; **** Replicator 2 start.gcode ****,M73 P0 ; enable build progress,G162 X Y F3000 ; home XY maximum,G161 Z F1200 ; home Z minimum,G92 Z-5 ; set Z to -5,G1 Z0 ; move Z to 0,G161 Z F100 ; home Z slowly,M132 X Y Z A B ; recall home offsets,G1 X-145 Y-75 Z30 F9000 ; move to wait position off table,G130 X20 Y20 Z20 A20 B20 ; lower stepper Vrefs while heating,M126 S[fan_speed_pwm],M140 S[bed0_temperature] T0,M134 T0 ; stabilize bed temperature,M104 S[extruder0_temperature] T0,M133 T0 ; stabilize extruder temperature,G130 X127 Y127 Z40 A127 B127 ; default stepper Vrefs,G92 A0 ; zero extruder,G1 Z0.4 ; position nozzle,G1 E25 F300 ; purge nozzle,G1 X-140 Y-70 Z0.15 F1200 ; slow wipe,G1 X-135 Y-65 Z0.5 F1200 ; lift,G92 A0 ; zero extruder,M73 P1 ;@body (notify GPX body has started),; **** end of start.gcode ****
;   layerChangeGcode,
;   retractionGcode,
;   toolChangeGcode,
;   endingGcode,; **** Replicator 2 end.gcode ****,M73 P100 ; end build progress,G1 Z155 F1000 ; send Z axis to bottom of machine,M104 S0 T0 ; cool down extruder,M140 S0 T0 ; cool down HBP,M127 ; stop blower fan,G162 X Y F3000 ; home XY maximum,M18 ; disable stepper,M0 ; stop codes,M72 P1 ; play Ta-Da song,; **** end of end.gcode ****
;   exportFileFormat,gcode
;   celebration,0
;   celebrationSong,Random Song
;   postProcessing,
;   defaultSpeed,4800
;   outlineUnderspeed,0.5
;   solidInfillUnderspeed,1
;   supportUnderspeed,1
;   rapidXYspeed,9000
;   rapidZspeed,1200
;   minBridgingArea,50
;   bridgingExtraInflation,0
;   bridgingExtrusionMultiplier,1
;   bridgingSpeedMultiplier,0.8
;   useFixedBridgingAngle,0
;   fixedBridgingAngle,0
;   applyBridgingToPerimeters,0
;   filamentDiameters,1.75|1.75|1.75|1.75|1.75|1.75
;   filamentPricesPerKg,46|46|46|46|46|46
;   filamentDensities,1.25|1.25|1.25|1.25|1.25|1.25
;   useMinPrintHeight,0
;   minPrintHeight,0
;   useMaxPrintHeight,0
;   maxPrintHeight,4.84
;   useDiaphragm,0
;   diaphragmLayerInterval,20
;   robustSlicing,1
;   mergeAllIntoSolid,0
;   onlyRetractWhenCrossingOutline,0
;   retractBetweenLayers,0
;   useRetractionMinTravel,1
;   retractionMinTravel,7
;   retractWhileWiping,1
;   onlyWipeOutlines,1
;   avoidCrossingOutline,0
;   maxMovementDetourFactor,3
;   toolChangeRetractionDistance,12
;   toolChangeExtraRestartDistance,-0.5
;   toolChangeRetractionSpeed,600
;   externalThinWallType,0
;   internalThinWallType,0
;   thinWallAllowedOverlapPercentage,10
;   singleExtrusionMinLength,1
;   singleExtrusionMinPrintingWidthPercentage,50
;   singleExtrusionMaxPrintingWidthPercentage,200
;   singleExtrusionEndpointExtension,0.2
;   horizontalSizeCompensation,0
G90
M83
; **** Replicator 2 start.gcode ****
M73 P0 ; enable build progress
G162 X Y F3000 ; home XY maximum
G161 Z F1200 ; home Z minimum
G92 Z-5 ; set Z to -5
G1 Z0 ; move Z to 0
G161 Z F100 ; home Z slowly
M132 X Y Z A B ; recall home offsets
G1 X-145 Y-75 Z30 F9000 ; move to wait position off table
G130 X20 Y20 Z20 A20 B20 ; lower stepper Vrefs while heating
M127
M140 S60 T0
M134 T0 ; stabilize bed temperature
M104 S230 T0
M133 T0 ; stabilize extruder temperature
G130 X127 Y127 Z40 A127 B127 ; default stepper Vrefs
G92 A0 ; zero extruder
G1 Z0.4 ; position nozzle
G1 E25 F300 ; purge nozzle
G1 X-140 Y-70 Z0.15 F1200 ; slow wipe
G1 X-135 Y-65 Z0.5 F1200 ; lift
G92 A0 ; zero extruder
M73 P1 ;@body (notify GPX body has started)
; **** end of start.gcode ****
; process Process1
; layer 1, Z = 0.200
M135 T0
G1 E-1.9000 F1200
; feature inner perimeter
; tool H0.200 W0.460
G1 Z0.500 F1200
G1 X-18.403 Y15.020 F9000
G1 Z0.200 F1200
G1 E1.9000 F1200
G1 X-25.278 Y6.102 E0.4307 F1800
G1 X-29.929 Y11.257 E0.2656
G1 X-30.738 Y4.653 E0.2545
G1 X-40.564 Y9.035 E0.4115
G1 X-34.030 Y2.223 E0.3610
G1 X-39.014 Y0.882 E0.1974
G1 X-33.746 Y-1.727 E0.2249
G1 X-42.662 Y-4.705 E0.3596
G1 X-32.311 Y-6.200 E0.4000
G1 X-32.505 Y-12.363 E0.2358
G1 X-26.822 Y-8.209 E0.2692
G1 X-23.728 Y-11.015 E0.1597
G1 X-22.408 Y-9.028 E0.0913
G1 X-16.239 Y-12.844 E0.2775
G1 X-15.726 Y-9.880 E0.1150
G1 X-5.200 Y-14.996 E0.4476
G1 X-11.900 Y-7.212 E0.3928
G1 X-5.779 Y-4.628 E0.2541
G1 X-12.525 Y-2.597 E0.2695
G1 X-5.561 Y1.794 E0.3149
G1 X-15.310 Y1.998 E0.3730
G1 X-12.475 Y8.372 E0.2668
G1 X-18.508 Y5.882 E0.2496
G1 X-18.403 Y15.020 E0.3495
; feature outer perimeter
G1 X-17.928 Y16.390 F9000
G1 X-25.305 Y6.820 E0.4622 F1200
G1 X-30.264 Y12.313 E0.2830
G1 X-31.119 Y5.326 E0.2692
G1 X-42.523 Y10.412 E0.4776
G1 X-34.900 Y2.466 E0.4212
G1 X-40.309 Y1.010 E0.2143
G1 X-34.950 Y-1.644 E0.2287
G1 X-44.647 Y-4.883 E0.3911
G1 X-32.783 Y-6.596 E0.4585
G1 X-32.994 Y-13.290 E0.2562
G1 X-26.853 Y-8.802 E0.2909
G1 X-23.641 Y-11.715 E0.1659
G1 X-22.271 Y-9.653 E0.0947
G1 X-15.901 Y-13.593 E0.2865
G1 X-15.377 Y-10.561 E0.1177
G1 X-3.400 Y-16.383 E0.5094
G1 X-11.139 Y-7.390 E0.4538
G1 X-4.424 Y-4.555 E0.2788
G1 X-11.426 Y-2.447 E0.2797
G1 X-4.020 Y2.222 E0.3349
G1 X-14.609 Y2.443 E0.4051
G1 X-11.588 Y9.236 E0.2844
G1 X-18.040 Y6.573 E0.2670
G1 X-17.928 Y16.390 E0.3756
; feature solid layer
G1 X-19.517 Y13.009 F9000
G1 X-18.763 Y13.764 E0.0408 F2400
G1 X-18.770 Y13.106 E0.0252
G1 X-21.706 Y10.170 E0.1588
G1 E-1.9000 F1200
G1 Z0.700 F1200
G1 X-29.461 Y10.222 F9000
G1 Z0.200 F1200
G1 E1.9000 F1200
G1 X-29.743 Y9.940 E0.0153 F2400
G1 X-29.834 Y9.198 E0.0286
G1 X-29.152 Y9.880 E0.0369
G1 X-28.843 Y9.538 E0.0176
G1 X-29.925 Y8.457 E0.0585
G1 X-30.016 Y7.716 E0.0286
G1 X-28.535 Y9.196 E0.0801
G1 X-28.226 Y8.854 E0.0176
G1 X-30.106 Y6.974 E0.1017
G1 X-30.197 Y6.233 E0.0286
G1 X-27.918 Y8.512 E0.1233
G1 X-27.609 Y8.171 E0.0176
G1 X-30.288 Y5.492 E0.1449
G1 X-33.554 Y2.225 F9000
G1 X-31.268 Y4.511 E0.1236 F2400
G1 X-31.718 Y4.712 E0.0188
G1 X-33.873 Y2.557 E0.1165
G1 X-34.191 Y2.889 E0.0176
G1 X-32.168 Y4.913 E0.1094
G1 X-32.618 Y5.113 E0.0188
G1 X-34.510 Y3.221 E0.1023
G1 X-34.828 Y3.553 E0.0176
G1 X-33.068 Y5.314 E0.0952
G1 X-33.518 Y5.514 E0.0188
G1 X-35.147 Y3.886 E0.0881
G1 X-35.465 Y4.218 E0.0176
G1 X-33.968 Y5.715 E0.0810
G1 X-34.418 Y5.916 E0.0188
G1 X-35.784 Y4.550 E0.0739
G1 X-36.102 Y4.882 E0.0176
G1 X-34.868 Y6.116 E0.0668
G1 X-35.317 Y6.317 E0.0188
G1 X-36.421 Y5.214 E0.0597
G1 X-36.739 Y5.546 E0.0176
G1 X-35.767 Y6.518 E0.0526
G1 X-36.217 Y6.718 E0.0188
G1 X-37.058 Y5.878 E0.0455
G1 X-37.376 Y6.210 E0.0176
G1 X-36.667 Y6.919 E0.0384
G1 X-37.117 Y7.120 E0.0188
G1 X-37.695 Y6.542 E0.0313
G1 X-38.013 Y6.874 E0.0176
G1 X-37.567 Y7.320 E0.0241
G1 X-38.017 Y7.521 E0.0188
G1 X-38.332 Y7.206 E0.0170
G1 X-38.650 Y7.538 E0.0176
G1 X-38.467 Y7.722 E0.0099
G1 X-38.917 Y7.922 E0.0188
G1 X-38.969 Y7.870 E0.0028
G1 E-1.9000 F1200
G1 Z0.700 F1200
G1 X-37.431 Y0.951 F9000
G1 Z0.200 F1200
G1 E1.9000 F1200
G1 X-37.744 Y0.638 E0.0169 F2400
G1 X-37.309 Y0.422 E0.0186
G1 X-36.541 Y1.190 E0.0415
G1 X-35.651 Y1.430 E0.0353
G1 X-36.874 Y0.207 E0.0662
G1 X-36.439 Y-0.008 E0.0186
G1 X-34.761 Y1.669 E0.0908
G1 X-33.871 Y1.909 E0.0353
G1 X-36.003 Y-0.224 E0.1154
G1 X-35.568 Y-0.439 E0.0186
G1 X-30.818 Y4.311 E0.2569
G1 X-30.453 Y4.148 E0.0153
G1 X-30.379 Y4.750 E0.0232
G1 X-27.300 Y7.829 E0.1665
G1 X-26.992 Y7.487 E0.0176
G1 X-35.133 Y-0.655 E0.4404
G1 X-34.698 Y-0.870 E0.0186
G1 X-26.683 Y7.145 E0.4335
G1 X-26.375 Y6.803 E0.0176
G1 X-34.263 Y-1.086 E0.4267
G1 X-33.828 Y-1.301 E0.0186
G1 X-26.066 Y6.461 E0.4199
G1 X-25.757 Y6.119 E0.0176
G1 X-33.393 Y-1.516 E0.4130
G1 E-1.9000 F1200
G1 Z0.700 F1200
G1 X-41.023 Y-4.593 F9000
G1 Z0.200 F1200
G1 E1.9000 F1200
G1 X-40.915 Y-4.485 E0.0058 F2400
G1 X-39.938 Y-4.159 E0.0394
G1 X-40.455 Y-4.675 E0.0279
G1 X-39.886 Y-4.757 E0.0220
G1 X-38.962 Y-3.832 E0.0500
G1 X-37.985 Y-3.506 E0.0394
G1 X-39.318 Y-4.839 E0.0721
G1 X-38.749 Y-4.921 E0.0220
G1 X-37.008 Y-3.180 E0.0942
G1 X-36.031 Y-2.854 E0.0394
G1 X-38.181 Y-5.003 E0.1163
G1 X-37.612 Y-5.085 E0.0220
G1 X-35.054 Y-2.527 E0.1384
G1 X-34.078 Y-2.201 E0.0394
G1 X-37.044 Y-5.168 E0.1605
G1 X-36.475 Y-5.250 E0.0220
G1 X-33.101 Y-1.875 E0.1825
G1 X-32.843 Y-1.789 E0.0104
G1 X-32.958 Y-1.732 E0.0049
G1 X-25.449 Y5.777 E0.4062
G1 X-25.257 Y5.564 E0.0110
G1 X-23.895 Y7.331 E0.0853
G1 X-18.778 Y12.448 E0.2768
G1 X-18.785 Y11.790 E0.0252
G1 X-35.907 Y-5.332 E0.9261
G1 X-35.339 Y-5.414 E0.0220
G1 X-18.793 Y11.132 E0.8950
G1 X-18.801 Y10.474 E0.0252
G1 X-34.770 Y-5.496 E0.8638
G1 X-34.202 Y-5.578 E0.0220
G1 X-18.808 Y9.816 E0.8327
G1 X-18.816 Y9.158 E0.0252
G1 X-33.633 Y-5.660 E0.8015
G1 X-33.065 Y-5.742 E0.0220
G1 X-18.823 Y8.499 E0.7704
G1 X-18.831 Y7.841 E0.0252
G1 X-32.496 Y-5.824 E0.7392
G1 X-31.956 Y-5.902 E0.0209
G1 X-31.957 Y-5.936 E0.0013
G1 X-18.838 Y7.183 E0.7096
G1 X-18.846 Y6.525 E0.0252
G1 X-31.978 Y-6.607 E0.7104
G1 X-31.999 Y-7.279 E0.0257
G1 X-18.853 Y5.867 E0.7111
G1 X-18.859 Y5.364 E0.0193
G1 X-18.599 Y5.471 E0.0108
G1 X-32.021 Y-7.951 E0.7260
G1 X-32.042 Y-8.622 E0.0257
G1 X-17.491 Y5.928 E0.7871
G1 X-16.383 Y6.386 E0.0458
G1 X-32.063 Y-9.294 E0.8482
G1 X-32.084 Y-9.966 E0.0257
G1 X-15.275 Y6.843 E0.9092
G1 X-14.168 Y7.300 E0.0458
G1 X-32.105 Y-10.638 E0.9703
G1 X-32.126 Y-11.309 E0.0257
G1 X-13.180 Y7.638 E1.0249
G1 X-13.701 Y6.466 E0.0490
G1 X-31.008 Y-10.842 E0.9362
G1 X-28.591 Y-9.075 E0.1145
G1 X-14.222 Y5.294 E0.7773
G1 X-14.743 Y4.123 E0.0490
G1 X-26.710 Y-7.845 E0.6473
G1 X-26.369 Y-8.154 E0.0176
G1 X-15.264 Y2.951 E0.6007
G1 X-15.785 Y1.779 E0.0490
G1 X-26.028 Y-8.464 E0.5541
G1 X-25.687 Y-8.773 E0.0176
G1 X-15.262 Y1.652 E0.5639
G1 X-14.625 Y1.638 E0.0244
G1 X-25.346 Y-9.082 E0.5799
G1 X-25.005 Y-9.392 E0.0176
G1 X-13.988 Y1.625 E0.5959
G1 X-13.351 Y1.612 E0.0244
G1 X-24.663 Y-9.701 E0.6119
G1 X-23.086 Y-9.424 F9000
G1 X-23.981 Y-10.320 E0.0484 F2400
G1 X-24.322 Y-10.010 E0.0176
G1 X-12.713 Y1.599 E0.6280
G1 X-12.076 Y1.585 E0.0244
G1 X-22.331 Y-8.670 E0.5547
G1 X-21.929 Y-8.918 E0.0181
G1 X-11.439 Y1.572 E0.5674
G1 X-10.802 Y1.559 E0.0244
G1 X-21.527 Y-9.167 E0.5802
G1 X-21.125 Y-9.416 E0.0181
G1 X-10.164 Y1.545 E0.5929
G1 X-9.527 Y1.532 E0.0244
G1 X-20.723 Y-9.664 E0.6056
G1 X-20.321 Y-9.913 E0.0181
G1 X-13.171 Y-2.762 E0.3868
G1 X-12.671 Y-2.913 E0.0200
G1 X-19.919 Y-10.161 E0.3921
G1 X-19.518 Y-10.410 E0.0181
G1 X-12.171 Y-3.063 E0.3974
G1 X-11.671 Y-3.214 E0.0200
G1 X-19.116 Y-10.659 E0.4027
G1 X-18.714 Y-10.907 E0.0181
G1 X-11.171 Y-3.365 E0.4080
G1 X-10.671 Y-3.515 E0.0200
G1 X-18.312 Y-11.156 E0.4133
G1 X-16.419 Y-11.866 F9000
G1 X-16.704 Y-12.150 E0.0154 F2400
G1 X-17.106 Y-11.902 E0.0181
G1 X-16.283 Y-11.079 E0.0445
G1 X-16.147 Y-10.293 E0.0305
G1 X-17.508 Y-11.653 E0.0736
G1 X-17.910 Y-11.404 E0.0181
G1 X-16.011 Y-9.506 E0.1027
G1 X-15.988 Y-9.369 E0.0053
G1 X-15.912 Y-9.406 E0.0032
G1 X-10.171 Y-3.666 E0.3105
G1 X-9.671 Y-3.816 E0.0200
G1 X-15.474 Y-9.619 E0.3139
G1 X-15.036 Y-9.832 E0.0186
G1 X-12.383 Y-7.179 E0.1435
G1 X-12.082 Y-7.528 E0.0176
G1 X-14.598 Y-10.045 E0.1361
G1 X-14.161 Y-10.257 E0.0186
G1 X-11.781 Y-7.878 E0.1287
G1 X-11.480 Y-8.228 E0.0176
G1 X-13.723 Y-10.470 E0.1213
G1 X-13.285 Y-10.683 E0.0186
G1 X-11.179 Y-8.577 E0.1139
G1 X-10.879 Y-8.927 E0.0176
G1 X-12.847 Y-10.896 E0.1065
G1 X-12.410 Y-11.108 E0.0186
G1 X-10.578 Y-9.277 E0.0991
G1 X-10.277 Y-9.626 E0.0176
G1 X-11.972 Y-11.321 E0.0917
G1 X-11.534 Y-11.534 E0.0186
G1 X-9.976 Y-9.976 E0.0843
G1 X-9.675 Y-10.325 E0.0176
G1 X-11.096 Y-11.747 E0.0769
G1 X-10.658 Y-11.960 E0.0186
G1 X-9.374 Y-10.675 E0.0695
G1 X-9.073 Y-11.025 E0.0176
G1 X-10.221 Y-12.172 E0.0621
G1 X-9.783 Y-12.385 E0.0186
G1 X-8.772 Y-11.374 E0.0547
G1 X-8.471 Y-11.724 E0.0176
G1 X-9.345 Y-12.598 E0.0473
G1 X-8.907 Y-12.811 E0.0186
G1 X-8.170 Y-12.074 E0.0399
G1 X-7.869 Y-12.423 E0.0176
G1 X-8.470 Y-13.023 E0.0325
G1 X-8.032 Y-13.236 E0.0186
G1 X-7.569 Y-12.773 E0.0251
G1 X-7.268 Y-13.123 E0.0176
G1 X-7.594 Y-13.449 E0.0177
G1 X-7.156 Y-13.662 E0.0186
G1 X-6.967 Y-13.472 E0.0103
G1 X-6.666 Y-13.822 E0.0176
G1 X-6.719 Y-13.875 E0.0029
G1 E-1.9000 F1200
G1 Z0.700 F1200
G1 X-7.642 Y-5.040 F9000
G1 Z0.200 F1200
G1 E1.9000 F1200
G1 X-7.171 Y-4.569 E0.0255 F2400
G1 X-7.671 Y-4.418 E0.0200
G1 X-8.768 Y-5.515 E0.0593
G1 X-9.894 Y-5.990 E0.0467
G1 X-8.171 Y-4.268 E0.0932
G1 X-8.671 Y-4.117 E0.0200
G1 X-11.019 Y-6.466 E0.1270
G1 X-12.145 Y-6.941 E0.0467
G1 X-9.171 Y-3.967 E0.1609
G1 X-12.721 Y-2.312 F9000
