; G-Code generated by Simplify3D(R) Version 4.1.2
; Apr 6, 2020 at 11:29:54 AM
; Settings Summary
;   processName,Process1
;   applyToModels,Explosion Pro Bracket,Explosion Pro Bracket(2)
;   profileName,MakerBot Replicator 2 HBP (modified)
;   profileVersion,2020-03-12 10:48:50
;   baseProfile,MakerBot Replicator 2(2)
;   printMaterial,PLA
;   printQuality,Medium
;   printExtruders,
;   extruderName,Primary Extruder
;   extruderToolheadNumber,0
;   extruderDiameter,0.4
;   extruderAutoWidth,0
;   extruderWidth,0.4
;   extrusionMultiplier,1
;   extruderUseRetract,1
;   extruderRetractionDistance,1.9
;   extruderExtraRestartDistance,0
;   extruderRetractionZLift,0.5
;   extruderRetractionSpeed,1200
;   extruderUseCoasting,0
;   extruderCoastingDistance,0.2
;   extruderUseWipe,0
;   extruderWipeDistance,5
;   primaryExtruder,0
;   layerHeight,0.2
;   topSolidLayers,3
;   bottomSolidLayers,3
;   perimeterOutlines,2
;   printPerimetersInsideOut,1
;   startPointOption,3
;   startPointOriginX,0
;   startPointOriginY,150
;   sequentialIslands,0
;   spiralVaseMode,0
;   firstLayerHeightPercentage,100
;   firstLayerWidthPercentage,115
;   firstLayerUnderspeed,0.5
;   useRaft,0
;   raftExtruder,0
;   raftTopLayers,2
;   raftBaseLayers,1
;   raftOffset,1
;   raftSeparationDistance,0.14
;   raftTopInfill,90
;   aboveRaftSpeedMultiplier,0.3
;   useSkirt,0
;   skirtExtruder,0
;   skirtLayers,1
;   skirtOutlines,5
;   skirtOffset,0
;   usePrimePillar,0
;   primePillarExtruder,999
;   primePillarWidth,12
;   primePillarLocation,7
;   primePillarSpeedMultiplier,1
;   useOozeShield,0
;   oozeShieldExtruder,999
;   oozeShieldOffset,2
;   oozeShieldOutlines,1
;   oozeShieldSidewallShape,1
;   oozeShieldSidewallAngle,30
;   oozeShieldSpeedMultiplier,1
;   infillExtruder,0
;   internalInfillPattern,Rectilinear
;   externalInfillPattern,Rectilinear
;   infillPercentage,15
;   outlineOverlapPercentage,25
;   infillExtrusionWidthPercentage,100
;   minInfillLength,5
;   infillLayerInterval,1
;   internalInfillAngles,45,-45
;   overlapInternalInfillAngles,0
;   externalInfillAngles,45,-45
;   generateSupport,0
;   supportExtruder,0
;   supportInfillPercentage,5
;   supportExtraInflation,0.5
;   supportBaseLayers,0
;   denseSupportExtruder,0
;   denseSupportLayers,2
;   denseSupportInfillPercentage,90
;   supportLayerInterval,1
;   supportHorizontalPartOffset,0.3
;   supportUpperSeparationLayers,1
;   supportLowerSeparationLayers,1
;   supportType,1
;   supportGridSpacing,2
;   maxOverhangAngle,45
;   supportAngles,45,-45
;   temperatureName,Primary Extruder,Heated Build Platform
;   temperatureNumber,0,0
;   temperatureSetpointCount,1,1
;   temperatureSetpointLayers,1,1
;   temperatureSetpointTemperatures,230,60
;   temperatureStabilizeAtStartup,1,1
;   temperatureHeatedBed,0,1
;   fanLayers,1,2
;   fanSpeeds,0,100
;   blipFanToFullPower,1
;   adjustSpeedForCooling,1
;   minSpeedLayerTime,15
;   minCoolingSpeedSlowdown,20
;   increaseFanForCooling,1
;   minFanLayerTime,45
;   maxCoolingFanSpeed,100
;   increaseFanForBridging,1
;   bridgingFanSpeed,100
;   use5D,1
;   relativeEdistances,1
;   allowEaxisZeroing,0
;   independentExtruderAxes,1
;   includeM10123,0
;   stickySupport,1
;   applyToolheadOffsets,0
;   gcodeXoffset,0
;   gcodeYoffset,0
;   gcodeZoffset,0
;   overrideMachineDefinition,1
;   machineTypeOverride,0
;   strokeXoverride,280
;   strokeYoverride,150
;   strokeZoverride,150
;   originOffsetXoverride,140
;   originOffsetYoverride,75
;   originOffsetZoverride,0
;   homeXdirOverride,1
;   homeYdirOverride,1
;   homeZdirOverride,-1
;   flipXoverride,1
;   flipYoverride,-1
;   flipZoverride,1
;   toolheadOffsets,0,0|0,0|0,0|0,0|0,0|0,0
;   overrideFirmwareConfiguration,1
;   firmwareTypeOverride,MakerBot/Sailfish Firmware
;   GPXconfigOverride,r2h
;   baudRateOverride,115200
;   overridePrinterModels,1
;   printerModelsOverride,MakerBot_Replicator2.stl
;   startingGcode,; **** Replicator 2 start.gcode ****,M73 P0 ; enable build progress,G162 X Y F3000 ; home XY maximum,G161 Z F1200 ; home Z minimum,G92 Z-5 ; set Z to -5,G1 Z0 ; move Z to 0,G161 Z F100 ; home Z slowly,M132 X Y Z A B ; recall home offsets,G1 X-145 Y-75 Z30 F9000 ; move to wait position off table,G130 X20 Y20 Z20 A20 B20 ; lower stepper Vrefs while heating,M126 S[fan_speed_pwm],M140 S[bed0_temperature] T0,M134 T0 ; stabilize bed temperature,M104 S[extruder0_temperature] T0,M133 T0 ; stabilize extruder temperature,G130 X127 Y127 Z40 A127 B127 ; default stepper Vrefs,G92 A0 ; zero extruder,G1 Z0.4 ; position nozzle,G1 E25 F300 ; purge nozzle,G1 X-140 Y-70 Z0.15 F1200 ; slow wipe,G1 X-135 Y-65 Z0.5 F1200 ; lift,G92 A0 ; zero extruder,M73 P1 ;@body (notify GPX body has started),; **** end of start.gcode ****
;   layerChangeGcode,
;   retractionGcode,
;   toolChangeGcode,
;   endingGcode,; **** Replicator 2 end.gcode ****,M73 P100 ; end build progress,G1 Z155 F1000 ; send Z axis to bottom of machine,M104 S0 T0 ; cool down extruder,M140 S0 T0 ; cool down HBP,M127 ; stop blower fan,G162 X Y F3000 ; home XY maximum,M18 ; disable stepper,M0 ; stop codes,M72 P1 ; play Ta-Da song,; **** end of end.gcode ****
;   exportFileFormat,gcode
;   celebration,0
;   celebrationSong,Random Song
;   postProcessing,
;   defaultSpeed,4800
;   outlineUnderspeed,0.5
;   solidInfillUnderspeed,1
;   supportUnderspeed,1
;   rapidXYspeed,9000
;   rapidZspeed,1200
;   minBridgingArea,50
;   bridgingExtraInflation,0
;   bridgingExtrusionMultiplier,1
;   bridgingSpeedMultiplier,0.8
;   useFixedBridgingAngle,0
;   fixedBridgingAngle,0
;   applyBridgingToPerimeters,0
;   filamentDiameters,1.75|1.75|1.75|1.75|1.75|1.75
;   filamentPricesPerKg,46|46|46|46|46|46
;   filamentDensities,1.25|1.25|1.25|1.25|1.25|1.25
;   useMinPrintHeight,0
;   minPrintHeight,0
;   useMaxPrintHeight,0
;   maxPrintHeight,4.84
;   useDiaphragm,0
;   diaphragmLayerInterval,20
;   robustSlicing,1
;   mergeAllIntoSolid,0
;   onlyRetractWhenCrossingOutline,0
;   retractBetweenLayers,0
;   useRetractionMinTravel,1
;   retractionMinTravel,7
;   retractWhileWiping,1
;   onlyWipeOutlines,1
;   avoidCrossingOutline,0
;   maxMovementDetourFactor,3
;   toolChangeRetractionDistance,12
;   toolChangeExtraRestartDistance,-0.5
;   toolChangeRetractionSpeed,600
;   externalThinWallType,0
;   internalThinWallType,0
;   thinWallAllowedOverlapPercentage,10
;   singleExtrusionMinLength,1
;   singleExtrusionMinPrintingWidthPercentage,50
;   singleExtrusionMaxPrintingWidthPercentage,200
;   singleExtrusionEndpointExtension,0.2
;   horizontalSizeCompensation,0
G90
M83
; **** Replicator 2 start.gcode ****
M73 P0 ; enable build progress
G162 X Y F3000 ; home XY maximum
G161 Z F1200 ; home Z minimum
G92 Z-5 ; set Z to -5
G1 Z0 ; move Z to 0
G161 Z F100 ; home Z slowly
M132 X Y Z A B ; recall home offsets
G1 X-145 Y-75 Z30 F9000 ; move to wait position off table
G130 X20 Y20 Z20 A20 B20 ; lower stepper Vrefs while heating
M127
M140 S60 T0
M134 T0 ; stabilize bed temperature
M104 S230 T0
M133 T0 ; stabilize extruder temperature
G130 X127 Y127 Z40 A127 B127 ; default stepper Vrefs
G92 A0 ; zero extruder
G1 Z0.4 ; position nozzle
G1 E25 F300 ; purge nozzle
G1 X-140 Y-70 Z0.15 F1200 ; slow wipe
G1 X-135 Y-65 Z0.5 F1200 ; lift
G92 A0 ; zero extruder
M73 P1 ;@body (notify GPX body has started)
; **** end of start.gcode ****
; process Process1
; layer 1, Z = 0.200
M135 T0
G1 E-1.9000 F1200
; feature inner perimeter
; tool H0.200 W0.460
G1 Z0.500 F1200
G1 X-4.919 Y17.060 F9000
G1 Z0.200 F1200
G1 E1.9000 F1200
G1 X-47.081 Y17.060 E1.6127 F1800
G1 X-48.034 Y16.867 E0.0372
G1 X-48.604 Y16.437 E0.0273
G1 X-48.810 Y15.856 E0.0236
G1 X-48.810 Y-15.856 E1.2130
G1 X-48.604 Y-16.437 E0.0236
G1 X-48.034 Y-16.867 E0.0273
G1 X-47.081 Y-17.060 E0.0372
G1 X-4.919 Y-17.060 E1.6127
G1 X-3.966 Y-16.867 E0.0372
G1 X-3.396 Y-16.437 E0.0273
G1 X-3.190 Y-15.856 E0.0236
G1 X-3.190 Y15.856 E1.2130
G1 X-3.396 Y16.437 E0.0236
G1 X-3.966 Y16.867 E0.0273
G1 X-4.919 Y17.060 E0.0372
; feature outer perimeter
G1 X-4.873 Y17.520 F9000
G1 X-47.127 Y17.520 E1.6162 F1200
G1 X-48.228 Y17.297 E0.0430
G1 X-48.991 Y16.721 E0.0366
G1 X-49.270 Y15.935 E0.0319
G1 X-49.270 Y-15.935 E1.2190
G1 X-48.991 Y-16.721 E0.0319
G1 X-48.228 Y-17.297 E0.0366
G1 X-47.127 Y-17.520 E0.0430
G1 X-4.873 Y-17.520 E1.6162
G1 X-3.772 Y-17.297 E0.0430
G1 X-3.009 Y-16.721 E0.0366
G1 X-2.730 Y-15.935 E0.0319
G1 X-2.730 Y15.935 E1.2190
G1 X-3.009 Y16.721 E0.0319
G1 X-3.756 Y17.285 E0.0358
G1 X-3.772 Y17.297 E0.0007
G1 X-4.873 Y17.520 E0.0430
; feature inner perimeter
G1 X-9.345 Y14.524 F9000
G1 X-9.050 Y13.972 E0.0239 F1800
G1 X-8.868 Y13.373 E0.0239
G1 X-8.807 Y12.750 E0.0239
G1 X-8.868 Y12.127 E0.0239
G1 X-9.050 Y11.528 E0.0239
G1 X-9.345 Y10.976 E0.0239
G1 X-9.742 Y10.492 E0.0239
G1 X-10.226 Y10.095 E0.0239
G1 X-10.778 Y9.800 E0.0239
G1 X-11.377 Y9.618 E0.0239
G1 X-12.000 Y9.557 E0.0239
G1 X-12.623 Y9.618 E0.0239
G1 X-13.222 Y9.800 E0.0239
G1 X-13.774 Y10.095 E0.0239
G1 X-14.258 Y10.492 E0.0239
G1 X-14.655 Y10.976 E0.0239
G1 X-14.950 Y11.528 E0.0239
G1 X-15.132 Y12.127 E0.0239
G1 X-15.193 Y12.750 E0.0239
G1 X-15.132 Y13.373 E0.0239
G1 X-14.950 Y13.972 E0.0239
G1 X-14.655 Y14.524 E0.0239
G1 X-14.258 Y15.008 E0.0239
G1 X-13.774 Y15.405 E0.0239
G1 X-13.222 Y15.700 E0.0239
G1 X-12.623 Y15.882 E0.0239
G1 X-12.000 Y15.943 E0.0239
G1 X-11.377 Y15.882 E0.0239
G1 X-10.778 Y15.700 E0.0239
G1 X-10.226 Y15.405 E0.0239
G1 X-9.742 Y15.008 E0.0239
G1 X-9.345 Y14.524 E0.0239
; feature outer perimeter
G1 X-9.729 Y14.267 F9000
G1 X-9.477 Y13.795 E0.0205 F1200
G1 X-9.321 Y13.283 E0.0205
G1 X-9.269 Y12.750 E0.0205
G1 X-9.321 Y12.217 E0.0205
G1 X-9.477 Y11.705 E0.0205
G1 X-9.729 Y11.233 E0.0205
G1 X-10.069 Y10.819 E0.0205
G1 X-10.483 Y10.479 E0.0205
G1 X-10.955 Y10.227 E0.0205
G1 X-11.467 Y10.071 E0.0205
G1 X-12.000 Y10.019 E0.0205
G1 X-12.533 Y10.071 E0.0205
G1 X-13.045 Y10.227 E0.0205
G1 X-13.517 Y10.479 E0.0205
G1 X-13.931 Y10.819 E0.0205
G1 X-14.271 Y11.233 E0.0205
G1 X-14.523 Y11.705 E0.0205
G1 X-14.679 Y12.217 E0.0205
G1 X-14.731 Y12.750 E0.0205
G1 X-14.679 Y13.283 E0.0205
G1 X-14.523 Y13.795 E0.0205
G1 X-14.271 Y14.267 E0.0205
G1 X-13.931 Y14.681 E0.0205
G1 X-13.517 Y15.021 E0.0205
G1 X-13.045 Y15.273 E0.0205
G1 X-12.533 Y15.429 E0.0205
G1 X-12.000 Y15.481 E0.0205
G1 X-11.467 Y15.429 E0.0205
G1 X-10.955 Y15.273 E0.0205
G1 X-10.483 Y15.021 E0.0205
G1 X-10.069 Y14.681 E0.0205
G1 X-9.729 Y14.267 E0.0205
G1 E-1.9000 F1200
; feature inner perimeter
G1 Z0.700 F1200
G1 X-19.853 Y6.147 F9000
G1 Z0.200 F1200
G1 E1.9000 F1200
G1 X-18.772 Y4.830 E0.0652 F1800
G1 X-17.968 Y3.327 E0.0652
G1 X-17.474 Y1.696 E0.0652
G1 X-17.307 Y0.000 E0.0652
G1 X-17.474 Y-1.696 E0.0652
G1 X-17.968 Y-3.327 E0.0652
G1 X-18.772 Y-4.830 E0.0652
G1 X-19.853 Y-6.147 E0.0652
G1 X-21.170 Y-7.228 E0.0652
G1 X-22.673 Y-8.032 E0.0652
G1 X-24.304 Y-8.526 E0.0652
G1 X-26.000 Y-8.693 E0.0652
G1 X-27.696 Y-8.526 E0.0652
G1 X-29.327 Y-8.032 E0.0652
G1 X-30.830 Y-7.228 E0.0652
G1 X-32.147 Y-6.147 E0.0652
G1 X-33.228 Y-4.830 E0.0652
G1 X-34.032 Y-3.327 E0.0652
G1 X-34.526 Y-1.696 E0.0652
G1 X-34.693 Y0.000 E0.0652
G1 X-34.526 Y1.696 E0.0652
G1 X-34.032 Y3.327 E0.0652
G1 X-33.228 Y4.830 E0.0652
G1 X-32.147 Y6.147 E0.0652
G1 X-30.830 Y7.228 E0.0652
G1 X-29.327 Y8.032 E0.0652
G1 X-27.696 Y8.526 E0.0652
G1 X-26.000 Y8.693 E0.0652
G1 X-24.304 Y8.526 E0.0652
G1 X-22.673 Y8.032 E0.0652
G1 X-21.170 Y7.228 E0.0652
G1 X-19.853 Y6.147 E0.0652
; feature outer perimeter
G1 X-20.180 Y5.820 F9000
G1 X-19.156 Y4.573 E0.0617 F1200
G1 X-18.395 Y3.150 E0.0617
G1 X-17.927 Y1.606 E0.0617
G1 X-17.769 Y0.000 E0.0617
G1 X-17.927 Y-1.606 E0.0617
G1 X-18.395 Y-3.150 E0.0617
G1 X-19.156 Y-4.573 E0.0617
G1 X-20.180 Y-5.820 E0.0617
G1 X-21.427 Y-6.844 E0.0617
G1 X-22.850 Y-7.605 E0.0617
G1 X-24.394 Y-8.073 E0.0617
G1 X-26.000 Y-8.231 E0.0617
G1 X-27.606 Y-8.073 E0.0617
G1 X-29.150 Y-7.605 E0.0617
G1 X-30.573 Y-6.844 E0.0617
G1 X-31.820 Y-5.820 E0.0617
G1 X-32.844 Y-4.573 E0.0617
G1 X-33.605 Y-3.150 E0.0617
G1 X-34.073 Y-1.606 E0.0617
G1 X-34.231 Y0.000 E0.0617
G1 X-34.073 Y1.606 E0.0617
G1 X-33.605 Y3.150 E0.0617
G1 X-32.844 Y4.573 E0.0617
G1 X-31.820 Y5.820 E0.0617
G1 X-30.573 Y6.844 E0.0617
G1 X-29.150 Y7.605 E0.0617
G1 X-27.606 Y8.073 E0.0617
G1 X-26.000 Y8.231 E0.0617
G1 X-24.394 Y8.073 E0.0617
G1 X-22.850 Y7.605 E0.0617
G1 X-21.427 Y6.844 E0.0617
G1 X-20.180 Y5.820 E0.0617
G1 E-1.9000 F1200
; feature inner perimeter
G1 Z0.700 F1200
G1 X-37.050 Y11.528 F9000
G1 Z0.200 F1200
G1 E1.9000 F1200
G1 X-37.345 Y10.976 E0.0239 F1800
G1 X-37.742 Y10.492 E0.0239
G1 X-38.226 Y10.095 E0.0239
G1 X-38.778 Y9.800 E0.0239
G1 X-39.377 Y9.618 E0.0239
G1 X-40.000 Y9.557 E0.0239
G1 X-40.623 Y9.618 E0.0239
G1 X-41.222 Y9.800 E0.0239
G1 X-41.774 Y10.095 E0.0239
G1 X-42.258 Y10.492 E0.0239
G1 X-42.655 Y10.976 E0.0239
G1 X-42.950 Y11.528 E0.0239
G1 X-43.132 Y12.127 E0.0239
G1 X-43.193 Y12.750 E0.0239
G1 X-43.132 Y13.373 E0.0239
G1 X-42.950 Y13.972 E0.0239
G1 X-42.655 Y14.524 E0.0239
G1 X-42.258 Y15.008 E0.0239
G1 X-41.774 Y15.405 E0.0239
G1 X-41.222 Y15.700 E0.0239
G1 X-40.623 Y15.882 E0.0239
G1 X-40.000 Y15.943 E0.0239
G1 X-39.377 Y15.882 E0.0239
G1 X-38.778 Y15.700 E0.0239
G1 X-38.226 Y15.405 E0.0239
G1 X-37.742 Y15.008 E0.0239
G1 X-37.345 Y14.524 E0.0239
G1 X-37.050 Y13.972 E0.0239
G1 X-36.868 Y13.373 E0.0239
G1 X-36.807 Y12.750 E0.0239
G1 X-36.868 Y12.127 E0.0239
G1 X-37.050 Y11.528 E0.0239
; feature outer perimeter
G1 X-37.477 Y11.705 F9000
G1 X-37.729 Y11.233 E0.0205 F1200
G1 X-38.069 Y10.819 E0.0205
G1 X-38.483 Y10.479 E0.0205
G1 X-38.955 Y10.227 E0.0205
G1 X-39.467 Y10.071 E0.0205
G1 X-40.000 Y10.019 E0.0205
G1 X-40.533 Y10.071 E0.0205
G1 X-41.045 Y10.227 E0.0205
G1 X-41.517 Y10.479 E0.0205
G1 X-41.931 Y10.819 E0.0205
G1 X-42.271 Y11.233 E0.0205
G1 X-42.523 Y11.705 E0.0205
G1 X-42.679 Y12.217 E0.0205
G1 X-42.731 Y12.750 E0.0205
G1 X-42.679 Y13.283 E0.0205
G1 X-42.523 Y13.795 E0.0205
G1 X-42.271 Y14.267 E0.0205
G1 X-41.931 Y14.681 E0.0205
G1 X-41.517 Y15.021 E0.0205
G1 X-41.045 Y15.273 E0.0205
G1 X-40.533 Y15.429 E0.0205
G1 X-40.000 Y15.481 E0.0205
G1 X-39.467 Y15.429 E0.0205
G1 X-38.955 Y15.273 E0.0205
G1 X-38.483 Y15.021 E0.0205
G1 X-38.069 Y14.681 E0.0205
G1 X-37.729 Y14.267 E0.0205
G1 X-37.477 Y13.795 E0.0205
G1 X-37.321 Y13.283 E0.0205
G1 X-37.269 Y12.750 E0.0205
G1 X-37.321 Y12.217 E0.0205
G1 X-37.477 Y11.705 E0.0205
; feature solid layer
G1 X-36.506 Y12.285 F9000
G1 X-32.075 Y16.715 E0.2397 F2400
G1 X-32.726 Y16.715 E0.0249
G1 X-36.481 Y12.960 E0.2031
G1 X-36.528 Y13.441 E0.0185
G1 X-36.557 Y13.535 E0.0038
G1 X-33.376 Y16.715 E0.1720
G1 X-34.027 Y16.715 E0.0249
G1 X-36.708 Y14.034 E0.1450
G1 X-36.729 Y14.105 E0.0028
G1 X-36.924 Y14.469 E0.0158
G1 X-34.678 Y16.715 E0.1215
G1 X-35.328 Y16.715 E0.0249
G1 X-37.178 Y14.865 E0.1001
G1 X-37.471 Y15.222 E0.0177
G1 X-35.979 Y16.715 E0.0808
G1 X-36.629 Y16.715 E0.0249
G1 X-37.823 Y15.521 E0.0646
G1 X-38.033 Y15.693 E0.0104
G1 X-38.208 Y15.787 E0.0076
G1 X-37.280 Y16.715 E0.0502
G1 X-37.930 Y16.715 E0.0249
G1 X-38.632 Y16.013 E0.0380
G1 X-38.645 Y16.021 E0.0006
G1 X-39.129 Y16.167 E0.0193
G1 X-38.581 Y16.715 E0.0296
G1 X-39.231 Y16.715 E0.0249
G1 X-39.687 Y16.259 E0.0247
G1 X-40.000 Y16.290 E0.0120
G1 X-40.340 Y16.256 E0.0131
G1 X-39.882 Y16.715 E0.0248
G1 X-40.532 Y16.715 E0.0249
G1 X-41.171 Y16.076 E0.0346
G1 X-47.851 Y16.552 F9000
G1 X-48.387 Y16.016 E0.0290 F2400
G1 X-48.465 Y15.797 E0.0089
G1 X-48.465 Y15.288 E0.0195
G1 X-47.038 Y16.715 E0.0772
G1 X-46.387 Y16.715 E0.0249
G1 X-48.465 Y14.637 E0.1124
G1 X-48.465 Y13.987 E0.0249
G1 X-45.737 Y16.715 E0.1476
G1 X-45.086 Y16.715 E0.0249
G1 X-48.465 Y13.336 E0.1828
G1 X-48.465 Y12.686 E0.0249
G1 X-44.436 Y16.715 E0.2180
G1 X-43.785 Y16.715 E0.0249
G1 X-48.465 Y12.035 E0.2531
G1 X-48.465 Y11.385 E0.0249
G1 X-43.135 Y16.715 E0.2883
G1 X-42.484 Y16.715 E0.0249
G1 X-48.465 Y10.734 E0.3235
G1 X-48.465 Y10.083 E0.0249
G1 X-41.833 Y16.715 E0.3587
G1 X-41.183 Y16.715 E0.0249
G1 X-48.465 Y9.433 E0.3939
G1 X-48.465 Y8.782 E0.0249
G1 X-43.326 Y13.921 E0.2780
G1 X-43.472 Y13.441 E0.0192
G1 X-43.506 Y13.090 E0.0135
