; G-Code generated by Simplify3D(R) Version 4.1.2
; Apr 6, 2020 at 11:31:44 AM
; Settings Summary
;   processName,Process1
;   applyToModels,Explosion Pro,Explosion Pro(2),Explosion Pro(3),Explosion Pro(2)(2)
;   profileName,MakerBot Replicator 2 HBP (modified)
;   profileVersion,2020-03-12 10:48:50
;   baseProfile,MakerBot Replicator 2(2)
;   printMaterial,PLA
;   printQuality,Medium
;   printExtruders,
;   extruderName,Primary Extruder
;   extruderToolheadNumber,0
;   extruderDiameter,0.4
;   extruderAutoWidth,0
;   extruderWidth,0.4
;   extrusionMultiplier,1
;   extruderUseRetract,1
;   extruderRetractionDistance,1.9
;   extruderExtraRestartDistance,0
;   extruderRetractionZLift,0.5
;   extruderRetractionSpeed,1200
;   extruderUseCoasting,0
;   extruderCoastingDistance,0.2
;   extruderUseWipe,0
;   extruderWipeDistance,5
;   primaryExtruder,0
;   layerHeight,0.2
;   topSolidLayers,3
;   bottomSolidLayers,3
;   perimeterOutlines,2
;   printPerimetersInsideOut,1
;   startPointOption,3
;   startPointOriginX,0
;   startPointOriginY,150
;   sequentialIslands,0
;   spiralVaseMode,0
;   firstLayerHeightPercentage,100
;   firstLayerWidthPercentage,115
;   firstLayerUnderspeed,0.5
;   useRaft,0
;   raftExtruder,0
;   raftTopLayers,2
;   raftBaseLayers,1
;   raftOffset,1
;   raftSeparationDistance,0.14
;   raftTopInfill,90
;   aboveRaftSpeedMultiplier,0.3
;   useSkirt,0
;   skirtExtruder,0
;   skirtLayers,1
;   skirtOutlines,5
;   skirtOffset,0
;   usePrimePillar,0
;   primePillarExtruder,999
;   primePillarWidth,12
;   primePillarLocation,7
;   primePillarSpeedMultiplier,1
;   useOozeShield,0
;   oozeShieldExtruder,999
;   oozeShieldOffset,2
;   oozeShieldOutlines,1
;   oozeShieldSidewallShape,1
;   oozeShieldSidewallAngle,30
;   oozeShieldSpeedMultiplier,1
;   infillExtruder,0
;   internalInfillPattern,Rectilinear
;   externalInfillPattern,Rectilinear
;   infillPercentage,15
;   outlineOverlapPercentage,25
;   infillExtrusionWidthPercentage,100
;   minInfillLength,5
;   infillLayerInterval,1
;   internalInfillAngles,45,-45
;   overlapInternalInfillAngles,0
;   externalInfillAngles,45,-45
;   generateSupport,0
;   supportExtruder,0
;   supportInfillPercentage,5
;   supportExtraInflation,0.5
;   supportBaseLayers,0
;   denseSupportExtruder,0
;   denseSupportLayers,2
;   denseSupportInfillPercentage,90
;   supportLayerInterval,1
;   supportHorizontalPartOffset,0.3
;   supportUpperSeparationLayers,1
;   supportLowerSeparationLayers,1
;   supportType,1
;   supportGridSpacing,2
;   maxOverhangAngle,45
;   supportAngles,45,-45
;   temperatureName,Primary Extruder,Heated Build Platform
;   temperatureNumber,0,0
;   temperatureSetpointCount,1,1
;   temperatureSetpointLayers,1,1
;   temperatureSetpointTemperatures,230,60
;   temperatureStabilizeAtStartup,1,1
;   temperatureHeatedBed,0,1
;   fanLayers,1,2
;   fanSpeeds,0,100
;   blipFanToFullPower,1
;   adjustSpeedForCooling,1
;   minSpeedLayerTime,15
;   minCoolingSpeedSlowdown,20
;   increaseFanForCooling,1
;   minFanLayerTime,45
;   maxCoolingFanSpeed,100
;   increaseFanForBridging,1
;   bridgingFanSpeed,100
;   use5D,1
;   relativeEdistances,1
;   allowEaxisZeroing,0
;   independentExtruderAxes,1
;   includeM10123,0
;   stickySupport,1
;   applyToolheadOffsets,0
;   gcodeXoffset,0
;   gcodeYoffset,0
;   gcodeZoffset,0
;   overrideMachineDefinition,1
;   machineTypeOverride,0
;   strokeXoverride,280
;   strokeYoverride,150
;   strokeZoverride,150
;   originOffsetXoverride,140
;   originOffsetYoverride,75
;   originOffsetZoverride,0
;   homeXdirOverride,1
;   homeYdirOverride,1
;   homeZdirOverride,-1
;   flipXoverride,1
;   flipYoverride,-1
;   flipZoverride,1
;   toolheadOffsets,0,0|0,0|0,0|0,0|0,0|0,0
;   overrideFirmwareConfiguration,1
;   firmwareTypeOverride,MakerBot/Sailfish Firmware
;   GPXconfigOverride,r2h
;   baudRateOverride,115200
;   overridePrinterModels,1
;   printerModelsOverride,MakerBot_Replicator2.stl
;   startingGcode,; **** Replicator 2 start.gcode ****,M73 P0 ; enable build progress,G162 X Y F3000 ; home XY maximum,G161 Z F1200 ; home Z minimum,G92 Z-5 ; set Z to -5,G1 Z0 ; move Z to 0,G161 Z F100 ; home Z slowly,M132 X Y Z A B ; recall home offsets,G1 X-145 Y-75 Z30 F9000 ; move to wait position off table,G130 X20 Y20 Z20 A20 B20 ; lower stepper Vrefs while heating,M126 S[fan_speed_pwm],M140 S[bed0_temperature] T0,M134 T0 ; stabilize bed temperature,M104 S[extruder0_temperature] T0,M133 T0 ; stabilize extruder temperature,G130 X127 Y127 Z40 A127 B127 ; default stepper Vrefs,G92 A0 ; zero extruder,G1 Z0.4 ; position nozzle,G1 E25 F300 ; purge nozzle,G1 X-140 Y-70 Z0.15 F1200 ; slow wipe,G1 X-135 Y-65 Z0.5 F1200 ; lift,G92 A0 ; zero extruder,M73 P1 ;@body (notify GPX body has started),; **** end of start.gcode ****
;   layerChangeGcode,
;   retractionGcode,
;   toolChangeGcode,
;   endingGcode,; **** Replicator 2 end.gcode ****,M73 P100 ; end build progress,G1 Z155 F1000 ; send Z axis to bottom of machine,M104 S0 T0 ; cool down extruder,M140 S0 T0 ; cool down HBP,M127 ; stop blower fan,G162 X Y F3000 ; home XY maximum,M18 ; disable stepper,M0 ; stop codes,M72 P1 ; play Ta-Da song,; **** end of end.gcode ****
;   exportFileFormat,gcode
;   celebration,0
;   celebrationSong,Random Song
;   postProcessing,
;   defaultSpeed,4800
;   outlineUnderspeed,0.5
;   solidInfillUnderspeed,1
;   supportUnderspeed,1
;   rapidXYspeed,9000
;   rapidZspeed,1200
;   minBridgingArea,50
;   bridgingExtraInflation,0
;   bridgingExtrusionMultiplier,1
;   bridgingSpeedMultiplier,0.8
;   useFixedBridgingAngle,0
;   fixedBridgingAngle,0
;   applyBridgingToPerimeters,0
;   filamentDiameters,1.75|1.75|1.75|1.75|1.75|1.75
;   filamentPricesPerKg,46|46|46|46|46|46
;   filamentDensities,1.25|1.25|1.25|1.25|1.25|1.25
;   useMinPrintHeight,0
;   minPrintHeight,0
;   useMaxPrintHeight,0
;   maxPrintHeight,4.84
;   useDiaphragm,0
;   diaphragmLayerInterval,20
;   robustSlicing,1
;   mergeAllIntoSolid,0
;   onlyRetractWhenCrossingOutline,0
;   retractBetweenLayers,0
;   useRetractionMinTravel,1
;   retractionMinTravel,7
;   retractWhileWiping,1
;   onlyWipeOutlines,1
;   avoidCrossingOutline,0
;   maxMovementDetourFactor,3
;   toolChangeRetractionDistance,12
;   toolChangeExtraRestartDistance,-0.5
;   toolChangeRetractionSpeed,600
;   externalThinWallType,0
;   internalThinWallType,0
;   thinWallAllowedOverlapPercentage,10
;   singleExtrusionMinLength,1
;   singleExtrusionMinPrintingWidthPercentage,50
;   singleExtrusionMaxPrintingWidthPercentage,200
;   singleExtrusionEndpointExtension,0.2
;   horizontalSizeCompensation,0
G90
M83
; **** Replicator 2 start.gcode ****
M73 P0 ; enable build progress
G162 X Y F3000 ; home XY maximum
G161 Z F1200 ; home Z minimum
G92 Z-5 ; set Z to -5
G1 Z0 ; move Z to 0
G161 Z F100 ; home Z slowly
M132 X Y Z A B ; recall home offsets
G1 X-145 Y-75 Z30 F9000 ; move to wait position off table
G130 X20 Y20 Z20 A20 B20 ; lower stepper Vrefs while heating
M127
M140 S60 T0
M134 T0 ; stabilize bed temperature
M104 S230 T0
M133 T0 ; stabilize extruder temperature
G130 X127 Y127 Z40 A127 B127 ; default stepper Vrefs
G92 A0 ; zero extruder
G1 Z0.4 ; position nozzle
G1 E25 F300 ; purge nozzle
G1 X-140 Y-70 Z0.15 F1200 ; slow wipe
G1 X-135 Y-65 Z0.5 F1200 ; lift
G92 A0 ; zero extruder
M73 P1 ;@body (notify GPX body has started)
; **** end of start.gcode ****
; process Process1
; layer 1, Z = 0.200
M135 T0
G1 E-1.9000 F1200
; feature inner perimeter
; tool H0.200 W0.460
G1 Z0.500 F1200
G1 X5.667 Y-4.556 F9000
G1 Z0.200 F1200
G1 E1.9000 F1200
G1 X-1.208 Y-13.473 E0.4307 F1800
G1 X-5.860 Y-8.319 E0.2656
G1 X-6.668 Y-14.923 E0.2545
G1 X-16.495 Y-10.541 E0.4115
G1 X-9.960 Y-17.352 E0.3610
G1 X-14.944 Y-18.694 E0.1974
G1 X-9.676 Y-21.302 E0.2249
G1 X-18.592 Y-24.281 E0.3596
G1 X-8.241 Y-25.775 E0.4000
G1 X-8.435 Y-31.938 E0.2358
G1 X-2.752 Y-27.785 E0.2692
G1 X0.342 Y-30.591 E0.1597
G1 X1.662 Y-28.604 E0.0913
G1 X7.831 Y-32.420 E0.2775
G1 X8.344 Y-29.456 E0.1150
G1 X18.870 Y-34.572 E0.4476
G1 X12.170 Y-26.787 E0.3928
G1 X18.291 Y-24.204 E0.2541
G1 X11.545 Y-22.172 E0.2695
G1 X18.509 Y-17.781 E0.3149
G1 X8.759 Y-17.578 E0.3730
G1 X11.594 Y-11.204 E0.2668
G1 X5.562 Y-13.694 E0.2496
G1 X5.667 Y-4.556 E0.3495
; feature outer perimeter
G1 X6.142 Y-3.185 F9000
G1 X-1.235 Y-12.756 E0.4622 F1200
G1 X-6.194 Y-7.263 E0.2830
G1 X-7.049 Y-14.249 E0.2692
G1 X-18.453 Y-9.164 E0.4776
G1 X-10.830 Y-17.110 E0.4212
G1 X-16.239 Y-18.566 E0.2143
G1 X-10.880 Y-21.220 E0.2287
G1 X-20.577 Y-24.459 E0.3911
G1 X-8.713 Y-26.172 E0.4585
G1 X-8.924 Y-32.866 E0.2562
G1 X-2.783 Y-28.378 E0.2909
G1 X0.429 Y-31.291 E0.1659
G1 X1.799 Y-29.229 E0.0947
G1 X8.169 Y-33.169 E0.2865
G1 X8.693 Y-30.137 E0.1177
G1 X20.670 Y-35.958 E0.5094
G1 X12.931 Y-26.966 E0.4538
G1 X19.646 Y-24.131 E0.2788
G1 X12.644 Y-22.023 E0.2797
G1 X20.050 Y-17.353 E0.3349
G1 X9.461 Y-17.132 E0.4051
G1 X12.482 Y-10.340 E0.2844
G1 X6.030 Y-13.003 E0.2670
G1 X6.142 Y-3.185 E0.3756
; feature solid layer
G1 X4.753 Y-6.306 F9000
G1 X5.308 Y-5.751 E0.0300 F2400
G1 X5.300 Y-6.409 E0.0252
G1 X2.564 Y-9.145 E0.1480
G1 E-1.9000 F1200
G1 Z0.700 F1200
G1 X-5.419 Y-9.322 F9000
G1 Z0.200 F1200
G1 E1.9000 F1200
G1 X-5.665 Y-9.568 E0.0133 F2400
G1 X-5.756 Y-10.310 E0.0286
G1 X-5.110 Y-9.664 E0.0349
G1 X-4.802 Y-10.006 E0.0176
G1 X-5.847 Y-11.051 E0.0565
G1 X-5.937 Y-11.792 E0.0286
G1 X-4.493 Y-10.348 E0.0781
G1 X-4.185 Y-10.690 E0.0176
G1 X-6.028 Y-12.534 E0.0997
G1 X-6.119 Y-13.275 E0.0286
G1 X-3.876 Y-11.032 E0.1213
G1 X-3.567 Y-11.374 E0.0176
G1 X-6.210 Y-14.016 E0.1429
G1 X-9.513 Y-17.320 F9000
G1 X-7.240 Y-15.046 E0.1230 F2400
G1 X-7.689 Y-14.845 E0.0188
G1 X-9.832 Y-16.988 E0.1159
G1 X-10.150 Y-16.656 E0.0176
G1 X-8.139 Y-14.645 E0.1088
G1 X-8.589 Y-14.444 E0.0188
G1 X-10.469 Y-16.324 E0.1017
G1 X-10.787 Y-15.992 E0.0176
G1 X-9.039 Y-14.244 E0.0946
G1 X-9.489 Y-14.043 E0.0188
G1 X-11.106 Y-15.660 E0.0875
G1 X-11.425 Y-15.328 E0.0176
G1 X-9.939 Y-13.842 E0.0804
G1 X-10.389 Y-13.642 E0.0188
G1 X-11.743 Y-14.996 E0.0732
G1 X-12.062 Y-14.664 E0.0176
G1 X-10.839 Y-13.441 E0.0661
G1 X-11.289 Y-13.240 E0.0188
G1 X-12.380 Y-14.332 E0.0590
G1 X-12.699 Y-14.000 E0.0176
G1 X-11.739 Y-13.040 E0.0519
G1 X-12.188 Y-12.839 E0.0188
G1 X-13.017 Y-13.668 E0.0448
G1 X-13.336 Y-13.336 E0.0176
G1 X-12.638 Y-12.638 E0.0377
G1 X-13.088 Y-12.438 E0.0188
G1 X-13.654 Y-13.004 E0.0306
G1 X-13.973 Y-12.672 E0.0176
G1 X-13.538 Y-12.237 E0.0235
G1 X-13.988 Y-12.036 E0.0188
G1 X-14.291 Y-12.340 E0.0164
G1 X-14.610 Y-12.007 E0.0176
G1 X-14.438 Y-11.836 E0.0093
G1 X-14.888 Y-11.635 E0.0188
G1 X-14.928 Y-11.675 E0.0022
G1 E-1.9000 F1200
G1 Z0.700 F1200
G1 X-13.443 Y-18.647 F9000
G1 Z0.200 F1200
G1 E1.9000 F1200
G1 X-13.714 Y-18.918 E0.0147 F2400
G1 X-13.279 Y-19.134 E0.0186
G1 X-12.553 Y-18.407 E0.0393
G1 X-11.662 Y-18.168 E0.0353
G1 X-12.844 Y-19.349 E0.0639
G1 X-12.409 Y-19.564 E0.0186
G1 X-10.772 Y-17.928 E0.0885
G1 X-9.882 Y-17.689 E0.0353
G1 X-11.973 Y-19.780 E0.1131
G1 X-11.538 Y-19.995 E0.0186
G1 X-6.790 Y-15.247 E0.2569
G1 X-6.383 Y-15.428 E0.0170
G1 X-6.301 Y-14.758 E0.0258
G1 X-3.259 Y-11.716 E0.1645
G1 X-2.950 Y-12.058 E0.0176
G1 X-11.103 Y-20.211 E0.4410
G1 X-10.668 Y-20.426 E0.0186
G1 X-2.642 Y-12.400 E0.4342
G1 X-2.333 Y-12.742 E0.0176
G1 X-10.233 Y-20.642 E0.4273
G1 X-9.798 Y-20.857 E0.0186
G1 X-2.024 Y-13.083 E0.4205
G1 X-1.716 Y-13.425 E0.0176
G1 X-9.363 Y-21.072 E0.4136
G1 E-1.9000 F1200
G1 Z0.700 F1200
G1 X-17.005 Y-24.161 F9000
G1 Z0.200 F1200
G1 E1.9000 F1200
G1 X-16.935 Y-24.091 E0.0038 F2400
G1 X-15.958 Y-23.764 E0.0394
G1 X-16.437 Y-24.243 E0.0259
G1 X-15.868 Y-24.325 E0.0220
G1 X-14.981 Y-23.438 E0.0480
G1 X-14.004 Y-23.112 E0.0394
G1 X-15.300 Y-24.407 E0.0701
G1 X-14.731 Y-24.489 E0.0220
G1 X-13.027 Y-22.786 E0.0922
G1 X-12.051 Y-22.459 E0.0394
G1 X-14.163 Y-24.572 E0.1143
G1 X-13.594 Y-24.654 E0.0220
G1 X-11.074 Y-22.133 E0.1363
G1 X-10.097 Y-21.807 E0.0394
G1 X-13.026 Y-24.736 E0.1584
G1 X-12.458 Y-24.818 E0.0220
G1 X-9.120 Y-21.481 E0.1805
G1 X-8.773 Y-21.364 E0.0140
G1 X-8.928 Y-21.288 E0.0066
G1 X-1.407 Y-13.767 E0.4068
G1 X-1.187 Y-14.011 E0.0126
G1 X0.376 Y-11.985 E0.0979
G1 X5.293 Y-7.067 E0.2660
G1 X5.285 Y-7.726 E0.0252
G1 X-11.889 Y-24.900 E0.9290
G1 X-11.321 Y-24.982 E0.0220
G1 X5.278 Y-8.384 E0.8978
G1 X5.270 Y-9.042 E0.0252
G1 X-10.752 Y-25.064 E0.8667
G1 X-10.184 Y-25.146 E0.0220
G1 X5.263 Y-9.700 E0.8355
G1 X5.255 Y-10.358 E0.0252
G1 X-9.615 Y-25.228 E0.8044
G1 X-9.047 Y-25.310 E0.0220
G1 X5.247 Y-11.016 E0.7732
G1 X5.240 Y-11.674 E0.0252
G1 X-8.478 Y-25.392 E0.7421
G1 X-7.910 Y-25.475 E0.0220
G1 X5.232 Y-12.332 E0.7109
G1 X5.225 Y-12.990 E0.0252
G1 X-7.906 Y-26.122 E0.7103
G1 X-7.928 Y-26.793 E0.0257
G1 X5.217 Y-13.648 E0.7110
G1 X5.211 Y-14.212 E0.0216
G1 X5.370 Y-14.147 E0.0066
G1 X-7.949 Y-27.465 E0.7204
G1 X-7.970 Y-28.137 E0.0257
G1 X6.477 Y-13.689 E0.7815
G1 X7.585 Y-13.232 E0.0458
G1 X-7.991 Y-28.808 E0.8426
G1 X-8.012 Y-29.480 E0.0257
G1 X8.693 Y-12.775 E0.9036
G1 X9.801 Y-12.317 E0.0458
G1 X-8.033 Y-30.152 E0.9647
G1 X-8.055 Y-30.823 E0.0257
G1 X10.909 Y-11.860 E1.0258
G1 X10.929 Y-11.852 E0.0008
G1 X10.417 Y-13.002 E0.0482
G1 X-7.160 Y-30.579 E0.9508
G1 X-4.742 Y-28.812 E0.1145
G1 X9.896 Y-14.174 E0.7918
G1 X9.375 Y-15.346 E0.0490
G1 X-2.672 Y-27.392 E0.6516
G1 X-2.331 Y-27.702 E0.0176
G1 X8.854 Y-16.517 E0.6050
G1 X8.332 Y-17.689 E0.0490
G1 X-1.989 Y-28.011 E0.5583
G1 X-1.648 Y-28.320 E0.0176
G1 X8.749 Y-17.923 E0.5624
G1 X9.387 Y-17.936 E0.0244
G1 X-1.307 Y-28.630 E0.5784
G1 X-0.966 Y-28.939 E0.0176
G1 X10.024 Y-17.949 E0.5945
G1 X10.661 Y-17.963 E0.0244
G1 X-0.625 Y-29.248 E0.6105
G1 X1.102 Y-28.822 F9000
G1 X0.058 Y-29.867 E0.0565 F2400
G1 X-0.284 Y-29.558 E0.0176
G1 X11.298 Y-17.976 E0.6265
G1 X11.936 Y-17.989 E0.0244
G1 X1.702 Y-28.223 E0.5536
G1 X2.104 Y-28.471 E0.0181
G1 X12.573 Y-18.003 E0.5663
G1 X13.210 Y-18.016 E0.0244
G1 X2.506 Y-28.720 E0.5790
G1 X2.908 Y-28.968 E0.0181
G1 X13.847 Y-18.029 E0.5917
G1 X14.485 Y-18.042 E0.0244
G1 X3.310 Y-29.217 E0.6045
G1 X3.712 Y-29.466 E0.0181
G1 X10.853 Y-22.324 E0.3863
G1 X11.353 Y-22.475 E0.0200
G1 X4.114 Y-29.714 E0.3916
G1 X4.516 Y-29.963 E0.0181
G1 X11.853 Y-22.625 E0.3969
G1 X12.353 Y-22.776 E0.0200
G1 X4.918 Y-30.212 E0.4022
G1 X5.319 Y-30.460 E0.0181
G1 X12.853 Y-22.926 E0.4075
G1 X13.353 Y-23.077 E0.0200
G1 X5.721 Y-30.709 E0.4128
G1 X7.663 Y-31.369 F9000
G1 X7.329 Y-31.703 E0.0181 F2400
G1 X6.927 Y-31.455 E0.0181
G1 X7.799 Y-30.583 E0.0472
G1 X7.935 Y-29.796 E0.0305
G1 X6.525 Y-31.206 E0.0763
G1 X6.123 Y-30.957 E0.0181
G1 X8.071 Y-29.010 E0.1054
G1 X8.082 Y-28.945 E0.0025
G1 X8.118 Y-28.963 E0.0015
G1 X13.853 Y-23.228 E0.3102
G1 X14.353 Y-23.378 E0.0200
G1 X8.556 Y-29.175 E0.3136
G1 X8.994 Y-29.388 E0.0186
G1 X11.659 Y-26.722 E0.1442
G1 X11.960 Y-27.072 E0.0176
G1 X9.431 Y-29.601 E0.1368
G1 X9.869 Y-29.814 E0.0186
G1 X12.261 Y-27.422 E0.1294
G1 X12.562 Y-27.771 E0.0176
G1 X10.307 Y-30.026 E0.1220
G1 X10.745 Y-30.239 E0.0186
G1 X12.863 Y-28.121 E0.1146
G1 X13.164 Y-28.471 E0.0176
G1 X11.183 Y-30.452 E0.1072
G1 X11.620 Y-30.665 E0.0186
G1 X13.465 Y-28.820 E0.0998
G1 X13.766 Y-29.170 E0.0176
G1 X12.058 Y-30.877 E0.0924
G1 X12.496 Y-31.090 E0.0186
G1 X14.067 Y-29.520 E0.0850
G1 X14.367 Y-29.869 E0.0176
G1 X12.934 Y-31.303 E0.0776
G1 X13.371 Y-31.516 E0.0186
G1 X14.668 Y-30.219 E0.0702
G1 X14.969 Y-30.568 E0.0176
G1 X13.809 Y-31.729 E0.0628
G1 X14.247 Y-31.941 E0.0186
G1 X15.270 Y-30.918 E0.0554
G1 X15.571 Y-31.268 E0.0176
G1 X14.685 Y-32.154 E0.0479
G1 X15.122 Y-32.367 E0.0186
G1 X15.872 Y-31.617 E0.0405
G1 X16.173 Y-31.967 E0.0176
G1 X15.560 Y-32.580 E0.0331
G1 X15.998 Y-32.792 E0.0186
G1 X16.474 Y-32.317 E0.0257
G1 X16.775 Y-32.666 E0.0176
G1 X16.436 Y-33.005 E0.0183
G1 X16.873 Y-33.218 E0.0186
G1 X17.076 Y-33.016 E0.0109
G1 X17.376 Y-33.366 E0.0176
G1 X17.311 Y-33.431 E0.0035
G1 E-1.9000 F1200
G1 Z0.700 F1200
G1 X16.324 Y-24.659 F9000
G1 Z0.200 F1200
G1 E1.9000 F1200
G1 X16.853 Y-24.131 E0.0286 F2400
G1 X16.353 Y-23.980 E0.0200
G1 X15.199 Y-25.135 E0.0624
G1 X14.073 Y-25.610 E0.0467
G1 X15.853 Y-23.830 E0.0963
G1 X15.353 Y-23.679 E0.0200
