; G-Code generated by Simplify3D(R) Version 4.1.2
; Apr 6, 2020 at 11:31:05 AM
; Settings Summary
;   processName,Process1
;   applyToModels,Explosion Prem,Explosion Prem(2),Explosion Prem(3),Explosion Prem(2)(2)
;   profileName,MakerBot Replicator 2 HBP (modified)
;   profileVersion,2020-03-12 10:48:50
;   baseProfile,MakerBot Replicator 2(2)
;   printMaterial,PLA
;   printQuality,Medium
;   printExtruders,
;   extruderName,Primary Extruder
;   extruderToolheadNumber,0
;   extruderDiameter,0.4
;   extruderAutoWidth,0
;   extruderWidth,0.4
;   extrusionMultiplier,1
;   extruderUseRetract,1
;   extruderRetractionDistance,1.9
;   extruderExtraRestartDistance,0
;   extruderRetractionZLift,0.5
;   extruderRetractionSpeed,1200
;   extruderUseCoasting,0
;   extruderCoastingDistance,0.2
;   extruderUseWipe,0
;   extruderWipeDistance,5
;   primaryExtruder,0
;   layerHeight,0.2
;   topSolidLayers,3
;   bottomSolidLayers,3
;   perimeterOutlines,2
;   printPerimetersInsideOut,1
;   startPointOption,3
;   startPointOriginX,0
;   startPointOriginY,150
;   sequentialIslands,0
;   spiralVaseMode,0
;   firstLayerHeightPercentage,100
;   firstLayerWidthPercentage,115
;   firstLayerUnderspeed,0.5
;   useRaft,0
;   raftExtruder,0
;   raftTopLayers,2
;   raftBaseLayers,1
;   raftOffset,1
;   raftSeparationDistance,0.14
;   raftTopInfill,90
;   aboveRaftSpeedMultiplier,0.3
;   useSkirt,0
;   skirtExtruder,0
;   skirtLayers,1
;   skirtOutlines,5
;   skirtOffset,0
;   usePrimePillar,0
;   primePillarExtruder,999
;   primePillarWidth,12
;   primePillarLocation,7
;   primePillarSpeedMultiplier,1
;   useOozeShield,0
;   oozeShieldExtruder,999
;   oozeShieldOffset,2
;   oozeShieldOutlines,1
;   oozeShieldSidewallShape,1
;   oozeShieldSidewallAngle,30
;   oozeShieldSpeedMultiplier,1
;   infillExtruder,0
;   internalInfillPattern,Rectilinear
;   externalInfillPattern,Rectilinear
;   infillPercentage,15
;   outlineOverlapPercentage,25
;   infillExtrusionWidthPercentage,100
;   minInfillLength,5
;   infillLayerInterval,1
;   internalInfillAngles,45,-45
;   overlapInternalInfillAngles,0
;   externalInfillAngles,45,-45
;   generateSupport,0
;   supportExtruder,0
;   supportInfillPercentage,5
;   supportExtraInflation,0.5
;   supportBaseLayers,0
;   denseSupportExtruder,0
;   denseSupportLayers,2
;   denseSupportInfillPercentage,90
;   supportLayerInterval,1
;   supportHorizontalPartOffset,0.3
;   supportUpperSeparationLayers,1
;   supportLowerSeparationLayers,1
;   supportType,1
;   supportGridSpacing,2
;   maxOverhangAngle,45
;   supportAngles,45,-45
;   temperatureName,Primary Extruder,Heated Build Platform
;   temperatureNumber,0,0
;   temperatureSetpointCount,1,1
;   temperatureSetpointLayers,1,1
;   temperatureSetpointTemperatures,230,60
;   temperatureStabilizeAtStartup,1,1
;   temperatureHeatedBed,0,1
;   fanLayers,1,2
;   fanSpeeds,0,100
;   blipFanToFullPower,1
;   adjustSpeedForCooling,1
;   minSpeedLayerTime,15
;   minCoolingSpeedSlowdown,20
;   increaseFanForCooling,1
;   minFanLayerTime,45
;   maxCoolingFanSpeed,100
;   increaseFanForBridging,1
;   bridgingFanSpeed,100
;   use5D,1
;   relativeEdistances,1
;   allowEaxisZeroing,0
;   independentExtruderAxes,1
;   includeM10123,0
;   stickySupport,1
;   applyToolheadOffsets,0
;   gcodeXoffset,0
;   gcodeYoffset,0
;   gcodeZoffset,0
;   overrideMachineDefinition,1
;   machineTypeOverride,0
;   strokeXoverride,280
;   strokeYoverride,150
;   strokeZoverride,150
;   originOffsetXoverride,140
;   originOffsetYoverride,75
;   originOffsetZoverride,0
;   homeXdirOverride,1
;   homeYdirOverride,1
;   homeZdirOverride,-1
;   flipXoverride,1
;   flipYoverride,-1
;   flipZoverride,1
;   toolheadOffsets,0,0|0,0|0,0|0,0|0,0|0,0
;   overrideFirmwareConfiguration,1
;   firmwareTypeOverride,MakerBot/Sailfish Firmware
;   GPXconfigOverride,r2h
;   baudRateOverride,115200
;   overridePrinterModels,1
;   printerModelsOverride,MakerBot_Replicator2.stl
;   startingGcode,; **** Replicator 2 start.gcode ****,M73 P0 ; enable build progress,G162 X Y F3000 ; home XY maximum,G161 Z F1200 ; home Z minimum,G92 Z-5 ; set Z to -5,G1 Z0 ; move Z to 0,G161 Z F100 ; home Z slowly,M132 X Y Z A B ; recall home offsets,G1 X-145 Y-75 Z30 F9000 ; move to wait position off table,G130 X20 Y20 Z20 A20 B20 ; lower stepper Vrefs while heating,M126 S[fan_speed_pwm],M140 S[bed0_temperature] T0,M134 T0 ; stabilize bed temperature,M104 S[extruder0_temperature] T0,M133 T0 ; stabilize extruder temperature,G130 X127 Y127 Z40 A127 B127 ; default stepper Vrefs,G92 A0 ; zero extruder,G1 Z0.4 ; position nozzle,G1 E25 F300 ; purge nozzle,G1 X-140 Y-70 Z0.15 F1200 ; slow wipe,G1 X-135 Y-65 Z0.5 F1200 ; lift,G92 A0 ; zero extruder,M73 P1 ;@body (notify GPX body has started),; **** end of start.gcode ****
;   layerChangeGcode,
;   retractionGcode,
;   toolChangeGcode,
;   endingGcode,; **** Replicator 2 end.gcode ****,M73 P100 ; end build progress,G1 Z155 F1000 ; send Z axis to bottom of machine,M104 S0 T0 ; cool down extruder,M140 S0 T0 ; cool down HBP,M127 ; stop blower fan,G162 X Y F3000 ; home XY maximum,M18 ; disable stepper,M0 ; stop codes,M72 P1 ; play Ta-Da song,; **** end of end.gcode ****
;   exportFileFormat,gcode
;   celebration,0
;   celebrationSong,Random Song
;   postProcessing,
;   defaultSpeed,4800
;   outlineUnderspeed,0.5
;   solidInfillUnderspeed,1
;   supportUnderspeed,1
;   rapidXYspeed,9000
;   rapidZspeed,1200
;   minBridgingArea,50
;   bridgingExtraInflation,0
;   bridgingExtrusionMultiplier,1
;   bridgingSpeedMultiplier,0.8
;   useFixedBridgingAngle,0
;   fixedBridgingAngle,0
;   applyBridgingToPerimeters,0
;   filamentDiameters,1.75|1.75|1.75|1.75|1.75|1.75
;   filamentPricesPerKg,46|46|46|46|46|46
;   filamentDensities,1.25|1.25|1.25|1.25|1.25|1.25
;   useMinPrintHeight,0
;   minPrintHeight,0
;   useMaxPrintHeight,0
;   maxPrintHeight,4.84
;   useDiaphragm,0
;   diaphragmLayerInterval,20
;   robustSlicing,1
;   mergeAllIntoSolid,0
;   onlyRetractWhenCrossingOutline,0
;   retractBetweenLayers,0
;   useRetractionMinTravel,1
;   retractionMinTravel,7
;   retractWhileWiping,1
;   onlyWipeOutlines,1
;   avoidCrossingOutline,0
;   maxMovementDetourFactor,3
;   toolChangeRetractionDistance,12
;   toolChangeExtraRestartDistance,-0.5
;   toolChangeRetractionSpeed,600
;   externalThinWallType,0
;   internalThinWallType,0
;   thinWallAllowedOverlapPercentage,10
;   singleExtrusionMinLength,1
;   singleExtrusionMinPrintingWidthPercentage,50
;   singleExtrusionMaxPrintingWidthPercentage,200
;   singleExtrusionEndpointExtension,0.2
;   horizontalSizeCompensation,0
G90
M83
; **** Replicator 2 start.gcode ****
M73 P0 ; enable build progress
G162 X Y F3000 ; home XY maximum
G161 Z F1200 ; home Z minimum
G92 Z-5 ; set Z to -5
G1 Z0 ; move Z to 0
G161 Z F100 ; home Z slowly
M132 X Y Z A B ; recall home offsets
G1 X-145 Y-75 Z30 F9000 ; move to wait position off table
G130 X20 Y20 Z20 A20 B20 ; lower stepper Vrefs while heating
M127
M140 S60 T0
M134 T0 ; stabilize bed temperature
M104 S230 T0
M133 T0 ; stabilize extruder temperature
G130 X127 Y127 Z40 A127 B127 ; default stepper Vrefs
G92 A0 ; zero extruder
G1 Z0.4 ; position nozzle
G1 E25 F300 ; purge nozzle
G1 X-140 Y-70 Z0.15 F1200 ; slow wipe
G1 X-135 Y-65 Z0.5 F1200 ; lift
G92 A0 ; zero extruder
M73 P1 ;@body (notify GPX body has started)
; **** end of start.gcode ****
; process Process1
; layer 1, Z = 0.200
M135 T0
G1 E-1.9000 F1200
; feature inner perimeter
; tool H0.200 W0.460
G1 Z0.500 F1200
G1 X1.256 Y-4.641 F9000
G1 Z0.200 F1200
G1 E1.9000 F1200
G1 X-2.686 Y-11.795 E0.3124 F1800
G1 X-6.606 Y-8.602 E0.1934
G1 X-6.454 Y-13.464 E0.1860
G1 X-13.648 Y-11.501 E0.2852
G1 X-8.469 Y-15.463 E0.2494
G1 X-11.873 Y-16.966 E0.1423
G1 X-7.690 Y-18.291 E0.1678
G1 X-13.709 Y-21.389 E0.2589
G1 X-6.405 Y-21.318 E0.2794
G1 X-5.866 Y-25.729 E0.1700
G1 X-2.265 Y-22.136 E0.1946
G1 X0.309 Y-23.835 E0.1180
G1 X1.049 Y-22.236 E0.0674
G1 X5.995 Y-24.332 E0.2055
G1 X6.036 Y-22.095 E0.0856
G1 X13.880 Y-24.515 E0.3140
G1 X8.453 Y-19.878 E0.2730
G1 X12.506 Y-17.379 E0.1821
G1 X7.353 Y-16.657 E0.1990
G1 X11.882 Y-12.718 E0.2296
G1 X4.916 Y-13.645 E0.2688
G1 X6.248 Y-8.743 E0.1943
G1 X2.191 Y-11.200 E0.1814
G1 X1.256 Y-4.641 E0.2534
; feature outer perimeter
G1 X1.517 Y-3.214 F9000
G1 X-2.823 Y-11.090 E0.3440 F1200
G1 X-7.097 Y-7.609 E0.2109
G1 X-6.933 Y-12.856 E0.2008
G1 X-15.793 Y-10.438 E0.3513
G1 X-9.366 Y-15.356 E0.3095
G1 X-13.172 Y-17.038 E0.1592
G1 X-8.893 Y-18.392 E0.1717
G1 X-15.644 Y-21.868 E0.2904
G1 X-6.812 Y-21.782 E0.3378
G1 X-6.208 Y-26.720 E0.1903
G1 X-2.205 Y-22.727 E0.2163
G1 X0.502 Y-24.514 E0.1241
G1 X1.279 Y-22.833 E0.0708
G1 X6.443 Y-25.021 E0.2145
G1 X6.485 Y-22.714 E0.0882
G1 X15.871 Y-25.611 E0.3757
G1 X9.232 Y-19.938 E0.3340
G1 X13.834 Y-17.101 E0.2068
G1 X8.416 Y-16.341 E0.2092
G1 X13.340 Y-12.060 E0.2495
G1 X5.541 Y-13.098 E0.3009
G1 X6.994 Y-7.753 E0.2118
G1 X2.548 Y-10.446 E0.1988
G1 X1.517 Y-3.214 E0.2794
; feature solid layer
G1 X1.108 Y-6.048 F9000
G1 X0.588 Y-6.568 E0.0281 F2400
G1 X-0.210 Y-8.017 E0.0633
G1 X1.189 Y-6.617 E0.0757
G1 X1.270 Y-7.187 E0.0220
G1 X-1.009 Y-9.466 E0.1233
G1 X-6.159 Y-9.411 F9000
G1 X-6.233 Y-9.486 E0.0040 F2400
G1 X-6.214 Y-10.117 E0.0241
G1 X-5.800 Y-9.703 E0.0224
G1 X-5.441 Y-9.995 E0.0177
G1 X-6.194 Y-10.748 E0.0407
G1 X-6.174 Y-11.378 E0.0241
G1 X-5.083 Y-10.287 E0.0590
G1 X-4.724 Y-10.579 E0.0177
G1 X-6.154 Y-12.009 E0.0774
G1 X-6.135 Y-12.640 E0.0241
G1 X-4.366 Y-10.871 E0.0957
G1 X-4.007 Y-11.163 E0.0177
G1 X-6.115 Y-13.271 E0.1140
G1 X-8.131 Y-15.287 F9000
G1 X-6.620 Y-13.776 E0.0817 F2400
G1 X-7.131 Y-13.636 E0.0203
G1 X-8.499 Y-15.005 E0.0740
G1 X-8.868 Y-14.723 E0.0177
G1 X-7.642 Y-13.497 E0.0663
G1 X-8.153 Y-13.358 E0.0203
G1 X-9.237 Y-14.441 E0.0586
G1 X-9.605 Y-14.159 E0.0177
G1 X-8.664 Y-13.218 E0.0509
G1 X-9.175 Y-13.079 E0.0203
G1 X-9.974 Y-13.877 E0.0432
G1 X-10.342 Y-13.595 E0.0177
G1 X-9.686 Y-12.939 E0.0355
G1 X-10.198 Y-12.800 E0.0203
G1 X-10.711 Y-13.313 E0.0278
G1 X-11.079 Y-13.031 E0.0177
G1 X-10.709 Y-12.660 E0.0201
G1 X-11.220 Y-12.521 E0.0203
G1 X-11.448 Y-12.749 E0.0123
G1 X-11.817 Y-12.467 E0.0177
G1 X-11.731 Y-12.381 E0.0046
G1 X-10.526 Y-17.031 F9000
G1 X-10.019 Y-16.525 E0.0274 F2400
G1 X-8.854 Y-16.010 E0.0487
G1 X-10.032 Y-17.187 E0.0637
G1 X-9.537 Y-17.344 E0.0198
G1 X-6.109 Y-13.915 E0.1855
G1 X-6.095 Y-13.919 E0.0006
G1 X-6.095 Y-13.902 E0.0007
G1 X-3.649 Y-11.455 E0.1323
G1 X-3.290 Y-11.747 E0.0177
G1 X-9.043 Y-17.500 E0.3112
G1 X-8.549 Y-17.657 E0.0198
G1 X-2.932 Y-12.039 E0.3039
G1 X-2.583 Y-12.323 E0.0172
G1 X-1.807 Y-10.915 E0.0615
G1 X1.352 Y-7.756 E0.1709
G1 X1.433 Y-8.325 E0.0220
G1 X-8.055 Y-17.813 E0.5132
G1 X-7.561 Y-17.970 E0.0198
G1 X1.514 Y-8.895 E0.4909
G1 X1.595 Y-9.464 E0.0220
G1 X-7.067 Y-18.126 E0.4686
G1 X-11.919 Y-21.027 F9000
G1 X-11.567 Y-20.674 E0.0191 F2400
G1 X-10.226 Y-19.984 E0.0577
G1 X-11.262 Y-21.020 E0.0561
G1 X-10.605 Y-21.014 E0.0251
G1 X-8.885 Y-19.294 E0.0931
G1 X-7.544 Y-18.603 E0.0577
G1 X-9.949 Y-21.008 E0.1301
G1 X-9.292 Y-21.001 E0.0251
G1 X1.676 Y-10.033 E0.5933
G1 X1.758 Y-10.603 E0.0220
G1 X-8.635 Y-20.995 E0.5621
G1 X-7.978 Y-20.989 E0.0251
G1 X1.839 Y-11.172 E0.5310
G1 X1.920 Y-11.741 E0.0220
G1 X-7.321 Y-20.982 E0.4999
G1 X-6.664 Y-20.976 E0.0251
G1 X3.503 Y-10.809 E0.5500
G1 X5.153 Y-9.810 E0.0738
G1 X-6.090 Y-21.052 E0.6081
G1 X-6.019 Y-21.632 E0.0223
G1 X5.525 Y-10.088 E0.6245
G1 X5.283 Y-10.981 E0.0354
G1 X-5.948 Y-22.212 E0.6075
G1 X-5.877 Y-22.791 E0.0223
G1 X5.040 Y-11.874 E0.5905
G1 X4.797 Y-12.768 E0.0354
G1 X-5.806 Y-23.371 E0.5736
G1 X-5.736 Y-23.951 E0.0223
G1 X4.554 Y-13.661 E0.5566
G1 X4.447 Y-14.055 E0.0156
G1 X4.866 Y-14.000 E0.0162
G1 X-5.665 Y-24.530 E0.5696
G1 X-5.609 Y-24.986 E0.0175
G1 X-2.309 Y-21.693 E0.1783
G1 X-2.230 Y-21.746 E0.0036
G1 X5.616 Y-13.900 E0.4244
G1 X6.367 Y-13.800 E0.0290
G1 X-1.838 Y-22.005 E0.4438
G1 X-1.446 Y-22.263 E0.0180
G1 X7.117 Y-13.700 E0.4632
G1 X7.867 Y-13.600 E0.0290
G1 X-1.054 Y-22.522 E0.4826
G1 X0.121 Y-23.298 F9000
G1 X0.226 Y-23.194 E0.0056 F2400
G1 X0.786 Y-21.983 E0.0510
G1 X-0.271 Y-23.039 E0.0571
G1 X-0.662 Y-22.781 E0.0180
G1 X8.618 Y-13.501 E0.5020
G1 X9.368 Y-13.401 E0.0290
G1 X0.950 Y-21.819 E0.4554
G1 X1.407 Y-22.013 E0.0190
G1 X10.118 Y-13.301 E0.4712
G1 X10.788 Y-13.212 E0.0259
G1 X6.555 Y-16.893 E0.2146
G1 X7.100 Y-16.970 E0.0211
G1 X1.864 Y-22.206 E0.2833
G1 X2.320 Y-22.400 E0.0190
G1 X7.671 Y-17.050 E0.2894
G1 X8.241 Y-17.130 E0.0220
G1 X2.777 Y-22.594 E0.2956
G1 X3.234 Y-22.787 E0.0190
G1 X8.812 Y-17.210 E0.3017
G1 X9.382 Y-17.290 E0.0220
G1 X3.691 Y-22.981 E0.3079
G1 X5.663 Y-23.611 F9000
G1 X5.519 Y-23.755 E0.0078 F2400
G1 X5.062 Y-23.562 E0.0190
G1 X5.675 Y-22.948 E0.0332
G1 X5.687 Y-22.286 E0.0253
G1 X4.605 Y-23.368 E0.0585
G1 X4.148 Y-23.175 E0.0190
G1 X9.953 Y-17.370 E0.3140
G1 X10.523 Y-17.450 E0.0220
G1 X8.576 Y-19.397 E0.1053
G1 X7.869 Y-19.833 E0.0318
G1 X8.015 Y-19.958 E0.0074
G1 X6.192 Y-21.782 E0.0987
G1 X6.689 Y-21.935 E0.0199
G1 X8.366 Y-20.258 E0.0907
G1 X8.717 Y-20.557 E0.0176
G1 X7.186 Y-22.088 E0.0828
G1 X7.683 Y-22.242 E0.0199
G1 X9.068 Y-20.857 E0.0749
G1 X9.419 Y-21.157 E0.0176
G1 X8.180 Y-22.395 E0.0670
G1 X8.677 Y-22.549 E0.0199
G1 X9.769 Y-21.456 E0.0591
G1 X10.120 Y-21.756 E0.0176
G1 X9.174 Y-22.702 E0.0512
G1 X9.672 Y-22.855 E0.0199
G1 X10.471 Y-22.056 E0.0432
G1 X10.822 Y-22.356 E0.0176
G1 X10.169 Y-23.009 E0.0353
G1 X10.666 Y-23.162 E0.0199
G1 X11.173 Y-22.655 E0.0274
G1 X11.523 Y-22.955 E0.0176
G1 X11.163 Y-23.316 E0.0195
G1 X11.660 Y-23.469 E0.0199
G1 X11.874 Y-23.255 E0.0116
G1 X12.225 Y-23.555 E0.0176
G1 X12.157 Y-23.622 E0.0037
G1 X10.273 Y-18.351 F9000
G1 X11.094 Y-17.530 E0.0444 F2400
G1 E-1.9000 F1200
; feature inner perimeter
G1 Z0.700 F1200
G1 X39.988 Y-4.641 F9000
G1 Z0.200 F1200
G1 E1.9000 F1200
G1 X36.046 Y-11.795 E0.3124 F1800
G1 X32.126 Y-8.602 E0.1934
G1 X32.278 Y-13.464 E0.1860
G1 X25.084 Y-11.501 E0.2852
G1 X30.263 Y-15.463 E0.2494
G1 X26.859 Y-16.966 E0.1423
G1 X31.041 Y-18.291 E0.1678
G1 X25.023 Y-21.389 E0.2589
G1 X32.327 Y-21.318 E0.2794
G1 X32.866 Y-25.729 E0.1700
G1 X36.467 Y-22.136 E0.1946
G1 X39.041 Y-23.835 E0.1180
G1 X39.781 Y-22.236 E0.0674
G1 X44.727 Y-24.332 E0.2055
G1 X44.768 Y-22.095 E0.0856
G1 X52.612 Y-24.515 E0.3140
G1 X47.185 Y-19.878 E0.2730
G1 X51.238 Y-17.379 E0.1821
G1 X46.084 Y-16.657 E0.1990
G1 X50.614 Y-12.718 E0.2296
G1 X43.648 Y-13.645 E0.2688
G1 X44.980 Y-8.743 E0.1943
G1 X40.923 Y-11.200 E0.1814
G1 X39.988 Y-4.641 E0.2534
; feature outer perimeter
G1 X40.249 Y-3.214 F9000
G1 X35.909 Y-11.090 E0.3440 F1200
G1 X31.634 Y-7.609 E0.2109
G1 X31.798 Y-12.856 E0.2008
G1 X22.939 Y-10.438 E0.3513
G1 X29.366 Y-15.356 E0.3095
G1 X25.560 Y-17.038 E0.1592
G1 X29.839 Y-18.392 E0.1717
G1 X23.088 Y-21.868 E0.2904
G1 X31.920 Y-21.782 E0.3378
G1 X32.524 Y-26.720 E0.1903
G1 X36.526 Y-22.727 E0.2163
G1 X39.234 Y-24.514 E0.1241
G1 X40.011 Y-22.833 E0.0708
G1 X45.175 Y-25.021 E0.2145
G1 X45.216 Y-22.714 E0.0882
G1 X54.602 Y-25.611 E0.3757
G1 X47.964 Y-19.938 E0.3340
G1 X52.565 Y-17.101 E0.2068
G1 X47.148 Y-16.341 E0.2092
G1 X52.071 Y-12.060 E0.2495
G1 X44.273 Y-13.098 E0.3009
G1 X45.726 Y-7.753 E0.2118
G1 X41.280 Y-10.446 E0.1988
G1 X40.249 Y-3.214 E0.2794
; feature solid layer
G1 X39.749 Y-5.789 F9000
G1 X39.796 Y-5.742 E0.0025 F2400
G1 X39.877 Y-6.311 E0.0220
G1 X38.951 Y-7.237 E0.0501
G1 X38.152 Y-8.686 E0.0633
G1 X39.959 Y-6.880 E0.0977
G1 X40.040 Y-7.450 E0.0220
G1 X37.354 Y-10.135 E0.1453
G1 X32.739 Y-9.546 F9000
G1 X32.508 Y-9.777 E0.0125 F2400
G1 X32.527 Y-10.408 E0.0241
G1 X33.097 Y-9.838 E0.0308
G1 X33.456 Y-10.130 E0.0177
G1 X32.547 Y-11.039 E0.0492
G1 X32.567 Y-11.670 E0.0241
G1 X33.814 Y-10.422 E0.0675
G1 X34.173 Y-10.714 E0.0177
G1 X32.586 Y-12.301 E0.0858
G1 X32.606 Y-12.932 E0.0241
G1 X34.531 Y-11.006 E0.1042
G1 X34.890 Y-11.298 E0.0177
G1 X32.626 Y-13.562 E0.1225
G1 X30.771 Y-15.417 F9000
G1 X32.348 Y-13.840 E0.0853 F2400
G1 X31.837 Y-13.701 E0.0203
G1 X30.403 Y-15.135 E0.0776
G1 X30.034 Y-14.853 E0.0177
G1 X31.326 Y-13.561 E0.0699
G1 X30.815 Y-13.422 E0.0203
G1 X29.665 Y-14.571 E0.0622
