; G-Code generated by Simplify3D(R) Version 4.1.2
; Apr 6, 2020 at 11:30:48 AM
; Settings Summary
;   processName,Process1
;   applyToModels,Explosion Prem,Explosion Prem(2)
;   profileName,MakerBot Replicator 2 HBP (modified)
;   profileVersion,2020-03-12 10:48:50
;   baseProfile,MakerBot Replicator 2(2)
;   printMaterial,PLA
;   printQuality,Medium
;   printExtruders,
;   extruderName,Primary Extruder
;   extruderToolheadNumber,0
;   extruderDiameter,0.4
;   extruderAutoWidth,0
;   extruderWidth,0.4
;   extrusionMultiplier,1
;   extruderUseRetract,1
;   extruderRetractionDistance,1.9
;   extruderExtraRestartDistance,0
;   extruderRetractionZLift,0.5
;   extruderRetractionSpeed,1200
;   extruderUseCoasting,0
;   extruderCoastingDistance,0.2
;   extruderUseWipe,0
;   extruderWipeDistance,5
;   primaryExtruder,0
;   layerHeight,0.2
;   topSolidLayers,3
;   bottomSolidLayers,3
;   perimeterOutlines,2
;   printPerimetersInsideOut,1
;   startPointOption,3
;   startPointOriginX,0
;   startPointOriginY,150
;   sequentialIslands,0
;   spiralVaseMode,0
;   firstLayerHeightPercentage,100
;   firstLayerWidthPercentage,115
;   firstLayerUnderspeed,0.5
;   useRaft,0
;   raftExtruder,0
;   raftTopLayers,2
;   raftBaseLayers,1
;   raftOffset,1
;   raftSeparationDistance,0.14
;   raftTopInfill,90
;   aboveRaftSpeedMultiplier,0.3
;   useSkirt,0
;   skirtExtruder,0
;   skirtLayers,1
;   skirtOutlines,5
;   skirtOffset,0
;   usePrimePillar,0
;   primePillarExtruder,999
;   primePillarWidth,12
;   primePillarLocation,7
;   primePillarSpeedMultiplier,1
;   useOozeShield,0
;   oozeShieldExtruder,999
;   oozeShieldOffset,2
;   oozeShieldOutlines,1
;   oozeShieldSidewallShape,1
;   oozeShieldSidewallAngle,30
;   oozeShieldSpeedMultiplier,1
;   infillExtruder,0
;   internalInfillPattern,Rectilinear
;   externalInfillPattern,Rectilinear
;   infillPercentage,15
;   outlineOverlapPercentage,25
;   infillExtrusionWidthPercentage,100
;   minInfillLength,5
;   infillLayerInterval,1
;   internalInfillAngles,45,-45
;   overlapInternalInfillAngles,0
;   externalInfillAngles,45,-45
;   generateSupport,0
;   supportExtruder,0
;   supportInfillPercentage,5
;   supportExtraInflation,0.5
;   supportBaseLayers,0
;   denseSupportExtruder,0
;   denseSupportLayers,2
;   denseSupportInfillPercentage,90
;   supportLayerInterval,1
;   supportHorizontalPartOffset,0.3
;   supportUpperSeparationLayers,1
;   supportLowerSeparationLayers,1
;   supportType,1
;   supportGridSpacing,2
;   maxOverhangAngle,45
;   supportAngles,45,-45
;   temperatureName,Primary Extruder,Heated Build Platform
;   temperatureNumber,0,0
;   temperatureSetpointCount,1,1
;   temperatureSetpointLayers,1,1
;   temperatureSetpointTemperatures,230,60
;   temperatureStabilizeAtStartup,1,1
;   temperatureHeatedBed,0,1
;   fanLayers,1,2
;   fanSpeeds,0,100
;   blipFanToFullPower,1
;   adjustSpeedForCooling,1
;   minSpeedLayerTime,15
;   minCoolingSpeedSlowdown,20
;   increaseFanForCooling,1
;   minFanLayerTime,45
;   maxCoolingFanSpeed,100
;   increaseFanForBridging,1
;   bridgingFanSpeed,100
;   use5D,1
;   relativeEdistances,1
;   allowEaxisZeroing,0
;   independentExtruderAxes,1
;   includeM10123,0
;   stickySupport,1
;   applyToolheadOffsets,0
;   gcodeXoffset,0
;   gcodeYoffset,0
;   gcodeZoffset,0
;   overrideMachineDefinition,1
;   machineTypeOverride,0
;   strokeXoverride,280
;   strokeYoverride,150
;   strokeZoverride,150
;   originOffsetXoverride,140
;   originOffsetYoverride,75
;   originOffsetZoverride,0
;   homeXdirOverride,1
;   homeYdirOverride,1
;   homeZdirOverride,-1
;   flipXoverride,1
;   flipYoverride,-1
;   flipZoverride,1
;   toolheadOffsets,0,0|0,0|0,0|0,0|0,0|0,0
;   overrideFirmwareConfiguration,1
;   firmwareTypeOverride,MakerBot/Sailfish Firmware
;   GPXconfigOverride,r2h
;   baudRateOverride,115200
;   overridePrinterModels,1
;   printerModelsOverride,MakerBot_Replicator2.stl
;   startingGcode,; **** Replicator 2 start.gcode ****,M73 P0 ; enable build progress,G162 X Y F3000 ; home XY maximum,G161 Z F1200 ; home Z minimum,G92 Z-5 ; set Z to -5,G1 Z0 ; move Z to 0,G161 Z F100 ; home Z slowly,M132 X Y Z A B ; recall home offsets,G1 X-145 Y-75 Z30 F9000 ; move to wait position off table,G130 X20 Y20 Z20 A20 B20 ; lower stepper Vrefs while heating,M126 S[fan_speed_pwm],M140 S[bed0_temperature] T0,M134 T0 ; stabilize bed temperature,M104 S[extruder0_temperature] T0,M133 T0 ; stabilize extruder temperature,G130 X127 Y127 Z40 A127 B127 ; default stepper Vrefs,G92 A0 ; zero extruder,G1 Z0.4 ; position nozzle,G1 E25 F300 ; purge nozzle,G1 X-140 Y-70 Z0.15 F1200 ; slow wipe,G1 X-135 Y-65 Z0.5 F1200 ; lift,G92 A0 ; zero extruder,M73 P1 ;@body (notify GPX body has started),; **** end of start.gcode ****
;   layerChangeGcode,
;   retractionGcode,
;   toolChangeGcode,
;   endingGcode,; **** Replicator 2 end.gcode ****,M73 P100 ; end build progress,G1 Z155 F1000 ; send Z axis to bottom of machine,M104 S0 T0 ; cool down extruder,M140 S0 T0 ; cool down HBP,M127 ; stop blower fan,G162 X Y F3000 ; home XY maximum,M18 ; disable stepper,M0 ; stop codes,M72 P1 ; play Ta-Da song,; **** end of end.gcode ****
;   exportFileFormat,gcode
;   celebration,0
;   celebrationSong,Random Song
;   postProcessing,
;   defaultSpeed,4800
;   outlineUnderspeed,0.5
;   solidInfillUnderspeed,1
;   supportUnderspeed,1
;   rapidXYspeed,9000
;   rapidZspeed,1200
;   minBridgingArea,50
;   bridgingExtraInflation,0
;   bridgingExtrusionMultiplier,1
;   bridgingSpeedMultiplier,0.8
;   useFixedBridgingAngle,0
;   fixedBridgingAngle,0
;   applyBridgingToPerimeters,0
;   filamentDiameters,1.75|1.75|1.75|1.75|1.75|1.75
;   filamentPricesPerKg,46|46|46|46|46|46
;   filamentDensities,1.25|1.25|1.25|1.25|1.25|1.25
;   useMinPrintHeight,0
;   minPrintHeight,0
;   useMaxPrintHeight,0
;   maxPrintHeight,4.84
;   useDiaphragm,0
;   diaphragmLayerInterval,20
;   robustSlicing,1
;   mergeAllIntoSolid,0
;   onlyRetractWhenCrossingOutline,0
;   retractBetweenLayers,0
;   useRetractionMinTravel,1
;   retractionMinTravel,7
;   retractWhileWiping,1
;   onlyWipeOutlines,1
;   avoidCrossingOutline,0
;   maxMovementDetourFactor,3
;   toolChangeRetractionDistance,12
;   toolChangeExtraRestartDistance,-0.5
;   toolChangeRetractionSpeed,600
;   externalThinWallType,0
;   internalThinWallType,0
;   thinWallAllowedOverlapPercentage,10
;   singleExtrusionMinLength,1
;   singleExtrusionMinPrintingWidthPercentage,50
;   singleExtrusionMaxPrintingWidthPercentage,200
;   singleExtrusionEndpointExtension,0.2
;   horizontalSizeCompensation,0
G90
M83
; **** Replicator 2 start.gcode ****
M73 P0 ; enable build progress
G162 X Y F3000 ; home XY maximum
G161 Z F1200 ; home Z minimum
G92 Z-5 ; set Z to -5
G1 Z0 ; move Z to 0
G161 Z F100 ; home Z slowly
M132 X Y Z A B ; recall home offsets
G1 X-145 Y-75 Z30 F9000 ; move to wait position off table
G130 X20 Y20 Z20 A20 B20 ; lower stepper Vrefs while heating
M127
M140 S60 T0
M134 T0 ; stabilize bed temperature
M104 S230 T0
M133 T0 ; stabilize extruder temperature
G130 X127 Y127 Z40 A127 B127 ; default stepper Vrefs
G92 A0 ; zero extruder
G1 Z0.4 ; position nozzle
G1 E25 F300 ; purge nozzle
G1 X-140 Y-70 Z0.15 F1200 ; slow wipe
G1 X-135 Y-65 Z0.5 F1200 ; lift
G92 A0 ; zero extruder
M73 P1 ;@body (notify GPX body has started)
; **** end of start.gcode ****
; process Process1
; layer 1, Z = 0.200
M135 T0
G1 E-1.9000 F1200
; feature inner perimeter
; tool H0.200 W0.460
G1 Z0.500 F1200
G1 X-18.110 Y10.217 F9000
G1 Z0.200 F1200
G1 E1.9000 F1200
G1 X-22.052 Y3.063 E0.3124 F1800
G1 X-25.972 Y6.256 E0.1934
G1 X-25.820 Y1.394 E0.1860
G1 X-33.013 Y3.357 E0.2852
G1 X-27.835 Y-0.605 E0.2494
G1 X-31.239 Y-2.108 E0.1423
G1 X-27.056 Y-3.432 E0.1678
G1 X-33.075 Y-6.531 E0.2589
G1 X-25.771 Y-6.460 E0.2794
G1 X-25.232 Y-10.871 E0.1700
G1 X-21.631 Y-7.278 E0.1946
G1 X-19.057 Y-8.977 E0.1180
G1 X-18.317 Y-7.378 E0.0674
G1 X-13.371 Y-9.474 E0.2055
G1 X-13.330 Y-7.236 E0.0856
G1 X-5.486 Y-9.657 E0.3140
G1 X-10.913 Y-5.020 E0.2730
G1 X-6.860 Y-2.521 E0.1821
G1 X-12.013 Y-1.799 E0.1990
G1 X-7.484 Y2.140 E0.2296
G1 X-14.450 Y1.213 E0.2688
G1 X-13.117 Y6.115 E0.1943
G1 X-17.175 Y3.658 E0.1814
G1 X-18.110 Y10.217 E0.2534
; feature outer perimeter
G1 X-17.849 Y11.644 F9000
G1 X-22.189 Y3.768 E0.3440 F1200
G1 X-26.463 Y7.249 E0.2109
G1 X-26.299 Y2.002 E0.2008
G1 X-35.159 Y4.420 E0.3513
G1 X-28.732 Y-0.498 E0.3095
G1 X-32.538 Y-2.180 E0.1592
G1 X-28.259 Y-3.534 E0.1717
G1 X-35.010 Y-7.010 E0.2904
G1 X-26.177 Y-6.924 E0.3378
G1 X-25.574 Y-11.862 E0.1903
G1 X-21.571 Y-7.869 E0.2163
G1 X-18.864 Y-9.656 E0.1241
G1 X-18.086 Y-7.975 E0.0708
G1 X-12.923 Y-10.163 E0.2145
G1 X-12.881 Y-7.856 E0.0882
G1 X-3.495 Y-10.753 E0.3757
G1 X-10.134 Y-5.080 E0.3340
G1 X-5.532 Y-2.243 E0.2068
G1 X-10.950 Y-1.483 E0.2092
G1 X-6.026 Y2.798 E0.2495
G1 X-13.824 Y1.760 E0.3009
G1 X-12.372 Y7.105 E0.2118
G1 X-16.817 Y4.412 E0.1988
G1 X-17.849 Y11.644 E0.2794
; feature solid layer
G1 X-18.290 Y9.033 F9000
G1 X-18.465 Y8.857 E0.0095 F2400
G1 X-19.264 Y7.408 E0.0633
G1 X-18.208 Y8.464 E0.0571
G1 X-18.127 Y7.894 E0.0220
G1 X-20.062 Y5.959 E0.1047
G1 X-20.861 Y4.510 E0.0633
G1 X-18.046 Y7.325 E0.1522
G1 X-17.965 Y6.756 E0.0220
G1 X-21.659 Y3.062 E0.1998
G1 X-25.489 Y1.834 F9000
G1 X-23.514 Y3.809 E0.1068 F2400
G1 X-23.872 Y4.101 E0.0177
G1 X-25.508 Y2.465 E0.0885
G1 X-25.528 Y3.096 E0.0241
G1 X-24.231 Y4.393 E0.0702
G1 X-24.589 Y4.685 E0.0177
G1 X-25.548 Y3.726 E0.0519
G1 X-25.567 Y4.357 E0.0241
G1 X-24.948 Y4.977 E0.0335
G1 X-25.306 Y5.269 E0.0177
G1 X-25.587 Y4.988 E0.0152
G1 X-27.641 Y-0.318 F9000
G1 X-26.186 Y1.137 E0.0787 F2400
G1 X-26.697 Y1.276 E0.0203
G1 X-28.010 Y-0.036 E0.0710
G1 X-28.378 Y0.246 E0.0177
G1 X-27.208 Y1.416 E0.0633
G1 X-27.719 Y1.555 E0.0203
G1 X-28.747 Y0.527 E0.0556
G1 X-29.115 Y0.809 E0.0177
G1 X-28.230 Y1.695 E0.0479
G1 X-28.741 Y1.834 E0.0203
G1 X-29.484 Y1.091 E0.0402
G1 X-29.852 Y1.373 E0.0177
G1 X-29.252 Y1.973 E0.0325
G1 X-29.763 Y2.113 E0.0203
G1 X-30.221 Y1.655 E0.0247
G1 X-30.590 Y1.937 E0.0177
G1 X-30.275 Y2.252 E0.0170
G1 X-30.786 Y2.392 E0.0203
G1 X-30.958 Y2.219 E0.0093
G1 X-31.327 Y2.501 E0.0177
G1 X-31.297 Y2.531 E0.0016
G1 X-30.085 Y-2.112 F9000
G1 X-29.841 Y-1.868 E0.0132 F2400
G1 X-28.676 Y-1.353 E0.0487
G1 X-29.591 Y-2.268 E0.0495
G1 X-29.097 Y-2.425 E0.0198
G1 X-27.510 Y-0.838 E0.0858
G1 X-27.162 Y-0.685 E0.0145
G1 X-27.272 Y-0.600 E0.0053
G1 X-25.675 Y0.997 E0.0864
G1 X-25.461 Y0.939 E0.0085
G1 X-25.469 Y1.203 E0.0101
G1 X-23.155 Y3.517 E0.1252
G1 X-22.796 Y3.225 E0.0177
G1 X-28.603 Y-2.581 E0.3141
G1 X-28.108 Y-2.737 E0.0198
G1 X-22.438 Y2.933 E0.3067
G1 X-22.079 Y2.641 E0.0177
G1 X-27.614 Y-2.894 E0.2994
G1 X-27.120 Y-3.050 E0.0198
G1 X-17.884 Y6.186 E0.4996
G1 X-17.802 Y5.617 E0.0220
G1 X-26.626 Y-3.207 E0.4773
G1 X-31.542 Y-6.171 F9000
G1 X-31.458 Y-6.087 E0.0046 F2400
G1 X-30.117 Y-5.396 E0.0577
G1 X-30.885 Y-6.165 E0.0416
G1 X-30.228 Y-6.159 E0.0251
G1 X-28.776 Y-4.706 E0.0786
G1 X-27.435 Y-4.015 E0.0577
G1 X-29.572 Y-6.152 E0.1156
G1 X-28.915 Y-6.146 E0.0251
G1 X-17.721 Y5.048 E0.6055
G1 X-17.640 Y4.478 E0.0220
G1 X-28.258 Y-6.139 E0.5743
G1 X-27.601 Y-6.133 E0.0251
G1 X-17.559 Y3.909 E0.5432
G1 X-17.478 Y3.340 E0.0220
G1 X-26.944 Y-6.127 E0.5121
G1 X-26.287 Y-6.120 E0.0251
G1 X-16.509 Y3.658 E0.5289
G1 X-14.859 Y4.657 E0.0738
G1 X-25.630 Y-6.114 E0.5826
G1 X-25.466 Y-6.112 E0.0063
G1 X-25.413 Y-6.547 E0.0167
G1 X-13.745 Y5.120 E0.6311
G1 X-13.988 Y4.227 E0.0354
G1 X-25.342 Y-7.127 E0.6141
G1 X-25.271 Y-7.706 E0.0223
G1 X-14.231 Y3.333 E0.5972
G1 X-14.474 Y2.440 E0.0354
G1 X-25.200 Y-8.286 E0.5802
G1 X-25.129 Y-8.866 E0.0223
G1 X-14.717 Y1.547 E0.5632
G1 X-14.919 Y0.803 E0.0295
G1 X-14.794 Y0.819 E0.0048
G1 X-25.058 Y-9.445 E0.5552
G1 X-24.987 Y-10.025 E0.0223
G1 X-14.043 Y0.919 E0.5920
G1 X-13.293 Y1.019 E0.0290
G1 X-21.357 Y-7.045 E0.4362
G1 X-20.965 Y-7.304 E0.0180
G1 X-12.543 Y1.119 E0.4556
G1 X-11.792 Y1.218 E0.0290
G1 X-20.573 Y-7.563 E0.4750
G1 X-20.182 Y-7.821 E0.0180
G1 X-11.042 Y1.318 E0.4944
G1 X-10.292 Y1.418 E0.0290
G1 X-19.790 Y-8.080 E0.5138
G1 X-19.398 Y-8.339 E0.0180
G1 X-18.921 Y-7.862 E0.0258
G1 X-18.490 Y-6.930 E0.0393
G1 X-18.138 Y-7.079 E0.0146
G1 X-9.541 Y1.518 E0.4650
G1 X-8.791 Y1.618 E0.0290
G1 X-9.995 Y0.413 E0.0652
G1 X-12.811 Y-2.035 E0.1427
G1 X-12.489 Y-2.080 E0.0124
G1 X-17.681 Y-7.273 E0.2809
G1 X-17.224 Y-7.466 E0.0190
G1 X-11.918 Y-2.160 E0.2870
G1 X-11.348 Y-2.240 E0.0220
G1 X-16.767 Y-7.660 E0.2932
G1 X-16.310 Y-7.853 E0.0190
G1 X-10.777 Y-2.320 E0.2993
G1 X-10.207 Y-2.400 E0.0220
G1 X-15.854 Y-8.047 E0.3054
G1 X-13.698 Y-8.494 F9000
G1 X-14.026 Y-8.822 E0.0177 F2400
G1 X-14.483 Y-8.628 E0.0190
G1 X-13.686 Y-7.831 E0.0431
G1 X-13.674 Y-7.168 E0.0253
G1 X-14.940 Y-8.434 E0.0685
G1 X-15.397 Y-8.241 E0.0190
G1 X-9.636 Y-2.480 E0.3116
G1 X-9.066 Y-2.560 E0.0220
G1 X-11.454 Y-4.948 E0.1292
G1 X-11.497 Y-4.975 E0.0019
G1 X-11.488 Y-4.982 E0.0004
G1 X-13.369 Y-6.863 E0.1017
G1 X-12.872 Y-7.017 E0.0199
G1 X-11.137 Y-5.282 E0.0938
G1 X-10.786 Y-5.582 E0.0176
G1 X-12.375 Y-7.170 E0.0859
G1 X-11.877 Y-7.324 E0.0199
G1 X-10.435 Y-5.882 E0.0780
G1 X-10.085 Y-6.181 E0.0176
G1 X-11.380 Y-7.477 E0.0701
G1 X-10.883 Y-7.630 E0.0199
G1 X-9.734 Y-6.481 E0.0622
G1 X-9.383 Y-6.781 E0.0176
G1 X-10.386 Y-7.784 E0.0543
G1 X-9.889 Y-7.937 E0.0199
G1 X-9.032 Y-7.081 E0.0463
G1 X-8.681 Y-7.380 E0.0176
G1 X-9.392 Y-8.091 E0.0384
G1 X-8.895 Y-8.244 E0.0199
G1 X-8.331 Y-7.680 E0.0305
G1 X-7.980 Y-7.980 E0.0176
G1 X-8.397 Y-8.398 E0.0226
G1 X-7.900 Y-8.551 E0.0199
G1 X-7.629 Y-8.280 E0.0147
G1 X-7.278 Y-8.579 E0.0176
G1 X-7.403 Y-8.704 E0.0068
G1 X-9.757 Y-3.902 F9000
G1 X-8.495 Y-2.640 E0.0683 F2400
G1 X-7.925 Y-2.720 E0.0220
G1 X-8.060 Y-2.856 E0.0073
G1 E-1.9000 F1200
; feature inner perimeter
G1 Z0.700 F1200
G1 X20.622 Y10.217 F9000
G1 Z0.200 F1200
G1 E1.9000 F1200
G1 X16.680 Y3.063 E0.3124 F1800
G1 X12.760 Y6.256 E0.1934
G1 X12.912 Y1.394 E0.1860
G1 X5.718 Y3.357 E0.2852
G1 X10.897 Y-0.605 E0.2494
G1 X7.493 Y-2.108 E0.1423
G1 X11.675 Y-3.432 E0.1678
G1 X5.657 Y-6.531 E0.2589
G1 X12.961 Y-6.460 E0.2794
G1 X13.500 Y-10.871 E0.1700
G1 X17.101 Y-7.278 E0.1946
G1 X19.675 Y-8.977 E0.1180
G1 X20.415 Y-7.378 E0.0674
G1 X25.361 Y-9.474 E0.2055
G1 X25.402 Y-7.236 E0.0856
G1 X33.246 Y-9.657 E0.3140
G1 X27.819 Y-5.020 E0.2730
G1 X31.872 Y-2.521 E0.1821
G1 X26.718 Y-1.799 E0.1990
G1 X31.248 Y2.140 E0.2296
G1 X24.282 Y1.213 E0.2688
G1 X25.614 Y6.115 E0.1943
G1 X21.557 Y3.658 E0.1814
G1 X20.622 Y10.217 E0.2534
; feature outer perimeter
G1 X20.883 Y11.644 F9000
G1 X16.543 Y3.768 E0.3440 F1200
G1 X12.269 Y7.249 E0.2109
G1 X12.432 Y2.002 E0.2008
G1 X3.573 Y4.420 E0.3513
G1 X10.000 Y-0.498 E0.3095
G1 X6.194 Y-2.180 E0.1592
G1 X10.473 Y-3.534 E0.1717
G1 X3.722 Y-7.010 E0.2904
G1 X12.554 Y-6.924 E0.3378
G1 X13.158 Y-11.862 E0.1903
G1 X17.161 Y-7.869 E0.2163
G1 X19.868 Y-9.656 E0.1241
G1 X20.645 Y-7.975 E0.0708
G1 X25.809 Y-10.163 E0.2145
G1 X25.851 Y-7.856 E0.0882
G1 X35.237 Y-10.753 E0.3757
G1 X28.598 Y-5.080 E0.3340
G1 X33.199 Y-2.243 E0.2068
G1 X27.782 Y-1.483 E0.2092
G1 X32.705 Y2.798 E0.2495
G1 X24.907 Y1.760 E0.3009
G1 X26.360 Y7.105 E0.2118
G1 X21.914 Y4.412 E0.1988
G1 X20.883 Y11.644 E0.2794
; feature solid layer
G1 X20.480 Y8.770 F9000
G1 X19.897 Y8.188 E0.0315 F2400
G1 X19.099 Y6.739 E0.0633
G1 X20.561 Y8.201 E0.0791
G1 X20.642 Y7.631 E0.0220
G1 X18.301 Y5.290 E0.1267
G1 X13.233 Y5.426 F9000
G1 X13.134 Y5.327 E0.0053 F2400
G1 X13.154 Y4.697 E0.0241
G1 X13.591 Y5.134 E0.0237
G1 X13.950 Y4.842 E0.0177
G1 X13.173 Y4.066 E0.0420
G1 X13.193 Y3.435 E0.0241
G1 X14.308 Y4.550 E0.0603
G1 X14.667 Y4.258 E0.0177
G1 X13.213 Y2.804 E0.0786
G1 X13.233 Y2.173 E0.0241
G1 X15.025 Y3.966 E0.0970
G1 X15.384 Y3.674 E0.0177
G1 X13.252 Y1.543 E0.1153
G1 X11.261 Y-0.449 F9000
G1 X12.782 Y1.072 E0.0823 F2400
G1 X12.271 Y1.212 E0.0203
G1 X10.892 Y-0.167 E0.0746
G1 X10.524 Y0.115 E0.0177
G1 X11.760 Y1.351 E0.0669
G1 X11.249 Y1.491 E0.0203
G1 X10.155 Y0.397 E0.0591
G1 X9.787 Y0.679 E0.0177
G1 X10.738 Y1.630 E0.0514
G1 X10.227 Y1.770 E0.0203
G1 X9.418 Y0.961 E0.0437
G1 X9.050 Y1.243 E0.0177
G1 X9.715 Y1.909 E0.0360
