; G-Code generated by Simplify3D(R) Version 4.1.2
; Apr 6, 2020 at 11:30:05 AM
; Settings Summary
;   processName,Process1
;   applyToModels,Explosion Pro Bracket,Explosion Pro Bracket(2),Explosion Pro Bracket(3),Explosion Pro Bracket(2)(2)
;   profileName,MakerBot Replicator 2 HBP (modified)
;   profileVersion,2020-03-12 10:48:50
;   baseProfile,MakerBot Replicator 2(2)
;   printMaterial,PLA
;   printQuality,Medium
;   printExtruders,
;   extruderName,Primary Extruder
;   extruderToolheadNumber,0
;   extruderDiameter,0.4
;   extruderAutoWidth,0
;   extruderWidth,0.4
;   extrusionMultiplier,1
;   extruderUseRetract,1
;   extruderRetractionDistance,1.9
;   extruderExtraRestartDistance,0
;   extruderRetractionZLift,0.5
;   extruderRetractionSpeed,1200
;   extruderUseCoasting,0
;   extruderCoastingDistance,0.2
;   extruderUseWipe,0
;   extruderWipeDistance,5
;   primaryExtruder,0
;   layerHeight,0.2
;   topSolidLayers,3
;   bottomSolidLayers,3
;   perimeterOutlines,2
;   printPerimetersInsideOut,1
;   startPointOption,3
;   startPointOriginX,0
;   startPointOriginY,150
;   sequentialIslands,0
;   spiralVaseMode,0
;   firstLayerHeightPercentage,100
;   firstLayerWidthPercentage,115
;   firstLayerUnderspeed,0.5
;   useRaft,0
;   raftExtruder,0
;   raftTopLayers,2
;   raftBaseLayers,1
;   raftOffset,1
;   raftSeparationDistance,0.14
;   raftTopInfill,90
;   aboveRaftSpeedMultiplier,0.3
;   useSkirt,0
;   skirtExtruder,0
;   skirtLayers,1
;   skirtOutlines,5
;   skirtOffset,0
;   usePrimePillar,0
;   primePillarExtruder,999
;   primePillarWidth,12
;   primePillarLocation,7
;   primePillarSpeedMultiplier,1
;   useOozeShield,0
;   oozeShieldExtruder,999
;   oozeShieldOffset,2
;   oozeShieldOutlines,1
;   oozeShieldSidewallShape,1
;   oozeShieldSidewallAngle,30
;   oozeShieldSpeedMultiplier,1
;   infillExtruder,0
;   internalInfillPattern,Rectilinear
;   externalInfillPattern,Rectilinear
;   infillPercentage,15
;   outlineOverlapPercentage,25
;   infillExtrusionWidthPercentage,100
;   minInfillLength,5
;   infillLayerInterval,1
;   internalInfillAngles,45,-45
;   overlapInternalInfillAngles,0
;   externalInfillAngles,45,-45
;   generateSupport,0
;   supportExtruder,0
;   supportInfillPercentage,5
;   supportExtraInflation,0.5
;   supportBaseLayers,0
;   denseSupportExtruder,0
;   denseSupportLayers,2
;   denseSupportInfillPercentage,90
;   supportLayerInterval,1
;   supportHorizontalPartOffset,0.3
;   supportUpperSeparationLayers,1
;   supportLowerSeparationLayers,1
;   supportType,1
;   supportGridSpacing,2
;   maxOverhangAngle,45
;   supportAngles,45,-45
;   temperatureName,Primary Extruder,Heated Build Platform
;   temperatureNumber,0,0
;   temperatureSetpointCount,1,1
;   temperatureSetpointLayers,1,1
;   temperatureSetpointTemperatures,230,60
;   temperatureStabilizeAtStartup,1,1
;   temperatureHeatedBed,0,1
;   fanLayers,1,2
;   fanSpeeds,0,100
;   blipFanToFullPower,1
;   adjustSpeedForCooling,1
;   minSpeedLayerTime,15
;   minCoolingSpeedSlowdown,20
;   increaseFanForCooling,1
;   minFanLayerTime,45
;   maxCoolingFanSpeed,100
;   increaseFanForBridging,1
;   bridgingFanSpeed,100
;   use5D,1
;   relativeEdistances,1
;   allowEaxisZeroing,0
;   independentExtruderAxes,1
;   includeM10123,0
;   stickySupport,1
;   applyToolheadOffsets,0
;   gcodeXoffset,0
;   gcodeYoffset,0
;   gcodeZoffset,0
;   overrideMachineDefinition,1
;   machineTypeOverride,0
;   strokeXoverride,280
;   strokeYoverride,150
;   strokeZoverride,150
;   originOffsetXoverride,140
;   originOffsetYoverride,75
;   originOffsetZoverride,0
;   homeXdirOverride,1
;   homeYdirOverride,1
;   homeZdirOverride,-1
;   flipXoverride,1
;   flipYoverride,-1
;   flipZoverride,1
;   toolheadOffsets,0,0|0,0|0,0|0,0|0,0|0,0
;   overrideFirmwareConfiguration,1
;   firmwareTypeOverride,MakerBot/Sailfish Firmware
;   GPXconfigOverride,r2h
;   baudRateOverride,115200
;   overridePrinterModels,1
;   printerModelsOverride,MakerBot_Replicator2.stl
;   startingGcode,; **** Replicator 2 start.gcode ****,M73 P0 ; enable build progress,G162 X Y F3000 ; home XY maximum,G161 Z F1200 ; home Z minimum,G92 Z-5 ; set Z to -5,G1 Z0 ; move Z to 0,G161 Z F100 ; home Z slowly,M132 X Y Z A B ; recall home offsets,G1 X-145 Y-75 Z30 F9000 ; move to wait position off table,G130 X20 Y20 Z20 A20 B20 ; lower stepper Vrefs while heating,M126 S[fan_speed_pwm],M140 S[bed0_temperature] T0,M134 T0 ; stabilize bed temperature,M104 S[extruder0_temperature] T0,M133 T0 ; stabilize extruder temperature,G130 X127 Y127 Z40 A127 B127 ; default stepper Vrefs,G92 A0 ; zero extruder,G1 Z0.4 ; position nozzle,G1 E25 F300 ; purge nozzle,G1 X-140 Y-70 Z0.15 F1200 ; slow wipe,G1 X-135 Y-65 Z0.5 F1200 ; lift,G92 A0 ; zero extruder,M73 P1 ;@body (notify GPX body has started),; **** end of start.gcode ****
;   layerChangeGcode,
;   retractionGcode,
;   toolChangeGcode,
;   endingGcode,; **** Replicator 2 end.gcode ****,M73 P100 ; end build progress,G1 Z155 F1000 ; send Z axis to bottom of machine,M104 S0 T0 ; cool down extruder,M140 S0 T0 ; cool down HBP,M127 ; stop blower fan,G162 X Y F3000 ; home XY maximum,M18 ; disable stepper,M0 ; stop codes,M72 P1 ; play Ta-Da song,; **** end of end.gcode ****
;   exportFileFormat,gcode
;   celebration,0
;   celebrationSong,Random Song
;   postProcessing,
;   defaultSpeed,4800
;   outlineUnderspeed,0.5
;   solidInfillUnderspeed,1
;   supportUnderspeed,1
;   rapidXYspeed,9000
;   rapidZspeed,1200
;   minBridgingArea,50
;   bridgingExtraInflation,0
;   bridgingExtrusionMultiplier,1
;   bridgingSpeedMultiplier,0.8
;   useFixedBridgingAngle,0
;   fixedBridgingAngle,0
;   applyBridgingToPerimeters,0
;   filamentDiameters,1.75|1.75|1.75|1.75|1.75|1.75
;   filamentPricesPerKg,46|46|46|46|46|46
;   filamentDensities,1.25|1.25|1.25|1.25|1.25|1.25
;   useMinPrintHeight,0
;   minPrintHeight,0
;   useMaxPrintHeight,0
;   maxPrintHeight,4.84
;   useDiaphragm,0
;   diaphragmLayerInterval,20
;   robustSlicing,1
;   mergeAllIntoSolid,0
;   onlyRetractWhenCrossingOutline,0
;   retractBetweenLayers,0
;   useRetractionMinTravel,1
;   retractionMinTravel,7
;   retractWhileWiping,1
;   onlyWipeOutlines,1
;   avoidCrossingOutline,0
;   maxMovementDetourFactor,3
;   toolChangeRetractionDistance,12
;   toolChangeExtraRestartDistance,-0.5
;   toolChangeRetractionSpeed,600
;   externalThinWallType,0
;   internalThinWallType,0
;   thinWallAllowedOverlapPercentage,10
;   singleExtrusionMinLength,1
;   singleExtrusionMinPrintingWidthPercentage,50
;   singleExtrusionMaxPrintingWidthPercentage,200
;   singleExtrusionEndpointExtension,0.2
;   horizontalSizeCompensation,0
G90
M83
; **** Replicator 2 start.gcode ****
M73 P0 ; enable build progress
G162 X Y F3000 ; home XY maximum
G161 Z F1200 ; home Z minimum
G92 Z-5 ; set Z to -5
G1 Z0 ; move Z to 0
G161 Z F100 ; home Z slowly
M132 X Y Z A B ; recall home offsets
G1 X-145 Y-75 Z30 F9000 ; move to wait position off table
G130 X20 Y20 Z20 A20 B20 ; lower stepper Vrefs while heating
M127
M140 S60 T0
M134 T0 ; stabilize bed temperature
M104 S230 T0
M133 T0 ; stabilize extruder temperature
G130 X127 Y127 Z40 A127 B127 ; default stepper Vrefs
G92 A0 ; zero extruder
G1 Z0.4 ; position nozzle
G1 E25 F300 ; purge nozzle
G1 X-140 Y-70 Z0.15 F1200 ; slow wipe
G1 X-135 Y-65 Z0.5 F1200 ; lift
G92 A0 ; zero extruder
M73 P1 ;@body (notify GPX body has started)
; **** end of start.gcode ****
; process Process1
; layer 1, Z = 0.200
M135 T0
G1 E-1.9000 F1200
; feature inner perimeter
; tool H0.200 W0.460
G1 Z0.500 F1200
G1 X21.081 Y-3.190 F9000
G1 Z0.200 F1200
G1 E1.9000 F1200
G1 X-21.081 Y-3.190 E1.6126 F1800
G1 X-22.034 Y-3.383 E0.0372
G1 X-22.604 Y-3.813 E0.0273
G1 X-22.810 Y-4.394 E0.0236
G1 X-22.810 Y-36.106 E1.2130
G1 X-22.604 Y-36.687 E0.0236
G1 X-22.034 Y-37.117 E0.0273
G1 X-21.081 Y-37.310 E0.0372
G1 X21.081 Y-37.310 E1.6126
G1 X22.034 Y-37.117 E0.0372
G1 X22.604 Y-36.687 E0.0273
G1 X22.810 Y-36.106 E0.0236
G1 X22.810 Y-4.394 E1.2130
G1 X22.604 Y-3.813 E0.0236
G1 X22.034 Y-3.383 E0.0273
G1 X21.081 Y-3.190 E0.0372
; feature outer perimeter
G1 X21.127 Y-2.730 F9000
G1 X-21.127 Y-2.730 E1.6162 F1200
G1 X-22.228 Y-2.953 E0.0430
G1 X-22.991 Y-3.529 E0.0366
G1 X-23.270 Y-4.315 E0.0319
G1 X-23.270 Y-36.185 E1.2190
G1 X-22.991 Y-36.971 E0.0319
G1 X-22.228 Y-37.547 E0.0366
G1 X-21.127 Y-37.770 E0.0430
G1 X21.127 Y-37.770 E1.6162
G1 X22.228 Y-37.547 E0.0430
G1 X22.991 Y-36.971 E0.0366
G1 X23.270 Y-36.185 E0.0319
G1 X23.270 Y-4.315 E1.2190
G1 X22.991 Y-3.529 E0.0319
G1 X22.228 Y-2.953 E0.0366
G1 X21.127 Y-2.730 E0.0430
; feature inner perimeter
G1 X16.655 Y-5.726 F9000
G1 X16.950 Y-6.278 E0.0239 F1800
G1 X17.132 Y-6.877 E0.0239
G1 X17.193 Y-7.500 E0.0239
G1 X17.132 Y-8.123 E0.0239
G1 X16.950 Y-8.722 E0.0239
G1 X16.655 Y-9.274 E0.0239
G1 X16.258 Y-9.758 E0.0239
G1 X15.774 Y-10.155 E0.0239
G1 X15.222 Y-10.450 E0.0239
G1 X14.623 Y-10.632 E0.0239
G1 X14.000 Y-10.693 E0.0239
G1 X13.377 Y-10.632 E0.0239
G1 X12.778 Y-10.450 E0.0239
G1 X12.226 Y-10.155 E0.0239
G1 X11.742 Y-9.758 E0.0239
G1 X11.345 Y-9.274 E0.0239
G1 X11.050 Y-8.722 E0.0239
G1 X10.868 Y-8.123 E0.0239
G1 X10.807 Y-7.500 E0.0239
G1 X10.868 Y-6.877 E0.0239
G1 X11.050 Y-6.278 E0.0239
G1 X11.345 Y-5.726 E0.0239
G1 X11.742 Y-5.242 E0.0239
G1 X12.226 Y-4.845 E0.0239
G1 X12.778 Y-4.550 E0.0239
G1 X13.377 Y-4.368 E0.0239
G1 X14.000 Y-4.307 E0.0239
G1 X14.623 Y-4.368 E0.0239
G1 X15.222 Y-4.550 E0.0239
G1 X15.774 Y-4.845 E0.0239
G1 X16.258 Y-5.242 E0.0239
G1 X16.655 Y-5.726 E0.0239
; feature outer perimeter
G1 X16.271 Y-5.983 F9000
G1 X16.523 Y-6.455 E0.0205 F1200
G1 X16.679 Y-6.967 E0.0205
G1 X16.731 Y-7.500 E0.0205
G1 X16.679 Y-8.033 E0.0205
G1 X16.523 Y-8.545 E0.0205
G1 X16.271 Y-9.017 E0.0205
G1 X15.931 Y-9.431 E0.0205
G1 X15.517 Y-9.771 E0.0205
G1 X15.045 Y-10.023 E0.0205
G1 X14.533 Y-10.179 E0.0205
G1 X14.000 Y-10.231 E0.0205
G1 X13.467 Y-10.179 E0.0205
G1 X12.955 Y-10.023 E0.0205
G1 X12.483 Y-9.771 E0.0205
G1 X12.069 Y-9.431 E0.0205
G1 X11.729 Y-9.017 E0.0205
G1 X11.477 Y-8.545 E0.0205
G1 X11.321 Y-8.033 E0.0205
G1 X11.269 Y-7.500 E0.0205
G1 X11.321 Y-6.967 E0.0205
G1 X11.477 Y-6.455 E0.0205
G1 X11.729 Y-5.983 E0.0205
G1 X12.069 Y-5.569 E0.0205
G1 X12.483 Y-5.229 E0.0205
G1 X12.955 Y-4.977 E0.0205
G1 X13.467 Y-4.821 E0.0205
G1 X14.000 Y-4.769 E0.0205
G1 X14.533 Y-4.821 E0.0205
G1 X15.045 Y-4.977 E0.0205
G1 X15.517 Y-5.229 E0.0205
G1 X15.931 Y-5.569 E0.0205
G1 X16.271 Y-5.983 E0.0205
G1 E-1.9000 F1200
; feature inner perimeter
G1 Z0.700 F1200
G1 X6.147 Y-14.103 F9000
G1 Z0.200 F1200
G1 E1.9000 F1200
G1 X7.228 Y-15.420 E0.0652 F1800
G1 X8.032 Y-16.923 E0.0652
G1 X8.526 Y-18.554 E0.0652
G1 X8.693 Y-20.250 E0.0652
G1 X8.526 Y-21.946 E0.0652
G1 X8.032 Y-23.577 E0.0652
G1 X7.228 Y-25.080 E0.0652
G1 X6.147 Y-26.397 E0.0652
G1 X4.830 Y-27.478 E0.0652
G1 X3.327 Y-28.282 E0.0652
G1 X1.696 Y-28.776 E0.0652
G1 X-0.000 Y-28.943 E0.0652
G1 X-1.696 Y-28.776 E0.0652
G1 X-3.327 Y-28.282 E0.0652
G1 X-4.830 Y-27.478 E0.0652
G1 X-6.147 Y-26.397 E0.0652
G1 X-7.228 Y-25.080 E0.0652
G1 X-8.032 Y-23.577 E0.0652
G1 X-8.526 Y-21.946 E0.0652
G1 X-8.693 Y-20.250 E0.0652
G1 X-8.526 Y-18.554 E0.0652
G1 X-8.032 Y-16.923 E0.0652
G1 X-7.228 Y-15.420 E0.0652
G1 X-6.147 Y-14.103 E0.0652
G1 X-4.830 Y-13.022 E0.0652
G1 X-3.327 Y-12.218 E0.0652
G1 X-1.696 Y-11.724 E0.0652
G1 X-0.000 Y-11.557 E0.0652
G1 X1.696 Y-11.724 E0.0652
G1 X3.327 Y-12.218 E0.0652
G1 X4.830 Y-13.022 E0.0652
G1 X6.147 Y-14.103 E0.0652
; feature outer perimeter
G1 X5.820 Y-14.430 F9000
G1 X6.844 Y-15.677 E0.0617 F1200
G1 X7.605 Y-17.100 E0.0617
G1 X8.073 Y-18.644 E0.0617
G1 X8.231 Y-20.250 E0.0617
G1 X8.073 Y-21.856 E0.0617
G1 X7.605 Y-23.400 E0.0617
G1 X6.844 Y-24.823 E0.0617
G1 X5.820 Y-26.070 E0.0617
G1 X4.573 Y-27.094 E0.0617
G1 X3.150 Y-27.855 E0.0617
G1 X1.606 Y-28.323 E0.0617
G1 X-0.000 Y-28.481 E0.0617
G1 X-1.606 Y-28.323 E0.0617
G1 X-3.150 Y-27.855 E0.0617
G1 X-4.573 Y-27.094 E0.0617
G1 X-5.820 Y-26.070 E0.0617
G1 X-6.844 Y-24.823 E0.0617
G1 X-7.605 Y-23.400 E0.0617
G1 X-8.073 Y-21.856 E0.0617
G1 X-8.231 Y-20.250 E0.0617
G1 X-8.073 Y-18.644 E0.0617
G1 X-7.605 Y-17.100 E0.0617
G1 X-6.844 Y-15.677 E0.0617
G1 X-5.820 Y-14.430 E0.0617
G1 X-4.573 Y-13.406 E0.0617
G1 X-3.150 Y-12.645 E0.0617
G1 X-1.606 Y-12.177 E0.0617
G1 X-0.000 Y-12.019 E0.0617
G1 X1.606 Y-12.177 E0.0617
G1 X3.150 Y-12.645 E0.0617
G1 X4.573 Y-13.406 E0.0617
G1 X5.820 Y-14.430 E0.0617
G1 E-1.9000 F1200
; feature inner perimeter
G1 Z0.700 F1200
G1 X-11.050 Y-8.722 F9000
G1 Z0.200 F1200
G1 E1.9000 F1200
G1 X-11.345 Y-9.274 E0.0239 F1800
G1 X-11.742 Y-9.758 E0.0239
G1 X-12.226 Y-10.155 E0.0239
G1 X-12.778 Y-10.450 E0.0239
G1 X-13.377 Y-10.632 E0.0239
G1 X-14.000 Y-10.693 E0.0239
G1 X-14.623 Y-10.632 E0.0239
G1 X-15.222 Y-10.450 E0.0239
G1 X-15.774 Y-10.155 E0.0239
G1 X-16.258 Y-9.758 E0.0239
G1 X-16.655 Y-9.274 E0.0239
G1 X-16.950 Y-8.722 E0.0239
G1 X-17.132 Y-8.123 E0.0239
G1 X-17.193 Y-7.500 E0.0239
G1 X-17.132 Y-6.877 E0.0239
G1 X-16.950 Y-6.278 E0.0239
G1 X-16.655 Y-5.726 E0.0239
G1 X-16.258 Y-5.242 E0.0239
G1 X-15.774 Y-4.845 E0.0239
G1 X-15.222 Y-4.550 E0.0239
G1 X-14.623 Y-4.368 E0.0239
G1 X-14.000 Y-4.307 E0.0239
G1 X-13.377 Y-4.368 E0.0239
G1 X-12.778 Y-4.550 E0.0239
G1 X-12.226 Y-4.845 E0.0239
G1 X-11.742 Y-5.242 E0.0239
G1 X-11.345 Y-5.726 E0.0239
G1 X-11.050 Y-6.278 E0.0239
G1 X-10.868 Y-6.877 E0.0239
G1 X-10.807 Y-7.500 E0.0239
G1 X-10.868 Y-8.123 E0.0239
G1 X-11.050 Y-8.722 E0.0239
; feature outer perimeter
G1 X-11.477 Y-8.545 F9000
G1 X-11.729 Y-9.017 E0.0205 F1200
G1 X-12.069 Y-9.431 E0.0205
G1 X-12.483 Y-9.771 E0.0205
G1 X-12.955 Y-10.023 E0.0205
G1 X-13.467 Y-10.179 E0.0205
G1 X-14.000 Y-10.231 E0.0205
G1 X-14.533 Y-10.179 E0.0205
G1 X-15.045 Y-10.023 E0.0205
G1 X-15.517 Y-9.771 E0.0205
G1 X-15.931 Y-9.431 E0.0205
G1 X-16.271 Y-9.017 E0.0205
G1 X-16.523 Y-8.545 E0.0205
G1 X-16.679 Y-8.033 E0.0205
G1 X-16.731 Y-7.500 E0.0205
G1 X-16.679 Y-6.967 E0.0205
G1 X-16.523 Y-6.455 E0.0205
G1 X-16.271 Y-5.983 E0.0205
G1 X-15.931 Y-5.569 E0.0205
G1 X-15.517 Y-5.229 E0.0205
G1 X-15.045 Y-4.977 E0.0205
G1 X-14.533 Y-4.821 E0.0205
G1 X-14.000 Y-4.769 E0.0205
G1 X-13.467 Y-4.821 E0.0205
G1 X-12.955 Y-4.977 E0.0205
G1 X-12.483 Y-5.229 E0.0205
G1 X-12.069 Y-5.569 E0.0205
G1 X-11.729 Y-5.983 E0.0205
G1 X-11.477 Y-6.455 E0.0205
G1 X-11.321 Y-6.967 E0.0205
G1 X-11.269 Y-7.500 E0.0205
G1 X-11.321 Y-8.033 E0.0205
G1 X-11.477 Y-8.545 E0.0205
; feature solid layer
G1 X-10.499 Y-7.897 F9000
G1 X-6.137 Y-3.535 E0.2359 F2400
G1 X-6.788 Y-3.535 E0.0249
G1 X-10.486 Y-7.234 E0.2001
G1 X-10.528 Y-6.809 E0.0163
G1 X-10.571 Y-6.668 E0.0057
G1 X-7.438 Y-3.535 E0.1695
G1 X-8.089 Y-3.535 E0.0249
G1 X-10.722 Y-6.169 E0.1425
G1 X-10.729 Y-6.145 E0.0009
G1 X-10.945 Y-5.741 E0.0175
G1 X-8.739 Y-3.535 E0.1193
G1 X-9.390 Y-3.535 E0.0249
G1 X-11.206 Y-5.351 E0.0982
G1 X-11.500 Y-4.994 E0.0177
G1 X-10.040 Y-3.535 E0.0789
G1 X-10.691 Y-3.535 E0.0249
G1 X-11.857 Y-4.701 E0.0631
G1 X-12.033 Y-4.557 E0.0087
G1 X-12.248 Y-4.442 E0.0093
G1 X-11.341 Y-3.535 E0.0490
G1 X-11.992 Y-3.535 E0.0249
G1 X-12.677 Y-4.220 E0.0370
G1 X-13.176 Y-4.068 E0.0200
G1 X-12.643 Y-3.535 E0.0289
G1 X-13.293 Y-3.535 E0.0249
G1 X-13.743 Y-3.985 E0.0244
G1 X-14.000 Y-3.960 E0.0099
G1 X-14.409 Y-4.000 E0.0157
G1 X-13.944 Y-3.535 E0.0252
G1 X-14.594 Y-3.535 E0.0249
G1 X-15.260 Y-4.201 E0.0360
G1 X-22.018 Y-3.803 F9000
G1 X-22.353 Y-4.138 E0.0181 F2400
G1 X-22.465 Y-4.453 E0.0128
G1 X-22.465 Y-4.900 E0.0171
G1 X-21.113 Y-3.548 E0.0731
G1 X-21.046 Y-3.535 E0.0026
G1 X-20.449 Y-3.535 E0.0228
G1 X-22.465 Y-5.551 E0.1091
G1 X-22.465 Y-6.202 E0.0249
G1 X-19.798 Y-3.535 E0.1442
G1 X-19.148 Y-3.535 E0.0249
G1 X-22.465 Y-6.852 E0.1794
G1 X-22.465 Y-7.503 E0.0249
G1 X-18.497 Y-3.535 E0.2146
G1 X-17.847 Y-3.535 E0.0249
G1 X-22.465 Y-8.153 E0.2498
G1 X-22.465 Y-8.804 E0.0249
G1 X-17.196 Y-3.535 E0.2850
G1 X-16.546 Y-3.535 E0.0249
G1 X-22.465 Y-9.454 E0.3202
G1 X-22.465 Y-10.105 E0.0249
G1 X-15.895 Y-3.535 E0.3554
G1 X-15.245 Y-3.535 E0.0249
G1 X-22.465 Y-10.755 E0.3906
G1 X-22.465 Y-11.406 E0.0249
G1 X-17.299 Y-6.240 E0.2794
G1 X-17.472 Y-6.809 E0.0228
