; G-Code generated by Simplify3D(R) Version 4.1.2
; Apr 2, 2020 at 4:12:57 PM
; Settings Summary
;   processName,Process1
;   applyToModels,Conveter bracket,Conveter bracket(2),Conveter bracket(3),Conveter bracket(2)(2)
;   profileName,MakerBot Replicator 2 HBP (modified)
;   profileVersion,2020-03-12 10:48:50
;   baseProfile,MakerBot Replicator 2(2)
;   printMaterial,PLA
;   printQuality,Medium
;   printExtruders,
;   extruderName,Primary Extruder
;   extruderToolheadNumber,0
;   extruderDiameter,0.4
;   extruderAutoWidth,0
;   extruderWidth,0.4
;   extrusionMultiplier,1
;   extruderUseRetract,1
;   extruderRetractionDistance,1.9
;   extruderExtraRestartDistance,0
;   extruderRetractionZLift,0.5
;   extruderRetractionSpeed,1200
;   extruderUseCoasting,0
;   extruderCoastingDistance,0.2
;   extruderUseWipe,0
;   extruderWipeDistance,5
;   primaryExtruder,0
;   layerHeight,0.2
;   topSolidLayers,3
;   bottomSolidLayers,3
;   perimeterOutlines,2
;   printPerimetersInsideOut,1
;   startPointOption,3
;   startPointOriginX,0
;   startPointOriginY,150
;   sequentialIslands,0
;   spiralVaseMode,0
;   firstLayerHeightPercentage,100
;   firstLayerWidthPercentage,115
;   firstLayerUnderspeed,0.5
;   useRaft,0
;   raftExtruder,0
;   raftTopLayers,2
;   raftBaseLayers,1
;   raftOffset,1
;   raftSeparationDistance,0.14
;   raftTopInfill,90
;   aboveRaftSpeedMultiplier,0.3
;   useSkirt,0
;   skirtExtruder,0
;   skirtLayers,1
;   skirtOutlines,5
;   skirtOffset,0
;   usePrimePillar,0
;   primePillarExtruder,999
;   primePillarWidth,12
;   primePillarLocation,7
;   primePillarSpeedMultiplier,1
;   useOozeShield,0
;   oozeShieldExtruder,999
;   oozeShieldOffset,2
;   oozeShieldOutlines,1
;   oozeShieldSidewallShape,1
;   oozeShieldSidewallAngle,30
;   oozeShieldSpeedMultiplier,1
;   infillExtruder,0
;   internalInfillPattern,Rectilinear
;   externalInfillPattern,Rectilinear
;   infillPercentage,15
;   outlineOverlapPercentage,25
;   infillExtrusionWidthPercentage,100
;   minInfillLength,5
;   infillLayerInterval,1
;   internalInfillAngles,45,-45
;   overlapInternalInfillAngles,0
;   externalInfillAngles,45,-45
;   generateSupport,1
;   supportExtruder,0
;   supportInfillPercentage,30
;   supportExtraInflation,0.5
;   supportBaseLayers,0
;   denseSupportExtruder,0
;   denseSupportLayers,2
;   denseSupportInfillPercentage,90
;   supportLayerInterval,1
;   supportHorizontalPartOffset,0.3
;   supportUpperSeparationLayers,1
;   supportLowerSeparationLayers,1
;   supportType,1
;   supportGridSpacing,2
;   maxOverhangAngle,45
;   supportAngles,45,-45
;   temperatureName,Primary Extruder,Heated Build Platform
;   temperatureNumber,0,0
;   temperatureSetpointCount,1,1
;   temperatureSetpointLayers,1,1
;   temperatureSetpointTemperatures,230,60
;   temperatureStabilizeAtStartup,1,1
;   temperatureHeatedBed,0,1
;   fanLayers,1,2
;   fanSpeeds,0,100
;   blipFanToFullPower,1
;   adjustSpeedForCooling,1
;   minSpeedLayerTime,15
;   minCoolingSpeedSlowdown,20
;   increaseFanForCooling,1
;   minFanLayerTime,45
;   maxCoolingFanSpeed,100
;   increaseFanForBridging,1
;   bridgingFanSpeed,100
;   use5D,1
;   relativeEdistances,1
;   allowEaxisZeroing,0
;   independentExtruderAxes,1
;   includeM10123,0
;   stickySupport,1
;   applyToolheadOffsets,0
;   gcodeXoffset,0
;   gcodeYoffset,0
;   gcodeZoffset,0
;   overrideMachineDefinition,1
;   machineTypeOverride,0
;   strokeXoverride,280
;   strokeYoverride,150
;   strokeZoverride,150
;   originOffsetXoverride,140
;   originOffsetYoverride,75
;   originOffsetZoverride,0
;   homeXdirOverride,1
;   homeYdirOverride,1
;   homeZdirOverride,-1
;   flipXoverride,1
;   flipYoverride,-1
;   flipZoverride,1
;   toolheadOffsets,0,0|0,0|0,0|0,0|0,0|0,0
;   overrideFirmwareConfiguration,1
;   firmwareTypeOverride,MakerBot/Sailfish Firmware
;   GPXconfigOverride,r2h
;   baudRateOverride,115200
;   overridePrinterModels,1
;   printerModelsOverride,MakerBot_Replicator2.stl
;   startingGcode,; **** Replicator 2 start.gcode ****,M73 P0 ; enable build progress,G162 X Y F3000 ; home XY maximum,G161 Z F1200 ; home Z minimum,G92 Z-5 ; set Z to -5,G1 Z0 ; move Z to 0,G161 Z F100 ; home Z slowly,M132 X Y Z A B ; recall home offsets,G1 X-145 Y-75 Z30 F9000 ; move to wait position off table,G130 X20 Y20 Z20 A20 B20 ; lower stepper Vrefs while heating,M126 S[fan_speed_pwm],M140 S[bed0_temperature] T0,M134 T0 ; stabilize bed temperature,M104 S[extruder0_temperature] T0,M133 T0 ; stabilize extruder temperature,G130 X127 Y127 Z40 A127 B127 ; default stepper Vrefs,G92 A0 ; zero extruder,G1 Z0.4 ; position nozzle,G1 E25 F300 ; purge nozzle,G1 X-140 Y-70 Z0.15 F1200 ; slow wipe,G1 X-135 Y-65 Z0.5 F1200 ; lift,G92 A0 ; zero extruder,M73 P1 ;@body (notify GPX body has started),; **** end of start.gcode ****
;   layerChangeGcode,
;   retractionGcode,
;   toolChangeGcode,
;   endingGcode,; **** Replicator 2 end.gcode ****,M73 P100 ; end build progress,G1 Z155 F1000 ; send Z axis to bottom of machine,M104 S0 T0 ; cool down extruder,M140 S0 T0 ; cool down HBP,M127 ; stop blower fan,G162 X Y F3000 ; home XY maximum,M18 ; disable stepper,M0 ; stop codes,M72 P1 ; play Ta-Da song,; **** end of end.gcode ****
;   exportFileFormat,gcode
;   celebration,0
;   celebrationSong,Random Song
;   postProcessing,
;   defaultSpeed,4800
;   outlineUnderspeed,0.5
;   solidInfillUnderspeed,1
;   supportUnderspeed,1
;   rapidXYspeed,9000
;   rapidZspeed,1200
;   minBridgingArea,50
;   bridgingExtraInflation,0
;   bridgingExtrusionMultiplier,1
;   bridgingSpeedMultiplier,0.8
;   useFixedBridgingAngle,0
;   fixedBridgingAngle,0
;   applyBridgingToPerimeters,0
;   filamentDiameters,1.75|1.75|1.75|1.75|1.75|1.75
;   filamentPricesPerKg,46|46|46|46|46|46
;   filamentDensities,1.25|1.25|1.25|1.25|1.25|1.25
;   useMinPrintHeight,0
;   minPrintHeight,0
;   useMaxPrintHeight,0
;   maxPrintHeight,4.84
;   useDiaphragm,0
;   diaphragmLayerInterval,20
;   robustSlicing,1
;   mergeAllIntoSolid,0
;   onlyRetractWhenCrossingOutline,0
;   retractBetweenLayers,0
;   useRetractionMinTravel,1
;   retractionMinTravel,7
;   retractWhileWiping,1
;   onlyWipeOutlines,1
;   avoidCrossingOutline,0
;   maxMovementDetourFactor,3
;   toolChangeRetractionDistance,12
;   toolChangeExtraRestartDistance,-0.5
;   toolChangeRetractionSpeed,600
;   externalThinWallType,0
;   internalThinWallType,0
;   thinWallAllowedOverlapPercentage,10
;   singleExtrusionMinLength,1
;   singleExtrusionMinPrintingWidthPercentage,50
;   singleExtrusionMaxPrintingWidthPercentage,200
;   singleExtrusionEndpointExtension,0.2
;   horizontalSizeCompensation,0
G90
M83
; **** Replicator 2 start.gcode ****
M73 P0 ; enable build progress
G162 X Y F3000 ; home XY maximum
G161 Z F1200 ; home Z minimum
G92 Z-5 ; set Z to -5
G1 Z0 ; move Z to 0
G161 Z F100 ; home Z slowly
M132 X Y Z A B ; recall home offsets
G1 X-145 Y-75 Z30 F9000 ; move to wait position off table
G130 X20 Y20 Z20 A20 B20 ; lower stepper Vrefs while heating
M127
M140 S60 T0
M134 T0 ; stabilize bed temperature
M104 S230 T0
M133 T0 ; stabilize extruder temperature
G130 X127 Y127 Z40 A127 B127 ; default stepper Vrefs
G92 A0 ; zero extruder
G1 Z0.4 ; position nozzle
G1 E25 F300 ; purge nozzle
G1 X-140 Y-70 Z0.15 F1200 ; slow wipe
G1 X-135 Y-65 Z0.5 F1200 ; lift
G92 A0 ; zero extruder
M73 P1 ;@body (notify GPX body has started)
; **** end of start.gcode ****
; process Process1
; layer 1, Z = 0.200
M135 T0
G1 E-1.9000 F1200
; feature inner perimeter
; tool H0.200 W0.460
G1 Z0.500 F1200
G1 X11.251 Y53.934 F9000
G1 Z0.200 F1200
G1 E1.9000 F1200
G1 X11.251 Y28.896 E0.9577 F1800
G1 X3.190 Y28.896 E0.3083
G1 X3.190 Y-53.934 E3.1682
G1 X34.177 Y-53.934 E1.1852
G1 X34.177 Y28.896 E3.1682
G1 X25.982 Y28.896 E0.3134
G1 X25.982 Y53.934 E0.9577
G1 X11.251 Y53.934 E0.5635
; feature outer perimeter
G1 X10.791 Y54.394 F9000
G1 X10.791 Y29.357 E0.9577 F1200
G1 X2.730 Y29.357 E0.3083
G1 X2.730 Y-54.394 E3.2034
G1 X34.637 Y-54.394 E1.2204
G1 X34.637 Y29.357 E3.2034
G1 X26.442 Y29.357 E0.3134
G1 X26.442 Y54.394 E0.9577
G1 X10.791 Y54.394 E0.5987
G1 E-1.9000 F1200
; feature inner perimeter
G1 Z0.700 F1200
G1 X16.256 Y49.501 F9000
G1 Z0.200 F1200
G1 E1.9000 F1200
G1 X16.767 Y49.920 E0.0253 F1800
G1 X17.349 Y50.232 E0.0253
G1 X17.982 Y50.423 E0.0253
G1 X18.640 Y50.488 E0.0253
G1 X19.297 Y50.423 E0.0253
G1 X19.930 Y50.232 E0.0253
G1 X20.512 Y49.920 E0.0253
G1 X21.023 Y49.501 E0.0253
G1 X21.443 Y48.990 E0.0253
G1 X21.754 Y48.407 E0.0253
G1 X21.946 Y47.775 E0.0253
G1 X22.011 Y47.117 E0.0253
G1 X21.946 Y46.459 E0.0253
G1 X21.754 Y45.827 E0.0253
G1 X21.443 Y45.244 E0.0253
G1 X21.023 Y44.733 E0.0253
G1 X20.512 Y44.314 E0.0253
G1 X19.930 Y44.002 E0.0253
G1 X19.297 Y43.811 E0.0253
G1 X18.640 Y43.746 E0.0253
G1 X17.982 Y43.811 E0.0253
G1 X17.349 Y44.002 E0.0253
G1 X16.767 Y44.314 E0.0253
G1 X16.256 Y44.733 E0.0253
G1 X15.836 Y45.244 E0.0253
G1 X15.525 Y45.827 E0.0253
G1 X15.333 Y46.459 E0.0253
G1 X15.268 Y47.117 E0.0253
G1 X15.333 Y47.775 E0.0253
G1 X15.525 Y48.407 E0.0253
G1 X15.836 Y48.990 E0.0253
G1 X16.256 Y49.501 E0.0253
; feature outer perimeter
G1 X16.583 Y49.174 F9000
G1 X17.023 Y49.536 E0.0218 F1200
G1 X17.526 Y49.804 E0.0218
G1 X18.072 Y49.970 E0.0218
G1 X18.640 Y50.026 E0.0218
G1 X19.207 Y49.970 E0.0218
G1 X19.753 Y49.804 E0.0218
G1 X20.256 Y49.536 E0.0218
G1 X20.697 Y49.174 E0.0218
G1 X21.058 Y48.733 E0.0218
G1 X21.327 Y48.230 E0.0218
G1 X21.493 Y47.684 E0.0218
G1 X21.549 Y47.117 E0.0218
G1 X21.493 Y46.549 E0.0218
G1 X21.327 Y46.004 E0.0218
G1 X21.058 Y45.501 E0.0218
G1 X20.697 Y45.060 E0.0218
G1 X20.256 Y44.698 E0.0218
G1 X19.753 Y44.429 E0.0218
G1 X19.207 Y44.264 E0.0218
G1 X18.640 Y44.208 E0.0218
G1 X18.072 Y44.264 E0.0218
G1 X17.526 Y44.429 E0.0218
G1 X17.023 Y44.698 E0.0218
G1 X16.583 Y45.060 E0.0218
G1 X16.221 Y45.501 E0.0218
G1 X15.952 Y46.004 E0.0218
G1 X15.786 Y46.549 E0.0218
G1 X15.731 Y47.117 E0.0218
G1 X15.786 Y47.684 E0.0218
G1 X15.952 Y48.230 E0.0218
G1 X16.221 Y48.733 E0.0218
G1 X16.583 Y49.174 E0.0218
G1 E-1.9000 F1200
; feature inner perimeter
G1 Z0.700 F1200
G1 X5.231 Y26.268 F9000
G1 Z0.200 F1200
G1 E1.9000 F1200
G1 X32.136 Y26.268 E1.0291 F1800
G1 X32.136 Y-51.426 E2.9717
G1 X5.231 Y-51.426 E1.0291
G1 X5.231 Y26.268 E2.9717
; feature outer perimeter
G1 X5.691 Y25.808 F9000
G1 X31.676 Y25.808 E0.9939 F1200
G1 X31.676 Y-50.966 E2.9365
G1 X5.691 Y-50.966 E0.9939
G1 X5.691 Y25.808 E2.9365
; feature solid layer
G1 X5.146 Y26.613 F9000
G1 X7.084 Y28.552 E0.1048 F2400
G1 X7.734 Y28.552 E0.0249
G1 X5.796 Y26.613 E0.1048
G1 X6.447 Y26.613 E0.0249
G1 X8.385 Y28.552 E0.1048
G1 X9.035 Y28.552 E0.0249
G1 X7.097 Y26.613 E0.1048
G1 X7.748 Y26.613 E0.0249
G1 X9.686 Y28.552 E0.1048
G1 X10.336 Y28.552 E0.0249
G1 X8.398 Y26.613 E0.1048
G1 X9.049 Y26.613 E0.0249
G1 X10.987 Y28.552 E0.1048
G1 X11.596 Y28.552 E0.0233
G1 X11.596 Y29.160 E0.0233
G1 X25.637 Y43.202 E0.7595
G1 X25.637 Y42.551 E0.0249
G1 X9.699 Y26.613 E0.8621
G1 X10.350 Y26.613 E0.0249
G1 X25.637 Y41.901 E0.8269
G1 X25.637 Y41.250 E0.0249
G1 X11.000 Y26.613 E0.7917
G1 X11.651 Y26.613 E0.0249
G1 X25.637 Y40.600 E0.7566
G1 X25.637 Y39.949 E0.0249
G1 X12.302 Y26.613 E0.7214
G1 X12.952 Y26.613 E0.0249
G1 X25.637 Y39.299 E0.6862
G1 X25.637 Y38.648 E0.0249
G1 X13.603 Y26.613 E0.6510
G1 X14.253 Y26.613 E0.0249
G1 X25.637 Y37.998 E0.6158
G1 X25.637 Y37.347 E0.0249
G1 X14.904 Y26.613 E0.5806
G1 X15.554 Y26.613 E0.0249
G1 X25.637 Y36.696 E0.5454
G1 X25.637 Y36.046 E0.0249
G1 X16.205 Y26.613 E0.5102
G1 X16.855 Y26.613 E0.0249
G1 X25.637 Y35.395 E0.4750
G1 X25.637 Y34.745 E0.0249
G1 X17.506 Y26.613 E0.4399
G1 X18.156 Y26.613 E0.0249
G1 X25.637 Y34.094 E0.4047
G1 X25.637 Y33.444 E0.0249
G1 X18.807 Y26.613 E0.3695
G1 X19.457 Y26.613 E0.0249
G1 X25.637 Y32.793 E0.3343
G1 X25.637 Y32.143 E0.0249
G1 X20.108 Y26.613 E0.2991
G1 X20.759 Y26.613 E0.0249
G1 X25.637 Y31.492 E0.2639
G1 X25.637 Y30.842 E0.0249
G1 X21.409 Y26.613 E0.2287
G1 X22.060 Y26.613 E0.0249
G1 X25.637 Y30.191 E0.1935
G1 X25.637 Y29.541 E0.0249
G1 X22.710 Y26.613 E0.1583
G1 X23.361 Y26.613 E0.0249
G1 X25.637 Y28.890 E0.1231
G1 X25.637 Y28.552 E0.0129
G1 X25.949 Y28.552 E0.0119
G1 X24.011 Y26.613 E0.1048
G1 X24.662 Y26.613 E0.0249
G1 X26.600 Y28.552 E0.1048
G1 X27.250 Y28.552 E0.0249
G1 X25.312 Y26.613 E0.1048
G1 X25.963 Y26.613 E0.0249
G1 X27.901 Y28.552 E0.1048
G1 X28.552 Y28.552 E0.0249
G1 X26.613 Y26.613 E0.1048
G1 X27.264 Y26.613 E0.0249
G1 X29.202 Y28.552 E0.1048
G1 X29.853 Y28.552 E0.0249
G1 X27.914 Y26.613 E0.1048
G1 X28.565 Y26.613 E0.0249
G1 X30.503 Y28.552 E0.1048
G1 X31.154 Y28.552 E0.0249
G1 X29.216 Y26.613 E0.1048
G1 X29.866 Y26.613 E0.0249
G1 X31.804 Y28.552 E0.1048
G1 X32.455 Y28.552 E0.0249
G1 X30.517 Y26.613 E0.1048
G1 X31.167 Y26.613 E0.0249
G1 X33.105 Y28.552 E0.1048
G1 X33.756 Y28.552 E0.0249
G1 X31.818 Y26.613 E0.1048
G1 X32.468 Y26.613 E0.0249
G1 X33.832 Y27.977 E0.0738
G1 X33.832 Y27.326 E0.0249
G1 X32.481 Y25.976 E0.0731
G1 X32.481 Y25.325 E0.0249
G1 X33.832 Y26.676 E0.0731
G1 X33.832 Y26.025 E0.0249
G1 X32.481 Y24.675 E0.0731
G1 X32.481 Y24.024 E0.0249
G1 X33.832 Y25.375 E0.0731
G1 X33.832 Y24.724 E0.0249
G1 X32.481 Y23.374 E0.0731
G1 X32.481 Y22.723 E0.0249
G1 X33.832 Y24.074 E0.0731
G1 X33.832 Y23.423 E0.0249
G1 X32.481 Y22.073 E0.0731
G1 X32.481 Y21.422 E0.0249
G1 X33.832 Y22.773 E0.0731
G1 X33.832 Y22.122 E0.0249
G1 X32.481 Y20.771 E0.0731
G1 X32.481 Y20.121 E0.0249
G1 X33.832 Y21.472 E0.0731
G1 X33.832 Y20.821 E0.0249
G1 X32.481 Y19.470 E0.0731
G1 X32.481 Y18.820 E0.0249
G1 X33.832 Y20.171 E0.0731
G1 X33.832 Y19.520 E0.0249
G1 X32.481 Y18.169 E0.0731
G1 X32.481 Y17.519 E0.0249
G1 X33.832 Y18.869 E0.0731
G1 X33.832 Y18.219 E0.0249
G1 X32.481 Y16.868 E0.0731
G1 X32.481 Y16.218 E0.0249
G1 X33.832 Y17.568 E0.0731
G1 X33.832 Y16.918 E0.0249
G1 X32.481 Y15.567 E0.0731
G1 X32.481 Y14.917 E0.0249
G1 X33.832 Y16.267 E0.0731
G1 X33.832 Y15.617 E0.0249
G1 X32.481 Y14.266 E0.0731
G1 X32.481 Y13.616 E0.0249
G1 X33.832 Y14.966 E0.0731
G1 X33.832 Y14.316 E0.0249
G1 X32.481 Y12.965 E0.0731
G1 X32.481 Y12.314 E0.0249
G1 X33.832 Y13.665 E0.0731
G1 X33.832 Y13.015 E0.0249
G1 X32.481 Y11.664 E0.0731
G1 X32.481 Y11.013 E0.0249
G1 X33.832 Y12.364 E0.0731
G1 X33.832 Y11.714 E0.0249
G1 X32.481 Y10.363 E0.0731
G1 X32.481 Y9.712 E0.0249
G1 X33.832 Y11.063 E0.0731
G1 X33.832 Y10.412 E0.0249
G1 X32.481 Y9.062 E0.0731
G1 X32.481 Y8.411 E0.0249
G1 X33.832 Y9.762 E0.0731
G1 X33.832 Y9.111 E0.0249
G1 X32.481 Y7.761 E0.0731
G1 X32.481 Y7.110 E0.0249
G1 X33.832 Y8.461 E0.0731
G1 X33.832 Y7.810 E0.0249
G1 X32.481 Y6.460 E0.0731
G1 X32.481 Y5.809 E0.0249
G1 X33.832 Y7.160 E0.0731
G1 X33.832 Y6.509 E0.0249
G1 X32.481 Y5.159 E0.0731
G1 X32.481 Y4.508 E0.0249
G1 X33.832 Y5.859 E0.0731
G1 X33.832 Y5.208 E0.0249
G1 X32.481 Y3.857 E0.0731
G1 X32.481 Y3.207 E0.0249
G1 X33.832 Y4.558 E0.0731
G1 X33.832 Y3.907 E0.0249
G1 X32.481 Y2.556 E0.0731
G1 X32.481 Y1.906 E0.0249
G1 X33.832 Y3.257 E0.0731
G1 X33.832 Y2.606 E0.0249
G1 X32.481 Y1.255 E0.0731
G1 X32.481 Y0.605 E0.0249
G1 X33.832 Y1.955 E0.0731
G1 X33.832 Y1.305 E0.0249
G1 X32.481 Y-0.046 E0.0731
G1 X32.481 Y-0.696 E0.0249
G1 X33.832 Y0.654 E0.0731
G1 X33.832 Y0.004 E0.0249
G1 X32.481 Y-1.347 E0.0731
G1 X32.481 Y-1.997 E0.0249
G1 X33.832 Y-0.647 E0.0731
G1 X33.832 Y-1.297 E0.0249
G1 X32.481 Y-2.648 E0.0731
G1 X32.481 Y-3.298 E0.0249
G1 X33.832 Y-1.948 E0.0731
G1 X33.832 Y-2.598 E0.0249
G1 X32.481 Y-3.949 E0.0731
G1 X32.481 Y-4.600 E0.0249
G1 X33.832 Y-3.249 E0.0731
G1 X33.832 Y-3.899 E0.0249
G1 X32.481 Y-5.250 E0.0731
G1 X32.481 Y-5.901 E0.0249
G1 X33.832 Y-4.550 E0.0731
G1 X33.832 Y-5.200 E0.0249
G1 X32.481 Y-6.551 E0.0731
G1 X32.481 Y-7.202 E0.0249
G1 X33.832 Y-5.851 E0.0731
G1 X33.832 Y-6.502 E0.0249
G1 X32.481 Y-7.852 E0.0731
G1 X32.481 Y-8.503 E0.0249
G1 X33.832 Y-7.152 E0.0731
G1 X33.832 Y-7.803 E0.0249
G1 X32.481 Y-9.153 E0.0731
G1 X32.481 Y-9.804 E0.0249
G1 X33.832 Y-8.453 E0.0731
G1 X33.832 Y-9.104 E0.0249
G1 X32.481 Y-10.454 E0.0731
G1 X32.481 Y-11.105 E0.0249
G1 X33.832 Y-9.754 E0.0731
G1 X33.832 Y-10.405 E0.0249
G1 X32.481 Y-11.755 E0.0731
G1 X32.481 Y-12.406 E0.0249
G1 X33.832 Y-11.055 E0.0731
