; G-Code generated by Simplify3D(R) Version 4.1.2
; Apr 2, 2020 at 4:12:41 PM
; Settings Summary
;   processName,Process1
;   applyToModels,Conveter bracket,Conveter bracket(2)
;   profileName,MakerBot Replicator 2 HBP (modified)
;   profileVersion,2020-03-12 10:48:50
;   baseProfile,MakerBot Replicator 2(2)
;   printMaterial,PLA
;   printQuality,Medium
;   printExtruders,
;   extruderName,Primary Extruder
;   extruderToolheadNumber,0
;   extruderDiameter,0.4
;   extruderAutoWidth,0
;   extruderWidth,0.4
;   extrusionMultiplier,1
;   extruderUseRetract,1
;   extruderRetractionDistance,1.9
;   extruderExtraRestartDistance,0
;   extruderRetractionZLift,0.5
;   extruderRetractionSpeed,1200
;   extruderUseCoasting,0
;   extruderCoastingDistance,0.2
;   extruderUseWipe,0
;   extruderWipeDistance,5
;   primaryExtruder,0
;   layerHeight,0.2
;   topSolidLayers,3
;   bottomSolidLayers,3
;   perimeterOutlines,2
;   printPerimetersInsideOut,1
;   startPointOption,3
;   startPointOriginX,0
;   startPointOriginY,150
;   sequentialIslands,0
;   spiralVaseMode,0
;   firstLayerHeightPercentage,100
;   firstLayerWidthPercentage,115
;   firstLayerUnderspeed,0.5
;   useRaft,0
;   raftExtruder,0
;   raftTopLayers,2
;   raftBaseLayers,1
;   raftOffset,1
;   raftSeparationDistance,0.14
;   raftTopInfill,90
;   aboveRaftSpeedMultiplier,0.3
;   useSkirt,0
;   skirtExtruder,0
;   skirtLayers,1
;   skirtOutlines,5
;   skirtOffset,0
;   usePrimePillar,0
;   primePillarExtruder,999
;   primePillarWidth,12
;   primePillarLocation,7
;   primePillarSpeedMultiplier,1
;   useOozeShield,0
;   oozeShieldExtruder,999
;   oozeShieldOffset,2
;   oozeShieldOutlines,1
;   oozeShieldSidewallShape,1
;   oozeShieldSidewallAngle,30
;   oozeShieldSpeedMultiplier,1
;   infillExtruder,0
;   internalInfillPattern,Rectilinear
;   externalInfillPattern,Rectilinear
;   infillPercentage,15
;   outlineOverlapPercentage,25
;   infillExtrusionWidthPercentage,100
;   minInfillLength,5
;   infillLayerInterval,1
;   internalInfillAngles,45,-45
;   overlapInternalInfillAngles,0
;   externalInfillAngles,45,-45
;   generateSupport,1
;   supportExtruder,0
;   supportInfillPercentage,30
;   supportExtraInflation,0.5
;   supportBaseLayers,0
;   denseSupportExtruder,0
;   denseSupportLayers,2
;   denseSupportInfillPercentage,90
;   supportLayerInterval,1
;   supportHorizontalPartOffset,0.3
;   supportUpperSeparationLayers,1
;   supportLowerSeparationLayers,1
;   supportType,1
;   supportGridSpacing,2
;   maxOverhangAngle,45
;   supportAngles,45,-45
;   temperatureName,Primary Extruder,Heated Build Platform
;   temperatureNumber,0,0
;   temperatureSetpointCount,1,1
;   temperatureSetpointLayers,1,1
;   temperatureSetpointTemperatures,230,60
;   temperatureStabilizeAtStartup,1,1
;   temperatureHeatedBed,0,1
;   fanLayers,1,2
;   fanSpeeds,0,100
;   blipFanToFullPower,1
;   adjustSpeedForCooling,1
;   minSpeedLayerTime,15
;   minCoolingSpeedSlowdown,20
;   increaseFanForCooling,1
;   minFanLayerTime,45
;   maxCoolingFanSpeed,100
;   increaseFanForBridging,1
;   bridgingFanSpeed,100
;   use5D,1
;   relativeEdistances,1
;   allowEaxisZeroing,0
;   independentExtruderAxes,1
;   includeM10123,0
;   stickySupport,1
;   applyToolheadOffsets,0
;   gcodeXoffset,0
;   gcodeYoffset,0
;   gcodeZoffset,0
;   overrideMachineDefinition,1
;   machineTypeOverride,0
;   strokeXoverride,280
;   strokeYoverride,150
;   strokeZoverride,150
;   originOffsetXoverride,140
;   originOffsetYoverride,75
;   originOffsetZoverride,0
;   homeXdirOverride,1
;   homeYdirOverride,1
;   homeZdirOverride,-1
;   flipXoverride,1
;   flipYoverride,-1
;   flipZoverride,1
;   toolheadOffsets,0,0|0,0|0,0|0,0|0,0|0,0
;   overrideFirmwareConfiguration,1
;   firmwareTypeOverride,MakerBot/Sailfish Firmware
;   GPXconfigOverride,r2h
;   baudRateOverride,115200
;   overridePrinterModels,1
;   printerModelsOverride,MakerBot_Replicator2.stl
;   startingGcode,; **** Replicator 2 start.gcode ****,M73 P0 ; enable build progress,G162 X Y F3000 ; home XY maximum,G161 Z F1200 ; home Z minimum,G92 Z-5 ; set Z to -5,G1 Z0 ; move Z to 0,G161 Z F100 ; home Z slowly,M132 X Y Z A B ; recall home offsets,G1 X-145 Y-75 Z30 F9000 ; move to wait position off table,G130 X20 Y20 Z20 A20 B20 ; lower stepper Vrefs while heating,M126 S[fan_speed_pwm],M140 S[bed0_temperature] T0,M134 T0 ; stabilize bed temperature,M104 S[extruder0_temperature] T0,M133 T0 ; stabilize extruder temperature,G130 X127 Y127 Z40 A127 B127 ; default stepper Vrefs,G92 A0 ; zero extruder,G1 Z0.4 ; position nozzle,G1 E25 F300 ; purge nozzle,G1 X-140 Y-70 Z0.15 F1200 ; slow wipe,G1 X-135 Y-65 Z0.5 F1200 ; lift,G92 A0 ; zero extruder,M73 P1 ;@body (notify GPX body has started),; **** end of start.gcode ****
;   layerChangeGcode,
;   retractionGcode,
;   toolChangeGcode,
;   endingGcode,; **** Replicator 2 end.gcode ****,M73 P100 ; end build progress,G1 Z155 F1000 ; send Z axis to bottom of machine,M104 S0 T0 ; cool down extruder,M140 S0 T0 ; cool down HBP,M127 ; stop blower fan,G162 X Y F3000 ; home XY maximum,M18 ; disable stepper,M0 ; stop codes,M72 P1 ; play Ta-Da song,; **** end of end.gcode ****
;   exportFileFormat,gcode
;   celebration,0
;   celebrationSong,Random Song
;   postProcessing,
;   defaultSpeed,4800
;   outlineUnderspeed,0.5
;   solidInfillUnderspeed,1
;   supportUnderspeed,1
;   rapidXYspeed,9000
;   rapidZspeed,1200
;   minBridgingArea,50
;   bridgingExtraInflation,0
;   bridgingExtrusionMultiplier,1
;   bridgingSpeedMultiplier,0.8
;   useFixedBridgingAngle,0
;   fixedBridgingAngle,0
;   applyBridgingToPerimeters,0
;   filamentDiameters,1.75|1.75|1.75|1.75|1.75|1.75
;   filamentPricesPerKg,46|46|46|46|46|46
;   filamentDensities,1.25|1.25|1.25|1.25|1.25|1.25
;   useMinPrintHeight,0
;   minPrintHeight,0
;   useMaxPrintHeight,0
;   maxPrintHeight,4.84
;   useDiaphragm,0
;   diaphragmLayerInterval,20
;   robustSlicing,1
;   mergeAllIntoSolid,0
;   onlyRetractWhenCrossingOutline,0
;   retractBetweenLayers,0
;   useRetractionMinTravel,1
;   retractionMinTravel,7
;   retractWhileWiping,1
;   onlyWipeOutlines,1
;   avoidCrossingOutline,0
;   maxMovementDetourFactor,3
;   toolChangeRetractionDistance,12
;   toolChangeExtraRestartDistance,-0.5
;   toolChangeRetractionSpeed,600
;   externalThinWallType,0
;   internalThinWallType,0
;   thinWallAllowedOverlapPercentage,10
;   singleExtrusionMinLength,1
;   singleExtrusionMinPrintingWidthPercentage,50
;   singleExtrusionMaxPrintingWidthPercentage,200
;   singleExtrusionEndpointExtension,0.2
;   horizontalSizeCompensation,0
G90
M83
; **** Replicator 2 start.gcode ****
M73 P0 ; enable build progress
G162 X Y F3000 ; home XY maximum
G161 Z F1200 ; home Z minimum
G92 Z-5 ; set Z to -5
G1 Z0 ; move Z to 0
G161 Z F100 ; home Z slowly
M132 X Y Z A B ; recall home offsets
G1 X-145 Y-75 Z30 F9000 ; move to wait position off table
G130 X20 Y20 Z20 A20 B20 ; lower stepper Vrefs while heating
M127
M140 S60 T0
M134 T0 ; stabilize bed temperature
M104 S230 T0
M133 T0 ; stabilize extruder temperature
G130 X127 Y127 Z40 A127 B127 ; default stepper Vrefs
G92 A0 ; zero extruder
G1 Z0.4 ; position nozzle
G1 E25 F300 ; purge nozzle
G1 X-140 Y-70 Z0.15 F1200 ; slow wipe
G1 X-135 Y-65 Z0.5 F1200 ; lift
G92 A0 ; zero extruder
M73 P1 ;@body (notify GPX body has started)
; **** end of start.gcode ****
; process Process1
; layer 1, Z = 0.200
M135 T0
G1 E-1.9000 F1200
; feature inner perimeter
; tool H0.200 W0.460
G1 Z0.500 F1200
G1 X-11.385 Y53.934 F9000
G1 Z0.200 F1200
G1 E1.9000 F1200
G1 X-26.116 Y53.934 E0.5635 F1800
G1 X-26.116 Y28.896 E0.9577
G1 X-34.177 Y28.896 E0.3083
G1 X-34.177 Y-53.934 E3.1682
G1 X-3.190 Y-53.934 E1.1852
G1 X-3.190 Y28.896 E3.1682
G1 X-11.385 Y28.896 E0.3134
G1 X-11.385 Y53.934 E0.9577
; feature outer perimeter
G1 X-10.925 Y54.394 F9000
G1 X-26.576 Y54.394 E0.5987 F1200
G1 X-26.576 Y29.357 E0.9577
G1 X-34.637 Y29.357 E0.3083
G1 X-34.637 Y-54.394 E3.2034
G1 X-2.730 Y-54.394 E1.2204
G1 X-2.730 Y29.357 E3.2034
G1 X-10.925 Y29.357 E0.3134
G1 X-10.925 Y54.394 E0.9577
G1 E-1.9000 F1200
; feature inner perimeter
G1 Z0.700 F1200
G1 X-16.344 Y49.501 F9000
G1 Z0.200 F1200
G1 E1.9000 F1200
G1 X-15.924 Y48.990 E0.0253 F1800
G1 X-15.613 Y48.407 E0.0253
G1 X-15.421 Y47.775 E0.0253
G1 X-15.356 Y47.117 E0.0253
G1 X-15.421 Y46.459 E0.0253
G1 X-15.613 Y45.827 E0.0253
G1 X-15.924 Y45.244 E0.0253
G1 X-16.344 Y44.733 E0.0253
G1 X-16.854 Y44.314 E0.0253
G1 X-17.437 Y44.002 E0.0253
G1 X-18.070 Y43.811 E0.0253
G1 X-18.727 Y43.746 E0.0253
G1 X-19.385 Y43.811 E0.0253
G1 X-20.017 Y44.002 E0.0253
G1 X-20.600 Y44.314 E0.0253
G1 X-21.111 Y44.733 E0.0253
G1 X-21.530 Y45.244 E0.0253
G1 X-21.842 Y45.827 E0.0253
G1 X-22.034 Y46.459 E0.0253
G1 X-22.099 Y47.117 E0.0253
G1 X-22.034 Y47.775 E0.0253
G1 X-21.842 Y48.407 E0.0253
G1 X-21.530 Y48.990 E0.0253
G1 X-21.111 Y49.501 E0.0253
G1 X-20.600 Y49.920 E0.0253
G1 X-20.017 Y50.232 E0.0253
G1 X-19.385 Y50.423 E0.0253
G1 X-18.727 Y50.488 E0.0253
G1 X-18.070 Y50.423 E0.0253
G1 X-17.437 Y50.232 E0.0253
G1 X-16.854 Y49.920 E0.0253
G1 X-16.344 Y49.501 E0.0253
; feature outer perimeter
G1 X-16.670 Y49.174 F9000
G1 X-16.309 Y48.733 E0.0218 F1200
G1 X-16.040 Y48.230 E0.0218
G1 X-15.874 Y47.684 E0.0218
G1 X-15.818 Y47.117 E0.0218
G1 X-15.874 Y46.549 E0.0218
G1 X-16.040 Y46.004 E0.0218
G1 X-16.309 Y45.501 E0.0218
G1 X-16.670 Y45.060 E0.0218
G1 X-17.111 Y44.698 E0.0218
G1 X-17.614 Y44.429 E0.0218
G1 X-18.160 Y44.264 E0.0218
G1 X-18.727 Y44.208 E0.0218
G1 X-19.295 Y44.264 E0.0218
G1 X-19.841 Y44.429 E0.0218
G1 X-20.343 Y44.698 E0.0218
G1 X-20.784 Y45.060 E0.0218
G1 X-21.146 Y45.501 E0.0218
G1 X-21.415 Y46.004 E0.0218
G1 X-21.580 Y46.549 E0.0218
G1 X-21.636 Y47.117 E0.0218
G1 X-21.580 Y47.684 E0.0218
G1 X-21.415 Y48.230 E0.0218
G1 X-21.146 Y48.733 E0.0218
G1 X-20.784 Y49.174 E0.0218
G1 X-20.343 Y49.536 E0.0218
G1 X-19.841 Y49.804 E0.0218
G1 X-19.295 Y49.970 E0.0218
G1 X-18.727 Y50.026 E0.0218
G1 X-18.160 Y49.970 E0.0218
G1 X-17.614 Y49.804 E0.0218
G1 X-17.111 Y49.536 E0.0218
G1 X-16.670 Y49.174 E0.0218
G1 E-1.9000 F1200
; feature inner perimeter
G1 Z0.700 F1200
G1 X-5.231 Y26.268 F9000
G1 Z0.200 F1200
G1 E1.9000 F1200
G1 X-5.231 Y-51.426 E2.9717 F1800
G1 X-32.136 Y-51.426 E1.0291
G1 X-32.136 Y26.268 E2.9717
G1 X-5.231 Y26.268 E1.0291
; feature outer perimeter
G1 X-5.691 Y25.808 F9000
G1 X-5.691 Y-50.966 E2.9365 F1200
G1 X-31.676 Y-50.966 E0.9939
G1 X-31.676 Y25.808 E2.9365
G1 X-5.691 Y25.808 E0.9939
G1 E-1.9000 F1200
; feature solid layer
G1 Z0.700 F1200
G1 X-25.771 Y28.874 F9000
G1 Z0.200 F1200
G1 E1.9000 F1200
G1 X-11.730 Y42.916 E0.7595 F2400
G1 X-11.730 Y43.566 E0.0249
G1 X-25.771 Y29.525 E0.7595
G1 X-25.771 Y30.175 E0.0249
G1 X-11.730 Y44.217 E0.7595
G1 X-11.730 Y44.867 E0.0249
G1 X-25.771 Y30.826 E0.7595
G1 X-25.771 Y31.476 E0.0249
G1 X-11.730 Y45.518 E0.7595
G1 X-11.730 Y46.168 E0.0249
G1 X-25.771 Y32.127 E0.7595
G1 X-25.771 Y32.777 E0.0249
G1 X-11.730 Y46.819 E0.7595
G1 X-11.730 Y47.469 E0.0249
G1 X-25.771 Y33.428 E0.7595
G1 X-25.771 Y34.079 E0.0249
G1 X-11.730 Y48.120 E0.7595
G1 X-11.730 Y48.771 E0.0249
G1 X-25.771 Y34.729 E0.7595
G1 X-25.771 Y35.380 E0.0249
G1 X-17.540 Y43.611 E0.4452
G1 X-18.002 Y43.471 E0.0185
G1 X-18.367 Y43.435 E0.0140
G1 X-25.771 Y36.030 E0.4005
G1 X-25.771 Y36.681 E0.0249
G1 X-19.023 Y43.428 E0.3650
G1 X-19.453 Y43.471 E0.0165
G1 X-19.590 Y43.512 E0.0055
G1 X-25.771 Y37.331 E0.3343
G1 X-25.771 Y37.982 E0.0249
G1 X-20.089 Y43.664 E0.3073
G1 X-20.150 Y43.682 E0.0024
G1 X-20.522 Y43.881 E0.0161
G1 X-25.771 Y38.632 E0.2839
G1 X-25.771 Y39.283 E0.0249
G1 X-20.922 Y44.132 E0.2623
G1 X-21.279 Y44.425 E0.0177
G1 X-25.771 Y39.933 E0.2430
G1 X-25.771 Y40.584 E0.0249
G1 X-21.586 Y44.768 E0.2264
G1 X-21.819 Y45.051 E0.0140
G1 X-21.866 Y45.140 E0.0038
G1 X-25.771 Y41.234 E0.2112
G1 X-25.771 Y41.885 E0.0249
G1 X-22.092 Y45.564 E0.1990
G1 X-22.162 Y45.694 E0.0057
G1 X-22.267 Y46.040 E0.0138
G1 X-25.771 Y42.536 E0.1895
G1 X-25.771 Y43.186 E0.0249
G1 X-22.391 Y46.566 E0.1828
G1 X-22.445 Y47.117 E0.0212
G1 X-22.440 Y47.167 E0.0019
G1 X-25.771 Y43.837 E0.1802
G1 X-25.771 Y44.487 E0.0249
G1 X-22.355 Y47.903 E0.1848
G1 X-22.162 Y48.540 E0.0255
G1 X-21.925 Y48.984 E0.0193
G1 X-25.771 Y45.138 E0.2080
G1 X-25.771 Y45.788 E0.0249
G1 X-17.970 Y53.589 E0.4220
G1 X-18.620 Y53.589 E0.0249
G1 X-25.771 Y46.439 E0.3868
G1 X-25.771 Y47.089 E0.0249
G1 X-19.271 Y53.589 E0.3516
G1 X-19.921 Y53.589 E0.0249
G1 X-25.771 Y47.740 E0.3164
G1 X-25.771 Y48.390 E0.0249
G1 X-20.572 Y53.589 E0.2812
G1 X-21.223 Y53.589 E0.0249
G1 X-25.771 Y49.041 E0.2460
G1 X-25.771 Y49.691 E0.0249
G1 X-21.873 Y53.589 E0.2108
G1 X-22.524 Y53.589 E0.0249
G1 X-25.771 Y50.342 E0.1757
G1 X-25.771 Y50.993 E0.0249
G1 X-23.174 Y53.589 E0.1405
G1 X-23.825 Y53.589 E0.0249
G1 X-25.771 Y51.643 E0.1053
G1 X-25.771 Y52.294 E0.0249
G1 X-24.475 Y53.589 E0.0701
G1 X-25.126 Y53.589 E0.0249
G1 X-25.771 Y52.944 E0.0349
G1 X-20.594 Y50.314 F9000
G1 X-17.319 Y53.589 E0.1771 F2400
G1 X-16.669 Y53.589 E0.0249
G1 X-19.513 Y50.745 E0.1539
G1 X-19.453 Y50.763 E0.0024
G1 X-18.778 Y50.830 E0.0259
G1 X-16.018 Y53.589 E0.1493
G1 X-15.368 Y53.589 E0.0249
G1 X-18.176 Y50.781 E0.1519
G1 X-18.002 Y50.763 E0.0067
G1 X-17.650 Y50.657 E0.0141
G1 X-14.717 Y53.589 E0.1586
G1 X-14.067 Y53.589 E0.0249
G1 X-17.174 Y50.482 E0.1681
G1 X-16.750 Y50.255 E0.0184
G1 X-13.416 Y53.589 E0.1803
G1 X-12.766 Y53.589 E0.0249
G1 X-16.379 Y49.976 E0.1955
G1 X-16.098 Y49.746 E0.0139
G1 X-16.035 Y49.669 E0.0038
G1 X-12.115 Y53.589 E0.2121
G1 X-11.730 Y53.589 E0.0147
G1 X-11.730 Y53.324 E0.0101
G1 X-15.742 Y49.312 E0.2170
G1 X-15.636 Y49.182 E0.0064
G1 X-15.491 Y48.912 E0.0117
G1 X-11.730 Y52.674 E0.2035
G1 X-11.730 Y52.023 E0.0249
G1 X-15.274 Y48.479 E0.1917
G1 X-15.123 Y47.980 E0.0200
G1 X-11.730 Y51.373 E0.1835
G1 X-11.730 Y50.722 E0.0249
G1 X-15.039 Y47.413 E0.1790
G1 X-15.009 Y47.117 E0.0114
G1 X-15.045 Y46.756 E0.0139
G1 X-11.730 Y50.072 E0.1793
G1 X-11.730 Y49.421 E0.0249
G1 X-15.221 Y45.930 E0.1889
G1 E-1.9000 F1200
G1 Z0.700 F1200
G1 X-31.285 Y26.613 F9000
G1 Z0.200 F1200
G1 E1.9000 F1200
G1 X-29.346 Y28.552 E0.1048 F2400
G1 X-28.696 Y28.552 E0.0249
G1 X-30.634 Y26.613 E0.1048
G1 X-29.983 Y26.613 E0.0249
G1 X-28.045 Y28.552 E0.1048
G1 X-27.395 Y28.552 E0.0249
G1 X-29.333 Y26.613 E0.1048
G1 X-28.682 Y26.613 E0.0249
G1 X-26.744 Y28.552 E0.1048
G1 X-26.094 Y28.552 E0.0249
G1 X-28.032 Y26.613 E0.1048
G1 X-27.381 Y26.613 E0.0249
G1 X-11.730 Y42.265 E0.8466
G1 X-11.730 Y41.615 E0.0249
G1 X-26.731 Y26.613 E0.8115
G1 X-26.080 Y26.613 E0.0249
G1 X-11.730 Y40.964 E0.7763
G1 X-11.730 Y40.314 E0.0249
G1 X-25.430 Y26.613 E0.7411
G1 X-24.779 Y26.613 E0.0249
G1 X-11.730 Y39.663 E0.7059
G1 X-11.730 Y39.012 E0.0249
G1 X-24.129 Y26.613 E0.6707
G1 X-23.478 Y26.613 E0.0249
G1 X-11.730 Y38.362 E0.6355
G1 X-11.730 Y37.711 E0.0249
G1 X-22.828 Y26.613 E0.6003
G1 X-22.177 Y26.613 E0.0249
G1 X-11.730 Y37.061 E0.5651
G1 X-11.730 Y36.410 E0.0249
G1 X-21.526 Y26.613 E0.5299
G1 X-20.876 Y26.613 E0.0249
G1 X-11.730 Y35.760 E0.4947
G1 X-11.730 Y35.109 E0.0249
G1 X-20.225 Y26.613 E0.4596
G1 X-19.575 Y26.613 E0.0249
G1 X-11.730 Y34.459 E0.4244
G1 X-11.730 Y33.808 E0.0249
G1 X-18.924 Y26.613 E0.3892
G1 X-18.274 Y26.613 E0.0249
G1 X-11.730 Y33.158 E0.3540
G1 X-11.730 Y32.507 E0.0249
G1 X-17.623 Y26.613 E0.3188
G1 X-16.973 Y26.613 E0.0249
G1 X-11.730 Y31.857 E0.2836
G1 X-11.730 Y31.206 E0.0249
G1 X-16.322 Y26.613 E0.2484
G1 X-15.672 Y26.613 E0.0249
G1 X-11.730 Y30.555 E0.2132
G1 X-11.730 Y29.905 E0.0249
G1 X-15.021 Y26.613 E0.1780
G1 X-14.371 Y26.613 E0.0249
G1 X-11.730 Y29.254 E0.1429
G1 X-11.730 Y28.604 E0.0249
G1 X-13.720 Y26.613 E0.1077
G1 X-13.069 Y26.613 E0.0249
G1 X-11.131 Y28.552 E0.1048
G1 X-10.481 Y28.552 E0.0249
G1 X-12.419 Y26.613 E0.1048
G1 X-11.768 Y26.613 E0.0249
G1 X-9.830 Y28.552 E0.1048
G1 X-9.180 Y28.552 E0.0249
G1 X-11.118 Y26.613 E0.1048
G1 X-10.467 Y26.613 E0.0249
G1 X-8.529 Y28.552 E0.1048
G1 X-7.879 Y28.552 E0.0249
G1 X-9.817 Y26.613 E0.1048
G1 X-9.166 Y26.613 E0.0249
G1 X-7.228 Y28.552 E0.1048
G1 X-6.578 Y28.552 E0.0249
G1 X-8.516 Y26.613 E0.1048
G1 X-7.865 Y26.613 E0.0249
