; G-Code generated by Simplify3D(R) Version 4.1.2
; Apr 2, 2020 at 4:14:33 PM
; Settings Summary
;   processName,Process1
;   applyToModels,Scoop BracketV1R2,Scoop BracketV1R2(2),Scoop BracketV1R2(3),Scoop BracketV1R2(4),Scoop BracketV1R2(5),Scoop BracketV1R2(6),Scoop BracketV1R2(7),Scoop BracketV1R2(8),Scoop BracketV1R2(9),Scoop BracketV1R2(10),Scoop BracketV1R2(11)
;   profileName,MakerBot Replicator 2 HBP (modified)
;   profileVersion,2020-03-12 10:48:50
;   baseProfile,MakerBot Replicator 2(2)
;   printMaterial,PLA
;   printQuality,Medium
;   printExtruders,
;   extruderName,Primary Extruder
;   extruderToolheadNumber,0
;   extruderDiameter,0.4
;   extruderAutoWidth,0
;   extruderWidth,0.4
;   extrusionMultiplier,1
;   extruderUseRetract,1
;   extruderRetractionDistance,1.9
;   extruderExtraRestartDistance,0
;   extruderRetractionZLift,0.5
;   extruderRetractionSpeed,1200
;   extruderUseCoasting,0
;   extruderCoastingDistance,0.2
;   extruderUseWipe,0
;   extruderWipeDistance,5
;   primaryExtruder,0
;   layerHeight,0.2
;   topSolidLayers,3
;   bottomSolidLayers,3
;   perimeterOutlines,2
;   printPerimetersInsideOut,1
;   startPointOption,3
;   startPointOriginX,0
;   startPointOriginY,150
;   sequentialIslands,0
;   spiralVaseMode,0
;   firstLayerHeightPercentage,100
;   firstLayerWidthPercentage,115
;   firstLayerUnderspeed,0.5
;   useRaft,0
;   raftExtruder,0
;   raftTopLayers,2
;   raftBaseLayers,1
;   raftOffset,1
;   raftSeparationDistance,0.14
;   raftTopInfill,90
;   aboveRaftSpeedMultiplier,0.3
;   useSkirt,0
;   skirtExtruder,0
;   skirtLayers,1
;   skirtOutlines,5
;   skirtOffset,0
;   usePrimePillar,0
;   primePillarExtruder,999
;   primePillarWidth,12
;   primePillarLocation,7
;   primePillarSpeedMultiplier,1
;   useOozeShield,0
;   oozeShieldExtruder,999
;   oozeShieldOffset,2
;   oozeShieldOutlines,1
;   oozeShieldSidewallShape,1
;   oozeShieldSidewallAngle,30
;   oozeShieldSpeedMultiplier,1
;   infillExtruder,0
;   internalInfillPattern,Rectilinear
;   externalInfillPattern,Rectilinear
;   infillPercentage,15
;   outlineOverlapPercentage,25
;   infillExtrusionWidthPercentage,100
;   minInfillLength,5
;   infillLayerInterval,1
;   internalInfillAngles,45,-45
;   overlapInternalInfillAngles,0
;   externalInfillAngles,45,-45
;   generateSupport,1
;   supportExtruder,0
;   supportInfillPercentage,30
;   supportExtraInflation,0.5
;   supportBaseLayers,0
;   denseSupportExtruder,0
;   denseSupportLayers,2
;   denseSupportInfillPercentage,90
;   supportLayerInterval,1
;   supportHorizontalPartOffset,0.3
;   supportUpperSeparationLayers,1
;   supportLowerSeparationLayers,1
;   supportType,1
;   supportGridSpacing,2
;   maxOverhangAngle,45
;   supportAngles,45,-45
;   temperatureName,Primary Extruder,Heated Build Platform
;   temperatureNumber,0,0
;   temperatureSetpointCount,1,1
;   temperatureSetpointLayers,1,1
;   temperatureSetpointTemperatures,230,60
;   temperatureStabilizeAtStartup,1,1
;   temperatureHeatedBed,0,1
;   fanLayers,1,2
;   fanSpeeds,0,100
;   blipFanToFullPower,1
;   adjustSpeedForCooling,1
;   minSpeedLayerTime,15
;   minCoolingSpeedSlowdown,20
;   increaseFanForCooling,1
;   minFanLayerTime,45
;   maxCoolingFanSpeed,100
;   increaseFanForBridging,1
;   bridgingFanSpeed,100
;   use5D,1
;   relativeEdistances,1
;   allowEaxisZeroing,0
;   independentExtruderAxes,1
;   includeM10123,0
;   stickySupport,1
;   applyToolheadOffsets,0
;   gcodeXoffset,0
;   gcodeYoffset,0
;   gcodeZoffset,0
;   overrideMachineDefinition,1
;   machineTypeOverride,0
;   strokeXoverride,280
;   strokeYoverride,150
;   strokeZoverride,150
;   originOffsetXoverride,140
;   originOffsetYoverride,75
;   originOffsetZoverride,0
;   homeXdirOverride,1
;   homeYdirOverride,1
;   homeZdirOverride,-1
;   flipXoverride,1
;   flipYoverride,-1
;   flipZoverride,1
;   toolheadOffsets,0,0|0,0|0,0|0,0|0,0|0,0
;   overrideFirmwareConfiguration,1
;   firmwareTypeOverride,MakerBot/Sailfish Firmware
;   GPXconfigOverride,r2h
;   baudRateOverride,115200
;   overridePrinterModels,1
;   printerModelsOverride,MakerBot_Replicator2.stl
;   startingGcode,; **** Replicator 2 start.gcode ****,M73 P0 ; enable build progress,G162 X Y F3000 ; home XY maximum,G161 Z F1200 ; home Z minimum,G92 Z-5 ; set Z to -5,G1 Z0 ; move Z to 0,G161 Z F100 ; home Z slowly,M132 X Y Z A B ; recall home offsets,G1 X-145 Y-75 Z30 F9000 ; move to wait position off table,G130 X20 Y20 Z20 A20 B20 ; lower stepper Vrefs while heating,M126 S[fan_speed_pwm],M140 S[bed0_temperature] T0,M134 T0 ; stabilize bed temperature,M104 S[extruder0_temperature] T0,M133 T0 ; stabilize extruder temperature,G130 X127 Y127 Z40 A127 B127 ; default stepper Vrefs,G92 A0 ; zero extruder,G1 Z0.4 ; position nozzle,G1 E25 F300 ; purge nozzle,G1 X-140 Y-70 Z0.15 F1200 ; slow wipe,G1 X-135 Y-65 Z0.5 F1200 ; lift,G92 A0 ; zero extruder,M73 P1 ;@body (notify GPX body has started),; **** end of start.gcode ****
;   layerChangeGcode,
;   retractionGcode,
;   toolChangeGcode,
;   endingGcode,; **** Replicator 2 end.gcode ****,M73 P100 ; end build progress,G1 Z155 F1000 ; send Z axis to bottom of machine,M104 S0 T0 ; cool down extruder,M140 S0 T0 ; cool down HBP,M127 ; stop blower fan,G162 X Y F3000 ; home XY maximum,M18 ; disable stepper,M0 ; stop codes,M72 P1 ; play Ta-Da song,; **** end of end.gcode ****
;   exportFileFormat,gcode
;   celebration,0
;   celebrationSong,Random Song
;   postProcessing,
;   defaultSpeed,4800
;   outlineUnderspeed,0.5
;   solidInfillUnderspeed,1
;   supportUnderspeed,1
;   rapidXYspeed,9000
;   rapidZspeed,1200
;   minBridgingArea,50
;   bridgingExtraInflation,0
;   bridgingExtrusionMultiplier,1
;   bridgingSpeedMultiplier,0.8
;   useFixedBridgingAngle,0
;   fixedBridgingAngle,0
;   applyBridgingToPerimeters,0
;   filamentDiameters,1.75|1.75|1.75|1.75|1.75|1.75
;   filamentPricesPerKg,46|46|46|46|46|46
;   filamentDensities,1.25|1.25|1.25|1.25|1.25|1.25
;   useMinPrintHeight,0
;   minPrintHeight,0
;   useMaxPrintHeight,0
;   maxPrintHeight,4.84
;   useDiaphragm,0
;   diaphragmLayerInterval,20
;   robustSlicing,1
;   mergeAllIntoSolid,0
;   onlyRetractWhenCrossingOutline,0
;   retractBetweenLayers,0
;   useRetractionMinTravel,1
;   retractionMinTravel,7
;   retractWhileWiping,1
;   onlyWipeOutlines,1
;   avoidCrossingOutline,0
;   maxMovementDetourFactor,3
;   toolChangeRetractionDistance,12
;   toolChangeExtraRestartDistance,-0.5
;   toolChangeRetractionSpeed,600
;   externalThinWallType,0
;   internalThinWallType,0
;   thinWallAllowedOverlapPercentage,10
;   singleExtrusionMinLength,1
;   singleExtrusionMinPrintingWidthPercentage,50
;   singleExtrusionMaxPrintingWidthPercentage,200
;   singleExtrusionEndpointExtension,0.2
;   horizontalSizeCompensation,0
G90
M83
; **** Replicator 2 start.gcode ****
M73 P0 ; enable build progress
G162 X Y F3000 ; home XY maximum
G161 Z F1200 ; home Z minimum
G92 Z-5 ; set Z to -5
G1 Z0 ; move Z to 0
G161 Z F100 ; home Z slowly
M132 X Y Z A B ; recall home offsets
G1 X-145 Y-75 Z30 F9000 ; move to wait position off table
G130 X20 Y20 Z20 A20 B20 ; lower stepper Vrefs while heating
M127
M140 S60 T0
M134 T0 ; stabilize bed temperature
M104 S230 T0
M133 T0 ; stabilize extruder temperature
G130 X127 Y127 Z40 A127 B127 ; default stepper Vrefs
G92 A0 ; zero extruder
G1 Z0.4 ; position nozzle
G1 E25 F300 ; purge nozzle
G1 X-140 Y-70 Z0.15 F1200 ; slow wipe
G1 X-135 Y-65 Z0.5 F1200 ; lift
G92 A0 ; zero extruder
M73 P1 ;@body (notify GPX body has started)
; **** end of start.gcode ****
; process Process1
; layer 1, Z = 0.200
M135 T0
G1 E-1.9000 F1200
; feature inner perimeter
; tool H0.200 W0.460
G1 Z0.500 F1200
G1 X2.946 Y25.406 F9000
G1 Z0.200 F1200
G1 E1.9000 F1200
G1 X-2.946 Y25.406 E0.2253 F1800
G1 X-3.402 Y25.334 E0.0177
G1 X-3.765 Y25.149 E0.0156
G1 X-4.053 Y24.861 E0.0156
G1 X-4.230 Y24.514 E0.0149
G1 X-4.310 Y24.039 E0.0184
G1 X-4.310 Y4.554 E0.7453
G1 X-4.238 Y4.098 E0.0177
G1 X-4.053 Y3.735 E0.0156
G1 X-3.765 Y3.447 E0.0156
G1 X-3.402 Y3.262 E0.0156
G1 X-2.946 Y3.190 E0.0177
G1 X2.946 Y3.190 E0.2253
G1 X3.402 Y3.262 E0.0177
G1 X3.765 Y3.447 E0.0156
G1 X4.053 Y3.735 E0.0156
G1 X4.238 Y4.098 E0.0156
G1 X4.310 Y4.554 E0.0177
G1 X4.310 Y24.042 E0.7454
G1 X4.238 Y24.499 E0.0177
G1 X4.053 Y24.861 E0.0156
G1 X3.765 Y25.149 E0.0156
G1 X3.402 Y25.334 E0.0156
G1 X2.946 Y25.406 E0.0177
; feature outer perimeter
G1 X2.982 Y25.866 F9000
G1 X-2.982 Y25.866 E0.2281 F1200
G1 X-3.546 Y25.777 E0.0218
G1 X-4.039 Y25.526 E0.0211
G1 X-4.430 Y25.135 E0.0211
G1 X-4.672 Y24.660 E0.0204
G1 X-4.770 Y24.077 E0.0226
G1 X-4.770 Y4.518 E0.7481
G1 X-4.681 Y3.954 E0.0218
G1 X-4.430 Y3.461 E0.0211
G1 X-4.039 Y3.070 E0.0211
G1 X-3.546 Y2.819 E0.0211
G1 X-2.982 Y2.730 E0.0218
G1 X2.982 Y2.730 E0.2281
G1 X3.546 Y2.819 E0.0218
G1 X4.039 Y3.070 E0.0211
G1 X4.430 Y3.461 E0.0211
G1 X4.681 Y3.954 E0.0211
G1 X4.770 Y4.518 E0.0218
G1 X4.770 Y24.078 E0.7482
G1 X4.681 Y24.642 E0.0218
G1 X4.430 Y25.135 E0.0211
G1 X4.039 Y25.526 E0.0211
G1 X3.546 Y25.777 E0.0211
G1 X2.982 Y25.866 E0.0218
; feature solid layer
G1 X-2.912 Y25.061 F9000
G1 X-3.965 Y24.008 E0.0570 F2400
G1 X-3.965 Y23.358 E0.0249
G1 X-2.261 Y25.061 E0.0922
G1 X-1.611 Y25.061 E0.0249
G1 X-3.965 Y22.707 E0.1274
G1 X-3.965 Y22.057 E0.0249
G1 X-0.960 Y25.061 E0.1625
G1 X-0.310 Y25.061 E0.0249
G1 X-3.965 Y21.406 E0.1977
G1 X-3.965 Y20.755 E0.0249
G1 X0.341 Y25.061 E0.2329
G1 X0.992 Y25.061 E0.0249
G1 X-3.965 Y20.105 E0.2681
G1 X-3.965 Y19.454 E0.0249
G1 X1.642 Y25.061 E0.3033
G1 X2.293 Y25.061 E0.0249
G1 X-3.965 Y18.804 E0.3385
G1 X-3.965 Y18.153 E0.0249
G1 X2.940 Y25.058 E0.3735
G1 X3.294 Y25.002 E0.0137
G1 X3.453 Y24.921 E0.0068
G1 X-3.965 Y17.503 E0.4013
G1 X-3.965 Y16.852 E0.0249
G1 X3.793 Y24.611 E0.4197
G1 X3.906 Y24.391 E0.0094
G1 X3.949 Y24.116 E0.0106
G1 X-3.965 Y16.202 E0.4281
G1 X-3.965 Y15.551 E0.0249
G1 X3.965 Y23.481 E0.4290
G1 X3.965 Y22.831 E0.0249
G1 X-3.965 Y14.901 E0.4290
G1 X-3.965 Y14.250 E0.0249
G1 X3.965 Y22.180 E0.4290
G1 X3.965 Y21.530 E0.0249
G1 X-3.965 Y13.600 E0.4290
G1 X-3.965 Y12.949 E0.0249
G1 X3.965 Y20.879 E0.4290
G1 X3.965 Y20.228 E0.0249
G1 X-3.965 Y12.298 E0.4290
G1 X-3.965 Y11.648 E0.0249
G1 X3.965 Y19.578 E0.4290
G1 X3.965 Y18.927 E0.0249
G1 X-3.965 Y10.997 E0.4290
G1 X-3.965 Y10.347 E0.0249
G1 X3.965 Y18.277 E0.4290
G1 X3.965 Y17.626 E0.0249
G1 X-3.965 Y9.696 E0.4290
G1 X-3.965 Y9.046 E0.0249
G1 X3.965 Y16.976 E0.4290
G1 X3.965 Y16.325 E0.0249
G1 X-3.965 Y8.395 E0.4290
G1 X-3.965 Y7.745 E0.0249
G1 X3.965 Y15.675 E0.4290
G1 X3.965 Y15.024 E0.0249
G1 X-3.965 Y7.094 E0.4290
G1 X-3.965 Y6.444 E0.0249
G1 X3.965 Y14.374 E0.4290
G1 X3.965 Y13.723 E0.0249
G1 X-3.965 Y5.793 E0.4290
G1 X-3.965 Y5.143 E0.0249
G1 X3.965 Y13.073 E0.4290
G1 X3.965 Y12.422 E0.0249
G1 X-3.953 Y4.504 E0.4283
G1 X-3.906 Y4.206 E0.0116
G1 X-3.803 Y4.004 E0.0087
G1 X3.965 Y11.771 E0.4202
G1 X3.965 Y11.121 E0.0249
G1 X-3.471 Y3.685 E0.4022
G1 X-3.294 Y3.595 E0.0076
G1 X-2.963 Y3.542 E0.0128
G1 X3.965 Y10.470 E0.3748
G1 X3.965 Y9.820 E0.0249
G1 X-2.320 Y3.535 E0.3400
G1 X-1.669 Y3.535 E0.0249
G1 X3.965 Y9.169 E0.3048
G1 X3.965 Y8.519 E0.0249
G1 X-1.019 Y3.535 E0.2696
G1 X-0.368 Y3.535 E0.0249
G1 X3.965 Y7.868 E0.2344
G1 X3.965 Y7.218 E0.0249
G1 X0.282 Y3.535 E0.1992
G1 X0.933 Y3.535 E0.0249
G1 X3.965 Y6.567 E0.1640
G1 X3.965 Y5.917 E0.0249
G1 X1.583 Y3.535 E0.1288
G1 X2.234 Y3.535 E0.0249
G1 X3.965 Y5.266 E0.0936
G1 X3.965 Y4.616 E0.0249
G1 X2.884 Y3.535 E0.0584
; feature inner perimeter
G1 X2.946 Y-3.190 F9000
G1 X-2.946 Y-3.190 E0.2253 F1800
G1 X-3.402 Y-3.262 E0.0177
G1 X-3.765 Y-3.447 E0.0156
G1 X-4.053 Y-3.735 E0.0156
G1 X-4.238 Y-4.098 E0.0156
G1 X-4.310 Y-4.554 E0.0177
G1 X-4.310 Y-24.042 E0.7454
G1 X-4.238 Y-24.499 E0.0177
G1 X-4.053 Y-24.861 E0.0156
G1 X-3.765 Y-25.149 E0.0156
G1 X-3.402 Y-25.334 E0.0156
G1 X-2.946 Y-25.406 E0.0177
G1 X2.946 Y-25.406 E0.2253
G1 X3.402 Y-25.334 E0.0177
G1 X3.765 Y-25.149 E0.0156
G1 X4.053 Y-24.861 E0.0156
G1 X4.238 Y-24.499 E0.0156
G1 X4.310 Y-24.042 E0.0177
G1 X4.310 Y-4.554 E0.7454
G1 X4.238 Y-4.098 E0.0177
G1 X4.053 Y-3.735 E0.0156
G1 X3.765 Y-3.447 E0.0156
G1 X3.402 Y-3.262 E0.0156
G1 X2.946 Y-3.190 E0.0177
; feature outer perimeter
G1 X2.982 Y-2.730 F9000
G1 X-2.982 Y-2.730 E0.2281 F1200
G1 X-3.546 Y-2.819 E0.0218
G1 X-4.039 Y-3.070 E0.0211
G1 X-4.430 Y-3.461 E0.0211
G1 X-4.681 Y-3.954 E0.0211
G1 X-4.770 Y-4.518 E0.0218
G1 X-4.770 Y-24.078 E0.7482
G1 X-4.681 Y-24.642 E0.0218
G1 X-4.430 Y-25.135 E0.0211
G1 X-4.039 Y-25.526 E0.0211
G1 X-3.546 Y-25.777 E0.0211
G1 X-2.982 Y-25.866 E0.0218
G1 X2.982 Y-25.866 E0.2281
G1 X3.546 Y-25.777 E0.0218
G1 X4.039 Y-25.526 E0.0211
G1 X4.430 Y-25.135 E0.0211
G1 X4.681 Y-24.642 E0.0211
G1 X4.770 Y-24.078 E0.0218
G1 X4.770 Y-4.518 E0.7482
G1 X4.681 Y-3.954 E0.0218
G1 X4.430 Y-3.461 E0.0211
G1 X4.039 Y-3.070 E0.0211
G1 X3.546 Y-2.819 E0.0211
G1 X2.982 Y-2.730 E0.0218
; feature solid layer
G1 X-2.884 Y-3.535 F9000
G1 X-3.965 Y-4.616 E0.0584 F2400
G1 X-3.965 Y-5.266 E0.0249
G1 X-2.234 Y-3.535 E0.0936
G1 X-1.583 Y-3.535 E0.0249
G1 X-3.965 Y-5.917 E0.1288
G1 X-3.965 Y-6.567 E0.0249
G1 X-0.933 Y-3.535 E0.1640
G1 X-0.282 Y-3.535 E0.0249
G1 X-3.965 Y-7.218 E0.1992
G1 X-3.965 Y-7.868 E0.0249
G1 X0.368 Y-3.535 E0.2344
G1 X1.019 Y-3.535 E0.0249
G1 X-3.965 Y-8.519 E0.2696
G1 X-3.965 Y-9.169 E0.0249
G1 X1.669 Y-3.535 E0.3048
G1 X2.320 Y-3.535 E0.0249
G1 X-3.965 Y-9.820 E0.3400
G1 X-3.965 Y-10.470 E0.0249
G1 X2.963 Y-3.542 E0.3748
G1 X3.294 Y-3.595 E0.0128
G1 X3.471 Y-3.685 E0.0076
G1 X-3.965 Y-11.121 E0.4022
G1 X-3.965 Y-11.771 E0.0249
G1 X3.803 Y-4.004 E0.4202
G1 X3.906 Y-4.206 E0.0087
G1 X3.953 Y-4.504 E0.0116
G1 X-3.965 Y-12.422 E0.4283
G1 X-3.965 Y-13.073 E0.0249
G1 X3.965 Y-5.143 E0.4290
G1 X3.965 Y-5.793 E0.0249
G1 X-3.965 Y-13.723 E0.4290
G1 X-3.965 Y-14.374 E0.0249
G1 X3.965 Y-6.444 E0.4290
G1 X3.965 Y-7.094 E0.0249
G1 X-3.965 Y-15.024 E0.4290
G1 X-3.965 Y-15.675 E0.0249
G1 X3.965 Y-7.745 E0.4290
G1 X3.965 Y-8.395 E0.0249
G1 X-3.965 Y-16.325 E0.4290
G1 X-3.965 Y-16.976 E0.0249
G1 X3.965 Y-9.046 E0.4290
G1 X3.965 Y-9.696 E0.0249
G1 X-3.965 Y-17.626 E0.4290
G1 X-3.965 Y-18.277 E0.0249
G1 X3.965 Y-10.347 E0.4290
G1 X3.965 Y-10.997 E0.0249
G1 X-3.965 Y-18.927 E0.4290
G1 X-3.965 Y-19.578 E0.0249
G1 X3.965 Y-11.648 E0.4290
G1 X3.965 Y-12.298 E0.0249
G1 X-3.965 Y-20.228 E0.4290
G1 X-3.965 Y-20.879 E0.0249
G1 X3.965 Y-12.949 E0.4290
G1 X3.965 Y-13.600 E0.0249
G1 X-3.965 Y-21.530 E0.4290
G1 X-3.965 Y-22.180 E0.0249
G1 X3.965 Y-14.250 E0.4290
G1 X3.965 Y-14.901 E0.0249
G1 X-3.965 Y-22.831 E0.4290
G1 X-3.965 Y-23.481 E0.0249
G1 X3.965 Y-15.551 E0.4290
G1 X3.965 Y-16.202 E0.0249
G1 X-3.949 Y-24.116 E0.4281
G1 X-3.906 Y-24.391 E0.0106
G1 X-3.793 Y-24.611 E0.0094
G1 X3.965 Y-16.852 E0.4197
G1 X3.965 Y-17.503 E0.0249
G1 X-3.453 Y-24.921 E0.4013
G1 X-3.294 Y-25.002 E0.0068
G1 X-2.940 Y-25.058 E0.0137
G1 X3.965 Y-18.153 E0.3735
G1 X3.965 Y-18.804 E0.0249
G1 X-2.293 Y-25.061 E0.3385
G1 X-1.642 Y-25.061 E0.0249
G1 X3.965 Y-19.454 E0.3033
G1 X3.965 Y-20.105 E0.0249
G1 X-0.991 Y-25.061 E0.2681
G1 X-0.341 Y-25.061 E0.0249
G1 X3.965 Y-20.755 E0.2329
G1 X3.965 Y-21.406 E0.0249
G1 X0.310 Y-25.061 E0.1977
G1 X0.960 Y-25.061 E0.0249
G1 X3.965 Y-22.057 E0.1625
G1 X3.965 Y-22.707 E0.0249
G1 X1.611 Y-25.061 E0.1274
G1 X2.261 Y-25.061 E0.0249
G1 X3.965 Y-23.358 E0.0922
G1 X3.965 Y-24.008 E0.0249
G1 X2.912 Y-25.061 E0.0570
G1 E-1.9000 F1200
; feature inner perimeter
G1 Z0.700 F1200
G1 X12.054 Y-3.190 F9000
G1 Z0.200 F1200
G1 E1.9000 F1200
G1 X11.598 Y-3.262 E0.0177 F1800
G1 X11.235 Y-3.447 E0.0156
G1 X10.947 Y-3.735 E0.0156
G1 X10.770 Y-4.082 E0.0149
G1 X10.690 Y-4.558 E0.0184
G1 X10.690 Y-24.042 E0.7453
G1 X10.762 Y-24.499 E0.0177
G1 X10.947 Y-24.861 E0.0156
G1 X11.235 Y-25.149 E0.0156
G1 X11.598 Y-25.334 E0.0156
G1 X12.054 Y-25.406 E0.0177
G1 X17.946 Y-25.406 E0.2253
G1 X18.402 Y-25.334 E0.0177
G1 X18.765 Y-25.149 E0.0156
G1 X19.053 Y-24.861 E0.0156
G1 X19.238 Y-24.499 E0.0156
G1 X19.310 Y-24.042 E0.0177
G1 X19.310 Y-4.554 E0.7454
G1 X19.238 Y-4.098 E0.0177
G1 X19.053 Y-3.735 E0.0156
G1 X18.765 Y-3.447 E0.0156
G1 X18.402 Y-3.262 E0.0156
