; G-Code generated by Simplify3D(R) Version 4.1.2
; Apr 2, 2020 at 4:20:28 PM
; Settings Summary
;   processName,Process1
;   applyToModels,splint 1p,splint 1p(2),splint 1p(3),splint 1p(4),splint 1p(5),splint 1p(6),splint 1p(7),splint 1p(8),splint 1p(9),splint 1p(10),splint 1p(11)
;   profileName,MakerBot Replicator 2 HBP (modified)
;   profileVersion,2020-03-12 10:48:50
;   baseProfile,MakerBot Replicator 2(2)
;   printMaterial,PLA
;   printQuality,Medium
;   printExtruders,
;   extruderName,Primary Extruder
;   extruderToolheadNumber,0
;   extruderDiameter,0.4
;   extruderAutoWidth,0
;   extruderWidth,0.4
;   extrusionMultiplier,1
;   extruderUseRetract,1
;   extruderRetractionDistance,1.9
;   extruderExtraRestartDistance,0
;   extruderRetractionZLift,0.5
;   extruderRetractionSpeed,1200
;   extruderUseCoasting,0
;   extruderCoastingDistance,0.2
;   extruderUseWipe,0
;   extruderWipeDistance,5
;   primaryExtruder,0
;   layerHeight,0.2
;   topSolidLayers,3
;   bottomSolidLayers,3
;   perimeterOutlines,2
;   printPerimetersInsideOut,1
;   startPointOption,3
;   startPointOriginX,0
;   startPointOriginY,150
;   sequentialIslands,0
;   spiralVaseMode,0
;   firstLayerHeightPercentage,100
;   firstLayerWidthPercentage,115
;   firstLayerUnderspeed,0.5
;   useRaft,0
;   raftExtruder,0
;   raftTopLayers,2
;   raftBaseLayers,1
;   raftOffset,1
;   raftSeparationDistance,0.14
;   raftTopInfill,90
;   aboveRaftSpeedMultiplier,0.3
;   useSkirt,0
;   skirtExtruder,0
;   skirtLayers,1
;   skirtOutlines,5
;   skirtOffset,0
;   usePrimePillar,0
;   primePillarExtruder,999
;   primePillarWidth,12
;   primePillarLocation,7
;   primePillarSpeedMultiplier,1
;   useOozeShield,0
;   oozeShieldExtruder,999
;   oozeShieldOffset,2
;   oozeShieldOutlines,1
;   oozeShieldSidewallShape,1
;   oozeShieldSidewallAngle,30
;   oozeShieldSpeedMultiplier,1
;   infillExtruder,0
;   internalInfillPattern,Rectilinear
;   externalInfillPattern,Rectilinear
;   infillPercentage,15
;   outlineOverlapPercentage,25
;   infillExtrusionWidthPercentage,100
;   minInfillLength,5
;   infillLayerInterval,1
;   internalInfillAngles,45,-45
;   overlapInternalInfillAngles,0
;   externalInfillAngles,45,-45
;   generateSupport,1
;   supportExtruder,0
;   supportInfillPercentage,30
;   supportExtraInflation,0.5
;   supportBaseLayers,0
;   denseSupportExtruder,0
;   denseSupportLayers,2
;   denseSupportInfillPercentage,90
;   supportLayerInterval,1
;   supportHorizontalPartOffset,0.3
;   supportUpperSeparationLayers,1
;   supportLowerSeparationLayers,1
;   supportType,1
;   supportGridSpacing,2
;   maxOverhangAngle,45
;   supportAngles,45,-45
;   temperatureName,Primary Extruder,Heated Build Platform
;   temperatureNumber,0,0
;   temperatureSetpointCount,1,1
;   temperatureSetpointLayers,1,1
;   temperatureSetpointTemperatures,230,60
;   temperatureStabilizeAtStartup,1,1
;   temperatureHeatedBed,0,1
;   fanLayers,1,2
;   fanSpeeds,0,100
;   blipFanToFullPower,1
;   adjustSpeedForCooling,1
;   minSpeedLayerTime,15
;   minCoolingSpeedSlowdown,20
;   increaseFanForCooling,1
;   minFanLayerTime,45
;   maxCoolingFanSpeed,100
;   increaseFanForBridging,1
;   bridgingFanSpeed,100
;   use5D,1
;   relativeEdistances,1
;   allowEaxisZeroing,0
;   independentExtruderAxes,1
;   includeM10123,0
;   stickySupport,1
;   applyToolheadOffsets,0
;   gcodeXoffset,0
;   gcodeYoffset,0
;   gcodeZoffset,0
;   overrideMachineDefinition,1
;   machineTypeOverride,0
;   strokeXoverride,280
;   strokeYoverride,150
;   strokeZoverride,150
;   originOffsetXoverride,140
;   originOffsetYoverride,75
;   originOffsetZoverride,0
;   homeXdirOverride,1
;   homeYdirOverride,1
;   homeZdirOverride,-1
;   flipXoverride,1
;   flipYoverride,-1
;   flipZoverride,1
;   toolheadOffsets,0,0|0,0|0,0|0,0|0,0|0,0
;   overrideFirmwareConfiguration,1
;   firmwareTypeOverride,MakerBot/Sailfish Firmware
;   GPXconfigOverride,r2h
;   baudRateOverride,115200
;   overridePrinterModels,1
;   printerModelsOverride,MakerBot_Replicator2.stl
;   startingGcode,; **** Replicator 2 start.gcode ****,M73 P0 ; enable build progress,G162 X Y F3000 ; home XY maximum,G161 Z F1200 ; home Z minimum,G92 Z-5 ; set Z to -5,G1 Z0 ; move Z to 0,G161 Z F100 ; home Z slowly,M132 X Y Z A B ; recall home offsets,G1 X-145 Y-75 Z30 F9000 ; move to wait position off table,G130 X20 Y20 Z20 A20 B20 ; lower stepper Vrefs while heating,M126 S[fan_speed_pwm],M140 S[bed0_temperature] T0,M134 T0 ; stabilize bed temperature,M104 S[extruder0_temperature] T0,M133 T0 ; stabilize extruder temperature,G130 X127 Y127 Z40 A127 B127 ; default stepper Vrefs,G92 A0 ; zero extruder,G1 Z0.4 ; position nozzle,G1 E25 F300 ; purge nozzle,G1 X-140 Y-70 Z0.15 F1200 ; slow wipe,G1 X-135 Y-65 Z0.5 F1200 ; lift,G92 A0 ; zero extruder,M73 P1 ;@body (notify GPX body has started),; **** end of start.gcode ****
;   layerChangeGcode,
;   retractionGcode,
;   toolChangeGcode,
;   endingGcode,; **** Replicator 2 end.gcode ****,M73 P100 ; end build progress,G1 Z155 F1000 ; send Z axis to bottom of machine,M104 S0 T0 ; cool down extruder,M140 S0 T0 ; cool down HBP,M127 ; stop blower fan,G162 X Y F3000 ; home XY maximum,M18 ; disable stepper,M0 ; stop codes,M72 P1 ; play Ta-Da song,; **** end of end.gcode ****
;   exportFileFormat,gcode
;   celebration,0
;   celebrationSong,Random Song
;   postProcessing,
;   defaultSpeed,4800
;   outlineUnderspeed,0.5
;   solidInfillUnderspeed,1
;   supportUnderspeed,1
;   rapidXYspeed,9000
;   rapidZspeed,1200
;   minBridgingArea,50
;   bridgingExtraInflation,0
;   bridgingExtrusionMultiplier,1
;   bridgingSpeedMultiplier,0.8
;   useFixedBridgingAngle,0
;   fixedBridgingAngle,0
;   applyBridgingToPerimeters,0
;   filamentDiameters,1.75|1.75|1.75|1.75|1.75|1.75
;   filamentPricesPerKg,46|46|46|46|46|46
;   filamentDensities,1.25|1.25|1.25|1.25|1.25|1.25
;   useMinPrintHeight,0
;   minPrintHeight,0
;   useMaxPrintHeight,0
;   maxPrintHeight,4.84
;   useDiaphragm,0
;   diaphragmLayerInterval,20
;   robustSlicing,1
;   mergeAllIntoSolid,0
;   onlyRetractWhenCrossingOutline,0
;   retractBetweenLayers,0
;   useRetractionMinTravel,1
;   retractionMinTravel,7
;   retractWhileWiping,1
;   onlyWipeOutlines,1
;   avoidCrossingOutline,0
;   maxMovementDetourFactor,3
;   toolChangeRetractionDistance,12
;   toolChangeExtraRestartDistance,-0.5
;   toolChangeRetractionSpeed,600
;   externalThinWallType,0
;   internalThinWallType,0
;   thinWallAllowedOverlapPercentage,10
;   singleExtrusionMinLength,1
;   singleExtrusionMinPrintingWidthPercentage,50
;   singleExtrusionMaxPrintingWidthPercentage,200
;   singleExtrusionEndpointExtension,0.2
;   horizontalSizeCompensation,0
G90
M83
; **** Replicator 2 start.gcode ****
M73 P0 ; enable build progress
G162 X Y F3000 ; home XY maximum
G161 Z F1200 ; home Z minimum
G92 Z-5 ; set Z to -5
G1 Z0 ; move Z to 0
G161 Z F100 ; home Z slowly
M132 X Y Z A B ; recall home offsets
G1 X-145 Y-75 Z30 F9000 ; move to wait position off table
G130 X20 Y20 Z20 A20 B20 ; lower stepper Vrefs while heating
M127
M140 S60 T0
M134 T0 ; stabilize bed temperature
M104 S230 T0
M133 T0 ; stabilize extruder temperature
G130 X127 Y127 Z40 A127 B127 ; default stepper Vrefs
G92 A0 ; zero extruder
G1 Z0.4 ; position nozzle
G1 E25 F300 ; purge nozzle
G1 X-140 Y-70 Z0.15 F1200 ; slow wipe
G1 X-135 Y-65 Z0.5 F1200 ; lift
G92 A0 ; zero extruder
M73 P1 ;@body (notify GPX body has started)
; **** end of start.gcode ****
; process Process1
; layer 1, Z = 0.200
M135 T0
G1 E-1.9000 F1200
; feature inner perimeter
; tool H0.200 W0.460
G1 Z0.500 F1200
G1 X3.190 Y-3.190 F9000
G1 Z0.200 F1200
G1 E1.9000 F1200
G1 X3.190 Y-23.914 E0.7927 F1800
G1 X3.405 Y-23.914 E0.0082
G1 X3.405 Y-3.190 E0.7927
G1 X3.190 Y-3.190 E0.0082
G1 X7.008 Y-3.190 F9000
G1 X7.008 Y-7.989 E0.1836 F1800
G1 X12.663 Y-7.989 E0.2163
G1 X12.663 Y-6.332 E0.0634
G1 X20.425 Y-6.326 E0.2969
G1 X20.425 Y-20.778 E0.5528
G1 X12.663 Y-20.772 E0.2969
G1 X12.663 Y-19.115 E0.0634
G1 X7.008 Y-19.115 E0.2163
G1 X7.008 Y-23.914 E0.1836
G1 X20.507 Y-23.914 E0.5163
G1 X20.507 Y-3.190 E0.7927
G1 X7.008 Y-3.190 E0.5163
; feature outer perimeter
G1 X2.730 Y-2.730 F9000
G1 X2.730 Y-24.374 E0.8279 F1200
G1 X20.967 Y-24.374 E0.6976
G1 X20.967 Y-2.730 E0.8279
G1 X2.730 Y-2.730 E0.6976
G1 X3.865 Y-3.375 F9000
G1 X6.548 Y-3.375 E0.1026 F1200
G1 X6.548 Y-8.449 E0.1941
G1 X13.123 Y-8.449 E0.2515
G1 X13.123 Y-6.791 E0.0634
G1 X19.965 Y-6.786 E0.2617
G1 X19.965 Y-20.318 E0.5176
G1 X13.123 Y-20.313 E0.2617
G1 X13.123 Y-18.655 E0.0634
G1 X6.548 Y-18.655 E0.2515
G1 X6.548 Y-23.729 E0.1941
G1 X3.865 Y-23.729 E0.1026
G1 X3.865 Y-3.375 E0.7785
; feature solid layer
G1 X7.353 Y-3.706 F9000
G1 X7.524 Y-3.535 E0.0092 F2400
G1 X8.175 Y-3.535 E0.0249
G1 X7.353 Y-4.356 E0.0444
G1 X7.353 Y-5.007 E0.0249
G1 X8.825 Y-3.535 E0.0796
G1 X9.476 Y-3.535 E0.0249
G1 X7.353 Y-5.657 E0.1148
G1 X7.353 Y-6.308 E0.0249
G1 X10.126 Y-3.535 E0.1500
G1 X10.777 Y-3.535 E0.0249
G1 X7.353 Y-6.959 E0.1852
G1 X7.353 Y-7.609 E0.0249
G1 X11.427 Y-3.535 E0.2204
G1 X12.078 Y-3.535 E0.0249
G1 X7.969 Y-7.644 E0.2223
G1 X8.619 Y-7.644 E0.0249
G1 X12.728 Y-3.535 E0.2223
G1 X13.379 Y-3.535 E0.0249
G1 X9.270 Y-7.644 E0.2223
G1 X9.920 Y-7.644 E0.0249
G1 X14.030 Y-3.535 E0.2223
G1 X14.680 Y-3.535 E0.0249
G1 X10.571 Y-7.644 E0.2223
G1 X12.318 Y-7.198 F9000
G1 X11.872 Y-7.644 E0.0241 F2400
G1 X11.222 Y-7.644 E0.0249
G1 X12.318 Y-6.548 E0.0593
G1 X12.318 Y-5.987 E0.0214
G1 X12.879 Y-5.987 E0.0215
G1 X15.331 Y-3.535 E0.1326
G1 X15.981 Y-3.535 E0.0249
G1 X13.530 Y-5.986 E0.1326
G1 X14.181 Y-5.986 E0.0249
G1 X16.632 Y-3.535 E0.1326
G1 X17.282 Y-3.535 E0.0249
G1 X14.832 Y-5.985 E0.1325
G1 X15.483 Y-5.985 E0.0249
G1 X17.933 Y-3.535 E0.1325
G1 X18.583 Y-3.535 E0.0249
G1 X16.134 Y-5.984 E0.1325
G1 X16.785 Y-5.984 E0.0249
G1 X19.234 Y-3.535 E0.1324
G1 X19.884 Y-3.535 E0.0249
G1 X17.436 Y-5.983 E0.1324
G1 X18.087 Y-5.983 E0.0249
G1 X20.162 Y-3.908 E0.1122
G1 X20.162 Y-4.558 E0.0249
G1 X18.738 Y-5.982 E0.0770
G1 X19.389 Y-5.982 E0.0249
G1 X20.162 Y-5.209 E0.0418
G1 X20.162 Y-5.859 E0.0249
G1 X20.041 Y-5.981 E0.0066
G1 E-1.9000 F1200
G1 Z0.700 F1200
G1 X20.017 Y-23.569 F9000
G1 Z0.200 F1200
G1 E1.9000 F1200
G1 X20.162 Y-23.424 E0.0078 F2400
G1 X20.162 Y-22.773 E0.0249
G1 X19.367 Y-23.569 E0.0430
G1 X18.716 Y-23.569 E0.0249
G1 X20.162 Y-22.123 E0.0782
G1 X20.162 Y-21.472 E0.0249
G1 X18.065 Y-23.569 E0.1134
G1 X17.415 Y-23.569 E0.0249
G1 X19.861 Y-21.123 E0.1323
G1 X19.211 Y-21.122 E0.0249
G1 X16.764 Y-23.569 E0.1323
G1 X16.114 Y-23.569 E0.0249
G1 X18.561 Y-21.122 E0.1324
G1 X17.911 Y-21.121 E0.0249
G1 X15.463 Y-23.569 E0.1324
G1 X14.813 Y-23.569 E0.0249
G1 X17.261 Y-21.121 E0.1324
G1 X16.611 Y-21.120 E0.0249
G1 X14.162 Y-23.569 E0.1325
G1 X13.512 Y-23.569 E0.0249
G1 X15.961 Y-21.120 E0.1325
G1 X15.311 Y-21.119 E0.0249
G1 X12.861 Y-23.569 E0.1325
G1 X12.211 Y-23.569 E0.0249
G1 X14.661 Y-21.119 E0.1325
G1 X14.011 Y-21.118 E0.0249
G1 X11.560 Y-23.569 E0.1326
G1 X10.910 Y-23.569 E0.0249
G1 X13.361 Y-21.118 E0.1326
G1 X12.711 Y-21.117 E0.0249
G1 X10.259 Y-23.569 E0.1326
G1 X9.608 Y-23.569 E0.0249
G1 X12.318 Y-20.859 E0.1466
G1 X12.318 Y-20.209 E0.0249
G1 X8.958 Y-23.569 E0.1818
G1 X8.307 Y-23.569 E0.0249
G1 X12.318 Y-19.558 E0.2169
G1 X12.318 Y-19.460 E0.0038
G1 X11.766 Y-19.460 E0.0211
G1 X7.657 Y-23.569 E0.2223
G1 X7.353 Y-23.569 E0.0116
G1 X7.353 Y-23.222 E0.0133
G1 X11.115 Y-19.460 E0.2035
G1 X10.465 Y-19.460 E0.0249
G1 X7.353 Y-22.571 E0.1683
G1 X7.353 Y-21.921 E0.0249
G1 X9.814 Y-19.460 E0.1331
G1 X9.164 Y-19.460 E0.0249
G1 X7.353 Y-21.270 E0.0979
G1 X7.353 Y-20.620 E0.0249
G1 X8.513 Y-19.460 E0.0627
G1 X7.863 Y-19.460 E0.0249
G1 X7.353 Y-19.969 E0.0276
G1 E-1.9000 F1200
; feature inner perimeter
G1 Z0.700 F1200
G1 X-3.190 Y-3.190 F9000
G1 Z0.200 F1200
G1 E1.9000 F1200
G1 X-16.689 Y-3.190 E0.5163 F1800
G1 X-16.689 Y-7.989 E0.1836
G1 X-11.034 Y-7.989 E0.2163
G1 X-11.034 Y-6.332 E0.0634
G1 X-3.272 Y-6.326 E0.2969
G1 X-3.272 Y-20.778 E0.5528
G1 X-11.034 Y-20.772 E0.2969
G1 X-11.034 Y-19.115 E0.0634
G1 X-16.689 Y-19.115 E0.2163
G1 X-16.689 Y-23.914 E0.1836
G1 X-3.190 Y-23.914 E0.5163
G1 X-3.190 Y-3.190 E0.7927
G1 E-1.9000 F1200
G1 Z0.700 F1200
G1 X-20.292 Y-3.190 F9000
G1 Z0.200 F1200
G1 E1.9000 F1200
G1 X-20.507 Y-3.190 E0.0082 F1800
G1 X-20.507 Y-23.914 E0.7927
G1 X-20.292 Y-23.914 E0.0082
G1 X-20.292 Y-3.190 E0.7927
; feature outer perimeter
G1 X-20.967 Y-2.730 F9000
G1 X-20.967 Y-24.374 E0.8279 F1200
G1 X-2.730 Y-24.374 E0.6976
G1 X-2.730 Y-2.730 E0.8279
G1 X-20.967 Y-2.730 E0.6976
G1 X-19.832 Y-3.375 F9000
G1 X-17.149 Y-3.375 E0.1026 F1200
G1 X-17.149 Y-8.449 E0.1941
G1 X-10.574 Y-8.449 E0.2515
G1 X-10.574 Y-6.791 E0.0634
G1 X-3.732 Y-6.786 E0.2617
G1 X-3.732 Y-20.318 E0.5176
G1 X-10.574 Y-20.313 E0.2617
G1 X-10.574 Y-18.655 E0.0634
G1 X-17.149 Y-18.655 E0.2515
G1 X-17.149 Y-23.729 E0.1941
G1 X-19.832 Y-23.729 E0.1026
G1 X-19.832 Y-3.375 E0.7785
; feature solid layer
G1 X-15.895 Y-3.535 F9000
G1 X-16.344 Y-3.984 E0.0243 F2400
G1 X-16.344 Y-4.634 E0.0249
G1 X-15.245 Y-3.535 E0.0595
G1 X-14.594 Y-3.535 E0.0249
G1 X-16.344 Y-5.285 E0.0946
G1 X-16.344 Y-5.935 E0.0249
G1 X-13.944 Y-3.535 E0.1298
G1 X-13.293 Y-3.535 E0.0249
G1 X-16.344 Y-6.586 E0.1650
G1 X-16.344 Y-7.236 E0.0249
G1 X-12.643 Y-3.535 E0.2002
G1 X-11.992 Y-3.535 E0.0249
G1 X-16.101 Y-7.644 E0.2223
G1 X-15.451 Y-7.644 E0.0249
G1 X-11.341 Y-3.535 E0.2223
G1 X-10.691 Y-3.535 E0.0249
G1 X-14.800 Y-7.644 E0.2223
G1 X-14.149 Y-7.644 E0.0249
G1 X-10.040 Y-3.535 E0.2223
G1 X-9.390 Y-3.535 E0.0249
G1 X-13.499 Y-7.644 E0.2223
G1 X-11.547 Y-7.644 F9000
G1 X-11.379 Y-7.476 E0.0091 F2400
G1 X-11.379 Y-6.825 E0.0249
G1 X-12.198 Y-7.644 E0.0443
G1 X-12.848 Y-7.644 E0.0249
G1 X-11.379 Y-6.175 E0.0795
G1 X-11.379 Y-5.987 E0.0072
G1 X-11.191 Y-5.987 E0.0072
G1 X-8.739 Y-3.535 E0.1326
G1 X-8.089 Y-3.535 E0.0249
G1 X-10.540 Y-5.986 E0.1326
G1 X-9.889 Y-5.986 E0.0249
G1 X-7.438 Y-3.535 E0.1326
G1 X-6.788 Y-3.535 E0.0249
G1 X-9.238 Y-5.985 E0.1325
G1 X-8.587 Y-5.985 E0.0249
G1 X-6.137 Y-3.535 E0.1325
G1 X-5.487 Y-3.535 E0.0249
G1 X-7.936 Y-5.984 E0.1325
G1 X-7.285 Y-5.984 E0.0249
G1 X-4.836 Y-3.535 E0.1325
G1 X-4.186 Y-3.535 E0.0249
G1 X-6.634 Y-5.983 E0.1324
G1 X-5.983 Y-5.983 E0.0249
G1 X-3.535 Y-3.535 E0.1324
G1 X-3.535 Y-4.186 E0.0249
G1 X-5.332 Y-5.982 E0.0972
G1 X-4.681 Y-5.982 E0.0249
G1 X-3.535 Y-4.836 E0.0620
G1 X-3.535 Y-5.487 E0.0249
G1 X-4.030 Y-5.981 E0.0268
G1 E-1.9000 F1200
G1 Z0.700 F1200
G1 X-4.053 Y-23.569 F9000
G1 Z0.200 F1200
G1 E1.9000 F1200
G1 X-3.535 Y-23.051 E0.0280 F2400
G1 X-3.535 Y-22.401 E0.0249
G1 X-4.703 Y-23.569 E0.0632
G1 X-5.354 Y-23.569 E0.0249
G1 X-3.535 Y-21.750 E0.0984
G1 X-3.535 Y-21.123 E0.0240
G1 X-3.559 Y-21.123 E0.0009
G1 X-6.004 Y-23.569 E0.1323
G1 X-6.655 Y-23.569 E0.0249
G1 X-4.209 Y-21.123 E0.1323
G1 X-4.859 Y-21.122 E0.0249
G1 X-7.306 Y-23.569 E0.1324
G1 X-7.956 Y-23.569 E0.0249
G1 X-5.509 Y-21.122 E0.1324
G1 X-6.159 Y-21.121 E0.0249
G1 X-8.607 Y-23.569 E0.1324
G1 X-9.257 Y-23.569 E0.0249
G1 X-6.809 Y-21.120 E0.1324
G1 X-7.459 Y-21.120 E0.0249
G1 X-9.908 Y-23.569 E0.1325
G1 X-10.558 Y-23.569 E0.0249
G1 X-8.109 Y-21.119 E0.1325
G1 X-8.759 Y-21.119 E0.0249
G1 X-11.209 Y-23.569 E0.1325
G1 X-11.859 Y-23.569 E0.0249
G1 X-9.409 Y-21.118 E0.1326
G1 X-10.059 Y-21.118 E0.0249
G1 X-12.510 Y-23.569 E0.1326
G1 X-13.160 Y-23.569 E0.0249
G1 X-10.709 Y-21.117 E0.1326
G1 X-11.359 Y-21.117 E0.0249
G1 X-13.811 Y-23.569 E0.1326
G1 X-14.461 Y-23.569 E0.0249
G1 X-11.379 Y-20.487 E0.1667
G1 X-11.379 Y-19.836 E0.0249
G1 X-15.112 Y-23.569 E0.2019
G1 X-15.763 Y-23.569 E0.0249
G1 X-11.653 Y-19.460 E0.2223
G1 X-12.304 Y-19.460 E0.0249
G1 X-16.344 Y-23.500 E0.2185
G1 X-16.344 Y-22.849 E0.0249
G1 X-12.955 Y-19.460 E0.1833
G1 X-13.605 Y-19.460 E0.0249
G1 X-16.344 Y-22.199 E0.1481
G1 X-16.344 Y-21.548 E0.0249
G1 X-14.256 Y-19.460 E0.1130
G1 X-14.906 Y-19.460 E0.0249
G1 X-16.344 Y-20.898 E0.0778
G1 X-16.344 Y-20.247 E0.0249
G1 X-15.557 Y-19.460 E0.0426
G1 X-16.207 Y-19.460 E0.0249
G1 X-16.344 Y-19.597 E0.0074
G1 E-1.9000 F1200
; feature inner perimeter
G1 Z0.700 F1200
G1 X-26.887 Y-3.190 F9000
G1 Z0.200 F1200
