; G-Code generated by Simplify3D(R) Version 4.1.2
; Apr 2, 2020 at 4:16:57 PM
; Settings Summary
;   processName,Process1
;   applyToModels,MasherSmall,MasherSmall(2),MasherSmall(3),MasherSmall(4),MasherSmall(5),MasherSmall(6),MasherSmall(7),MasherSmall(8),MasherSmall(2)(2),MasherSmall(3)(2),MasherSmall(4)(2),MasherSmall(5)(2),MasherSmall(6)(2),MasherSmall(7)(2)
;   profileName,MakerBot Replicator 2 HBP (modified)
;   profileVersion,2020-03-12 10:48:50
;   baseProfile,MakerBot Replicator 2(2)
;   printMaterial,PLA
;   printQuality,Medium
;   printExtruders,
;   extruderName,Primary Extruder
;   extruderToolheadNumber,0
;   extruderDiameter,0.4
;   extruderAutoWidth,0
;   extruderWidth,0.4
;   extrusionMultiplier,1
;   extruderUseRetract,1
;   extruderRetractionDistance,1.9
;   extruderExtraRestartDistance,0
;   extruderRetractionZLift,0.5
;   extruderRetractionSpeed,1200
;   extruderUseCoasting,0
;   extruderCoastingDistance,0.2
;   extruderUseWipe,0
;   extruderWipeDistance,5
;   primaryExtruder,0
;   layerHeight,0.2
;   topSolidLayers,3
;   bottomSolidLayers,3
;   perimeterOutlines,2
;   printPerimetersInsideOut,1
;   startPointOption,3
;   startPointOriginX,0
;   startPointOriginY,150
;   sequentialIslands,0
;   spiralVaseMode,0
;   firstLayerHeightPercentage,100
;   firstLayerWidthPercentage,115
;   firstLayerUnderspeed,0.5
;   useRaft,0
;   raftExtruder,0
;   raftTopLayers,2
;   raftBaseLayers,1
;   raftOffset,1
;   raftSeparationDistance,0.14
;   raftTopInfill,90
;   aboveRaftSpeedMultiplier,0.3
;   useSkirt,0
;   skirtExtruder,0
;   skirtLayers,1
;   skirtOutlines,5
;   skirtOffset,0
;   usePrimePillar,0
;   primePillarExtruder,999
;   primePillarWidth,12
;   primePillarLocation,7
;   primePillarSpeedMultiplier,1
;   useOozeShield,0
;   oozeShieldExtruder,999
;   oozeShieldOffset,2
;   oozeShieldOutlines,1
;   oozeShieldSidewallShape,1
;   oozeShieldSidewallAngle,30
;   oozeShieldSpeedMultiplier,1
;   infillExtruder,0
;   internalInfillPattern,Rectilinear
;   externalInfillPattern,Rectilinear
;   infillPercentage,15
;   outlineOverlapPercentage,25
;   infillExtrusionWidthPercentage,100
;   minInfillLength,5
;   infillLayerInterval,1
;   internalInfillAngles,45,-45
;   overlapInternalInfillAngles,0
;   externalInfillAngles,45,-45
;   generateSupport,1
;   supportExtruder,0
;   supportInfillPercentage,30
;   supportExtraInflation,0.5
;   supportBaseLayers,0
;   denseSupportExtruder,0
;   denseSupportLayers,2
;   denseSupportInfillPercentage,90
;   supportLayerInterval,1
;   supportHorizontalPartOffset,0.3
;   supportUpperSeparationLayers,1
;   supportLowerSeparationLayers,1
;   supportType,1
;   supportGridSpacing,2
;   maxOverhangAngle,45
;   supportAngles,45,-45
;   temperatureName,Primary Extruder,Heated Build Platform
;   temperatureNumber,0,0
;   temperatureSetpointCount,1,1
;   temperatureSetpointLayers,1,1
;   temperatureSetpointTemperatures,230,60
;   temperatureStabilizeAtStartup,1,1
;   temperatureHeatedBed,0,1
;   fanLayers,1,2
;   fanSpeeds,0,100
;   blipFanToFullPower,1
;   adjustSpeedForCooling,1
;   minSpeedLayerTime,15
;   minCoolingSpeedSlowdown,20
;   increaseFanForCooling,1
;   minFanLayerTime,45
;   maxCoolingFanSpeed,100
;   increaseFanForBridging,1
;   bridgingFanSpeed,100
;   use5D,1
;   relativeEdistances,1
;   allowEaxisZeroing,0
;   independentExtruderAxes,1
;   includeM10123,0
;   stickySupport,1
;   applyToolheadOffsets,0
;   gcodeXoffset,0
;   gcodeYoffset,0
;   gcodeZoffset,0
;   overrideMachineDefinition,1
;   machineTypeOverride,0
;   strokeXoverride,280
;   strokeYoverride,150
;   strokeZoverride,150
;   originOffsetXoverride,140
;   originOffsetYoverride,75
;   originOffsetZoverride,0
;   homeXdirOverride,1
;   homeYdirOverride,1
;   homeZdirOverride,-1
;   flipXoverride,1
;   flipYoverride,-1
;   flipZoverride,1
;   toolheadOffsets,0,0|0,0|0,0|0,0|0,0|0,0
;   overrideFirmwareConfiguration,1
;   firmwareTypeOverride,MakerBot/Sailfish Firmware
;   GPXconfigOverride,r2h
;   baudRateOverride,115200
;   overridePrinterModels,1
;   printerModelsOverride,MakerBot_Replicator2.stl
;   startingGcode,; **** Replicator 2 start.gcode ****,M73 P0 ; enable build progress,G162 X Y F3000 ; home XY maximum,G161 Z F1200 ; home Z minimum,G92 Z-5 ; set Z to -5,G1 Z0 ; move Z to 0,G161 Z F100 ; home Z slowly,M132 X Y Z A B ; recall home offsets,G1 X-145 Y-75 Z30 F9000 ; move to wait position off table,G130 X20 Y20 Z20 A20 B20 ; lower stepper Vrefs while heating,M126 S[fan_speed_pwm],M140 S[bed0_temperature] T0,M134 T0 ; stabilize bed temperature,M104 S[extruder0_temperature] T0,M133 T0 ; stabilize extruder temperature,G130 X127 Y127 Z40 A127 B127 ; default stepper Vrefs,G92 A0 ; zero extruder,G1 Z0.4 ; position nozzle,G1 E25 F300 ; purge nozzle,G1 X-140 Y-70 Z0.15 F1200 ; slow wipe,G1 X-135 Y-65 Z0.5 F1200 ; lift,G92 A0 ; zero extruder,M73 P1 ;@body (notify GPX body has started),; **** end of start.gcode ****
;   layerChangeGcode,
;   retractionGcode,
;   toolChangeGcode,
;   endingGcode,; **** Replicator 2 end.gcode ****,M73 P100 ; end build progress,G1 Z155 F1000 ; send Z axis to bottom of machine,M104 S0 T0 ; cool down extruder,M140 S0 T0 ; cool down HBP,M127 ; stop blower fan,G162 X Y F3000 ; home XY maximum,M18 ; disable stepper,M0 ; stop codes,M72 P1 ; play Ta-Da song,; **** end of end.gcode ****
;   exportFileFormat,gcode
;   celebration,0
;   celebrationSong,Random Song
;   postProcessing,
;   defaultSpeed,4800
;   outlineUnderspeed,0.5
;   solidInfillUnderspeed,1
;   supportUnderspeed,1
;   rapidXYspeed,9000
;   rapidZspeed,1200
;   minBridgingArea,50
;   bridgingExtraInflation,0
;   bridgingExtrusionMultiplier,1
;   bridgingSpeedMultiplier,0.8
;   useFixedBridgingAngle,0
;   fixedBridgingAngle,0
;   applyBridgingToPerimeters,0
;   filamentDiameters,1.75|1.75|1.75|1.75|1.75|1.75
;   filamentPricesPerKg,46|46|46|46|46|46
;   filamentDensities,1.25|1.25|1.25|1.25|1.25|1.25
;   useMinPrintHeight,0
;   minPrintHeight,0
;   useMaxPrintHeight,0
;   maxPrintHeight,4.84
;   useDiaphragm,0
;   diaphragmLayerInterval,20
;   robustSlicing,1
;   mergeAllIntoSolid,0
;   onlyRetractWhenCrossingOutline,0
;   retractBetweenLayers,0
;   useRetractionMinTravel,1
;   retractionMinTravel,7
;   retractWhileWiping,1
;   onlyWipeOutlines,1
;   avoidCrossingOutline,0
;   maxMovementDetourFactor,3
;   toolChangeRetractionDistance,12
;   toolChangeExtraRestartDistance,-0.5
;   toolChangeRetractionSpeed,600
;   externalThinWallType,0
;   internalThinWallType,0
;   thinWallAllowedOverlapPercentage,10
;   singleExtrusionMinLength,1
;   singleExtrusionMinPrintingWidthPercentage,50
;   singleExtrusionMaxPrintingWidthPercentage,200
;   singleExtrusionEndpointExtension,0.2
;   horizontalSizeCompensation,0
G90
M83
; **** Replicator 2 start.gcode ****
M73 P0 ; enable build progress
G162 X Y F3000 ; home XY maximum
G161 Z F1200 ; home Z minimum
G92 Z-5 ; set Z to -5
G1 Z0 ; move Z to 0
G161 Z F100 ; home Z slowly
M132 X Y Z A B ; recall home offsets
G1 X-145 Y-75 Z30 F9000 ; move to wait position off table
G130 X20 Y20 Z20 A20 B20 ; lower stepper Vrefs while heating
M127
M140 S60 T0
M134 T0 ; stabilize bed temperature
M104 S230 T0
M133 T0 ; stabilize extruder temperature
G130 X127 Y127 Z40 A127 B127 ; default stepper Vrefs
G92 A0 ; zero extruder
G1 Z0.4 ; position nozzle
G1 E25 F300 ; purge nozzle
G1 X-140 Y-70 Z0.15 F1200 ; slow wipe
G1 X-135 Y-65 Z0.5 F1200 ; lift
G92 A0 ; zero extruder
M73 P1 ;@body (notify GPX body has started)
; **** end of start.gcode ****
; process Process1
; layer 1, Z = 0.200
M135 T0
G1 E-1.9000 F1200
; feature inner perimeter
; tool H0.200 W0.460
G1 Z0.500 F1200
G1 X12.580 Y10.360 F9000
G1 Z0.200 F1200
G1 E1.9000 F1200
G1 X12.073 Y10.297 E0.0195 F1800
G1 X11.569 Y10.210 E0.0195
G1 X11.071 Y10.098 E0.0195
G1 X10.578 Y9.961 E0.0196
G1 X10.093 Y9.801 E0.0195
G1 X9.616 Y9.617 E0.0196
G1 X9.149 Y9.410 E0.0195
G1 X8.693 Y9.181 E0.0195
G1 X8.248 Y8.929 E0.0195
G1 X7.817 Y8.655 E0.0195
G1 X7.399 Y8.361 E0.0195
G1 X6.996 Y8.047 E0.0195
G1 X6.609 Y7.713 E0.0195
G1 X6.239 Y7.361 E0.0196
G1 X5.887 Y6.991 E0.0195
G1 X5.553 Y6.604 E0.0195
G1 X5.239 Y6.201 E0.0196
G1 X4.945 Y5.783 E0.0195
G1 X4.671 Y5.352 E0.0195
G1 X4.419 Y4.907 E0.0195
G1 X4.190 Y4.451 E0.0195
G1 X3.983 Y3.984 E0.0196
G1 X3.799 Y3.507 E0.0195
G1 X3.638 Y3.022 E0.0195
G1 X3.502 Y2.529 E0.0196
G1 X3.390 Y2.031 E0.0195
G1 X3.303 Y1.528 E0.0195
G1 X3.240 Y1.020 E0.0195
G1 X3.203 Y0.511 E0.0195
G1 X3.190 Y-0.000 E0.0195
G1 X3.203 Y-0.511 E0.0195
G1 X3.240 Y-1.020 E0.0195
G1 X3.303 Y-1.528 E0.0195
G1 X3.390 Y-2.031 E0.0195
G1 X3.502 Y-2.529 E0.0195
G1 X3.639 Y-3.022 E0.0196
G1 X3.799 Y-3.507 E0.0195
G1 X3.983 Y-3.984 E0.0195
G1 X4.190 Y-4.451 E0.0196
G1 X4.419 Y-4.907 E0.0195
G1 X4.671 Y-5.352 E0.0195
G1 X4.945 Y-5.784 E0.0196
G1 X5.239 Y-6.201 E0.0195
G1 X5.553 Y-6.604 E0.0196
G1 X5.870 Y-6.971 E0.0185
G1 X6.240 Y-7.361 E0.0206
G1 X6.609 Y-7.713 E0.0195
G1 X6.996 Y-8.047 E0.0195
G1 X7.399 Y-8.361 E0.0195
G1 X7.817 Y-8.655 E0.0195
G1 X8.248 Y-8.929 E0.0195
G1 X8.693 Y-9.181 E0.0195
G1 X9.149 Y-9.410 E0.0195
G1 X9.616 Y-9.617 E0.0195
G1 X10.093 Y-9.801 E0.0195
G1 X10.578 Y-9.961 E0.0195
G1 X11.071 Y-10.098 E0.0196
G1 X11.569 Y-10.210 E0.0195
G1 X12.073 Y-10.297 E0.0195
G1 X12.580 Y-10.360 E0.0195
G1 X13.089 Y-10.397 E0.0195
G1 X13.600 Y-10.410 E0.0195
G1 X14.111 Y-10.397 E0.0195
G1 X14.620 Y-10.360 E0.0195
G1 X15.128 Y-10.297 E0.0195
G1 X15.631 Y-10.210 E0.0195
G1 X16.129 Y-10.098 E0.0195
G1 X16.622 Y-9.962 E0.0196
G1 X17.107 Y-9.801 E0.0195
G1 X17.584 Y-9.617 E0.0195
G1 X18.051 Y-9.410 E0.0195
G1 X18.507 Y-9.181 E0.0195
G1 X18.952 Y-8.929 E0.0195
G1 X19.383 Y-8.655 E0.0195
G1 X19.801 Y-8.361 E0.0195
G1 X20.204 Y-8.047 E0.0195
G1 X20.591 Y-7.713 E0.0195
G1 X20.961 Y-7.361 E0.0195
G1 X21.313 Y-6.991 E0.0195
G1 X21.647 Y-6.604 E0.0195
G1 X21.961 Y-6.201 E0.0195
G1 X22.255 Y-5.783 E0.0195
G1 X22.529 Y-5.352 E0.0195
G1 X22.781 Y-4.907 E0.0195
G1 X23.010 Y-4.451 E0.0195
G1 X23.217 Y-3.984 E0.0195
G1 X23.401 Y-3.507 E0.0196
G1 X23.561 Y-3.022 E0.0195
G1 X23.698 Y-2.529 E0.0196
G1 X23.810 Y-2.031 E0.0195
G1 X23.897 Y-1.528 E0.0195
G1 X23.960 Y-1.020 E0.0195
G1 X23.997 Y-0.511 E0.0195
G1 X24.010 Y-0.000 E0.0195
G1 X23.997 Y0.511 E0.0195
G1 X23.960 Y1.020 E0.0195
G1 X23.897 Y1.527 E0.0195
G1 X23.810 Y2.031 E0.0195
G1 X23.698 Y2.529 E0.0195
G1 X23.561 Y3.022 E0.0196
G1 X23.401 Y3.507 E0.0195
G1 X23.217 Y3.984 E0.0195
G1 X23.010 Y4.451 E0.0195
G1 X22.781 Y4.907 E0.0195
G1 X22.529 Y5.352 E0.0195
G1 X22.255 Y5.783 E0.0195
G1 X21.961 Y6.201 E0.0195
G1 X21.647 Y6.604 E0.0195
G1 X21.313 Y6.991 E0.0195
G1 X20.961 Y7.361 E0.0195
G1 X20.591 Y7.713 E0.0195
G1 X20.204 Y8.047 E0.0195
G1 X19.801 Y8.361 E0.0195
G1 X19.383 Y8.655 E0.0195
G1 X18.952 Y8.929 E0.0195
G1 X18.507 Y9.181 E0.0195
G1 X18.051 Y9.410 E0.0195
G1 X17.584 Y9.617 E0.0195
G1 X17.107 Y9.801 E0.0195
G1 X16.622 Y9.962 E0.0195
G1 X16.129 Y10.098 E0.0196
G1 X15.631 Y10.210 E0.0195
G1 X15.127 Y10.297 E0.0195
G1 X14.620 Y10.360 E0.0195
G1 X14.111 Y10.397 E0.0195
G1 X13.600 Y10.410 E0.0195
G1 X13.089 Y10.397 E0.0195
G1 X12.580 Y10.360 E0.0195
; feature outer perimeter
G1 X12.534 Y10.818 F9000
G1 X12.005 Y10.752 E0.0204 F1200
G1 X11.479 Y10.661 E0.0204
G1 X10.959 Y10.544 E0.0204
G1 X10.445 Y10.402 E0.0204
G1 X9.938 Y10.235 E0.0204
G1 X9.440 Y10.042 E0.0204
G1 X8.952 Y9.826 E0.0204
G1 X8.476 Y9.586 E0.0204
G1 X8.012 Y9.323 E0.0204
G1 X7.561 Y9.038 E0.0204
G1 X7.125 Y8.731 E0.0204
G1 X6.704 Y8.403 E0.0204
G1 X6.300 Y8.054 E0.0204
G1 X5.914 Y7.686 E0.0204
G1 X5.546 Y7.300 E0.0204
G1 X5.197 Y6.896 E0.0204
G1 X4.869 Y6.475 E0.0204
G1 X4.562 Y6.039 E0.0204
G1 X4.277 Y5.588 E0.0204
G1 X4.014 Y5.124 E0.0204
G1 X3.774 Y4.648 E0.0204
G1 X3.558 Y4.160 E0.0204
G1 X3.365 Y3.662 E0.0204
G1 X3.198 Y3.155 E0.0204
G1 X3.056 Y2.641 E0.0204
G1 X2.939 Y2.121 E0.0204
G1 X2.848 Y1.595 E0.0204
G1 X2.782 Y1.065 E0.0204
G1 X2.743 Y0.533 E0.0204
G1 X2.730 Y-0.000 E0.0204
G1 X2.743 Y-0.533 E0.0204
G1 X2.782 Y-1.066 E0.0204
G1 X2.848 Y-1.595 E0.0204
G1 X2.939 Y-2.121 E0.0204
G1 X3.056 Y-2.641 E0.0204
G1 X3.198 Y-3.155 E0.0204
G1 X3.365 Y-3.662 E0.0204
G1 X3.557 Y-4.160 E0.0204
G1 X3.774 Y-4.648 E0.0204
G1 X4.014 Y-5.124 E0.0204
G1 X4.277 Y-5.588 E0.0204
G1 X4.562 Y-6.039 E0.0204
G1 X4.869 Y-6.475 E0.0204
G1 X5.197 Y-6.896 E0.0204
G1 X5.528 Y-7.279 E0.0194
G1 X5.914 Y-7.686 E0.0215
G1 X6.300 Y-8.054 E0.0204
G1 X6.704 Y-8.403 E0.0204
G1 X7.125 Y-8.731 E0.0204
G1 X7.561 Y-9.038 E0.0204
G1 X8.012 Y-9.323 E0.0204
G1 X8.476 Y-9.586 E0.0204
G1 X8.953 Y-9.826 E0.0204
G1 X9.440 Y-10.042 E0.0204
G1 X9.938 Y-10.235 E0.0204
G1 X10.445 Y-10.402 E0.0204
G1 X10.959 Y-10.544 E0.0204
G1 X11.479 Y-10.661 E0.0204
G1 X12.005 Y-10.752 E0.0204
G1 X12.534 Y-10.818 E0.0204
G1 X13.067 Y-10.857 E0.0204
G1 X13.600 Y-10.870 E0.0204
G1 X14.133 Y-10.857 E0.0204
G1 X14.666 Y-10.818 E0.0204
G1 X15.195 Y-10.752 E0.0204
G1 X15.721 Y-10.661 E0.0204
G1 X16.241 Y-10.544 E0.0204
G1 X16.755 Y-10.402 E0.0204
G1 X17.262 Y-10.235 E0.0204
G1 X17.760 Y-10.043 E0.0204
G1 X18.247 Y-9.826 E0.0204
G1 X18.724 Y-9.586 E0.0204
G1 X19.188 Y-9.323 E0.0204
G1 X19.639 Y-9.038 E0.0204
G1 X20.075 Y-8.731 E0.0204
G1 X20.496 Y-8.403 E0.0204
G1 X20.900 Y-8.054 E0.0204
G1 X21.286 Y-7.686 E0.0204
G1 X21.654 Y-7.300 E0.0204
G1 X22.003 Y-6.896 E0.0204
G1 X22.331 Y-6.475 E0.0204
G1 X22.638 Y-6.039 E0.0204
G1 X22.923 Y-5.588 E0.0204
G1 X23.186 Y-5.124 E0.0204
G1 X23.426 Y-4.647 E0.0204
G1 X23.642 Y-4.160 E0.0204
G1 X23.835 Y-3.662 E0.0204
G1 X24.002 Y-3.155 E0.0204
G1 X24.144 Y-2.641 E0.0204
G1 X24.261 Y-2.121 E0.0204
G1 X24.352 Y-1.595 E0.0204
G1 X24.418 Y-1.065 E0.0204
G1 X24.457 Y-0.533 E0.0204
G1 X24.470 Y-0.000 E0.0204
G1 X24.457 Y0.533 E0.0204
G1 X24.418 Y1.065 E0.0204
G1 X24.352 Y1.595 E0.0204
G1 X24.261 Y2.121 E0.0204
G1 X24.144 Y2.641 E0.0204
G1 X24.002 Y3.155 E0.0204
G1 X23.835 Y3.662 E0.0204
G1 X23.642 Y4.160 E0.0204
G1 X23.426 Y4.648 E0.0204
G1 X23.186 Y5.124 E0.0204
G1 X22.923 Y5.588 E0.0204
G1 X22.638 Y6.039 E0.0204
G1 X22.331 Y6.475 E0.0204
G1 X22.003 Y6.896 E0.0204
G1 X21.654 Y7.300 E0.0204
G1 X21.286 Y7.686 E0.0204
G1 X20.900 Y8.054 E0.0204
G1 X20.496 Y8.403 E0.0204
G1 X20.075 Y8.731 E0.0204
G1 X19.639 Y9.038 E0.0204
G1 X19.188 Y9.323 E0.0204
G1 X18.724 Y9.586 E0.0204
G1 X18.247 Y9.826 E0.0204
G1 X17.760 Y10.042 E0.0204
G1 X17.262 Y10.235 E0.0204
G1 X16.755 Y10.402 E0.0204
G1 X16.241 Y10.544 E0.0204
G1 X15.721 Y10.661 E0.0204
G1 X15.195 Y10.752 E0.0204
G1 X14.666 Y10.818 E0.0204
G1 X14.133 Y10.857 E0.0204
G1 X13.600 Y10.870 E0.0204
G1 X13.067 Y10.857 E0.0204
G1 X12.534 Y10.818 E0.0204
G1 E-1.9000 F1200
; feature inner perimeter
G1 Z0.700 F1200
G1 X13.287 Y3.175 F9000
G1 Z0.200 F1200
G1 E1.9000 F1200
G1 X13.600 Y3.191 E0.0120 F1800
G1 X13.913 Y3.175 E0.0120
G1 X14.223 Y3.129 E0.0120
G1 X14.526 Y3.053 E0.0120
G1 X14.821 Y2.948 E0.0120
G1 X15.104 Y2.814 E0.0120
G1 X15.373 Y2.653 E0.0120
G1 X15.624 Y2.467 E0.0120
G1 X15.856 Y2.256 E0.0120
G1 X16.067 Y2.024 E0.0120
G1 X16.253 Y1.773 E0.0120
G1 X16.414 Y1.504 E0.0120
G1 X16.548 Y1.221 E0.0120
G1 X16.653 Y0.926 E0.0120
G1 X16.730 Y0.622 E0.0120
G1 X16.775 Y0.313 E0.0120
G1 X16.791 Y0.000 E0.0120
G1 X16.775 Y-0.313 E0.0120
G1 X16.730 Y-0.623 E0.0120
G1 X16.653 Y-0.926 E0.0120
G1 X16.548 Y-1.221 E0.0120
G1 X16.414 Y-1.504 E0.0120
G1 X16.253 Y-1.773 E0.0120
G1 X16.067 Y-2.024 E0.0120
G1 X15.856 Y-2.256 E0.0120
G1 X15.624 Y-2.467 E0.0120
G1 X15.373 Y-2.653 E0.0120
G1 X15.104 Y-2.814 E0.0120
G1 X14.821 Y-2.948 E0.0120
G1 X14.526 Y-3.053 E0.0120
G1 X14.223 Y-3.130 E0.0120
G1 X13.913 Y-3.175 E0.0120
G1 X13.600 Y-3.191 E0.0120
G1 X13.287 Y-3.175 E0.0120
G1 X12.978 Y-3.130 E0.0120
G1 X12.674 Y-3.053 E0.0120
G1 X12.379 Y-2.948 E0.0120
G1 X12.096 Y-2.814 E0.0120
G1 X11.827 Y-2.653 E0.0120
G1 X11.576 Y-2.467 E0.0120
G1 X11.344 Y-2.256 E0.0120
G1 X11.133 Y-2.024 E0.0120
G1 X10.947 Y-1.773 E0.0120
G1 X10.786 Y-1.504 E0.0120
G1 X10.652 Y-1.221 E0.0120
G1 X10.547 Y-0.926 E0.0120
G1 X10.470 Y-0.623 E0.0120
G1 X10.425 Y-0.313 E0.0120
G1 X10.408 Y0.017 E0.0126
G1 X10.466 Y0.606 E0.0226
G1 X10.547 Y0.926 E0.0126
G1 X10.652 Y1.221 E0.0120
