; G-Code generated by Simplify3D(R) Version 4.1.2
; Apr 2, 2020 at 4:16:04 PM
; Settings Summary
;   processName,Process1
;   applyToModels,MasherBig,MasherBig(2),MasherBig(3),MasherBig(4),MasherBig(5),MasherBig(6),MasherBig(7),MasherBig(8),MasherBig(2)(2),MasherBig(3)(2),MasherBig(4)(2),MasherBig(5)(2),MasherBig(6)(2),MasherBig(7)(2)
;   profileName,MakerBot Replicator 2 HBP (modified)
;   profileVersion,2020-03-12 10:48:50
;   baseProfile,MakerBot Replicator 2(2)
;   printMaterial,PLA
;   printQuality,Medium
;   printExtruders,
;   extruderName,Primary Extruder
;   extruderToolheadNumber,0
;   extruderDiameter,0.4
;   extruderAutoWidth,0
;   extruderWidth,0.4
;   extrusionMultiplier,1
;   extruderUseRetract,1
;   extruderRetractionDistance,1.9
;   extruderExtraRestartDistance,0
;   extruderRetractionZLift,0.5
;   extruderRetractionSpeed,1200
;   extruderUseCoasting,0
;   extruderCoastingDistance,0.2
;   extruderUseWipe,0
;   extruderWipeDistance,5
;   primaryExtruder,0
;   layerHeight,0.2
;   topSolidLayers,3
;   bottomSolidLayers,3
;   perimeterOutlines,2
;   printPerimetersInsideOut,1
;   startPointOption,3
;   startPointOriginX,0
;   startPointOriginY,150
;   sequentialIslands,0
;   spiralVaseMode,0
;   firstLayerHeightPercentage,100
;   firstLayerWidthPercentage,115
;   firstLayerUnderspeed,0.5
;   useRaft,0
;   raftExtruder,0
;   raftTopLayers,2
;   raftBaseLayers,1
;   raftOffset,1
;   raftSeparationDistance,0.14
;   raftTopInfill,90
;   aboveRaftSpeedMultiplier,0.3
;   useSkirt,0
;   skirtExtruder,0
;   skirtLayers,1
;   skirtOutlines,5
;   skirtOffset,0
;   usePrimePillar,0
;   primePillarExtruder,999
;   primePillarWidth,12
;   primePillarLocation,7
;   primePillarSpeedMultiplier,1
;   useOozeShield,0
;   oozeShieldExtruder,999
;   oozeShieldOffset,2
;   oozeShieldOutlines,1
;   oozeShieldSidewallShape,1
;   oozeShieldSidewallAngle,30
;   oozeShieldSpeedMultiplier,1
;   infillExtruder,0
;   internalInfillPattern,Rectilinear
;   externalInfillPattern,Rectilinear
;   infillPercentage,15
;   outlineOverlapPercentage,25
;   infillExtrusionWidthPercentage,100
;   minInfillLength,5
;   infillLayerInterval,1
;   internalInfillAngles,45,-45
;   overlapInternalInfillAngles,0
;   externalInfillAngles,45,-45
;   generateSupport,1
;   supportExtruder,0
;   supportInfillPercentage,30
;   supportExtraInflation,0.5
;   supportBaseLayers,0
;   denseSupportExtruder,0
;   denseSupportLayers,2
;   denseSupportInfillPercentage,90
;   supportLayerInterval,1
;   supportHorizontalPartOffset,0.3
;   supportUpperSeparationLayers,1
;   supportLowerSeparationLayers,1
;   supportType,1
;   supportGridSpacing,2
;   maxOverhangAngle,45
;   supportAngles,45,-45
;   temperatureName,Primary Extruder,Heated Build Platform
;   temperatureNumber,0,0
;   temperatureSetpointCount,1,1
;   temperatureSetpointLayers,1,1
;   temperatureSetpointTemperatures,230,60
;   temperatureStabilizeAtStartup,1,1
;   temperatureHeatedBed,0,1
;   fanLayers,1,2
;   fanSpeeds,0,100
;   blipFanToFullPower,1
;   adjustSpeedForCooling,1
;   minSpeedLayerTime,15
;   minCoolingSpeedSlowdown,20
;   increaseFanForCooling,1
;   minFanLayerTime,45
;   maxCoolingFanSpeed,100
;   increaseFanForBridging,1
;   bridgingFanSpeed,100
;   use5D,1
;   relativeEdistances,1
;   allowEaxisZeroing,0
;   independentExtruderAxes,1
;   includeM10123,0
;   stickySupport,1
;   applyToolheadOffsets,0
;   gcodeXoffset,0
;   gcodeYoffset,0
;   gcodeZoffset,0
;   overrideMachineDefinition,1
;   machineTypeOverride,0
;   strokeXoverride,280
;   strokeYoverride,150
;   strokeZoverride,150
;   originOffsetXoverride,140
;   originOffsetYoverride,75
;   originOffsetZoverride,0
;   homeXdirOverride,1
;   homeYdirOverride,1
;   homeZdirOverride,-1
;   flipXoverride,1
;   flipYoverride,-1
;   flipZoverride,1
;   toolheadOffsets,0,0|0,0|0,0|0,0|0,0|0,0
;   overrideFirmwareConfiguration,1
;   firmwareTypeOverride,MakerBot/Sailfish Firmware
;   GPXconfigOverride,r2h
;   baudRateOverride,115200
;   overridePrinterModels,1
;   printerModelsOverride,MakerBot_Replicator2.stl
;   startingGcode,; **** Replicator 2 start.gcode ****,M73 P0 ; enable build progress,G162 X Y F3000 ; home XY maximum,G161 Z F1200 ; home Z minimum,G92 Z-5 ; set Z to -5,G1 Z0 ; move Z to 0,G161 Z F100 ; home Z slowly,M132 X Y Z A B ; recall home offsets,G1 X-145 Y-75 Z30 F9000 ; move to wait position off table,G130 X20 Y20 Z20 A20 B20 ; lower stepper Vrefs while heating,M126 S[fan_speed_pwm],M140 S[bed0_temperature] T0,M134 T0 ; stabilize bed temperature,M104 S[extruder0_temperature] T0,M133 T0 ; stabilize extruder temperature,G130 X127 Y127 Z40 A127 B127 ; default stepper Vrefs,G92 A0 ; zero extruder,G1 Z0.4 ; position nozzle,G1 E25 F300 ; purge nozzle,G1 X-140 Y-70 Z0.15 F1200 ; slow wipe,G1 X-135 Y-65 Z0.5 F1200 ; lift,G92 A0 ; zero extruder,M73 P1 ;@body (notify GPX body has started),; **** end of start.gcode ****
;   layerChangeGcode,
;   retractionGcode,
;   toolChangeGcode,
;   endingGcode,; **** Replicator 2 end.gcode ****,M73 P100 ; end build progress,G1 Z155 F1000 ; send Z axis to bottom of machine,M104 S0 T0 ; cool down extruder,M140 S0 T0 ; cool down HBP,M127 ; stop blower fan,G162 X Y F3000 ; home XY maximum,M18 ; disable stepper,M0 ; stop codes,M72 P1 ; play Ta-Da song,; **** end of end.gcode ****
;   exportFileFormat,gcode
;   celebration,0
;   celebrationSong,Random Song
;   postProcessing,
;   defaultSpeed,4800
;   outlineUnderspeed,0.5
;   solidInfillUnderspeed,1
;   supportUnderspeed,1
;   rapidXYspeed,9000
;   rapidZspeed,1200
;   minBridgingArea,50
;   bridgingExtraInflation,0
;   bridgingExtrusionMultiplier,1
;   bridgingSpeedMultiplier,0.8
;   useFixedBridgingAngle,0
;   fixedBridgingAngle,0
;   applyBridgingToPerimeters,0
;   filamentDiameters,1.75|1.75|1.75|1.75|1.75|1.75
;   filamentPricesPerKg,46|46|46|46|46|46
;   filamentDensities,1.25|1.25|1.25|1.25|1.25|1.25
;   useMinPrintHeight,0
;   minPrintHeight,0
;   useMaxPrintHeight,0
;   maxPrintHeight,4.84
;   useDiaphragm,0
;   diaphragmLayerInterval,20
;   robustSlicing,1
;   mergeAllIntoSolid,0
;   onlyRetractWhenCrossingOutline,0
;   retractBetweenLayers,0
;   useRetractionMinTravel,1
;   retractionMinTravel,7
;   retractWhileWiping,1
;   onlyWipeOutlines,1
;   avoidCrossingOutline,0
;   maxMovementDetourFactor,3
;   toolChangeRetractionDistance,12
;   toolChangeExtraRestartDistance,-0.5
;   toolChangeRetractionSpeed,600
;   externalThinWallType,0
;   internalThinWallType,0
;   thinWallAllowedOverlapPercentage,10
;   singleExtrusionMinLength,1
;   singleExtrusionMinPrintingWidthPercentage,50
;   singleExtrusionMaxPrintingWidthPercentage,200
;   singleExtrusionEndpointExtension,0.2
;   horizontalSizeCompensation,0
G90
M83
; **** Replicator 2 start.gcode ****
M73 P0 ; enable build progress
G162 X Y F3000 ; home XY maximum
G161 Z F1200 ; home Z minimum
G92 Z-5 ; set Z to -5
G1 Z0 ; move Z to 0
G161 Z F100 ; home Z slowly
M132 X Y Z A B ; recall home offsets
G1 X-145 Y-75 Z30 F9000 ; move to wait position off table
G130 X20 Y20 Z20 A20 B20 ; lower stepper Vrefs while heating
M127
M140 S60 T0
M134 T0 ; stabilize bed temperature
M104 S230 T0
M133 T0 ; stabilize extruder temperature
G130 X127 Y127 Z40 A127 B127 ; default stepper Vrefs
G92 A0 ; zero extruder
G1 Z0.4 ; position nozzle
G1 E25 F300 ; purge nozzle
G1 X-140 Y-70 Z0.15 F1200 ; slow wipe
G1 X-135 Y-65 Z0.5 F1200 ; lift
G92 A0 ; zero extruder
M73 P1 ;@body (notify GPX body has started)
; **** end of start.gcode ****
; process Process1
; layer 1, Z = 0.200
M135 T0
G1 E-1.9000 F1200
; feature inner perimeter
; tool H0.200 W0.460
G1 Z0.500 F1200
G1 X-14.023 Y11.952 F9000
G1 Z0.200 F1200
G1 E1.9000 F1200
G1 X-14.611 Y11.995 E0.0225 F1800
G1 X-15.200 Y12.010 E0.0225
G1 X-15.789 Y11.995 E0.0225
G1 X-16.377 Y11.952 E0.0225
G1 X-16.962 Y11.880 E0.0225
G1 X-17.543 Y11.779 E0.0225
G1 X-18.118 Y11.650 E0.0225
G1 X-18.686 Y11.493 E0.0226
G1 X-19.246 Y11.308 E0.0225
G1 X-19.796 Y11.096 E0.0226
G1 X-20.335 Y10.857 E0.0226
G1 X-20.861 Y10.592 E0.0225
G1 X-21.374 Y10.301 E0.0225
G1 X-21.872 Y9.986 E0.0226
G1 X-22.354 Y9.646 E0.0225
G1 X-22.819 Y9.284 E0.0225
G1 X-23.265 Y8.899 E0.0225
G1 X-23.692 Y8.492 E0.0226
G1 X-24.099 Y8.065 E0.0225
G1 X-24.484 Y7.619 E0.0225
G1 X-24.846 Y7.154 E0.0226
G1 X-25.186 Y6.672 E0.0225
G1 X-25.501 Y6.174 E0.0226
G1 X-25.792 Y5.661 E0.0225
G1 X-26.057 Y5.135 E0.0225
G1 X-26.296 Y4.596 E0.0226
G1 X-26.508 Y4.046 E0.0225
G1 X-26.693 Y3.486 E0.0225
G1 X-26.850 Y2.918 E0.0226
G1 X-26.979 Y2.343 E0.0225
G1 X-27.080 Y1.762 E0.0225
G1 X-27.152 Y1.177 E0.0225
G1 X-27.195 Y0.589 E0.0225
G1 X-27.210 Y-0.000 E0.0225
G1 X-27.195 Y-0.589 E0.0225
G1 X-27.152 Y-1.177 E0.0225
G1 X-27.080 Y-1.762 E0.0225
G1 X-26.979 Y-2.343 E0.0226
G1 X-26.850 Y-2.918 E0.0225
G1 X-26.693 Y-3.486 E0.0226
G1 X-26.508 Y-4.046 E0.0225
G1 X-26.296 Y-4.596 E0.0225
G1 X-26.057 Y-5.135 E0.0226
G1 X-25.792 Y-5.661 E0.0225
G1 X-25.501 Y-6.174 E0.0226
G1 X-25.186 Y-6.672 E0.0225
G1 X-24.846 Y-7.154 E0.0225
G1 X-24.484 Y-7.619 E0.0226
G1 X-24.118 Y-8.042 E0.0214
G1 X-23.692 Y-8.493 E0.0237
G1 X-23.265 Y-8.899 E0.0225
G1 X-22.819 Y-9.284 E0.0225
G1 X-22.354 Y-9.646 E0.0226
G1 X-21.872 Y-9.986 E0.0225
G1 X-21.374 Y-10.301 E0.0226
G1 X-20.861 Y-10.592 E0.0225
G1 X-20.335 Y-10.857 E0.0225
G1 X-19.796 Y-11.096 E0.0226
G1 X-19.246 Y-11.308 E0.0225
G1 X-18.686 Y-11.493 E0.0225
G1 X-18.118 Y-11.650 E0.0226
G1 X-17.543 Y-11.779 E0.0225
G1 X-16.962 Y-11.880 E0.0225
G1 X-16.377 Y-11.952 E0.0225
G1 X-15.789 Y-11.995 E0.0225
G1 X-15.200 Y-12.010 E0.0225
G1 X-14.611 Y-11.995 E0.0225
G1 X-14.023 Y-11.952 E0.0225
G1 X-13.438 Y-11.880 E0.0225
G1 X-12.857 Y-11.779 E0.0225
G1 X-12.282 Y-11.650 E0.0225
G1 X-11.714 Y-11.493 E0.0226
G1 X-11.154 Y-11.308 E0.0225
G1 X-10.604 Y-11.096 E0.0226
G1 X-10.065 Y-10.857 E0.0225
G1 X-9.539 Y-10.592 E0.0225
G1 X-9.026 Y-10.301 E0.0225
G1 X-8.528 Y-9.986 E0.0226
G1 X-8.046 Y-9.646 E0.0225
G1 X-7.581 Y-9.284 E0.0226
G1 X-7.135 Y-8.899 E0.0225
G1 X-6.708 Y-8.492 E0.0225
G1 X-6.301 Y-8.065 E0.0226
G1 X-5.916 Y-7.619 E0.0225
G1 X-5.554 Y-7.154 E0.0226
G1 X-5.214 Y-6.672 E0.0225
G1 X-4.899 Y-6.174 E0.0226
G1 X-4.608 Y-5.661 E0.0225
G1 X-4.343 Y-5.135 E0.0225
G1 X-4.104 Y-4.596 E0.0225
G1 X-3.892 Y-4.046 E0.0226
G1 X-3.707 Y-3.486 E0.0225
G1 X-3.550 Y-2.918 E0.0226
G1 X-3.421 Y-2.343 E0.0225
G1 X-3.320 Y-1.762 E0.0225
G1 X-3.248 Y-1.177 E0.0225
G1 X-3.205 Y-0.589 E0.0226
G1 X-3.190 Y-0.000 E0.0225
G1 X-3.205 Y0.589 E0.0225
G1 X-3.248 Y1.177 E0.0226
G1 X-3.320 Y1.762 E0.0225
G1 X-3.421 Y2.343 E0.0225
G1 X-3.550 Y2.918 E0.0225
G1 X-3.707 Y3.486 E0.0226
G1 X-3.892 Y4.046 E0.0225
G1 X-4.104 Y4.596 E0.0225
G1 X-4.343 Y5.135 E0.0226
G1 X-4.608 Y5.661 E0.0225
G1 X-4.899 Y6.174 E0.0225
G1 X-5.214 Y6.672 E0.0226
G1 X-5.554 Y7.154 E0.0225
G1 X-5.916 Y7.619 E0.0226
G1 X-6.301 Y8.065 E0.0225
G1 X-6.708 Y8.492 E0.0225
G1 X-7.135 Y8.899 E0.0226
G1 X-7.581 Y9.284 E0.0225
G1 X-8.046 Y9.646 E0.0226
G1 X-8.528 Y9.986 E0.0225
G1 X-9.026 Y10.301 E0.0226
G1 X-9.539 Y10.592 E0.0225
G1 X-10.065 Y10.857 E0.0225
G1 X-10.604 Y11.096 E0.0226
G1 X-11.154 Y11.308 E0.0226
G1 X-11.714 Y11.493 E0.0225
G1 X-12.282 Y11.650 E0.0226
G1 X-12.857 Y11.779 E0.0225
G1 X-13.438 Y11.880 E0.0225
G1 X-14.023 Y11.952 E0.0225
; feature outer perimeter
G1 X-13.978 Y12.410 F9000
G1 X-14.588 Y12.455 E0.0234 F1200
G1 X-15.200 Y12.470 E0.0234
G1 X-15.812 Y12.455 E0.0234
G1 X-16.422 Y12.410 E0.0234
G1 X-17.030 Y12.335 E0.0234
G1 X-17.633 Y12.230 E0.0234
G1 X-18.230 Y12.096 E0.0234
G1 X-18.820 Y11.933 E0.0234
G1 X-19.401 Y11.741 E0.0234
G1 X-19.972 Y11.521 E0.0234
G1 X-20.532 Y11.273 E0.0234
G1 X-21.078 Y10.997 E0.0234
G1 X-21.611 Y10.696 E0.0234
G1 X-22.128 Y10.368 E0.0234
G1 X-22.628 Y10.016 E0.0234
G1 X-23.111 Y9.639 E0.0234
G1 X-23.574 Y9.240 E0.0234
G1 X-24.018 Y8.818 E0.0234
G1 X-24.440 Y8.374 E0.0234
G1 X-24.839 Y7.911 E0.0234
G1 X-25.216 Y7.428 E0.0234
G1 X-25.568 Y6.928 E0.0234
G1 X-25.896 Y6.411 E0.0234
G1 X-26.197 Y5.878 E0.0234
G1 X-26.473 Y5.332 E0.0234
G1 X-26.721 Y4.772 E0.0234
G1 X-26.941 Y4.201 E0.0234
G1 X-27.133 Y3.620 E0.0234
G1 X-27.296 Y3.030 E0.0234
G1 X-27.430 Y2.433 E0.0234
G1 X-27.535 Y1.830 E0.0234
G1 X-27.610 Y1.222 E0.0234
G1 X-27.655 Y0.612 E0.0234
G1 X-27.670 Y-0.000 E0.0234
G1 X-27.655 Y-0.612 E0.0234
G1 X-27.610 Y-1.222 E0.0234
G1 X-27.535 Y-1.830 E0.0234
G1 X-27.430 Y-2.433 E0.0234
G1 X-27.296 Y-3.030 E0.0234
G1 X-27.133 Y-3.620 E0.0234
G1 X-26.941 Y-4.201 E0.0234
G1 X-26.721 Y-4.772 E0.0234
G1 X-26.473 Y-5.332 E0.0234
G1 X-26.198 Y-5.878 E0.0234
G1 X-25.896 Y-6.411 E0.0234
G1 X-25.568 Y-6.928 E0.0234
G1 X-25.216 Y-7.428 E0.0234
G1 X-24.839 Y-7.911 E0.0234
G1 X-24.460 Y-8.351 E0.0222
G1 X-24.017 Y-8.818 E0.0246
G1 X-23.574 Y-9.240 E0.0234
G1 X-23.111 Y-9.639 E0.0234
G1 X-22.628 Y-10.016 E0.0234
G1 X-22.128 Y-10.368 E0.0234
G1 X-21.611 Y-10.696 E0.0234
G1 X-21.078 Y-10.997 E0.0234
G1 X-20.532 Y-11.273 E0.0234
G1 X-19.972 Y-11.521 E0.0234
G1 X-19.401 Y-11.741 E0.0234
G1 X-18.820 Y-11.933 E0.0234
G1 X-18.230 Y-12.096 E0.0234
G1 X-17.633 Y-12.230 E0.0234
G1 X-17.030 Y-12.335 E0.0234
G1 X-16.422 Y-12.410 E0.0234
G1 X-15.812 Y-12.455 E0.0234
G1 X-15.200 Y-12.470 E0.0234
G1 X-14.588 Y-12.455 E0.0234
G1 X-13.978 Y-12.410 E0.0234
G1 X-13.370 Y-12.335 E0.0234
G1 X-12.767 Y-12.230 E0.0234
G1 X-12.170 Y-12.096 E0.0234
G1 X-11.580 Y-11.933 E0.0234
G1 X-10.999 Y-11.741 E0.0234
G1 X-10.428 Y-11.521 E0.0234
G1 X-9.868 Y-11.273 E0.0234
G1 X-9.322 Y-10.998 E0.0234
G1 X-8.789 Y-10.696 E0.0234
G1 X-8.272 Y-10.368 E0.0234
G1 X-7.772 Y-10.016 E0.0234
G1 X-7.289 Y-9.639 E0.0234
G1 X-6.826 Y-9.240 E0.0234
G1 X-6.383 Y-8.818 E0.0234
G1 X-5.960 Y-8.374 E0.0234
G1 X-5.561 Y-7.911 E0.0234
G1 X-5.184 Y-7.428 E0.0234
G1 X-4.832 Y-6.928 E0.0234
G1 X-4.504 Y-6.411 E0.0234
G1 X-4.202 Y-5.878 E0.0234
G1 X-3.927 Y-5.332 E0.0234
G1 X-3.679 Y-4.772 E0.0234
G1 X-3.459 Y-4.201 E0.0234
G1 X-3.267 Y-3.620 E0.0234
G1 X-3.104 Y-3.030 E0.0234
G1 X-2.970 Y-2.433 E0.0234
G1 X-2.865 Y-1.830 E0.0234
G1 X-2.790 Y-1.222 E0.0234
G1 X-2.745 Y-0.612 E0.0234
G1 X-2.730 Y-0.000 E0.0234
G1 X-2.745 Y0.612 E0.0234
G1 X-2.790 Y1.222 E0.0234
G1 X-2.865 Y1.830 E0.0234
G1 X-2.970 Y2.433 E0.0234
G1 X-3.104 Y3.030 E0.0234
G1 X-3.267 Y3.620 E0.0234
G1 X-3.459 Y4.201 E0.0234
G1 X-3.679 Y4.772 E0.0234
G1 X-3.927 Y5.332 E0.0234
G1 X-4.202 Y5.878 E0.0234
G1 X-4.504 Y6.411 E0.0234
G1 X-4.832 Y6.928 E0.0234
G1 X-5.184 Y7.428 E0.0234
G1 X-5.561 Y7.911 E0.0234
G1 X-5.960 Y8.374 E0.0234
G1 X-6.383 Y8.818 E0.0234
G1 X-6.826 Y9.240 E0.0234
G1 X-7.289 Y9.639 E0.0234
G1 X-7.772 Y10.016 E0.0234
G1 X-8.272 Y10.368 E0.0234
G1 X-8.789 Y10.696 E0.0234
G1 X-9.322 Y10.997 E0.0234
G1 X-9.868 Y11.273 E0.0234
G1 X-10.428 Y11.521 E0.0234
G1 X-10.999 Y11.741 E0.0234
G1 X-11.580 Y11.933 E0.0234
G1 X-12.170 Y12.096 E0.0234
G1 X-12.767 Y12.230 E0.0234
G1 X-13.370 Y12.335 E0.0234
G1 X-13.978 Y12.410 E0.0234
G1 E-1.9000 F1200
; feature inner perimeter
G1 Z0.700 F1200
G1 X-15.043 Y3.187 F9000
G1 Z0.200 F1200
G1 E1.9000 F1200
G1 X-14.732 Y3.156 E0.0120 F1800
G1 X-14.425 Y3.095 E0.0120
G1 X-14.125 Y3.004 E0.0120
G1 X-13.836 Y2.884 E0.0120
G1 X-13.560 Y2.737 E0.0120
G1 X-13.299 Y2.563 E0.0120
G1 X-13.057 Y2.364 E0.0120
G1 X-12.836 Y2.143 E0.0120
G1 X-12.637 Y1.901 E0.0120
G1 X-12.463 Y1.640 E0.0120
G1 X-12.316 Y1.364 E0.0120
G1 X-12.196 Y1.075 E0.0120
G1 X-12.105 Y0.775 E0.0120
G1 X-12.044 Y0.468 E0.0120
G1 X-12.013 Y0.157 E0.0120
G1 X-12.013 Y-0.157 E0.0120
G1 X-12.044 Y-0.468 E0.0120
G1 X-12.105 Y-0.775 E0.0120
G1 X-12.196 Y-1.075 E0.0120
G1 X-12.316 Y-1.364 E0.0120
G1 X-12.463 Y-1.640 E0.0120
G1 X-12.637 Y-1.901 E0.0120
G1 X-12.836 Y-2.143 E0.0120
G1 X-13.057 Y-2.364 E0.0120
G1 X-13.299 Y-2.563 E0.0120
G1 X-13.560 Y-2.737 E0.0120
G1 X-13.836 Y-2.884 E0.0120
G1 X-14.125 Y-3.004 E0.0120
G1 X-14.425 Y-3.095 E0.0120
G1 X-14.732 Y-3.156 E0.0120
G1 X-15.043 Y-3.187 E0.0120
G1 X-15.357 Y-3.187 E0.0120
G1 X-15.668 Y-3.156 E0.0120
G1 X-15.975 Y-3.095 E0.0120
G1 X-16.275 Y-3.004 E0.0120
G1 X-16.564 Y-2.884 E0.0120
G1 X-16.840 Y-2.737 E0.0120
G1 X-17.101 Y-2.563 E0.0120
G1 X-17.356 Y-2.353 E0.0126
G1 X-17.753 Y-1.915 E0.0226
