; G-Code generated by Simplify3D(R) Version 4.1.2
; Apr 2, 2020 at 4:16:18 PM
; Settings Summary
;   processName,Process1
;   applyToModels,MasherBig,MasherBig(2),MasherBig(3),MasherBig(4),MasherBig(5),MasherBig(6),MasherBig(7),MasherBig(8),MasherBig(2)(2),MasherBig(3)(2),MasherBig(4)(2),MasherBig(5)(2),MasherBig(6)(2),MasherBig(7)(2),MasherBig(9),MasherBig(2)(3),MasherBig(3)(3),MasherBig(4)(3),MasherBig(5)(3),MasherBig(6)(3),MasherBig(7)(3)
;   profileName,MakerBot Replicator 2 HBP (modified)
;   profileVersion,2020-03-12 10:48:50
;   baseProfile,MakerBot Replicator 2(2)
;   printMaterial,PLA
;   printQuality,Medium
;   printExtruders,
;   extruderName,Primary Extruder
;   extruderToolheadNumber,0
;   extruderDiameter,0.4
;   extruderAutoWidth,0
;   extruderWidth,0.4
;   extrusionMultiplier,1
;   extruderUseRetract,1
;   extruderRetractionDistance,1.9
;   extruderExtraRestartDistance,0
;   extruderRetractionZLift,0.5
;   extruderRetractionSpeed,1200
;   extruderUseCoasting,0
;   extruderCoastingDistance,0.2
;   extruderUseWipe,0
;   extruderWipeDistance,5
;   primaryExtruder,0
;   layerHeight,0.2
;   topSolidLayers,3
;   bottomSolidLayers,3
;   perimeterOutlines,2
;   printPerimetersInsideOut,1
;   startPointOption,3
;   startPointOriginX,0
;   startPointOriginY,150
;   sequentialIslands,0
;   spiralVaseMode,0
;   firstLayerHeightPercentage,100
;   firstLayerWidthPercentage,115
;   firstLayerUnderspeed,0.5
;   useRaft,0
;   raftExtruder,0
;   raftTopLayers,2
;   raftBaseLayers,1
;   raftOffset,1
;   raftSeparationDistance,0.14
;   raftTopInfill,90
;   aboveRaftSpeedMultiplier,0.3
;   useSkirt,0
;   skirtExtruder,0
;   skirtLayers,1
;   skirtOutlines,5
;   skirtOffset,0
;   usePrimePillar,0
;   primePillarExtruder,999
;   primePillarWidth,12
;   primePillarLocation,7
;   primePillarSpeedMultiplier,1
;   useOozeShield,0
;   oozeShieldExtruder,999
;   oozeShieldOffset,2
;   oozeShieldOutlines,1
;   oozeShieldSidewallShape,1
;   oozeShieldSidewallAngle,30
;   oozeShieldSpeedMultiplier,1
;   infillExtruder,0
;   internalInfillPattern,Rectilinear
;   externalInfillPattern,Rectilinear
;   infillPercentage,15
;   outlineOverlapPercentage,25
;   infillExtrusionWidthPercentage,100
;   minInfillLength,5
;   infillLayerInterval,1
;   internalInfillAngles,45,-45
;   overlapInternalInfillAngles,0
;   externalInfillAngles,45,-45
;   generateSupport,1
;   supportExtruder,0
;   supportInfillPercentage,30
;   supportExtraInflation,0.5
;   supportBaseLayers,0
;   denseSupportExtruder,0
;   denseSupportLayers,2
;   denseSupportInfillPercentage,90
;   supportLayerInterval,1
;   supportHorizontalPartOffset,0.3
;   supportUpperSeparationLayers,1
;   supportLowerSeparationLayers,1
;   supportType,1
;   supportGridSpacing,2
;   maxOverhangAngle,45
;   supportAngles,45,-45
;   temperatureName,Primary Extruder,Heated Build Platform
;   temperatureNumber,0,0
;   temperatureSetpointCount,1,1
;   temperatureSetpointLayers,1,1
;   temperatureSetpointTemperatures,230,60
;   temperatureStabilizeAtStartup,1,1
;   temperatureHeatedBed,0,1
;   fanLayers,1,2
;   fanSpeeds,0,100
;   blipFanToFullPower,1
;   adjustSpeedForCooling,1
;   minSpeedLayerTime,15
;   minCoolingSpeedSlowdown,20
;   increaseFanForCooling,1
;   minFanLayerTime,45
;   maxCoolingFanSpeed,100
;   increaseFanForBridging,1
;   bridgingFanSpeed,100
;   use5D,1
;   relativeEdistances,1
;   allowEaxisZeroing,0
;   independentExtruderAxes,1
;   includeM10123,0
;   stickySupport,1
;   applyToolheadOffsets,0
;   gcodeXoffset,0
;   gcodeYoffset,0
;   gcodeZoffset,0
;   overrideMachineDefinition,1
;   machineTypeOverride,0
;   strokeXoverride,280
;   strokeYoverride,150
;   strokeZoverride,150
;   originOffsetXoverride,140
;   originOffsetYoverride,75
;   originOffsetZoverride,0
;   homeXdirOverride,1
;   homeYdirOverride,1
;   homeZdirOverride,-1
;   flipXoverride,1
;   flipYoverride,-1
;   flipZoverride,1
;   toolheadOffsets,0,0|0,0|0,0|0,0|0,0|0,0
;   overrideFirmwareConfiguration,1
;   firmwareTypeOverride,MakerBot/Sailfish Firmware
;   GPXconfigOverride,r2h
;   baudRateOverride,115200
;   overridePrinterModels,1
;   printerModelsOverride,MakerBot_Replicator2.stl
;   startingGcode,; **** Replicator 2 start.gcode ****,M73 P0 ; enable build progress,G162 X Y F3000 ; home XY maximum,G161 Z F1200 ; home Z minimum,G92 Z-5 ; set Z to -5,G1 Z0 ; move Z to 0,G161 Z F100 ; home Z slowly,M132 X Y Z A B ; recall home offsets,G1 X-145 Y-75 Z30 F9000 ; move to wait position off table,G130 X20 Y20 Z20 A20 B20 ; lower stepper Vrefs while heating,M126 S[fan_speed_pwm],M140 S[bed0_temperature] T0,M134 T0 ; stabilize bed temperature,M104 S[extruder0_temperature] T0,M133 T0 ; stabilize extruder temperature,G130 X127 Y127 Z40 A127 B127 ; default stepper Vrefs,G92 A0 ; zero extruder,G1 Z0.4 ; position nozzle,G1 E25 F300 ; purge nozzle,G1 X-140 Y-70 Z0.15 F1200 ; slow wipe,G1 X-135 Y-65 Z0.5 F1200 ; lift,G92 A0 ; zero extruder,M73 P1 ;@body (notify GPX body has started),; **** end of start.gcode ****
;   layerChangeGcode,
;   retractionGcode,
;   toolChangeGcode,
;   endingGcode,; **** Replicator 2 end.gcode ****,M73 P100 ; end build progress,G1 Z155 F1000 ; send Z axis to bottom of machine,M104 S0 T0 ; cool down extruder,M140 S0 T0 ; cool down HBP,M127 ; stop blower fan,G162 X Y F3000 ; home XY maximum,M18 ; disable stepper,M0 ; stop codes,M72 P1 ; play Ta-Da song,; **** end of end.gcode ****
;   exportFileFormat,gcode
;   celebration,0
;   celebrationSong,Random Song
;   postProcessing,
;   defaultSpeed,4800
;   outlineUnderspeed,0.5
;   solidInfillUnderspeed,1
;   supportUnderspeed,1
;   rapidXYspeed,9000
;   rapidZspeed,1200
;   minBridgingArea,50
;   bridgingExtraInflation,0
;   bridgingExtrusionMultiplier,1
;   bridgingSpeedMultiplier,0.8
;   useFixedBridgingAngle,0
;   fixedBridgingAngle,0
;   applyBridgingToPerimeters,0
;   filamentDiameters,1.75|1.75|1.75|1.75|1.75|1.75
;   filamentPricesPerKg,46|46|46|46|46|46
;   filamentDensities,1.25|1.25|1.25|1.25|1.25|1.25
;   useMinPrintHeight,0
;   minPrintHeight,0
;   useMaxPrintHeight,0
;   maxPrintHeight,4.84
;   useDiaphragm,0
;   diaphragmLayerInterval,20
;   robustSlicing,1
;   mergeAllIntoSolid,0
;   onlyRetractWhenCrossingOutline,0
;   retractBetweenLayers,0
;   useRetractionMinTravel,1
;   retractionMinTravel,7
;   retractWhileWiping,1
;   onlyWipeOutlines,1
;   avoidCrossingOutline,0
;   maxMovementDetourFactor,3
;   toolChangeRetractionDistance,12
;   toolChangeExtraRestartDistance,-0.5
;   toolChangeRetractionSpeed,600
;   externalThinWallType,0
;   internalThinWallType,0
;   thinWallAllowedOverlapPercentage,10
;   singleExtrusionMinLength,1
;   singleExtrusionMinPrintingWidthPercentage,50
;   singleExtrusionMaxPrintingWidthPercentage,200
;   singleExtrusionEndpointExtension,0.2
;   horizontalSizeCompensation,0
G90
M83
; **** Replicator 2 start.gcode ****
M73 P0 ; enable build progress
G162 X Y F3000 ; home XY maximum
G161 Z F1200 ; home Z minimum
G92 Z-5 ; set Z to -5
G1 Z0 ; move Z to 0
G161 Z F100 ; home Z slowly
M132 X Y Z A B ; recall home offsets
G1 X-145 Y-75 Z30 F9000 ; move to wait position off table
G130 X20 Y20 Z20 A20 B20 ; lower stepper Vrefs while heating
M127
M140 S60 T0
M134 T0 ; stabilize bed temperature
M104 S230 T0
M133 T0 ; stabilize extruder temperature
G130 X127 Y127 Z40 A127 B127 ; default stepper Vrefs
G92 A0 ; zero extruder
G1 Z0.4 ; position nozzle
G1 E25 F300 ; purge nozzle
G1 X-140 Y-70 Z0.15 F1200 ; slow wipe
G1 X-135 Y-65 Z0.5 F1200 ; lift
G92 A0 ; zero extruder
M73 P1 ;@body (notify GPX body has started)
; **** end of start.gcode ****
; process Process1
; layer 1, Z = 0.200
M135 T0
G1 E-1.9000 F1200
; feature inner perimeter
; tool H0.200 W0.460
G1 Z0.500 F1200
G1 X0.000 Y12.010 F9000
G1 Z0.200 F1200
G1 E1.9000 F1200
G1 X-0.589 Y11.995 E0.0225 F1800
G1 X-1.177 Y11.952 E0.0225
G1 X-1.762 Y11.880 E0.0225
G1 X-2.343 Y11.779 E0.0225
G1 X-2.918 Y11.650 E0.0225
G1 X-3.486 Y11.493 E0.0226
G1 X-4.046 Y11.308 E0.0225
G1 X-4.596 Y11.096 E0.0225
G1 X-5.135 Y10.857 E0.0226
G1 X-5.661 Y10.592 E0.0225
G1 X-6.174 Y10.301 E0.0225
G1 X-6.672 Y9.986 E0.0226
G1 X-7.154 Y9.646 E0.0225
G1 X-7.619 Y9.284 E0.0225
G1 X-8.065 Y8.899 E0.0225
G1 X-8.492 Y8.492 E0.0226
G1 X-8.899 Y8.065 E0.0225
G1 X-9.284 Y7.619 E0.0225
G1 X-9.646 Y7.154 E0.0225
G1 X-9.986 Y6.672 E0.0226
G1 X-10.301 Y6.174 E0.0225
G1 X-10.592 Y5.661 E0.0226
G1 X-10.857 Y5.135 E0.0225
G1 X-11.096 Y4.596 E0.0226
G1 X-11.308 Y4.046 E0.0225
G1 X-11.493 Y3.486 E0.0225
G1 X-11.650 Y2.918 E0.0226
G1 X-11.779 Y2.343 E0.0225
G1 X-11.880 Y1.762 E0.0225
G1 X-11.952 Y1.177 E0.0225
G1 X-11.995 Y0.589 E0.0225
G1 X-12.010 Y-0.000 E0.0225
G1 X-11.995 Y-0.589 E0.0225
G1 X-11.952 Y-1.177 E0.0226
G1 X-11.880 Y-1.762 E0.0225
G1 X-11.779 Y-2.343 E0.0225
G1 X-11.650 Y-2.918 E0.0225
G1 X-11.493 Y-3.486 E0.0226
G1 X-11.308 Y-4.046 E0.0225
G1 X-11.096 Y-4.596 E0.0225
G1 X-10.857 Y-5.135 E0.0226
G1 X-10.592 Y-5.662 E0.0225
G1 X-10.301 Y-6.174 E0.0225
G1 X-9.986 Y-6.672 E0.0225
G1 X-9.646 Y-7.154 E0.0225
G1 X-9.284 Y-7.619 E0.0225
G1 X-8.899 Y-8.065 E0.0225
G1 X-8.492 Y-8.492 E0.0226
G1 X-8.065 Y-8.899 E0.0225
G1 X-7.642 Y-9.264 E0.0214
G1 X-7.154 Y-9.647 E0.0237
G1 X-6.672 Y-9.986 E0.0225
G1 X-6.174 Y-10.301 E0.0226
G1 X-5.661 Y-10.592 E0.0225
G1 X-5.135 Y-10.857 E0.0225
G1 X-4.596 Y-11.096 E0.0225
G1 X-4.046 Y-11.308 E0.0226
G1 X-3.486 Y-11.493 E0.0225
G1 X-2.918 Y-11.650 E0.0226
G1 X-2.343 Y-11.779 E0.0225
G1 X-1.762 Y-11.880 E0.0226
G1 X-1.177 Y-11.952 E0.0225
G1 X-0.589 Y-11.995 E0.0225
G1 X0.000 Y-12.010 E0.0225
G1 X0.589 Y-11.995 E0.0225
G1 X1.177 Y-11.952 E0.0226
G1 X1.762 Y-11.880 E0.0225
G1 X2.343 Y-11.779 E0.0225
G1 X2.918 Y-11.650 E0.0225
G1 X3.486 Y-11.493 E0.0226
G1 X4.046 Y-11.308 E0.0225
G1 X4.596 Y-11.096 E0.0226
G1 X5.135 Y-10.857 E0.0226
G1 X5.661 Y-10.592 E0.0225
G1 X6.174 Y-10.301 E0.0225
G1 X6.672 Y-9.986 E0.0226
G1 X7.154 Y-9.646 E0.0225
G1 X7.619 Y-9.284 E0.0226
G1 X8.065 Y-8.899 E0.0225
G1 X8.492 Y-8.492 E0.0225
G1 X8.899 Y-8.065 E0.0225
G1 X9.284 Y-7.619 E0.0225
G1 X9.646 Y-7.154 E0.0225
G1 X9.986 Y-6.672 E0.0226
G1 X10.301 Y-6.174 E0.0225
G1 X10.592 Y-5.661 E0.0225
G1 X10.857 Y-5.135 E0.0225
G1 X11.096 Y-4.596 E0.0226
G1 X11.308 Y-4.046 E0.0225
G1 X11.493 Y-3.486 E0.0225
G1 X11.650 Y-2.918 E0.0226
G1 X11.779 Y-2.343 E0.0225
G1 X11.880 Y-1.762 E0.0225
G1 X11.952 Y-1.177 E0.0225
G1 X11.995 Y-0.589 E0.0225
G1 X12.010 Y-0.000 E0.0225
G1 X11.995 Y0.589 E0.0225
G1 X11.952 Y1.177 E0.0226
G1 X11.880 Y1.762 E0.0225
G1 X11.779 Y2.343 E0.0226
G1 X11.650 Y2.918 E0.0225
G1 X11.493 Y3.487 E0.0226
G1 X11.308 Y4.046 E0.0225
G1 X11.096 Y4.596 E0.0226
G1 X10.857 Y5.135 E0.0225
G1 X10.592 Y5.661 E0.0225
G1 X10.301 Y6.174 E0.0225
G1 X9.986 Y6.672 E0.0225
G1 X9.646 Y7.154 E0.0226
G1 X9.284 Y7.619 E0.0225
G1 X8.899 Y8.065 E0.0225
G1 X8.492 Y8.492 E0.0225
G1 X8.065 Y8.899 E0.0225
G1 X7.619 Y9.284 E0.0225
G1 X7.154 Y9.646 E0.0226
G1 X6.672 Y9.986 E0.0225
G1 X6.174 Y10.301 E0.0225
G1 X5.661 Y10.592 E0.0226
G1 X5.135 Y10.857 E0.0225
G1 X4.596 Y11.096 E0.0226
G1 X4.046 Y11.308 E0.0226
G1 X3.486 Y11.493 E0.0225
G1 X2.918 Y11.650 E0.0226
G1 X2.343 Y11.779 E0.0225
G1 X1.762 Y11.880 E0.0225
G1 X1.177 Y11.952 E0.0225
G1 X0.589 Y11.995 E0.0225
G1 X0.000 Y12.010 E0.0225
; feature outer perimeter
G1 X0.000 Y12.470 F9000
G1 X-0.612 Y12.455 E0.0234 F1200
G1 X-1.222 Y12.410 E0.0234
G1 X-1.830 Y12.335 E0.0234
G1 X-2.433 Y12.230 E0.0234
G1 X-3.030 Y12.096 E0.0234
G1 X-3.620 Y11.933 E0.0234
G1 X-4.201 Y11.741 E0.0234
G1 X-4.772 Y11.521 E0.0234
G1 X-5.332 Y11.273 E0.0234
G1 X-5.878 Y10.998 E0.0234
G1 X-6.411 Y10.696 E0.0234
G1 X-6.928 Y10.368 E0.0234
G1 X-7.428 Y10.016 E0.0234
G1 X-7.911 Y9.639 E0.0234
G1 X-8.374 Y9.240 E0.0234
G1 X-8.818 Y8.818 E0.0234
G1 X-9.240 Y8.374 E0.0234
G1 X-9.639 Y7.911 E0.0234
G1 X-10.016 Y7.428 E0.0234
G1 X-10.368 Y6.928 E0.0234
G1 X-10.696 Y6.411 E0.0234
G1 X-10.998 Y5.878 E0.0234
G1 X-11.273 Y5.332 E0.0234
G1 X-11.521 Y4.772 E0.0234
G1 X-11.741 Y4.201 E0.0234
G1 X-11.933 Y3.620 E0.0234
G1 X-12.096 Y3.030 E0.0234
G1 X-12.230 Y2.433 E0.0234
G1 X-12.335 Y1.830 E0.0234
G1 X-12.410 Y1.222 E0.0234
G1 X-12.455 Y0.612 E0.0234
G1 X-12.470 Y-0.000 E0.0234
G1 X-12.455 Y-0.612 E0.0234
G1 X-12.410 Y-1.222 E0.0234
G1 X-12.335 Y-1.830 E0.0234
G1 X-12.230 Y-2.433 E0.0234
G1 X-12.096 Y-3.030 E0.0234
G1 X-11.933 Y-3.620 E0.0234
G1 X-11.741 Y-4.201 E0.0234
G1 X-11.521 Y-4.772 E0.0234
G1 X-11.273 Y-5.332 E0.0234
G1 X-10.997 Y-5.878 E0.0234
G1 X-10.696 Y-6.411 E0.0234
G1 X-10.368 Y-6.928 E0.0234
G1 X-10.016 Y-7.428 E0.0234
G1 X-9.639 Y-7.911 E0.0234
G1 X-9.240 Y-8.374 E0.0234
G1 X-8.817 Y-8.818 E0.0234
G1 X-8.374 Y-9.240 E0.0234
G1 X-7.934 Y-9.619 E0.0222
G1 X-7.428 Y-10.016 E0.0246
G1 X-6.928 Y-10.368 E0.0234
G1 X-6.411 Y-10.696 E0.0234
G1 X-5.878 Y-10.998 E0.0234
G1 X-5.332 Y-11.273 E0.0234
G1 X-4.772 Y-11.521 E0.0234
G1 X-4.201 Y-11.741 E0.0234
G1 X-3.620 Y-11.933 E0.0234
G1 X-3.030 Y-12.096 E0.0234
G1 X-2.433 Y-12.230 E0.0234
G1 X-1.830 Y-12.335 E0.0234
G1 X-1.222 Y-12.410 E0.0234
G1 X-0.612 Y-12.455 E0.0234
G1 X0.000 Y-12.470 E0.0234
G1 X0.612 Y-12.455 E0.0234
G1 X1.222 Y-12.410 E0.0234
G1 X1.830 Y-12.335 E0.0234
G1 X2.433 Y-12.230 E0.0234
G1 X3.030 Y-12.096 E0.0234
G1 X3.620 Y-11.933 E0.0234
G1 X4.201 Y-11.741 E0.0234
G1 X4.772 Y-11.521 E0.0234
G1 X5.332 Y-11.273 E0.0234
G1 X5.878 Y-10.998 E0.0234
G1 X6.411 Y-10.696 E0.0234
G1 X6.928 Y-10.368 E0.0234
G1 X7.428 Y-10.016 E0.0234
G1 X7.911 Y-9.639 E0.0234
G1 X8.374 Y-9.240 E0.0234
G1 X8.818 Y-8.818 E0.0234
G1 X9.240 Y-8.374 E0.0234
G1 X9.639 Y-7.911 E0.0234
G1 X10.016 Y-7.428 E0.0234
G1 X10.368 Y-6.928 E0.0234
G1 X10.696 Y-6.411 E0.0234
G1 X10.998 Y-5.878 E0.0234
G1 X11.273 Y-5.332 E0.0234
G1 X11.521 Y-4.772 E0.0234
G1 X11.741 Y-4.201 E0.0234
G1 X11.933 Y-3.620 E0.0234
G1 X12.096 Y-3.030 E0.0234
G1 X12.230 Y-2.433 E0.0234
G1 X12.335 Y-1.830 E0.0234
G1 X12.410 Y-1.222 E0.0234
G1 X12.455 Y-0.612 E0.0234
G1 X12.470 Y-0.000 E0.0234
G1 X12.455 Y0.612 E0.0234
G1 X12.410 Y1.222 E0.0234
G1 X12.335 Y1.830 E0.0234
G1 X12.230 Y2.433 E0.0234
G1 X12.096 Y3.030 E0.0234
G1 X11.933 Y3.620 E0.0234
G1 X11.741 Y4.201 E0.0234
G1 X11.521 Y4.772 E0.0234
G1 X11.273 Y5.332 E0.0234
G1 X10.998 Y5.878 E0.0234
G1 X10.696 Y6.411 E0.0234
G1 X10.368 Y6.928 E0.0234
G1 X10.016 Y7.428 E0.0234
G1 X9.639 Y7.911 E0.0234
G1 X9.240 Y8.374 E0.0234
G1 X8.818 Y8.818 E0.0234
G1 X8.374 Y9.240 E0.0234
G1 X7.911 Y9.639 E0.0234
G1 X7.428 Y10.016 E0.0234
G1 X6.928 Y10.368 E0.0234
G1 X6.411 Y10.696 E0.0234
G1 X5.878 Y10.998 E0.0234
G1 X5.332 Y11.273 E0.0234
G1 X4.772 Y11.521 E0.0234
G1 X4.201 Y11.741 E0.0234
G1 X3.620 Y11.933 E0.0234
G1 X3.030 Y12.096 E0.0234
G1 X2.433 Y12.230 E0.0234
G1 X1.830 Y12.335 E0.0234
G1 X1.222 Y12.410 E0.0234
G1 X0.612 Y12.455 E0.0234
G1 X0.000 Y12.470 E0.0234
G1 E-1.9000 F1200
; feature inner perimeter
G1 Z0.700 F1200
G1 X-0.157 Y3.187 F9000
G1 Z0.200 F1200
G1 E1.9000 F1200
G1 X0.157 Y3.187 E0.0120 F1800
G1 X0.468 Y3.156 E0.0120
G1 X0.775 Y3.095 E0.0120
G1 X1.075 Y3.004 E0.0120
G1 X1.364 Y2.884 E0.0120
G1 X1.640 Y2.737 E0.0120
G1 X1.901 Y2.563 E0.0120
G1 X2.143 Y2.364 E0.0120
G1 X2.364 Y2.143 E0.0120
G1 X2.563 Y1.901 E0.0120
G1 X2.737 Y1.640 E0.0120
G1 X2.884 Y1.364 E0.0120
G1 X3.004 Y1.075 E0.0120
G1 X3.095 Y0.775 E0.0120
G1 X3.156 Y0.468 E0.0120
G1 X3.187 Y0.157 E0.0120
G1 X3.187 Y-0.157 E0.0120
G1 X3.156 Y-0.468 E0.0120
G1 X3.095 Y-0.775 E0.0120
G1 X3.004 Y-1.075 E0.0120
G1 X2.884 Y-1.364 E0.0120
G1 X2.737 Y-1.640 E0.0120
G1 X2.558 Y-1.908 E0.0123
G1 X2.263 Y-2.251 E0.0173
G1 X2.024 Y-2.467 E0.0123
G1 X1.773 Y-2.653 E0.0120
G1 X1.504 Y-2.814 E0.0120
G1 X1.221 Y-2.948 E0.0120
G1 X0.926 Y-3.053 E0.0120
G1 X0.623 Y-3.130 E0.0120
G1 X0.313 Y-3.175 E0.0120
G1 X0.000 Y-3.191 E0.0120
G1 X-0.313 Y-3.175 E0.0120
G1 X-0.622 Y-3.130 E0.0120
G1 X-0.926 Y-3.053 E0.0120
G1 X-1.221 Y-2.948 E0.0120
G1 X-1.504 Y-2.814 E0.0120
G1 X-1.773 Y-2.653 E0.0120
G1 X-2.024 Y-2.467 E0.0120
G1 X-2.256 Y-2.256 E0.0120
G1 X-2.467 Y-2.024 E0.0120
G1 X-2.653 Y-1.773 E0.0120
G1 X-2.814 Y-1.504 E0.0120
G1 X-2.948 Y-1.221 E0.0120
G1 X-3.053 Y-0.926 E0.0120
G1 X-3.130 Y-0.623 E0.0120
