; G-Code generated by Simplify3D(R) Version 4.1.2
; Apr 2, 2020 at 4:19:01 PM
; Settings Summary
;   processName,Process1
;   applyToModels,ramp illumination V3R2,ramp illumination V3R2(2),ramp illumination V3R2(3),ramp illumination V3R2(2)(2),ramp illumination V3R2(4),ramp illumination V3R2(2)(3),ramp illumination V3R2(5),ramp illumination V3R2(2)(4),ramp illumination V3R2(6),ramp illumination V3R2(2)(5),ramp illumination V3R2(7),ramp illumination V3R2(2)(6),ramp illumination V3R2(8),ramp illumination V3R2(2)(7),ramp illumination V3R2(9),ramp illumination V3R2(2)(8)
;   profileName,MakerBot Replicator 2 HBP (modified)
;   profileVersion,2020-03-12 10:48:50
;   baseProfile,MakerBot Replicator 2(2)
;   printMaterial,PLA
;   printQuality,Medium
;   printExtruders,
;   extruderName,Primary Extruder
;   extruderToolheadNumber,0
;   extruderDiameter,0.4
;   extruderAutoWidth,0
;   extruderWidth,0.4
;   extrusionMultiplier,1
;   extruderUseRetract,1
;   extruderRetractionDistance,1.9
;   extruderExtraRestartDistance,0
;   extruderRetractionZLift,0.5
;   extruderRetractionSpeed,1200
;   extruderUseCoasting,0
;   extruderCoastingDistance,0.2
;   extruderUseWipe,0
;   extruderWipeDistance,5
;   primaryExtruder,0
;   layerHeight,0.2
;   topSolidLayers,3
;   bottomSolidLayers,3
;   perimeterOutlines,2
;   printPerimetersInsideOut,1
;   startPointOption,3
;   startPointOriginX,0
;   startPointOriginY,150
;   sequentialIslands,0
;   spiralVaseMode,0
;   firstLayerHeightPercentage,100
;   firstLayerWidthPercentage,115
;   firstLayerUnderspeed,0.5
;   useRaft,0
;   raftExtruder,0
;   raftTopLayers,2
;   raftBaseLayers,1
;   raftOffset,1
;   raftSeparationDistance,0.14
;   raftTopInfill,90
;   aboveRaftSpeedMultiplier,0.3
;   useSkirt,0
;   skirtExtruder,0
;   skirtLayers,1
;   skirtOutlines,5
;   skirtOffset,0
;   usePrimePillar,0
;   primePillarExtruder,999
;   primePillarWidth,12
;   primePillarLocation,7
;   primePillarSpeedMultiplier,1
;   useOozeShield,0
;   oozeShieldExtruder,999
;   oozeShieldOffset,2
;   oozeShieldOutlines,1
;   oozeShieldSidewallShape,1
;   oozeShieldSidewallAngle,30
;   oozeShieldSpeedMultiplier,1
;   infillExtruder,0
;   internalInfillPattern,Rectilinear
;   externalInfillPattern,Rectilinear
;   infillPercentage,15
;   outlineOverlapPercentage,25
;   infillExtrusionWidthPercentage,100
;   minInfillLength,5
;   infillLayerInterval,1
;   internalInfillAngles,45,-45
;   overlapInternalInfillAngles,0
;   externalInfillAngles,45,-45
;   generateSupport,1
;   supportExtruder,0
;   supportInfillPercentage,30
;   supportExtraInflation,0.5
;   supportBaseLayers,0
;   denseSupportExtruder,0
;   denseSupportLayers,2
;   denseSupportInfillPercentage,90
;   supportLayerInterval,1
;   supportHorizontalPartOffset,0.3
;   supportUpperSeparationLayers,1
;   supportLowerSeparationLayers,1
;   supportType,1
;   supportGridSpacing,2
;   maxOverhangAngle,45
;   supportAngles,45,-45
;   temperatureName,Primary Extruder,Heated Build Platform
;   temperatureNumber,0,0
;   temperatureSetpointCount,1,1
;   temperatureSetpointLayers,1,1
;   temperatureSetpointTemperatures,230,60
;   temperatureStabilizeAtStartup,1,1
;   temperatureHeatedBed,0,1
;   fanLayers,1,2
;   fanSpeeds,0,100
;   blipFanToFullPower,1
;   adjustSpeedForCooling,1
;   minSpeedLayerTime,15
;   minCoolingSpeedSlowdown,20
;   increaseFanForCooling,1
;   minFanLayerTime,45
;   maxCoolingFanSpeed,100
;   increaseFanForBridging,1
;   bridgingFanSpeed,100
;   use5D,1
;   relativeEdistances,1
;   allowEaxisZeroing,0
;   independentExtruderAxes,1
;   includeM10123,0
;   stickySupport,1
;   applyToolheadOffsets,0
;   gcodeXoffset,0
;   gcodeYoffset,0
;   gcodeZoffset,0
;   overrideMachineDefinition,1
;   machineTypeOverride,0
;   strokeXoverride,280
;   strokeYoverride,150
;   strokeZoverride,150
;   originOffsetXoverride,140
;   originOffsetYoverride,75
;   originOffsetZoverride,0
;   homeXdirOverride,1
;   homeYdirOverride,1
;   homeZdirOverride,-1
;   flipXoverride,1
;   flipYoverride,-1
;   flipZoverride,1
;   toolheadOffsets,0,0|0,0|0,0|0,0|0,0|0,0
;   overrideFirmwareConfiguration,1
;   firmwareTypeOverride,MakerBot/Sailfish Firmware
;   GPXconfigOverride,r2h
;   baudRateOverride,115200
;   overridePrinterModels,1
;   printerModelsOverride,MakerBot_Replicator2.stl
;   startingGcode,; **** Replicator 2 start.gcode ****,M73 P0 ; enable build progress,G162 X Y F3000 ; home XY maximum,G161 Z F1200 ; home Z minimum,G92 Z-5 ; set Z to -5,G1 Z0 ; move Z to 0,G161 Z F100 ; home Z slowly,M132 X Y Z A B ; recall home offsets,G1 X-145 Y-75 Z30 F9000 ; move to wait position off table,G130 X20 Y20 Z20 A20 B20 ; lower stepper Vrefs while heating,M126 S[fan_speed_pwm],M140 S[bed0_temperature] T0,M134 T0 ; stabilize bed temperature,M104 S[extruder0_temperature] T0,M133 T0 ; stabilize extruder temperature,G130 X127 Y127 Z40 A127 B127 ; default stepper Vrefs,G92 A0 ; zero extruder,G1 Z0.4 ; position nozzle,G1 E25 F300 ; purge nozzle,G1 X-140 Y-70 Z0.15 F1200 ; slow wipe,G1 X-135 Y-65 Z0.5 F1200 ; lift,G92 A0 ; zero extruder,M73 P1 ;@body (notify GPX body has started),; **** end of start.gcode ****
;   layerChangeGcode,
;   retractionGcode,
;   toolChangeGcode,
;   endingGcode,; **** Replicator 2 end.gcode ****,M73 P100 ; end build progress,G1 Z155 F1000 ; send Z axis to bottom of machine,M104 S0 T0 ; cool down extruder,M140 S0 T0 ; cool down HBP,M127 ; stop blower fan,G162 X Y F3000 ; home XY maximum,M18 ; disable stepper,M0 ; stop codes,M72 P1 ; play Ta-Da song,; **** end of end.gcode ****
;   exportFileFormat,gcode
;   celebration,0
;   celebrationSong,Random Song
;   postProcessing,
;   defaultSpeed,4800
;   outlineUnderspeed,0.5
;   solidInfillUnderspeed,1
;   supportUnderspeed,1
;   rapidXYspeed,9000
;   rapidZspeed,1200
;   minBridgingArea,50
;   bridgingExtraInflation,0
;   bridgingExtrusionMultiplier,1
;   bridgingSpeedMultiplier,0.8
;   useFixedBridgingAngle,0
;   fixedBridgingAngle,0
;   applyBridgingToPerimeters,0
;   filamentDiameters,1.75|1.75|1.75|1.75|1.75|1.75
;   filamentPricesPerKg,46|46|46|46|46|46
;   filamentDensities,1.25|1.25|1.25|1.25|1.25|1.25
;   useMinPrintHeight,0
;   minPrintHeight,0
;   useMaxPrintHeight,0
;   maxPrintHeight,4.84
;   useDiaphragm,0
;   diaphragmLayerInterval,20
;   robustSlicing,1
;   mergeAllIntoSolid,0
;   onlyRetractWhenCrossingOutline,0
;   retractBetweenLayers,0
;   useRetractionMinTravel,1
;   retractionMinTravel,7
;   retractWhileWiping,1
;   onlyWipeOutlines,1
;   avoidCrossingOutline,0
;   maxMovementDetourFactor,3
;   toolChangeRetractionDistance,12
;   toolChangeExtraRestartDistance,-0.5
;   toolChangeRetractionSpeed,600
;   externalThinWallType,0
;   internalThinWallType,0
;   thinWallAllowedOverlapPercentage,10
;   singleExtrusionMinLength,1
;   singleExtrusionMinPrintingWidthPercentage,50
;   singleExtrusionMaxPrintingWidthPercentage,200
;   singleExtrusionEndpointExtension,0.2
;   horizontalSizeCompensation,0
G90
M83
; **** Replicator 2 start.gcode ****
M73 P0 ; enable build progress
G162 X Y F3000 ; home XY maximum
G161 Z F1200 ; home Z minimum
G92 Z-5 ; set Z to -5
G1 Z0 ; move Z to 0
G161 Z F100 ; home Z slowly
M132 X Y Z A B ; recall home offsets
G1 X-145 Y-75 Z30 F9000 ; move to wait position off table
G130 X20 Y20 Z20 A20 B20 ; lower stepper Vrefs while heating
M127
M140 S60 T0
M134 T0 ; stabilize bed temperature
M104 S230 T0
M133 T0 ; stabilize extruder temperature
G130 X127 Y127 Z40 A127 B127 ; default stepper Vrefs
G92 A0 ; zero extruder
G1 Z0.4 ; position nozzle
G1 E25 F300 ; purge nozzle
G1 X-140 Y-70 Z0.15 F1200 ; slow wipe
G1 X-135 Y-65 Z0.5 F1200 ; lift
G92 A0 ; zero extruder
M73 P1 ;@body (notify GPX body has started)
; **** end of start.gcode ****
; process Process1
; layer 1, Z = 0.200
M135 T0
G1 E-1.9000 F1200
; feature inner perimeter
; tool H0.200 W0.460
G1 Z0.500 F1200
G1 X-3.190 Y11.810 F9000
G1 Z0.200 F1200
G1 E1.9000 F1200
G1 X-26.810 Y11.810 E0.9034 F1800
G1 X-26.810 Y-11.810 E0.9034
G1 X-3.190 Y-11.810 E0.9034
G1 X-3.190 Y11.810 E0.9034
; feature outer perimeter
G1 X-2.730 Y12.270 F9000
G1 X-27.270 Y12.270 E0.9386 F1200
G1 X-27.270 Y-12.270 E0.9386
G1 X-2.730 Y-12.270 E0.9386
G1 X-2.730 Y12.270 E0.9386
G1 E-1.9000 F1200
; feature solid layer
G1 Z0.700 F1200
G1 X-26.266 Y11.465 F9000
G1 Z0.200 F1200
G1 E1.9000 F1200
G1 X-26.465 Y11.266 E0.0108 F2400
G1 X-26.465 Y10.616 E0.0249
G1 X-25.616 Y11.465 E0.0459
G1 X-24.965 Y11.465 E0.0249
G1 X-26.465 Y9.965 E0.0811
G1 X-26.465 Y9.315 E0.0249
G1 X-24.315 Y11.465 E0.1163
G1 X-23.664 Y11.465 E0.0249
G1 X-26.465 Y8.664 E0.1515
G1 X-26.465 Y8.014 E0.0249
G1 X-23.014 Y11.465 E0.1867
G1 X-22.363 Y11.465 E0.0249
G1 X-26.465 Y7.363 E0.2219
G1 X-26.465 Y6.712 E0.0249
G1 X-21.712 Y11.465 E0.2571
G1 X-21.062 Y11.465 E0.0249
G1 X-26.465 Y6.062 E0.2923
G1 X-26.465 Y5.411 E0.0249
G1 X-20.411 Y11.465 E0.3275
G1 X-19.761 Y11.465 E0.0249
G1 X-26.465 Y4.761 E0.3626
G1 X-26.465 Y4.110 E0.0249
G1 X-19.110 Y11.465 E0.3978
G1 X-18.460 Y11.465 E0.0249
G1 X-26.465 Y3.460 E0.4330
G1 X-26.465 Y2.809 E0.0249
G1 X-17.809 Y11.465 E0.4682
G1 X-17.159 Y11.465 E0.0249
G1 X-26.465 Y2.159 E0.5034
G1 X-26.465 Y1.508 E0.0249
G1 X-16.508 Y11.465 E0.5386
G1 X-15.858 Y11.465 E0.0249
G1 X-26.465 Y0.858 E0.5738
G1 X-26.465 Y0.207 E0.0249
G1 X-15.207 Y11.465 E0.6090
G1 X-14.557 Y11.465 E0.0249
G1 X-26.465 Y-0.443 E0.6442
G1 X-26.465 Y-1.094 E0.0249
G1 X-13.906 Y11.465 E0.6793
G1 X-13.255 Y11.465 E0.0249
G1 X-26.465 Y-1.745 E0.7145
G1 X-26.465 Y-2.395 E0.0249
G1 X-12.605 Y11.465 E0.7497
G1 X-11.954 Y11.465 E0.0249
G1 X-26.465 Y-3.046 E0.7849
G1 X-26.465 Y-3.696 E0.0249
G1 X-11.304 Y11.465 E0.8201
G1 X-10.653 Y11.465 E0.0249
G1 X-26.465 Y-4.347 E0.8553
G1 X-26.465 Y-4.997 E0.0249
G1 X-10.003 Y11.465 E0.8905
G1 X-9.352 Y11.465 E0.0249
G1 X-26.465 Y-5.648 E0.9257
G1 X-26.465 Y-6.298 E0.0249
G1 X-8.702 Y11.465 E0.9609
G1 X-8.051 Y11.465 E0.0249
G1 X-26.465 Y-6.949 E0.9961
G1 X-26.465 Y-7.599 E0.0249
G1 X-7.401 Y11.465 E1.0312
G1 X-6.750 Y11.465 E0.0249
G1 X-26.465 Y-8.250 E1.0664
G1 X-26.465 Y-8.900 E0.0249
G1 X-6.100 Y11.465 E1.1016
G1 X-5.449 Y11.465 E0.0249
G1 X-26.465 Y-9.551 E1.1368
G1 X-26.465 Y-10.202 E0.0249
G1 X-4.798 Y11.465 E1.1720
G1 X-4.148 Y11.465 E0.0249
G1 X-26.465 Y-10.852 E1.2072
G1 X-26.465 Y-11.465 E0.0234
G1 X-26.427 Y-11.465 E0.0014
G1 X-3.535 Y11.427 E1.2383
G1 X-3.535 Y10.777 E0.0249
G1 X-25.777 Y-11.465 E1.2031
G1 X-25.126 Y-11.465 E0.0249
G1 X-3.535 Y10.126 E1.1679
G1 X-3.535 Y9.476 E0.0249
G1 X-24.476 Y-11.465 E1.1327
G1 X-23.825 Y-11.465 E0.0249
G1 X-3.535 Y8.825 E1.0975
G1 X-3.535 Y8.175 E0.0249
G1 X-23.175 Y-11.465 E1.0624
G1 X-22.524 Y-11.465 E0.0249
G1 X-3.535 Y7.524 E1.0272
G1 X-3.535 Y6.874 E0.0249
G1 X-21.874 Y-11.465 E0.9920
G1 X-21.223 Y-11.465 E0.0249
G1 X-3.535 Y6.223 E0.9568
G1 X-3.535 Y5.573 E0.0249
G1 X-20.573 Y-11.465 E0.9216
G1 X-19.922 Y-11.465 E0.0249
G1 X-3.535 Y4.922 E0.8864
G1 X-3.535 Y4.271 E0.0249
G1 X-19.271 Y-11.465 E0.8512
G1 X-18.621 Y-11.465 E0.0249
G1 X-3.535 Y3.621 E0.8160
G1 X-3.535 Y2.970 E0.0249
G1 X-17.970 Y-11.465 E0.7808
G1 X-17.320 Y-11.465 E0.0249
G1 X-3.535 Y2.320 E0.7457
G1 X-3.535 Y1.669 E0.0249
G1 X-16.669 Y-11.465 E0.7105
G1 X-16.019 Y-11.465 E0.0249
G1 X-3.535 Y1.019 E0.6753
G1 X-3.535 Y0.368 E0.0249
G1 X-15.368 Y-11.465 E0.6401
G1 X-14.718 Y-11.465 E0.0249
G1 X-3.535 Y-0.282 E0.6049
G1 X-3.535 Y-0.933 E0.0249
G1 X-14.067 Y-11.465 E0.5697
G1 X-13.417 Y-11.465 E0.0249
G1 X-3.535 Y-1.583 E0.5345
G1 X-3.535 Y-2.234 E0.0249
G1 X-12.766 Y-11.465 E0.4993
G1 X-12.116 Y-11.465 E0.0249
G1 X-3.535 Y-2.884 E0.4641
G1 X-3.535 Y-3.535 E0.0249
G1 X-11.465 Y-11.465 E0.4290
G1 X-10.814 Y-11.465 E0.0249
G1 X-3.535 Y-4.186 E0.3938
G1 X-3.535 Y-4.836 E0.0249
G1 X-10.164 Y-11.465 E0.3586
G1 X-9.513 Y-11.465 E0.0249
G1 X-3.535 Y-5.487 E0.3234
G1 X-3.535 Y-6.137 E0.0249
G1 X-8.863 Y-11.465 E0.2882
G1 X-8.212 Y-11.465 E0.0249
G1 X-3.535 Y-6.788 E0.2530
G1 X-3.535 Y-7.438 E0.0249
G1 X-7.562 Y-11.465 E0.2178
G1 X-6.911 Y-11.465 E0.0249
G1 X-3.535 Y-8.089 E0.1826
G1 X-3.535 Y-8.739 E0.0249
G1 X-6.261 Y-11.465 E0.1474
G1 X-5.610 Y-11.465 E0.0249
G1 X-3.535 Y-9.390 E0.1122
G1 X-3.535 Y-10.040 E0.0249
G1 X-4.960 Y-11.465 E0.0771
G1 X-4.309 Y-11.465 E0.0249
G1 X-3.535 Y-10.691 E0.0419
G1 X-3.535 Y-11.341 E0.0249
G1 X-3.659 Y-11.465 E0.0067
; feature inner perimeter
G1 X-3.190 Y-18.190 F9000
G1 X-26.810 Y-18.190 E0.9034 F1800
G1 X-26.810 Y-41.810 E0.9034
G1 X-3.190 Y-41.810 E0.9034
G1 X-3.190 Y-18.190 E0.9034
; feature outer perimeter
G1 X-2.730 Y-17.730 F9000
G1 X-27.270 Y-17.730 E0.9386 F1200
G1 X-27.270 Y-42.270 E0.9386
G1 X-2.730 Y-42.270 E0.9386
G1 X-2.730 Y-17.730 E0.9386
G1 E-1.9000 F1200
; feature solid layer
G1 Z0.700 F1200
G1 X-26.341 Y-18.535 F9000
G1 Z0.200 F1200
G1 E1.9000 F1200
G1 X-26.465 Y-18.659 E0.0067 F2400
G1 X-26.465 Y-19.309 E0.0249
G1 X-25.691 Y-18.535 E0.0419
G1 X-25.040 Y-18.535 E0.0249
G1 X-26.465 Y-19.960 E0.0771
G1 X-26.465 Y-20.610 E0.0249
G1 X-24.390 Y-18.535 E0.1123
G1 X-23.739 Y-18.535 E0.0249
G1 X-26.465 Y-21.261 E0.1474
G1 X-26.465 Y-21.911 E0.0249
G1 X-23.089 Y-18.535 E0.1826
G1 X-22.438 Y-18.535 E0.0249
G1 X-26.465 Y-22.562 E0.2178
G1 X-26.465 Y-23.212 E0.0249
G1 X-21.788 Y-18.535 E0.2530
G1 X-21.137 Y-18.535 E0.0249
G1 X-26.465 Y-23.863 E0.2882
G1 X-26.465 Y-24.513 E0.0249
G1 X-20.487 Y-18.535 E0.3234
G1 X-19.836 Y-18.535 E0.0249
G1 X-26.465 Y-25.164 E0.3586
G1 X-26.465 Y-25.814 E0.0249
G1 X-19.186 Y-18.535 E0.3938
G1 X-18.535 Y-18.535 E0.0249
G1 X-26.465 Y-26.465 E0.4290
G1 X-26.465 Y-27.116 E0.0249
G1 X-17.884 Y-18.535 E0.4641
G1 X-17.234 Y-18.535 E0.0249
G1 X-26.465 Y-27.766 E0.4993
G1 X-26.465 Y-28.417 E0.0249
G1 X-16.583 Y-18.535 E0.5345
G1 X-15.933 Y-18.535 E0.0249
G1 X-26.465 Y-29.067 E0.5697
G1 X-26.465 Y-29.718 E0.0249
G1 X-15.282 Y-18.535 E0.6049
G1 X-14.632 Y-18.535 E0.0249
G1 X-26.465 Y-30.368 E0.6401
G1 X-26.465 Y-31.019 E0.0249
G1 X-13.981 Y-18.535 E0.6753
G1 X-13.331 Y-18.535 E0.0249
G1 X-26.465 Y-31.669 E0.7105
G1 X-26.465 Y-32.320 E0.0249
G1 X-12.680 Y-18.535 E0.7457
G1 X-12.030 Y-18.535 E0.0249
G1 X-26.465 Y-32.970 E0.7808
G1 X-26.465 Y-33.621 E0.0249
G1 X-11.379 Y-18.535 E0.8160
G1 X-10.729 Y-18.535 E0.0249
G1 X-26.465 Y-34.271 E0.8512
G1 X-26.465 Y-34.922 E0.0249
G1 X-10.078 Y-18.535 E0.8864
G1 X-9.427 Y-18.535 E0.0249
G1 X-26.465 Y-35.573 E0.9216
G1 X-26.465 Y-36.223 E0.0249
G1 X-8.777 Y-18.535 E0.9568
G1 X-8.126 Y-18.535 E0.0249
G1 X-26.465 Y-36.874 E0.9920
G1 X-26.465 Y-37.524 E0.0249
G1 X-7.476 Y-18.535 E1.0272
G1 X-6.825 Y-18.535 E0.0249
G1 X-26.465 Y-38.175 E1.0624
G1 X-26.465 Y-38.825 E0.0249
G1 X-6.175 Y-18.535 E1.0975
G1 X-5.524 Y-18.535 E0.0249
G1 X-26.465 Y-39.476 E1.1327
G1 X-26.465 Y-40.126 E0.0249
G1 X-4.874 Y-18.535 E1.1679
G1 X-4.223 Y-18.535 E0.0249
G1 X-26.465 Y-40.777 E1.2031
G1 X-26.465 Y-41.427 E0.0249
G1 X-3.573 Y-18.535 E1.2383
G1 X-3.535 Y-18.535 E0.0014
G1 X-3.535 Y-19.148 E0.0234
G1 X-25.852 Y-41.465 E1.2072
G1 X-25.202 Y-41.465 E0.0249
G1 X-3.535 Y-19.798 E1.1720
G1 X-3.535 Y-20.449 E0.0249
G1 X-24.551 Y-41.465 E1.1368
G1 X-23.900 Y-41.465 E0.0249
G1 X-3.535 Y-21.100 E1.1016
G1 X-3.535 Y-21.750 E0.0249
G1 X-23.250 Y-41.465 E1.0664
G1 X-22.599 Y-41.465 E0.0249
G1 X-3.535 Y-22.401 E1.0312
G1 X-3.535 Y-23.051 E0.0249
G1 X-21.949 Y-41.465 E0.9961
G1 X-21.298 Y-41.465 E0.0249
G1 X-3.535 Y-23.702 E0.9609
G1 X-3.535 Y-24.352 E0.0249
G1 X-20.648 Y-41.465 E0.9257
G1 X-19.997 Y-41.465 E0.0249
G1 X-3.535 Y-25.003 E0.8905
G1 X-3.535 Y-25.653 E0.0249
G1 X-19.347 Y-41.465 E0.8553
G1 X-18.696 Y-41.465 E0.0249
G1 X-3.535 Y-26.304 E0.8201
G1 X-3.535 Y-26.954 E0.0249
G1 X-18.046 Y-41.465 E0.7849
G1 X-17.395 Y-41.465 E0.0249
G1 X-3.535 Y-27.605 E0.7497
G1 X-3.535 Y-28.255 E0.0249
G1 X-16.745 Y-41.465 E0.7145
G1 X-16.094 Y-41.465 E0.0249
G1 X-3.535 Y-28.906 E0.6793
G1 X-3.535 Y-29.557 E0.0249
G1 X-15.443 Y-41.465 E0.6442
G1 X-14.793 Y-41.465 E0.0249
G1 X-3.535 Y-30.207 E0.6090
G1 X-3.535 Y-30.858 E0.0249
G1 X-14.142 Y-41.465 E0.5738
G1 X-13.492 Y-41.465 E0.0249
G1 X-3.535 Y-31.508 E0.5386
G1 X-3.535 Y-32.159 E0.0249
G1 X-12.841 Y-41.465 E0.5034
