; G-Code generated by Simplify3D(R) Version 4.1.2
; Apr 2, 2020 at 4:19:14 PM
; Settings Summary
;   processName,Process1
;   applyToModels,ramp illumination V3R2,ramp illumination V3R2(2),ramp illumination V3R2(3),ramp illumination V3R2(2)(2),ramp illumination V3R2(4),ramp illumination V3R2(2)(3),ramp illumination V3R2(5),ramp illumination V3R2(2)(4),ramp illumination V3R2(6),ramp illumination V3R2(2)(5),ramp illumination V3R2(7),ramp illumination V3R2(2)(6),ramp illumination V3R2(8),ramp illumination V3R2(2)(7),ramp illumination V3R2(9),ramp illumination V3R2(2)(8),ramp illumination V3R2(10),ramp illumination V3R2(2)(9),ramp illumination V3R2(11),ramp illumination V3R2(2)(10)
;   profileName,MakerBot Replicator 2 HBP (modified)
;   profileVersion,2020-03-12 10:48:50
;   baseProfile,MakerBot Replicator 2(2)
;   printMaterial,PLA
;   printQuality,Medium
;   printExtruders,
;   extruderName,Primary Extruder
;   extruderToolheadNumber,0
;   extruderDiameter,0.4
;   extruderAutoWidth,0
;   extruderWidth,0.4
;   extrusionMultiplier,1
;   extruderUseRetract,1
;   extruderRetractionDistance,1.9
;   extruderExtraRestartDistance,0
;   extruderRetractionZLift,0.5
;   extruderRetractionSpeed,1200
;   extruderUseCoasting,0
;   extruderCoastingDistance,0.2
;   extruderUseWipe,0
;   extruderWipeDistance,5
;   primaryExtruder,0
;   layerHeight,0.2
;   topSolidLayers,3
;   bottomSolidLayers,3
;   perimeterOutlines,2
;   printPerimetersInsideOut,1
;   startPointOption,3
;   startPointOriginX,0
;   startPointOriginY,150
;   sequentialIslands,0
;   spiralVaseMode,0
;   firstLayerHeightPercentage,100
;   firstLayerWidthPercentage,115
;   firstLayerUnderspeed,0.5
;   useRaft,0
;   raftExtruder,0
;   raftTopLayers,2
;   raftBaseLayers,1
;   raftOffset,1
;   raftSeparationDistance,0.14
;   raftTopInfill,90
;   aboveRaftSpeedMultiplier,0.3
;   useSkirt,0
;   skirtExtruder,0
;   skirtLayers,1
;   skirtOutlines,5
;   skirtOffset,0
;   usePrimePillar,0
;   primePillarExtruder,999
;   primePillarWidth,12
;   primePillarLocation,7
;   primePillarSpeedMultiplier,1
;   useOozeShield,0
;   oozeShieldExtruder,999
;   oozeShieldOffset,2
;   oozeShieldOutlines,1
;   oozeShieldSidewallShape,1
;   oozeShieldSidewallAngle,30
;   oozeShieldSpeedMultiplier,1
;   infillExtruder,0
;   internalInfillPattern,Rectilinear
;   externalInfillPattern,Rectilinear
;   infillPercentage,15
;   outlineOverlapPercentage,25
;   infillExtrusionWidthPercentage,100
;   minInfillLength,5
;   infillLayerInterval,1
;   internalInfillAngles,45,-45
;   overlapInternalInfillAngles,0
;   externalInfillAngles,45,-45
;   generateSupport,1
;   supportExtruder,0
;   supportInfillPercentage,30
;   supportExtraInflation,0.5
;   supportBaseLayers,0
;   denseSupportExtruder,0
;   denseSupportLayers,2
;   denseSupportInfillPercentage,90
;   supportLayerInterval,1
;   supportHorizontalPartOffset,0.3
;   supportUpperSeparationLayers,1
;   supportLowerSeparationLayers,1
;   supportType,1
;   supportGridSpacing,2
;   maxOverhangAngle,45
;   supportAngles,45,-45
;   temperatureName,Primary Extruder,Heated Build Platform
;   temperatureNumber,0,0
;   temperatureSetpointCount,1,1
;   temperatureSetpointLayers,1,1
;   temperatureSetpointTemperatures,230,60
;   temperatureStabilizeAtStartup,1,1
;   temperatureHeatedBed,0,1
;   fanLayers,1,2
;   fanSpeeds,0,100
;   blipFanToFullPower,1
;   adjustSpeedForCooling,1
;   minSpeedLayerTime,15
;   minCoolingSpeedSlowdown,20
;   increaseFanForCooling,1
;   minFanLayerTime,45
;   maxCoolingFanSpeed,100
;   increaseFanForBridging,1
;   bridgingFanSpeed,100
;   use5D,1
;   relativeEdistances,1
;   allowEaxisZeroing,0
;   independentExtruderAxes,1
;   includeM10123,0
;   stickySupport,1
;   applyToolheadOffsets,0
;   gcodeXoffset,0
;   gcodeYoffset,0
;   gcodeZoffset,0
;   overrideMachineDefinition,1
;   machineTypeOverride,0
;   strokeXoverride,280
;   strokeYoverride,150
;   strokeZoverride,150
;   originOffsetXoverride,140
;   originOffsetYoverride,75
;   originOffsetZoverride,0
;   homeXdirOverride,1
;   homeYdirOverride,1
;   homeZdirOverride,-1
;   flipXoverride,1
;   flipYoverride,-1
;   flipZoverride,1
;   toolheadOffsets,0,0|0,0|0,0|0,0|0,0|0,0
;   overrideFirmwareConfiguration,1
;   firmwareTypeOverride,MakerBot/Sailfish Firmware
;   GPXconfigOverride,r2h
;   baudRateOverride,115200
;   overridePrinterModels,1
;   printerModelsOverride,MakerBot_Replicator2.stl
;   startingGcode,; **** Replicator 2 start.gcode ****,M73 P0 ; enable build progress,G162 X Y F3000 ; home XY maximum,G161 Z F1200 ; home Z minimum,G92 Z-5 ; set Z to -5,G1 Z0 ; move Z to 0,G161 Z F100 ; home Z slowly,M132 X Y Z A B ; recall home offsets,G1 X-145 Y-75 Z30 F9000 ; move to wait position off table,G130 X20 Y20 Z20 A20 B20 ; lower stepper Vrefs while heating,M126 S[fan_speed_pwm],M140 S[bed0_temperature] T0,M134 T0 ; stabilize bed temperature,M104 S[extruder0_temperature] T0,M133 T0 ; stabilize extruder temperature,G130 X127 Y127 Z40 A127 B127 ; default stepper Vrefs,G92 A0 ; zero extruder,G1 Z0.4 ; position nozzle,G1 E25 F300 ; purge nozzle,G1 X-140 Y-70 Z0.15 F1200 ; slow wipe,G1 X-135 Y-65 Z0.5 F1200 ; lift,G92 A0 ; zero extruder,M73 P1 ;@body (notify GPX body has started),; **** end of start.gcode ****
;   layerChangeGcode,
;   retractionGcode,
;   toolChangeGcode,
;   endingGcode,; **** Replicator 2 end.gcode ****,M73 P100 ; end build progress,G1 Z155 F1000 ; send Z axis to bottom of machine,M104 S0 T0 ; cool down extruder,M140 S0 T0 ; cool down HBP,M127 ; stop blower fan,G162 X Y F3000 ; home XY maximum,M18 ; disable stepper,M0 ; stop codes,M72 P1 ; play Ta-Da song,; **** end of end.gcode ****
;   exportFileFormat,gcode
;   celebration,0
;   celebrationSong,Random Song
;   postProcessing,
;   defaultSpeed,4800
;   outlineUnderspeed,0.5
;   solidInfillUnderspeed,1
;   supportUnderspeed,1
;   rapidXYspeed,9000
;   rapidZspeed,1200
;   minBridgingArea,50
;   bridgingExtraInflation,0
;   bridgingExtrusionMultiplier,1
;   bridgingSpeedMultiplier,0.8
;   useFixedBridgingAngle,0
;   fixedBridgingAngle,0
;   applyBridgingToPerimeters,0
;   filamentDiameters,1.75|1.75|1.75|1.75|1.75|1.75
;   filamentPricesPerKg,46|46|46|46|46|46
;   filamentDensities,1.25|1.25|1.25|1.25|1.25|1.25
;   useMinPrintHeight,0
;   minPrintHeight,0
;   useMaxPrintHeight,0
;   maxPrintHeight,4.84
;   useDiaphragm,0
;   diaphragmLayerInterval,20
;   robustSlicing,1
;   mergeAllIntoSolid,0
;   onlyRetractWhenCrossingOutline,0
;   retractBetweenLayers,0
;   useRetractionMinTravel,1
;   retractionMinTravel,7
;   retractWhileWiping,1
;   onlyWipeOutlines,1
;   avoidCrossingOutline,0
;   maxMovementDetourFactor,3
;   toolChangeRetractionDistance,12
;   toolChangeExtraRestartDistance,-0.5
;   toolChangeRetractionSpeed,600
;   externalThinWallType,0
;   internalThinWallType,0
;   thinWallAllowedOverlapPercentage,10
;   singleExtrusionMinLength,1
;   singleExtrusionMinPrintingWidthPercentage,50
;   singleExtrusionMaxPrintingWidthPercentage,200
;   singleExtrusionEndpointExtension,0.2
;   horizontalSizeCompensation,0
G90
M83
; **** Replicator 2 start.gcode ****
M73 P0 ; enable build progress
G162 X Y F3000 ; home XY maximum
G161 Z F1200 ; home Z minimum
G92 Z-5 ; set Z to -5
G1 Z0 ; move Z to 0
G161 Z F100 ; home Z slowly
M132 X Y Z A B ; recall home offsets
G1 X-145 Y-75 Z30 F9000 ; move to wait position off table
G130 X20 Y20 Z20 A20 B20 ; lower stepper Vrefs while heating
M127
M140 S60 T0
M134 T0 ; stabilize bed temperature
M104 S230 T0
M133 T0 ; stabilize extruder temperature
G130 X127 Y127 Z40 A127 B127 ; default stepper Vrefs
G92 A0 ; zero extruder
G1 Z0.4 ; position nozzle
G1 E25 F300 ; purge nozzle
G1 X-140 Y-70 Z0.15 F1200 ; slow wipe
G1 X-135 Y-65 Z0.5 F1200 ; lift
G92 A0 ; zero extruder
M73 P1 ;@body (notify GPX body has started)
; **** end of start.gcode ****
; process Process1
; layer 1, Z = 0.200
M135 T0
G1 E-1.9000 F1200
; feature inner perimeter
; tool H0.200 W0.460
G1 Z0.500 F1200
G1 X11.810 Y11.810 F9000
G1 Z0.200 F1200
G1 E1.9000 F1200
G1 X-11.810 Y11.810 E0.9034 F1800
G1 X-11.810 Y-11.810 E0.9034
G1 X11.810 Y-11.810 E0.9034
G1 X11.810 Y11.810 E0.9034
; feature outer perimeter
G1 X12.270 Y12.270 F9000
G1 X-12.270 Y12.270 E0.9386 F1200
G1 X-12.270 Y-12.270 E0.9386
G1 X12.270 Y-12.270 E0.9386
G1 X12.270 Y12.270 E0.9386
G1 E-1.9000 F1200
; feature solid layer
G1 Z0.700 F1200
G1 X-11.304 Y11.465 F9000
G1 Z0.200 F1200
G1 E1.9000 F1200
G1 X-11.465 Y11.304 E0.0087 F2400
G1 X-11.465 Y10.653 E0.0249
G1 X-10.653 Y11.465 E0.0439
G1 X-10.003 Y11.465 E0.0249
G1 X-11.465 Y10.003 E0.0791
G1 X-11.465 Y9.352 E0.0249
G1 X-9.352 Y11.465 E0.1143
G1 X-8.702 Y11.465 E0.0249
G1 X-11.465 Y8.702 E0.1495
G1 X-11.465 Y8.051 E0.0249
G1 X-8.051 Y11.465 E0.1847
G1 X-7.401 Y11.465 E0.0249
G1 X-11.465 Y7.401 E0.2199
G1 X-11.465 Y6.750 E0.0249
G1 X-6.750 Y11.465 E0.2550
G1 X-6.100 Y11.465 E0.0249
G1 X-11.465 Y6.100 E0.2902
G1 X-11.465 Y5.449 E0.0249
G1 X-5.449 Y11.465 E0.3254
G1 X-4.798 Y11.465 E0.0249
G1 X-11.465 Y4.798 E0.3606
G1 X-11.465 Y4.148 E0.0249
G1 X-4.148 Y11.465 E0.3958
G1 X-3.497 Y11.465 E0.0249
G1 X-11.465 Y3.497 E0.4310
G1 X-11.465 Y2.847 E0.0249
G1 X-2.847 Y11.465 E0.4662
G1 X-2.196 Y11.465 E0.0249
G1 X-11.465 Y2.196 E0.5014
G1 X-11.465 Y1.546 E0.0249
G1 X-1.546 Y11.465 E0.5366
G1 X-0.895 Y11.465 E0.0249
G1 X-11.465 Y0.895 E0.5717
G1 X-11.465 Y0.245 E0.0249
G1 X-0.245 Y11.465 E0.6069
G1 X0.406 Y11.465 E0.0249
G1 X-11.465 Y-0.406 E0.6421
G1 X-11.465 Y-1.056 E0.0249
G1 X1.056 Y11.465 E0.6773
G1 X1.707 Y11.465 E0.0249
G1 X-11.465 Y-1.707 E0.7125
G1 X-11.465 Y-2.357 E0.0249
G1 X2.357 Y11.465 E0.7477
G1 X3.008 Y11.465 E0.0249
G1 X-11.465 Y-3.008 E0.7829
G1 X-11.465 Y-3.659 E0.0249
G1 X3.659 Y11.465 E0.8181
G1 X4.309 Y11.465 E0.0249
G1 X-11.465 Y-4.309 E0.8533
G1 X-11.465 Y-4.960 E0.0249
G1 X4.960 Y11.465 E0.8884
G1 X5.610 Y11.465 E0.0249
G1 X-11.465 Y-5.610 E0.9236
G1 X-11.465 Y-6.261 E0.0249
G1 X6.261 Y11.465 E0.9588
G1 X6.911 Y11.465 E0.0249
G1 X-11.465 Y-6.911 E0.9940
G1 X-11.465 Y-7.562 E0.0249
G1 X7.562 Y11.465 E1.0292
G1 X8.212 Y11.465 E0.0249
G1 X-11.465 Y-8.212 E1.0644
G1 X-11.465 Y-8.863 E0.0249
G1 X8.863 Y11.465 E1.0996
G1 X9.513 Y11.465 E0.0249
G1 X-11.465 Y-9.513 E1.1348
G1 X-11.465 Y-10.164 E0.0249
G1 X10.164 Y11.465 E1.1700
G1 X10.814 Y11.465 E0.0249
G1 X-11.465 Y-10.814 E1.2052
G1 X-11.465 Y-11.465 E0.0249
G1 X11.465 Y11.465 E1.2403
G1 X11.465 Y10.814 E0.0249
G1 X-10.814 Y-11.465 E1.2052
G1 X-10.164 Y-11.465 E0.0249
G1 X11.465 Y10.164 E1.1700
G1 X11.465 Y9.513 E0.0249
G1 X-9.513 Y-11.465 E1.1348
G1 X-8.863 Y-11.465 E0.0249
G1 X11.465 Y8.863 E1.0996
G1 X11.465 Y8.212 E0.0249
G1 X-8.212 Y-11.465 E1.0644
G1 X-7.562 Y-11.465 E0.0249
G1 X11.465 Y7.562 E1.0292
G1 X11.465 Y6.911 E0.0249
G1 X-6.911 Y-11.465 E0.9940
G1 X-6.261 Y-11.465 E0.0249
G1 X11.465 Y6.261 E0.9588
G1 X11.465 Y5.610 E0.0249
G1 X-5.610 Y-11.465 E0.9236
G1 X-4.960 Y-11.465 E0.0249
G1 X11.465 Y4.960 E0.8884
G1 X11.465 Y4.309 E0.0249
G1 X-4.309 Y-11.465 E0.8533
G1 X-3.659 Y-11.465 E0.0249
G1 X11.465 Y3.659 E0.8181
G1 X11.465 Y3.008 E0.0249
G1 X-3.008 Y-11.465 E0.7829
G1 X-2.357 Y-11.465 E0.0249
G1 X11.465 Y2.357 E0.7477
G1 X11.465 Y1.707 E0.0249
G1 X-1.707 Y-11.465 E0.7125
G1 X-1.056 Y-11.465 E0.0249
G1 X11.465 Y1.056 E0.6773
G1 X11.465 Y0.406 E0.0249
G1 X-0.406 Y-11.465 E0.6421
G1 X0.245 Y-11.465 E0.0249
G1 X11.465 Y-0.245 E0.6069
G1 X11.465 Y-0.895 E0.0249
G1 X0.895 Y-11.465 E0.5717
G1 X1.546 Y-11.465 E0.0249
G1 X11.465 Y-1.546 E0.5366
G1 X11.465 Y-2.196 E0.0249
G1 X2.196 Y-11.465 E0.5014
G1 X2.847 Y-11.465 E0.0249
G1 X11.465 Y-2.847 E0.4662
G1 X11.465 Y-3.497 E0.0249
G1 X3.497 Y-11.465 E0.4310
G1 X4.148 Y-11.465 E0.0249
G1 X11.465 Y-4.148 E0.3958
G1 X11.465 Y-4.798 E0.0249
G1 X4.798 Y-11.465 E0.3606
G1 X5.449 Y-11.465 E0.0249
G1 X11.465 Y-5.449 E0.3254
G1 X11.465 Y-6.100 E0.0249
G1 X6.100 Y-11.465 E0.2902
G1 X6.750 Y-11.465 E0.0249
G1 X11.465 Y-6.750 E0.2550
G1 X11.465 Y-7.401 E0.0249
G1 X7.401 Y-11.465 E0.2199
G1 X8.051 Y-11.465 E0.0249
G1 X11.465 Y-8.051 E0.1847
G1 X11.465 Y-8.702 E0.0249
G1 X8.702 Y-11.465 E0.1495
G1 X9.352 Y-11.465 E0.0249
G1 X11.465 Y-9.352 E0.1143
G1 X11.465 Y-10.003 E0.0249
G1 X10.003 Y-11.465 E0.0791
G1 X10.653 Y-11.465 E0.0249
G1 X11.465 Y-10.653 E0.0439
G1 X11.465 Y-11.304 E0.0249
G1 X11.304 Y-11.465 E0.0087
; feature inner perimeter
G1 X11.810 Y-18.190 F9000
G1 X-11.810 Y-18.190 E0.9034 F1800
G1 X-11.810 Y-41.810 E0.9034
G1 X11.810 Y-41.810 E0.9034
G1 X11.810 Y-18.190 E0.9034
; feature outer perimeter
G1 X12.270 Y-17.730 F9000
G1 X-12.270 Y-17.730 E0.9386 F1200
G1 X-12.270 Y-42.270 E0.9386
G1 X12.270 Y-42.270 E0.9386
G1 X12.270 Y-17.730 E0.9386
G1 E-1.9000 F1200
; feature solid layer
G1 Z0.700 F1200
G1 X-11.379 Y-18.535 F9000
G1 Z0.200 F1200
G1 E1.9000 F1200
G1 X-11.465 Y-18.621 E0.0046 F2400
G1 X-11.465 Y-19.271 E0.0249
G1 X-10.729 Y-18.535 E0.0398
G1 X-10.078 Y-18.535 E0.0249
G1 X-11.465 Y-19.922 E0.0750
G1 X-11.465 Y-20.573 E0.0249
G1 X-9.427 Y-18.535 E0.1102
G1 X-8.777 Y-18.535 E0.0249
G1 X-11.465 Y-21.223 E0.1454
G1 X-11.465 Y-21.874 E0.0249
G1 X-8.126 Y-18.535 E0.1806
G1 X-7.476 Y-18.535 E0.0249
G1 X-11.465 Y-22.524 E0.2158
G1 X-11.465 Y-23.175 E0.0249
G1 X-6.825 Y-18.535 E0.2510
G1 X-6.175 Y-18.535 E0.0249
G1 X-11.465 Y-23.825 E0.2862
G1 X-11.465 Y-24.476 E0.0249
G1 X-5.524 Y-18.535 E0.3214
G1 X-4.874 Y-18.535 E0.0249
G1 X-11.465 Y-25.126 E0.3565
G1 X-11.465 Y-25.777 E0.0249
G1 X-4.223 Y-18.535 E0.3917
G1 X-3.573 Y-18.535 E0.0249
G1 X-11.465 Y-26.427 E0.4269
G1 X-11.465 Y-27.078 E0.0249
G1 X-2.922 Y-18.535 E0.4621
G1 X-2.272 Y-18.535 E0.0249
G1 X-11.465 Y-27.728 E0.4973
G1 X-11.465 Y-28.379 E0.0249
G1 X-1.621 Y-18.535 E0.5325
G1 X-0.970 Y-18.535 E0.0249
G1 X-11.465 Y-29.030 E0.5677
G1 X-11.465 Y-29.680 E0.0249
G1 X-0.320 Y-18.535 E0.6029
G1 X0.331 Y-18.535 E0.0249
G1 X-11.465 Y-30.331 E0.6381
G1 X-11.465 Y-30.981 E0.0249
G1 X0.981 Y-18.535 E0.6732
G1 X1.632 Y-18.535 E0.0249
G1 X-11.465 Y-31.632 E0.7084
G1 X-11.465 Y-32.282 E0.0249
G1 X2.282 Y-18.535 E0.7436
G1 X2.933 Y-18.535 E0.0249
G1 X-11.465 Y-32.933 E0.7788
G1 X-11.465 Y-33.583 E0.0249
G1 X3.583 Y-18.535 E0.8140
G1 X4.234 Y-18.535 E0.0249
G1 X-11.465 Y-34.234 E0.8492
G1 X-11.465 Y-34.884 E0.0249
G1 X4.884 Y-18.535 E0.8844
G1 X5.535 Y-18.535 E0.0249
G1 X-11.465 Y-35.535 E0.9196
G1 X-11.465 Y-36.185 E0.0249
G1 X6.185 Y-18.535 E0.9548
G1 X6.836 Y-18.535 E0.0249
G1 X-11.465 Y-36.836 E0.9899
G1 X-11.465 Y-37.487 E0.0249
G1 X7.487 Y-18.535 E1.0251
G1 X8.137 Y-18.535 E0.0249
G1 X-11.465 Y-38.137 E1.0603
G1 X-11.465 Y-38.788 E0.0249
G1 X8.788 Y-18.535 E1.0955
G1 X9.438 Y-18.535 E0.0249
G1 X-11.465 Y-39.438 E1.1307
G1 X-11.465 Y-40.089 E0.0249
G1 X10.089 Y-18.535 E1.1659
G1 X10.739 Y-18.535 E0.0249
G1 X-11.465 Y-40.739 E1.2011
G1 X-11.465 Y-41.390 E0.0249
G1 X11.390 Y-18.535 E1.2363
G1 X11.465 Y-18.535 E0.0029
G1 X11.465 Y-19.110 E0.0220
G1 X-10.890 Y-41.465 E1.2092
G1 X-10.239 Y-41.465 E0.0249
G1 X11.465 Y-19.761 E1.1740
G1 X11.465 Y-20.411 E0.0249
G1 X-9.589 Y-41.465 E1.1388
G1 X-8.938 Y-41.465 E0.0249
G1 X11.465 Y-21.062 E1.1037
G1 X11.465 Y-21.712 E0.0249
G1 X-8.288 Y-41.465 E1.0685
G1 X-7.637 Y-41.465 E0.0249
G1 X11.465 Y-22.363 E1.0333
G1 X11.465 Y-23.014 E0.0249
G1 X-6.986 Y-41.465 E0.9981
G1 X-6.336 Y-41.465 E0.0249
G1 X11.465 Y-23.664 E0.9629
G1 X11.465 Y-24.315 E0.0249
G1 X-5.685 Y-41.465 E0.9277
G1 X-5.035 Y-41.465 E0.0249
G1 X11.465 Y-24.965 E0.8925
G1 X11.465 Y-25.616 E0.0249
G1 X-4.384 Y-41.465 E0.8573
G1 X-3.734 Y-41.465 E0.0249
G1 X11.465 Y-26.266 E0.8221
G1 X11.465 Y-26.917 E0.0249
G1 X-3.083 Y-41.465 E0.7869
G1 X-2.433 Y-41.465 E0.0249
G1 X11.465 Y-27.567 E0.7518
G1 X11.465 Y-28.218 E0.0249
G1 X-1.782 Y-41.465 E0.7166
G1 X-1.132 Y-41.465 E0.0249
G1 X11.465 Y-28.868 E0.6814
G1 X11.465 Y-29.519 E0.0249
G1 X-0.481 Y-41.465 E0.6462
G1 X0.169 Y-41.465 E0.0249
G1 X11.465 Y-30.169 E0.6110
G1 X11.465 Y-30.820 E0.0249
G1 X0.820 Y-41.465 E0.5758
G1 X1.471 Y-41.465 E0.0249
G1 X11.465 Y-31.471 E0.5406
G1 X11.465 Y-32.121 E0.0249
G1 X2.121 Y-41.465 E0.5054
G1 X2.772 Y-41.465 E0.0249
G1 X11.465 Y-32.772 E0.4702
