; G-Code generated by Simplify3D(R) Version 4.1.2
; Apr 2, 2020 at 4:18:25 PM
; Settings Summary
;   processName,Process1
;   applyToModels,ramp illumination V3R2,ramp illumination V3R2(2),ramp illumination V3R2(3),ramp illumination V3R2(2)(2),ramp illumination V3R2(4),ramp illumination V3R2(2)(3),ramp illumination V3R2(5),ramp illumination V3R2(2)(4)
;   profileName,MakerBot Replicator 2 HBP (modified)
;   profileVersion,2020-03-12 10:48:50
;   baseProfile,MakerBot Replicator 2(2)
;   printMaterial,PLA
;   printQuality,Medium
;   printExtruders,
;   extruderName,Primary Extruder
;   extruderToolheadNumber,0
;   extruderDiameter,0.4
;   extruderAutoWidth,0
;   extruderWidth,0.4
;   extrusionMultiplier,1
;   extruderUseRetract,1
;   extruderRetractionDistance,1.9
;   extruderExtraRestartDistance,0
;   extruderRetractionZLift,0.5
;   extruderRetractionSpeed,1200
;   extruderUseCoasting,0
;   extruderCoastingDistance,0.2
;   extruderUseWipe,0
;   extruderWipeDistance,5
;   primaryExtruder,0
;   layerHeight,0.2
;   topSolidLayers,3
;   bottomSolidLayers,3
;   perimeterOutlines,2
;   printPerimetersInsideOut,1
;   startPointOption,3
;   startPointOriginX,0
;   startPointOriginY,150
;   sequentialIslands,0
;   spiralVaseMode,0
;   firstLayerHeightPercentage,100
;   firstLayerWidthPercentage,115
;   firstLayerUnderspeed,0.5
;   useRaft,0
;   raftExtruder,0
;   raftTopLayers,2
;   raftBaseLayers,1
;   raftOffset,1
;   raftSeparationDistance,0.14
;   raftTopInfill,90
;   aboveRaftSpeedMultiplier,0.3
;   useSkirt,0
;   skirtExtruder,0
;   skirtLayers,1
;   skirtOutlines,5
;   skirtOffset,0
;   usePrimePillar,0
;   primePillarExtruder,999
;   primePillarWidth,12
;   primePillarLocation,7
;   primePillarSpeedMultiplier,1
;   useOozeShield,0
;   oozeShieldExtruder,999
;   oozeShieldOffset,2
;   oozeShieldOutlines,1
;   oozeShieldSidewallShape,1
;   oozeShieldSidewallAngle,30
;   oozeShieldSpeedMultiplier,1
;   infillExtruder,0
;   internalInfillPattern,Rectilinear
;   externalInfillPattern,Rectilinear
;   infillPercentage,15
;   outlineOverlapPercentage,25
;   infillExtrusionWidthPercentage,100
;   minInfillLength,5
;   infillLayerInterval,1
;   internalInfillAngles,45,-45
;   overlapInternalInfillAngles,0
;   externalInfillAngles,45,-45
;   generateSupport,1
;   supportExtruder,0
;   supportInfillPercentage,30
;   supportExtraInflation,0.5
;   supportBaseLayers,0
;   denseSupportExtruder,0
;   denseSupportLayers,2
;   denseSupportInfillPercentage,90
;   supportLayerInterval,1
;   supportHorizontalPartOffset,0.3
;   supportUpperSeparationLayers,1
;   supportLowerSeparationLayers,1
;   supportType,1
;   supportGridSpacing,2
;   maxOverhangAngle,45
;   supportAngles,45,-45
;   temperatureName,Primary Extruder,Heated Build Platform
;   temperatureNumber,0,0
;   temperatureSetpointCount,1,1
;   temperatureSetpointLayers,1,1
;   temperatureSetpointTemperatures,230,60
;   temperatureStabilizeAtStartup,1,1
;   temperatureHeatedBed,0,1
;   fanLayers,1,2
;   fanSpeeds,0,100
;   blipFanToFullPower,1
;   adjustSpeedForCooling,1
;   minSpeedLayerTime,15
;   minCoolingSpeedSlowdown,20
;   increaseFanForCooling,1
;   minFanLayerTime,45
;   maxCoolingFanSpeed,100
;   increaseFanForBridging,1
;   bridgingFanSpeed,100
;   use5D,1
;   relativeEdistances,1
;   allowEaxisZeroing,0
;   independentExtruderAxes,1
;   includeM10123,0
;   stickySupport,1
;   applyToolheadOffsets,0
;   gcodeXoffset,0
;   gcodeYoffset,0
;   gcodeZoffset,0
;   overrideMachineDefinition,1
;   machineTypeOverride,0
;   strokeXoverride,280
;   strokeYoverride,150
;   strokeZoverride,150
;   originOffsetXoverride,140
;   originOffsetYoverride,75
;   originOffsetZoverride,0
;   homeXdirOverride,1
;   homeYdirOverride,1
;   homeZdirOverride,-1
;   flipXoverride,1
;   flipYoverride,-1
;   flipZoverride,1
;   toolheadOffsets,0,0|0,0|0,0|0,0|0,0|0,0
;   overrideFirmwareConfiguration,1
;   firmwareTypeOverride,MakerBot/Sailfish Firmware
;   GPXconfigOverride,r2h
;   baudRateOverride,115200
;   overridePrinterModels,1
;   printerModelsOverride,MakerBot_Replicator2.stl
;   startingGcode,; **** Replicator 2 start.gcode ****,M73 P0 ; enable build progress,G162 X Y F3000 ; home XY maximum,G161 Z F1200 ; home Z minimum,G92 Z-5 ; set Z to -5,G1 Z0 ; move Z to 0,G161 Z F100 ; home Z slowly,M132 X Y Z A B ; recall home offsets,G1 X-145 Y-75 Z30 F9000 ; move to wait position off table,G130 X20 Y20 Z20 A20 B20 ; lower stepper Vrefs while heating,M126 S[fan_speed_pwm],M140 S[bed0_temperature] T0,M134 T0 ; stabilize bed temperature,M104 S[extruder0_temperature] T0,M133 T0 ; stabilize extruder temperature,G130 X127 Y127 Z40 A127 B127 ; default stepper Vrefs,G92 A0 ; zero extruder,G1 Z0.4 ; position nozzle,G1 E25 F300 ; purge nozzle,G1 X-140 Y-70 Z0.15 F1200 ; slow wipe,G1 X-135 Y-65 Z0.5 F1200 ; lift,G92 A0 ; zero extruder,M73 P1 ;@body (notify GPX body has started),; **** end of start.gcode ****
;   layerChangeGcode,
;   retractionGcode,
;   toolChangeGcode,
;   endingGcode,; **** Replicator 2 end.gcode ****,M73 P100 ; end build progress,G1 Z155 F1000 ; send Z axis to bottom of machine,M104 S0 T0 ; cool down extruder,M140 S0 T0 ; cool down HBP,M127 ; stop blower fan,G162 X Y F3000 ; home XY maximum,M18 ; disable stepper,M0 ; stop codes,M72 P1 ; play Ta-Da song,; **** end of end.gcode ****
;   exportFileFormat,gcode
;   celebration,0
;   celebrationSong,Random Song
;   postProcessing,
;   defaultSpeed,4800
;   outlineUnderspeed,0.5
;   solidInfillUnderspeed,1
;   supportUnderspeed,1
;   rapidXYspeed,9000
;   rapidZspeed,1200
;   minBridgingArea,50
;   bridgingExtraInflation,0
;   bridgingExtrusionMultiplier,1
;   bridgingSpeedMultiplier,0.8
;   useFixedBridgingAngle,0
;   fixedBridgingAngle,0
;   applyBridgingToPerimeters,0
;   filamentDiameters,1.75|1.75|1.75|1.75|1.75|1.75
;   filamentPricesPerKg,46|46|46|46|46|46
;   filamentDensities,1.25|1.25|1.25|1.25|1.25|1.25
;   useMinPrintHeight,0
;   minPrintHeight,0
;   useMaxPrintHeight,0
;   maxPrintHeight,4.84
;   useDiaphragm,0
;   diaphragmLayerInterval,20
;   robustSlicing,1
;   mergeAllIntoSolid,0
;   onlyRetractWhenCrossingOutline,0
;   retractBetweenLayers,0
;   useRetractionMinTravel,1
;   retractionMinTravel,7
;   retractWhileWiping,1
;   onlyWipeOutlines,1
;   avoidCrossingOutline,0
;   maxMovementDetourFactor,3
;   toolChangeRetractionDistance,12
;   toolChangeExtraRestartDistance,-0.5
;   toolChangeRetractionSpeed,600
;   externalThinWallType,0
;   internalThinWallType,0
;   thinWallAllowedOverlapPercentage,10
;   singleExtrusionMinLength,1
;   singleExtrusionMinPrintingWidthPercentage,50
;   singleExtrusionMaxPrintingWidthPercentage,200
;   singleExtrusionEndpointExtension,0.2
;   horizontalSizeCompensation,0
G90
M83
; **** Replicator 2 start.gcode ****
M73 P0 ; enable build progress
G162 X Y F3000 ; home XY maximum
G161 Z F1200 ; home Z minimum
G92 Z-5 ; set Z to -5
G1 Z0 ; move Z to 0
G161 Z F100 ; home Z slowly
M132 X Y Z A B ; recall home offsets
G1 X-145 Y-75 Z30 F9000 ; move to wait position off table
G130 X20 Y20 Z20 A20 B20 ; lower stepper Vrefs while heating
M127
M140 S60 T0
M134 T0 ; stabilize bed temperature
M104 S230 T0
M133 T0 ; stabilize extruder temperature
G130 X127 Y127 Z40 A127 B127 ; default stepper Vrefs
G92 A0 ; zero extruder
G1 Z0.4 ; position nozzle
G1 E25 F300 ; purge nozzle
G1 X-140 Y-70 Z0.15 F1200 ; slow wipe
G1 X-135 Y-65 Z0.5 F1200 ; lift
G92 A0 ; zero extruder
M73 P1 ;@body (notify GPX body has started)
; **** end of start.gcode ****
; process Process1
; layer 1, Z = 0.200
M135 T0
G1 E-1.9000 F1200
; feature inner perimeter
; tool H0.200 W0.460
G1 Z0.500 F1200
G1 X-3.190 Y26.810 F9000
G1 Z0.200 F1200
G1 E1.9000 F1200
G1 X-26.810 Y26.810 E0.9034 F1800
G1 X-26.810 Y3.190 E0.9034
G1 X-3.190 Y3.190 E0.9034
G1 X-3.190 Y26.810 E0.9034
; feature outer perimeter
G1 X-2.730 Y27.270 F9000
G1 X-27.270 Y27.270 E0.9386 F1200
G1 X-27.270 Y2.730 E0.9386
G1 X-2.730 Y2.730 E0.9386
G1 X-2.730 Y27.270 E0.9386
G1 E-1.9000 F1200
; feature solid layer
G1 Z0.700 F1200
G1 X-26.229 Y26.465 F9000
G1 Z0.200 F1200
G1 E1.9000 F1200
G1 X-26.465 Y26.229 E0.0128 F2400
G1 X-26.465 Y25.578 E0.0249
G1 X-25.578 Y26.465 E0.0480
G1 X-24.928 Y26.465 E0.0249
G1 X-26.465 Y24.928 E0.0832
G1 X-26.465 Y24.277 E0.0249
G1 X-24.277 Y26.465 E0.1184
G1 X-23.626 Y26.465 E0.0249
G1 X-26.465 Y23.626 E0.1535
G1 X-26.465 Y22.976 E0.0249
G1 X-22.976 Y26.465 E0.1887
G1 X-22.325 Y26.465 E0.0249
G1 X-26.465 Y22.325 E0.2239
G1 X-26.465 Y21.675 E0.0249
G1 X-21.675 Y26.465 E0.2591
G1 X-21.024 Y26.465 E0.0249
G1 X-26.465 Y21.024 E0.2943
G1 X-26.465 Y20.374 E0.0249
G1 X-20.374 Y26.465 E0.3295
G1 X-19.723 Y26.465 E0.0249
G1 X-26.465 Y19.723 E0.3647
G1 X-26.465 Y19.073 E0.0249
G1 X-19.073 Y26.465 E0.3999
G1 X-18.422 Y26.465 E0.0249
G1 X-26.465 Y18.422 E0.4351
G1 X-26.465 Y17.772 E0.0249
G1 X-17.772 Y26.465 E0.4702
G1 X-17.121 Y26.465 E0.0249
G1 X-26.465 Y17.121 E0.5054
G1 X-26.465 Y16.471 E0.0249
G1 X-16.471 Y26.465 E0.5406
G1 X-15.820 Y26.465 E0.0249
G1 X-26.465 Y15.820 E0.5758
G1 X-26.465 Y15.169 E0.0249
G1 X-15.169 Y26.465 E0.6110
G1 X-14.519 Y26.465 E0.0249
G1 X-26.465 Y14.519 E0.6462
G1 X-26.465 Y13.868 E0.0249
G1 X-13.868 Y26.465 E0.6814
G1 X-13.218 Y26.465 E0.0249
G1 X-26.465 Y13.218 E0.7166
G1 X-26.465 Y12.567 E0.0249
G1 X-12.567 Y26.465 E0.7518
G1 X-11.917 Y26.465 E0.0249
G1 X-26.465 Y11.917 E0.7870
G1 X-26.465 Y11.266 E0.0249
G1 X-11.266 Y26.465 E0.8221
G1 X-10.616 Y26.465 E0.0249
G1 X-26.465 Y10.616 E0.8573
G1 X-26.465 Y9.965 E0.0249
G1 X-9.965 Y26.465 E0.8925
G1 X-9.315 Y26.465 E0.0249
G1 X-26.465 Y9.315 E0.9277
G1 X-26.465 Y8.664 E0.0249
G1 X-8.664 Y26.465 E0.9629
G1 X-8.014 Y26.465 E0.0249
G1 X-26.465 Y8.014 E0.9981
G1 X-26.465 Y7.363 E0.0249
G1 X-7.363 Y26.465 E1.0333
G1 X-6.712 Y26.465 E0.0249
G1 X-26.465 Y6.712 E1.0685
G1 X-26.465 Y6.062 E0.0249
G1 X-6.062 Y26.465 E1.1037
G1 X-5.411 Y26.465 E0.0249
G1 X-26.465 Y5.411 E1.1388
G1 X-26.465 Y4.761 E0.0249
G1 X-4.761 Y26.465 E1.1740
G1 X-4.110 Y26.465 E0.0249
G1 X-26.465 Y4.110 E1.2092
G1 X-26.465 Y3.535 E0.0220
G1 X-26.390 Y3.535 E0.0029
G1 X-3.535 Y26.390 E1.2363
G1 X-3.535 Y25.739 E0.0249
G1 X-25.739 Y3.535 E1.2011
G1 X-25.089 Y3.535 E0.0249
G1 X-3.535 Y25.089 E1.1659
G1 X-3.535 Y24.438 E0.0249
G1 X-24.438 Y3.535 E1.1307
G1 X-23.788 Y3.535 E0.0249
G1 X-3.535 Y23.788 E1.0955
G1 X-3.535 Y23.137 E0.0249
G1 X-23.137 Y3.535 E1.0603
G1 X-22.487 Y3.535 E0.0249
G1 X-3.535 Y22.487 E1.0251
G1 X-3.535 Y21.836 E0.0249
G1 X-21.836 Y3.535 E0.9899
G1 X-21.185 Y3.535 E0.0249
G1 X-3.535 Y21.185 E0.9548
G1 X-3.535 Y20.535 E0.0249
G1 X-20.535 Y3.535 E0.9196
G1 X-19.884 Y3.535 E0.0249
G1 X-3.535 Y19.884 E0.8844
G1 X-3.535 Y19.234 E0.0249
G1 X-19.234 Y3.535 E0.8492
G1 X-18.583 Y3.535 E0.0249
G1 X-3.535 Y18.583 E0.8140
G1 X-3.535 Y17.933 E0.0249
G1 X-17.933 Y3.535 E0.7788
G1 X-17.282 Y3.535 E0.0249
G1 X-3.535 Y17.282 E0.7436
G1 X-3.535 Y16.632 E0.0249
G1 X-16.632 Y3.535 E0.7084
G1 X-15.981 Y3.535 E0.0249
G1 X-3.535 Y15.981 E0.6732
G1 X-3.535 Y15.331 E0.0249
G1 X-15.331 Y3.535 E0.6381
G1 X-14.680 Y3.535 E0.0249
G1 X-3.535 Y14.680 E0.6029
G1 X-3.535 Y14.030 E0.0249
G1 X-14.030 Y3.535 E0.5677
G1 X-13.379 Y3.535 E0.0249
G1 X-3.535 Y13.379 E0.5325
G1 X-3.535 Y12.728 E0.0249
G1 X-12.728 Y3.535 E0.4973
G1 X-12.078 Y3.535 E0.0249
G1 X-3.535 Y12.078 E0.4621
G1 X-3.535 Y11.427 E0.0249
G1 X-11.427 Y3.535 E0.4269
G1 X-10.777 Y3.535 E0.0249
G1 X-3.535 Y10.777 E0.3917
G1 X-3.535 Y10.126 E0.0249
G1 X-10.126 Y3.535 E0.3565
G1 X-9.476 Y3.535 E0.0249
G1 X-3.535 Y9.476 E0.3213
G1 X-3.535 Y8.825 E0.0249
G1 X-8.825 Y3.535 E0.2862
G1 X-8.175 Y3.535 E0.0249
G1 X-3.535 Y8.175 E0.2510
G1 X-3.535 Y7.524 E0.0249
G1 X-7.524 Y3.535 E0.2158
G1 X-6.874 Y3.535 E0.0249
G1 X-3.535 Y6.874 E0.1806
G1 X-3.535 Y6.223 E0.0249
G1 X-6.223 Y3.535 E0.1454
G1 X-5.573 Y3.535 E0.0249
G1 X-3.535 Y5.573 E0.1102
G1 X-3.535 Y4.922 E0.0249
G1 X-4.922 Y3.535 E0.0750
G1 X-4.271 Y3.535 E0.0249
G1 X-3.535 Y4.271 E0.0398
G1 X-3.535 Y3.621 E0.0249
G1 X-3.621 Y3.535 E0.0046
; feature inner perimeter
G1 X-3.190 Y-3.190 F9000
G1 X-26.810 Y-3.190 E0.9034 F1800
G1 X-26.810 Y-26.810 E0.9034
G1 X-3.190 Y-26.810 E0.9034
G1 X-3.190 Y-3.190 E0.9034
; feature outer perimeter
G1 X-2.730 Y-2.730 F9000
G1 X-27.270 Y-2.730 E0.9386 F1200
G1 X-27.270 Y-27.270 E0.9386
G1 X-2.730 Y-27.270 E0.9386
G1 X-2.730 Y-2.730 E0.9386
G1 E-1.9000 F1200
; feature solid layer
G1 Z0.700 F1200
G1 X-26.304 Y-3.535 F9000
G1 Z0.200 F1200
G1 E1.9000 F1200
G1 X-26.465 Y-3.696 E0.0087 F2400
G1 X-26.465 Y-4.347 E0.0249
G1 X-25.653 Y-3.535 E0.0439
G1 X-25.003 Y-3.535 E0.0249
G1 X-26.465 Y-4.997 E0.0791
G1 X-26.465 Y-5.648 E0.0249
G1 X-24.352 Y-3.535 E0.1143
G1 X-23.702 Y-3.535 E0.0249
G1 X-26.465 Y-6.298 E0.1495
G1 X-26.465 Y-6.949 E0.0249
G1 X-23.051 Y-3.535 E0.1847
G1 X-22.401 Y-3.535 E0.0249
G1 X-26.465 Y-7.599 E0.2199
G1 X-26.465 Y-8.250 E0.0249
G1 X-21.750 Y-3.535 E0.2550
G1 X-21.100 Y-3.535 E0.0249
G1 X-26.465 Y-8.900 E0.2902
G1 X-26.465 Y-9.551 E0.0249
G1 X-20.449 Y-3.535 E0.3254
G1 X-19.798 Y-3.535 E0.0249
G1 X-26.465 Y-10.202 E0.3606
G1 X-26.465 Y-10.852 E0.0249
G1 X-19.148 Y-3.535 E0.3958
G1 X-18.497 Y-3.535 E0.0249
G1 X-26.465 Y-11.503 E0.4310
G1 X-26.465 Y-12.153 E0.0249
G1 X-17.847 Y-3.535 E0.4662
G1 X-17.196 Y-3.535 E0.0249
G1 X-26.465 Y-12.804 E0.5014
G1 X-26.465 Y-13.454 E0.0249
G1 X-16.546 Y-3.535 E0.5366
G1 X-15.895 Y-3.535 E0.0249
G1 X-26.465 Y-14.105 E0.5717
G1 X-26.465 Y-14.755 E0.0249
G1 X-15.245 Y-3.535 E0.6069
G1 X-14.594 Y-3.535 E0.0249
G1 X-26.465 Y-15.406 E0.6421
G1 X-26.465 Y-16.056 E0.0249
G1 X-13.944 Y-3.535 E0.6773
G1 X-13.293 Y-3.535 E0.0249
G1 X-26.465 Y-16.707 E0.7125
G1 X-26.465 Y-17.357 E0.0249
G1 X-12.643 Y-3.535 E0.7477
G1 X-11.992 Y-3.535 E0.0249
G1 X-26.465 Y-18.008 E0.7829
G1 X-26.465 Y-18.659 E0.0249
G1 X-11.341 Y-3.535 E0.8181
G1 X-10.691 Y-3.535 E0.0249
G1 X-26.465 Y-19.309 E0.8533
G1 X-26.465 Y-19.960 E0.0249
G1 X-10.040 Y-3.535 E0.8884
G1 X-9.390 Y-3.535 E0.0249
G1 X-26.465 Y-20.610 E0.9236
G1 X-26.465 Y-21.261 E0.0249
G1 X-8.739 Y-3.535 E0.9588
G1 X-8.089 Y-3.535 E0.0249
G1 X-26.465 Y-21.911 E0.9940
G1 X-26.465 Y-22.562 E0.0249
G1 X-7.438 Y-3.535 E1.0292
G1 X-6.788 Y-3.535 E0.0249
G1 X-26.465 Y-23.212 E1.0644
G1 X-26.465 Y-23.863 E0.0249
G1 X-6.137 Y-3.535 E1.0996
G1 X-5.487 Y-3.535 E0.0249
G1 X-26.465 Y-24.513 E1.1348
G1 X-26.465 Y-25.164 E0.0249
G1 X-4.836 Y-3.535 E1.1700
G1 X-4.186 Y-3.535 E0.0249
G1 X-26.465 Y-25.814 E1.2052
G1 X-26.465 Y-26.465 E0.0249
G1 X-3.535 Y-3.535 E1.2403
G1 X-3.535 Y-4.186 E0.0249
G1 X-25.814 Y-26.465 E1.2052
G1 X-25.164 Y-26.465 E0.0249
G1 X-3.535 Y-4.836 E1.1700
G1 X-3.535 Y-5.487 E0.0249
G1 X-24.513 Y-26.465 E1.1348
G1 X-23.863 Y-26.465 E0.0249
G1 X-3.535 Y-6.137 E1.0996
G1 X-3.535 Y-6.788 E0.0249
G1 X-23.212 Y-26.465 E1.0644
G1 X-22.562 Y-26.465 E0.0249
G1 X-3.535 Y-7.438 E1.0292
G1 X-3.535 Y-8.089 E0.0249
G1 X-21.911 Y-26.465 E0.9940
G1 X-21.261 Y-26.465 E0.0249
G1 X-3.535 Y-8.739 E0.9588
G1 X-3.535 Y-9.390 E0.0249
G1 X-20.610 Y-26.465 E0.9236
G1 X-19.960 Y-26.465 E0.0249
G1 X-3.535 Y-10.040 E0.8884
G1 X-3.535 Y-10.691 E0.0249
G1 X-19.309 Y-26.465 E0.8533
G1 X-18.659 Y-26.465 E0.0249
G1 X-3.535 Y-11.341 E0.8181
G1 X-3.535 Y-11.992 E0.0249
G1 X-18.008 Y-26.465 E0.7829
G1 X-17.357 Y-26.465 E0.0249
G1 X-3.535 Y-12.643 E0.7477
G1 X-3.535 Y-13.293 E0.0249
G1 X-16.707 Y-26.465 E0.7125
G1 X-16.056 Y-26.465 E0.0249
G1 X-3.535 Y-13.944 E0.6773
G1 X-3.535 Y-14.594 E0.0249
G1 X-15.406 Y-26.465 E0.6421
G1 X-14.755 Y-26.465 E0.0249
G1 X-3.535 Y-15.245 E0.6069
G1 X-3.535 Y-15.895 E0.0249
G1 X-14.105 Y-26.465 E0.5717
G1 X-13.454 Y-26.465 E0.0249
G1 X-3.535 Y-16.546 E0.5366
G1 X-3.535 Y-17.196 E0.0249
G1 X-12.804 Y-26.465 E0.5014
G1 X-12.153 Y-26.465 E0.0249
G1 X-3.535 Y-17.847 E0.4662
G1 X-3.535 Y-18.497 E0.0249
G1 X-11.503 Y-26.465 E0.4310
G1 X-10.852 Y-26.465 E0.0249
G1 X-3.535 Y-19.148 E0.3958
G1 X-3.535 Y-19.798 E0.0249
G1 X-10.202 Y-26.465 E0.3606
G1 X-9.551 Y-26.465 E0.0249
G1 X-3.535 Y-20.449 E0.3254
G1 X-3.535 Y-21.100 E0.0249
G1 X-8.900 Y-26.465 E0.2902
G1 X-8.250 Y-26.465 E0.0249
G1 X-3.535 Y-21.750 E0.2550
