; G-Code generated by Simplify3D(R) Version 4.1.2
; Apr 2, 2020 at 4:21:21 PM
; Settings Summary
;   processName,Process1
;   applyToModels,splint 2p A,splint 2p B,splint 2p A(2),splint 2p B(2),splint 2p A(3),splint 2p B(3),splint 2p A(4),splint 2p B(4),splint 2p A(5),splint 2p B(5),splint 2p A(6),splint 2p B(6),splint 2p A(7),splint 2p B(7),splint 2p A(8),splint 2p B(8),splint 2p A(9),splint 2p B(9),splint 2p A(10),splint 2p B(10),splint 2p A(11),splint 2p B(11)
;   profileName,MakerBot Replicator 2 HBP (modified)
;   profileVersion,2020-03-12 10:48:50
;   baseProfile,MakerBot Replicator 2(2)
;   printMaterial,PLA
;   printQuality,Medium
;   printExtruders,
;   extruderName,Primary Extruder
;   extruderToolheadNumber,0
;   extruderDiameter,0.4
;   extruderAutoWidth,0
;   extruderWidth,0.4
;   extrusionMultiplier,1
;   extruderUseRetract,1
;   extruderRetractionDistance,1.9
;   extruderExtraRestartDistance,0
;   extruderRetractionZLift,0.5
;   extruderRetractionSpeed,1200
;   extruderUseCoasting,0
;   extruderCoastingDistance,0.2
;   extruderUseWipe,0
;   extruderWipeDistance,5
;   primaryExtruder,0
;   layerHeight,0.2
;   topSolidLayers,3
;   bottomSolidLayers,3
;   perimeterOutlines,2
;   printPerimetersInsideOut,1
;   startPointOption,3
;   startPointOriginX,0
;   startPointOriginY,150
;   sequentialIslands,0
;   spiralVaseMode,0
;   firstLayerHeightPercentage,100
;   firstLayerWidthPercentage,115
;   firstLayerUnderspeed,0.5
;   useRaft,0
;   raftExtruder,0
;   raftTopLayers,2
;   raftBaseLayers,1
;   raftOffset,1
;   raftSeparationDistance,0.14
;   raftTopInfill,90
;   aboveRaftSpeedMultiplier,0.3
;   useSkirt,0
;   skirtExtruder,0
;   skirtLayers,1
;   skirtOutlines,5
;   skirtOffset,0
;   usePrimePillar,0
;   primePillarExtruder,999
;   primePillarWidth,12
;   primePillarLocation,7
;   primePillarSpeedMultiplier,1
;   useOozeShield,0
;   oozeShieldExtruder,999
;   oozeShieldOffset,2
;   oozeShieldOutlines,1
;   oozeShieldSidewallShape,1
;   oozeShieldSidewallAngle,30
;   oozeShieldSpeedMultiplier,1
;   infillExtruder,0
;   internalInfillPattern,Rectilinear
;   externalInfillPattern,Rectilinear
;   infillPercentage,15
;   outlineOverlapPercentage,25
;   infillExtrusionWidthPercentage,100
;   minInfillLength,5
;   infillLayerInterval,1
;   internalInfillAngles,45,-45
;   overlapInternalInfillAngles,0
;   externalInfillAngles,45,-45
;   generateSupport,1
;   supportExtruder,0
;   supportInfillPercentage,30
;   supportExtraInflation,0.5
;   supportBaseLayers,0
;   denseSupportExtruder,0
;   denseSupportLayers,2
;   denseSupportInfillPercentage,90
;   supportLayerInterval,1
;   supportHorizontalPartOffset,0.3
;   supportUpperSeparationLayers,1
;   supportLowerSeparationLayers,1
;   supportType,1
;   supportGridSpacing,2
;   maxOverhangAngle,45
;   supportAngles,45,-45
;   temperatureName,Primary Extruder,Heated Build Platform
;   temperatureNumber,0,0
;   temperatureSetpointCount,1,1
;   temperatureSetpointLayers,1,1
;   temperatureSetpointTemperatures,230,60
;   temperatureStabilizeAtStartup,1,1
;   temperatureHeatedBed,0,1
;   fanLayers,1,2
;   fanSpeeds,0,100
;   blipFanToFullPower,1
;   adjustSpeedForCooling,1
;   minSpeedLayerTime,15
;   minCoolingSpeedSlowdown,20
;   increaseFanForCooling,1
;   minFanLayerTime,45
;   maxCoolingFanSpeed,100
;   increaseFanForBridging,1
;   bridgingFanSpeed,100
;   use5D,1
;   relativeEdistances,1
;   allowEaxisZeroing,0
;   independentExtruderAxes,1
;   includeM10123,0
;   stickySupport,1
;   applyToolheadOffsets,0
;   gcodeXoffset,0
;   gcodeYoffset,0
;   gcodeZoffset,0
;   overrideMachineDefinition,1
;   machineTypeOverride,0
;   strokeXoverride,280
;   strokeYoverride,150
;   strokeZoverride,150
;   originOffsetXoverride,140
;   originOffsetYoverride,75
;   originOffsetZoverride,0
;   homeXdirOverride,1
;   homeYdirOverride,1
;   homeZdirOverride,-1
;   flipXoverride,1
;   flipYoverride,-1
;   flipZoverride,1
;   toolheadOffsets,0,0|0,0|0,0|0,0|0,0|0,0
;   overrideFirmwareConfiguration,1
;   firmwareTypeOverride,MakerBot/Sailfish Firmware
;   GPXconfigOverride,r2h
;   baudRateOverride,115200
;   overridePrinterModels,1
;   printerModelsOverride,MakerBot_Replicator2.stl
;   startingGcode,; **** Replicator 2 start.gcode ****,M73 P0 ; enable build progress,G162 X Y F3000 ; home XY maximum,G161 Z F1200 ; home Z minimum,G92 Z-5 ; set Z to -5,G1 Z0 ; move Z to 0,G161 Z F100 ; home Z slowly,M132 X Y Z A B ; recall home offsets,G1 X-145 Y-75 Z30 F9000 ; move to wait position off table,G130 X20 Y20 Z20 A20 B20 ; lower stepper Vrefs while heating,M126 S[fan_speed_pwm],M140 S[bed0_temperature] T0,M134 T0 ; stabilize bed temperature,M104 S[extruder0_temperature] T0,M133 T0 ; stabilize extruder temperature,G130 X127 Y127 Z40 A127 B127 ; default stepper Vrefs,G92 A0 ; zero extruder,G1 Z0.4 ; position nozzle,G1 E25 F300 ; purge nozzle,G1 X-140 Y-70 Z0.15 F1200 ; slow wipe,G1 X-135 Y-65 Z0.5 F1200 ; lift,G92 A0 ; zero extruder,M73 P1 ;@body (notify GPX body has started),; **** end of start.gcode ****
;   layerChangeGcode,
;   retractionGcode,
;   toolChangeGcode,
;   endingGcode,; **** Replicator 2 end.gcode ****,M73 P100 ; end build progress,G1 Z155 F1000 ; send Z axis to bottom of machine,M104 S0 T0 ; cool down extruder,M140 S0 T0 ; cool down HBP,M127 ; stop blower fan,G162 X Y F3000 ; home XY maximum,M18 ; disable stepper,M0 ; stop codes,M72 P1 ; play Ta-Da song,; **** end of end.gcode ****
;   exportFileFormat,gcode
;   celebration,0
;   celebrationSong,Random Song
;   postProcessing,
;   defaultSpeed,4800
;   outlineUnderspeed,0.5
;   solidInfillUnderspeed,1
;   supportUnderspeed,1
;   rapidXYspeed,9000
;   rapidZspeed,1200
;   minBridgingArea,50
;   bridgingExtraInflation,0
;   bridgingExtrusionMultiplier,1
;   bridgingSpeedMultiplier,0.8
;   useFixedBridgingAngle,0
;   fixedBridgingAngle,0
;   applyBridgingToPerimeters,0
;   filamentDiameters,1.75|1.75|1.75|1.75|1.75|1.75
;   filamentPricesPerKg,46|46|46|46|46|46
;   filamentDensities,1.25|1.25|1.25|1.25|1.25|1.25
;   useMinPrintHeight,0
;   minPrintHeight,0
;   useMaxPrintHeight,0
;   maxPrintHeight,4.84
;   useDiaphragm,0
;   diaphragmLayerInterval,20
;   robustSlicing,1
;   mergeAllIntoSolid,0
;   onlyRetractWhenCrossingOutline,0
;   retractBetweenLayers,0
;   useRetractionMinTravel,1
;   retractionMinTravel,7
;   retractWhileWiping,1
;   onlyWipeOutlines,1
;   avoidCrossingOutline,0
;   maxMovementDetourFactor,3
;   toolChangeRetractionDistance,12
;   toolChangeExtraRestartDistance,-0.5
;   toolChangeRetractionSpeed,600
;   externalThinWallType,0
;   internalThinWallType,0
;   thinWallAllowedOverlapPercentage,10
;   singleExtrusionMinLength,1
;   singleExtrusionMinPrintingWidthPercentage,50
;   singleExtrusionMaxPrintingWidthPercentage,200
;   singleExtrusionEndpointExtension,0.2
;   horizontalSizeCompensation,0
G90
M83
; **** Replicator 2 start.gcode ****
M73 P0 ; enable build progress
G162 X Y F3000 ; home XY maximum
G161 Z F1200 ; home Z minimum
G92 Z-5 ; set Z to -5
G1 Z0 ; move Z to 0
G161 Z F100 ; home Z slowly
M132 X Y Z A B ; recall home offsets
G1 X-145 Y-75 Z30 F9000 ; move to wait position off table
G130 X20 Y20 Z20 A20 B20 ; lower stepper Vrefs while heating
M127
M140 S60 T0
M134 T0 ; stabilize bed temperature
M104 S230 T0
M133 T0 ; stabilize extruder temperature
G130 X127 Y127 Z40 A127 B127 ; default stepper Vrefs
G92 A0 ; zero extruder
G1 Z0.4 ; position nozzle
G1 E25 F300 ; purge nozzle
G1 X-140 Y-70 Z0.15 F1200 ; slow wipe
G1 X-135 Y-65 Z0.5 F1200 ; lift
G92 A0 ; zero extruder
M73 P1 ;@body (notify GPX body has started)
; **** end of start.gcode ****
; process Process1
; layer 1, Z = 0.200
M135 T0
G1 E-1.9000 F1200
; feature inner perimeter
; tool H0.200 W0.460
G1 Z0.500 F1200
G1 X6.038 Y10.362 F9000
G1 Z0.200 F1200
G1 E1.9000 F1200
G1 X-11.852 Y10.362 E0.6843 F1800
G1 X-11.852 Y-10.263 E0.7889
G1 X6.038 Y-10.263 E0.6843
G1 X6.038 Y10.362 E0.7889
; feature outer perimeter
G1 X6.498 Y10.822 F9000
G1 X-12.312 Y10.822 E0.7195 F1200
G1 X-12.312 Y-10.723 E0.8241
G1 X6.498 Y-10.723 E0.7195
G1 X6.498 Y10.822 E0.8241
G1 E-1.9000 F1200
; feature solid layer
G1 Z0.700 F1200
G1 X-11.451 Y10.017 F9000
G1 Z0.200 F1200
G1 E1.9000 F1200
G1 X-11.507 Y9.961 E0.0030 F2400
G1 X-11.507 Y9.310 E0.0249
G1 X-10.800 Y10.017 E0.0382
G1 X-10.150 Y10.017 E0.0249
G1 X-11.507 Y8.660 E0.0734
G1 X-11.507 Y8.009 E0.0249
G1 X-9.499 Y10.017 E0.1086
G1 X-8.849 Y10.017 E0.0249
G1 X-11.507 Y7.359 E0.1438
G1 X-11.507 Y6.708 E0.0249
G1 X-8.198 Y10.017 E0.1790
G1 X-7.547 Y10.017 E0.0249
G1 X-11.507 Y6.058 E0.2142
G1 X-11.507 Y5.407 E0.0249
G1 X-6.897 Y10.017 E0.2494
G1 X-6.246 Y10.017 E0.0249
G1 X-11.507 Y4.757 E0.2845
G1 X-11.507 Y4.106 E0.0249
G1 X-5.596 Y10.017 E0.3197
G1 X-4.945 Y10.017 E0.0249
G1 X-11.507 Y3.456 E0.3549
G1 X-11.507 Y2.805 E0.0249
G1 X-4.295 Y10.017 E0.3901
G1 X-3.644 Y10.017 E0.0249
G1 X-11.507 Y2.154 E0.4253
G1 X-11.507 Y1.504 E0.0249
G1 X-2.994 Y10.017 E0.4605
G1 X-2.343 Y10.017 E0.0249
G1 X-11.507 Y0.853 E0.4957
G1 X-11.507 Y0.203 E0.0249
G1 X-1.693 Y10.017 E0.5309
G1 X-1.042 Y10.017 E0.0249
G1 X-11.507 Y-0.448 E0.5661
G1 X-11.507 Y-1.098 E0.0249
G1 X-0.392 Y10.017 E0.6013
G1 X0.259 Y10.017 E0.0249
G1 X-11.507 Y-1.749 E0.6364
G1 X-11.507 Y-2.399 E0.0249
G1 X0.910 Y10.017 E0.6716
G1 X1.560 Y10.017 E0.0249
G1 X-11.507 Y-3.050 E0.7068
G1 X-11.507 Y-3.700 E0.0249
G1 X2.211 Y10.017 E0.7420
G1 X2.861 Y10.017 E0.0249
G1 X-11.507 Y-4.351 E0.7772
G1 X-11.507 Y-5.001 E0.0249
G1 X3.512 Y10.017 E0.8124
G1 X4.162 Y10.017 E0.0249
G1 X-11.507 Y-5.652 E0.8476
G1 X-11.507 Y-6.303 E0.0249
G1 X4.813 Y10.017 E0.8828
G1 X5.463 Y10.017 E0.0249
G1 X-11.507 Y-6.953 E0.9180
G1 X-11.507 Y-7.604 E0.0249
G1 X5.693 Y9.596 E0.9304
G1 X5.693 Y8.946 E0.0249
G1 X-11.507 Y-8.254 E0.9304
G1 X-11.507 Y-8.905 E0.0249
G1 X5.693 Y8.295 E0.9304
G1 X5.693 Y7.645 E0.0249
G1 X-11.507 Y-9.555 E0.9304
G1 X-11.507 Y-9.918 E0.0139
G1 X-11.219 Y-9.918 E0.0110
G1 X5.693 Y6.994 E0.9148
G1 X5.693 Y6.344 E0.0249
G1 X-10.568 Y-9.918 E0.8796
G1 X-9.918 Y-9.918 E0.0249
G1 X5.693 Y5.693 E0.8444
G1 X5.693 Y5.043 E0.0249
G1 X-9.267 Y-9.918 E0.8092
G1 X-8.617 Y-9.918 E0.0249
G1 X5.693 Y4.392 E0.7741
G1 X5.693 Y3.742 E0.0249
G1 X-7.966 Y-9.918 E0.7389
G1 X-7.316 Y-9.918 E0.0249
G1 X5.693 Y3.091 E0.7037
G1 X5.693 Y2.440 E0.0249
G1 X-6.665 Y-9.918 E0.6685
G1 X-6.015 Y-9.918 E0.0249
G1 X5.693 Y1.790 E0.6333
G1 X5.693 Y1.139 E0.0249
G1 X-5.364 Y-9.918 E0.5981
G1 X-4.714 Y-9.918 E0.0249
G1 X5.693 Y0.489 E0.5629
G1 X5.693 Y-0.162 E0.0249
G1 X-4.063 Y-9.918 E0.5277
G1 X-3.412 Y-9.918 E0.0249
G1 X5.693 Y-0.812 E0.4925
G1 X5.693 Y-1.463 E0.0249
G1 X-2.762 Y-9.918 E0.4574
G1 X-2.111 Y-9.918 E0.0249
G1 X5.693 Y-2.113 E0.4222
G1 X5.693 Y-2.764 E0.0249
G1 X-1.461 Y-9.918 E0.3870
G1 X-0.810 Y-9.918 E0.0249
G1 X5.693 Y-3.414 E0.3518
G1 X5.693 Y-4.065 E0.0249
G1 X-0.160 Y-9.918 E0.3166
G1 X0.491 Y-9.918 E0.0249
G1 X5.693 Y-4.715 E0.2814
G1 X5.693 Y-5.366 E0.0249
G1 X1.141 Y-9.918 E0.2462
G1 X1.792 Y-9.918 E0.0249
G1 X5.693 Y-6.017 E0.2110
G1 X5.693 Y-6.667 E0.0249
G1 X2.442 Y-9.918 E0.1758
G1 X3.093 Y-9.918 E0.0249
G1 X5.693 Y-7.318 E0.1407
G1 X5.693 Y-7.968 E0.0249
G1 X3.744 Y-9.918 E0.1055
G1 X4.394 Y-9.918 E0.0249
G1 X5.693 Y-8.619 E0.0703
G1 X5.693 Y-9.269 E0.0249
G1 X5.045 Y-9.918 E0.0351
; feature inner perimeter
G1 X4.567 Y-16.643 F9000
G1 X4.567 Y-37.367 E0.7927 F1800
G1 X4.797 Y-37.367 E0.0088
G1 X4.797 Y-16.643 E0.7927
G1 X4.567 Y-16.643 E0.0088
G1 X0.943 Y-16.643 F9000
G1 X-4.794 Y-16.643 E0.2194 F1800
G1 X-4.779 Y-21.442 E0.1836
G1 X0.943 Y-21.442 E0.2188
G1 X0.943 Y-16.643 E0.1836
G1 E-1.9000 F1200
G1 Z0.700 F1200
G1 X0.943 Y-32.568 F9000
G1 Z0.200 F1200
G1 E1.9000 F1200
G1 X-4.779 Y-32.568 E0.2188 F1800
G1 X-4.794 Y-37.367 E0.1836
G1 X0.943 Y-37.367 E0.2194
G1 X0.943 Y-32.568 E0.1836
; feature outer perimeter
G1 X1.403 Y-32.108 F9000
G1 X-5.237 Y-32.108 E0.2540 F1200
G1 X-5.256 Y-37.827 E0.2188
G1 X5.257 Y-37.827 E0.4021
G1 X5.257 Y-16.183 E0.8279
G1 X-5.256 Y-16.183 E0.4021
G1 X-5.237 Y-21.902 E0.2188
G1 X1.403 Y-21.902 E0.2540
G1 X1.403 Y-16.828 E0.1941
G1 X4.107 Y-16.828 E0.1034
G1 X4.107 Y-37.182 E0.7785
G1 X1.403 Y-37.182 E0.1034
G1 X1.403 Y-32.108 E0.1941
; feature solid layer
G1 X0.059 Y-37.022 F9000
G1 X0.598 Y-36.483 E0.0292 F2400
G1 X0.598 Y-35.832 E0.0249
G1 X-0.592 Y-37.022 E0.0644
G1 X-1.242 Y-37.022 E0.0249
G1 X0.598 Y-35.182 E0.0996
G1 X0.598 Y-34.531 E0.0249
G1 X-1.893 Y-37.022 E0.1347
G1 X-2.543 Y-37.022 E0.0249
G1 X0.598 Y-33.880 E0.1699
G1 X0.598 Y-33.230 E0.0249
G1 X-3.194 Y-37.022 E0.2051
G1 X-3.845 Y-37.022 E0.0249
G1 X0.265 Y-32.913 E0.2223
G1 X-0.386 Y-32.913 E0.0249
G1 X-4.448 Y-36.975 E0.2197
G1 X-4.446 Y-36.322 E0.0250
G1 X-1.036 Y-32.913 E0.1844
G1 X-1.687 Y-32.913 E0.0249
G1 X-4.444 Y-35.670 E0.1491
G1 X-4.442 Y-35.017 E0.0250
G1 X-2.338 Y-32.913 E0.1138
G1 X-2.988 Y-32.913 E0.0249
G1 X-4.439 Y-34.364 E0.0785
G1 X-4.437 Y-33.712 E0.0250
G1 X-3.639 Y-32.913 E0.0432
G1 X-4.289 Y-32.913 E0.0249
G1 X-4.435 Y-33.059 E0.0079
G1 E-1.9000 F1200
G1 Z0.700 F1200
G1 X0.371 Y-21.097 F9000
G1 Z0.200 F1200
G1 E1.9000 F1200
G1 X0.598 Y-20.870 E0.0123 F2400
G1 X0.598 Y-20.219 E0.0249
G1 X-0.280 Y-21.097 E0.0475
G1 X-0.930 Y-21.097 E0.0249
G1 X0.598 Y-19.569 E0.0827
G1 X0.598 Y-18.918 E0.0249
G1 X-1.581 Y-21.097 E0.1179
G1 X-2.231 Y-21.097 E0.0249
G1 X0.598 Y-18.268 E0.1530
G1 X0.598 Y-17.617 E0.0249
G1 X-2.882 Y-21.097 E0.1882
G1 X-3.532 Y-21.097 E0.0249
G1 X0.577 Y-16.988 E0.2223
G1 X-0.074 Y-16.988 E0.0249
G1 X-4.183 Y-21.097 E0.2223
G1 X-4.435 Y-21.097 E0.0096
G1 X-4.436 Y-20.699 E0.0152
G1 X-0.724 Y-16.988 E0.2008
G1 X-1.375 Y-16.988 E0.0249
G1 X-4.438 Y-20.051 E0.1657
G1 X-4.440 Y-19.403 E0.0248
G1 X-2.025 Y-16.988 E0.1306
G1 X-2.676 Y-16.988 E0.0249
G1 X-4.442 Y-18.754 E0.0955
G1 X-4.444 Y-18.106 E0.0248
G1 X-3.327 Y-16.988 E0.0605
G1 X-3.977 Y-16.988 E0.0249
G1 X-4.447 Y-17.457 E0.0254
; feature inner perimeter
G1 X-11.177 Y-16.643 F9000
G1 X-11.406 Y-16.643 E0.0088 F1800
G1 X-11.406 Y-37.367 E0.7927
G1 X-11.177 Y-37.367 E0.0088
G1 X-11.177 Y-16.643 E0.7927
G1 X-15.030 Y-16.643 F9000
G1 X-20.767 Y-16.643 E0.2194 F1800
G1 X-20.752 Y-21.442 E0.1836
G1 X-15.030 Y-21.442 E0.2188
G1 X-15.030 Y-16.643 E0.1836
G1 E-1.9000 F1200
G1 Z0.700 F1200
G1 X-15.030 Y-32.568 F9000
G1 Z0.200 F1200
G1 E1.9000 F1200
G1 X-20.752 Y-32.568 E0.2188 F1800
G1 X-20.767 Y-37.367 E0.1836
G1 X-15.030 Y-37.367 E0.2194
G1 X-15.030 Y-32.568 E0.1836
; feature outer perimeter
G1 X-14.570 Y-32.108 F9000
G1 X-21.210 Y-32.108 E0.2540 F1200
G1 X-21.229 Y-37.827 E0.2188
G1 X-10.717 Y-37.827 E0.4021
G1 X-10.717 Y-16.183 E0.8279
G1 X-21.229 Y-16.183 E0.4021
G1 X-21.210 Y-21.902 E0.2188
G1 X-14.570 Y-21.902 E0.2540
G1 X-14.570 Y-16.828 E0.1941
G1 X-11.866 Y-16.828 E0.1034
G1 X-11.866 Y-37.182 E0.7785
G1 X-14.570 Y-37.182 E0.1034
G1 X-14.570 Y-32.108 E0.1941
; feature solid layer
G1 X-15.554 Y-37.022 F9000
G1 X-15.375 Y-36.843 E0.0097 F2400
G1 X-15.375 Y-36.192 E0.0249
G1 X-16.205 Y-37.022 E0.0449
G1 X-16.855 Y-37.022 E0.0249
G1 X-15.375 Y-35.542 E0.0801
G1 X-15.375 Y-34.891 E0.0249
G1 X-17.506 Y-37.022 E0.1153
G1 X-18.156 Y-37.022 E0.0249
G1 X-15.375 Y-34.241 E0.1505
G1 X-15.375 Y-33.590 E0.0249
G1 X-18.807 Y-37.022 E0.1856
G1 X-19.457 Y-37.022 E0.0249
G1 X-15.375 Y-32.940 E0.2208
G1 X-15.375 Y-32.913 E0.0010
G1 X-15.999 Y-32.913 E0.0239
G1 X-20.108 Y-37.022 E0.2223
G1 X-20.421 Y-37.022 E0.0120
G1 X-20.420 Y-36.684 E0.0129
G1 X-16.649 Y-32.913 E0.2040
G1 X-17.300 Y-32.913 E0.0249
G1 X-20.418 Y-36.031 E0.1687
G1 X-20.416 Y-35.378 E0.0250
G1 X-17.950 Y-32.913 E0.1334
G1 X-18.601 Y-32.913 E0.0249
G1 X-20.414 Y-34.726 E0.0981
G1 X-20.412 Y-34.073 E0.0250
G1 X-19.252 Y-32.913 E0.0627
G1 X-19.902 Y-32.913 E0.0249
G1 X-20.409 Y-33.420 E0.0274
G1 E-1.9000 F1200
G1 Z0.700 F1200
G1 X-15.893 Y-21.097 F9000
G1 Z0.200 F1200
G1 E1.9000 F1200
G1 X-15.375 Y-20.579 E0.0280 F2400
G1 X-15.375 Y-19.929 E0.0249
G1 X-16.543 Y-21.097 E0.0632
G1 X-17.194 Y-21.097 E0.0249
G1 X-15.375 Y-19.278 E0.0984
G1 X-15.375 Y-18.628 E0.0249
G1 X-17.844 Y-21.097 E0.1336
G1 X-18.495 Y-21.097 E0.0249
