; G-Code generated by Simplify3D(R) Version 4.1.2
; Apr 2, 2020 at 12:49:23 PM
; Settings Summary
;   processName,Process1
;   applyToModels,VUK diffuser,VUK diffuser(2),VUK diffuser(3),VUK diffuser(4)
;   profileName,MakerBot Replicator 2 HBP (modified)
;   profileVersion,2020-03-12 10:48:50
;   baseProfile,MakerBot Replicator 2(2)
;   printMaterial,PLA
;   printQuality,Medium
;   printExtruders,
;   extruderName,Primary Extruder
;   extruderToolheadNumber,0
;   extruderDiameter,0.4
;   extruderAutoWidth,0
;   extruderWidth,0.4
;   extrusionMultiplier,1
;   extruderUseRetract,1
;   extruderRetractionDistance,1.9
;   extruderExtraRestartDistance,0
;   extruderRetractionZLift,0.5
;   extruderRetractionSpeed,1200
;   extruderUseCoasting,0
;   extruderCoastingDistance,0.2
;   extruderUseWipe,0
;   extruderWipeDistance,5
;   primaryExtruder,0
;   layerHeight,0.2
;   topSolidLayers,3
;   bottomSolidLayers,3
;   perimeterOutlines,2
;   printPerimetersInsideOut,1
;   startPointOption,3
;   startPointOriginX,0
;   startPointOriginY,150
;   sequentialIslands,0
;   spiralVaseMode,0
;   firstLayerHeightPercentage,100
;   firstLayerWidthPercentage,115
;   firstLayerUnderspeed,0.5
;   useRaft,0
;   raftExtruder,0
;   raftTopLayers,2
;   raftBaseLayers,1
;   raftOffset,1
;   raftSeparationDistance,0.14
;   raftTopInfill,90
;   aboveRaftSpeedMultiplier,0.3
;   useSkirt,0
;   skirtExtruder,0
;   skirtLayers,1
;   skirtOutlines,5
;   skirtOffset,0
;   usePrimePillar,0
;   primePillarExtruder,999
;   primePillarWidth,12
;   primePillarLocation,7
;   primePillarSpeedMultiplier,1
;   useOozeShield,0
;   oozeShieldExtruder,999
;   oozeShieldOffset,2
;   oozeShieldOutlines,1
;   oozeShieldSidewallShape,1
;   oozeShieldSidewallAngle,30
;   oozeShieldSpeedMultiplier,1
;   infillExtruder,0
;   internalInfillPattern,Rectilinear
;   externalInfillPattern,Rectilinear
;   infillPercentage,15
;   outlineOverlapPercentage,25
;   infillExtrusionWidthPercentage,100
;   minInfillLength,5
;   infillLayerInterval,1
;   internalInfillAngles,45,-45
;   overlapInternalInfillAngles,0
;   externalInfillAngles,45,-45
;   generateSupport,0
;   supportExtruder,0
;   supportInfillPercentage,20
;   supportExtraInflation,0.5
;   supportBaseLayers,0
;   denseSupportExtruder,0
;   denseSupportLayers,2
;   denseSupportInfillPercentage,90
;   supportLayerInterval,1
;   supportHorizontalPartOffset,0.3
;   supportUpperSeparationLayers,1
;   supportLowerSeparationLayers,1
;   supportType,1
;   supportGridSpacing,2
;   maxOverhangAngle,45
;   supportAngles,45,-45
;   temperatureName,Primary Extruder,Heated Build Platform
;   temperatureNumber,0,0
;   temperatureSetpointCount,1,1
;   temperatureSetpointLayers,1,1
;   temperatureSetpointTemperatures,230,60
;   temperatureStabilizeAtStartup,1,1
;   temperatureHeatedBed,0,1
;   fanLayers,1,2
;   fanSpeeds,0,100
;   blipFanToFullPower,1
;   adjustSpeedForCooling,1
;   minSpeedLayerTime,15
;   minCoolingSpeedSlowdown,20
;   increaseFanForCooling,1
;   minFanLayerTime,45
;   maxCoolingFanSpeed,100
;   increaseFanForBridging,1
;   bridgingFanSpeed,100
;   use5D,1
;   relativeEdistances,1
;   allowEaxisZeroing,0
;   independentExtruderAxes,1
;   includeM10123,0
;   stickySupport,1
;   applyToolheadOffsets,0
;   gcodeXoffset,0
;   gcodeYoffset,0
;   gcodeZoffset,0
;   overrideMachineDefinition,1
;   machineTypeOverride,0
;   strokeXoverride,280
;   strokeYoverride,150
;   strokeZoverride,150
;   originOffsetXoverride,140
;   originOffsetYoverride,75
;   originOffsetZoverride,0
;   homeXdirOverride,1
;   homeYdirOverride,1
;   homeZdirOverride,-1
;   flipXoverride,1
;   flipYoverride,-1
;   flipZoverride,1
;   toolheadOffsets,0,0|0,0|0,0|0,0|0,0|0,0
;   overrideFirmwareConfiguration,1
;   firmwareTypeOverride,MakerBot/Sailfish Firmware
;   GPXconfigOverride,r2h
;   baudRateOverride,115200
;   overridePrinterModels,1
;   printerModelsOverride,MakerBot_Replicator2.stl
;   startingGcode,; **** Replicator 2 start.gcode ****,M73 P0 ; enable build progress,G162 X Y F3000 ; home XY maximum,G161 Z F1200 ; home Z minimum,G92 Z-5 ; set Z to -5,G1 Z0 ; move Z to 0,G161 Z F100 ; home Z slowly,M132 X Y Z A B ; recall home offsets,G1 X-145 Y-75 Z30 F9000 ; move to wait position off table,G130 X20 Y20 Z20 A20 B20 ; lower stepper Vrefs while heating,M126 S[fan_speed_pwm],M140 S[bed0_temperature] T0,M134 T0 ; stabilize bed temperature,M104 S[extruder0_temperature] T0,M133 T0 ; stabilize extruder temperature,G130 X127 Y127 Z40 A127 B127 ; default stepper Vrefs,G92 A0 ; zero extruder,G1 Z0.4 ; position nozzle,G1 E25 F300 ; purge nozzle,G1 X-140 Y-70 Z0.15 F1200 ; slow wipe,G1 X-135 Y-65 Z0.5 F1200 ; lift,G92 A0 ; zero extruder,M73 P1 ;@body (notify GPX body has started),; **** end of start.gcode ****
;   layerChangeGcode,
;   retractionGcode,
;   toolChangeGcode,
;   endingGcode,; **** Replicator 2 end.gcode ****,M73 P100 ; end build progress,G1 Z155 F1000 ; send Z axis to bottom of machine,M104 S0 T0 ; cool down extruder,M140 S0 T0 ; cool down HBP,M127 ; stop blower fan,G162 X Y F3000 ; home XY maximum,M18 ; disable stepper,M0 ; stop codes,M72 P1 ; play Ta-Da song,; **** end of end.gcode ****
;   exportFileFormat,gcode
;   celebration,0
;   celebrationSong,Random Song
;   postProcessing,
;   defaultSpeed,4800
;   outlineUnderspeed,0.5
;   solidInfillUnderspeed,1
;   supportUnderspeed,1
;   rapidXYspeed,9000
;   rapidZspeed,1200
;   minBridgingArea,50
;   bridgingExtraInflation,0
;   bridgingExtrusionMultiplier,1
;   bridgingSpeedMultiplier,0.8
;   useFixedBridgingAngle,0
;   fixedBridgingAngle,0
;   applyBridgingToPerimeters,0
;   filamentDiameters,1.75|1.75|1.75|1.75|1.75|1.75
;   filamentPricesPerKg,46|46|46|46|46|46
;   filamentDensities,1.25|1.25|1.25|1.25|1.25|1.25
;   useMinPrintHeight,0
;   minPrintHeight,0
;   useMaxPrintHeight,0
;   maxPrintHeight,4.84
;   useDiaphragm,0
;   diaphragmLayerInterval,20
;   robustSlicing,1
;   mergeAllIntoSolid,0
;   onlyRetractWhenCrossingOutline,0
;   retractBetweenLayers,0
;   useRetractionMinTravel,1
;   retractionMinTravel,7
;   retractWhileWiping,1
;   onlyWipeOutlines,1
;   avoidCrossingOutline,0
;   maxMovementDetourFactor,3
;   toolChangeRetractionDistance,12
;   toolChangeExtraRestartDistance,-0.5
;   toolChangeRetractionSpeed,600
;   externalThinWallType,0
;   internalThinWallType,0
;   thinWallAllowedOverlapPercentage,10
;   singleExtrusionMinLength,1
;   singleExtrusionMinPrintingWidthPercentage,50
;   singleExtrusionMaxPrintingWidthPercentage,200
;   singleExtrusionEndpointExtension,0.2
;   horizontalSizeCompensation,0
G90
M83
; **** Replicator 2 start.gcode ****
M73 P0 ; enable build progress
G162 X Y F3000 ; home XY maximum
G161 Z F1200 ; home Z minimum
G92 Z-5 ; set Z to -5
G1 Z0 ; move Z to 0
G161 Z F100 ; home Z slowly
M132 X Y Z A B ; recall home offsets
G1 X-145 Y-75 Z30 F9000 ; move to wait position off table
G130 X20 Y20 Z20 A20 B20 ; lower stepper Vrefs while heating
M127
M140 S60 T0
M134 T0 ; stabilize bed temperature
M104 S230 T0
M133 T0 ; stabilize extruder temperature
G130 X127 Y127 Z40 A127 B127 ; default stepper Vrefs
G92 A0 ; zero extruder
G1 Z0.4 ; position nozzle
G1 E25 F300 ; purge nozzle
G1 X-140 Y-70 Z0.15 F1200 ; slow wipe
G1 X-135 Y-65 Z0.5 F1200 ; lift
G92 A0 ; zero extruder
M73 P1 ;@body (notify GPX body has started)
; **** end of start.gcode ****
; process Process1
; layer 1, Z = 0.200
M135 T0
G1 E-1.9000 F1200
; feature inner perimeter
; tool H0.200 W0.460
G1 Z0.500 F1200
G1 X-9.236 Y35.026 F9000
G1 Z0.200 F1200
G1 E1.9000 F1200
G1 X-46.096 Y35.026 E1.4099 F1800
G1 X-46.096 Y-41.200 E2.9156
G1 X-102.088 Y-41.200 E2.1417
G1 X-102.088 Y-67.031 E0.9880
G1 X-9.236 Y-67.031 E3.5515
G1 X-9.236 Y35.026 E3.9036
; feature outer perimeter
G1 X-8.776 Y35.486 F9000
G1 X-46.556 Y35.486 E1.4451 F1200
G1 X-46.556 Y-40.740 E2.9156
G1 X-102.548 Y-40.740 E2.1417
G1 X-102.548 Y-67.491 E1.0232
G1 X-8.776 Y-67.491 E3.5867
G1 X-8.776 Y35.486 E3.9388
G1 E-1.9000 F1200
; feature solid layer
G1 Z0.700 F1200
G1 X-45.292 Y34.681 F9000
G1 Z0.200 F1200
G1 E1.9000 F1200
G1 X-45.751 Y34.222 E0.0248 F2400
G1 X-45.751 Y33.571 E0.0249
G1 X-44.642 Y34.681 E0.0600
G1 X-43.991 Y34.681 E0.0249
G1 X-45.751 Y32.921 E0.0952
G1 X-45.751 Y32.270 E0.0249
G1 X-43.340 Y34.681 E0.1304
G1 X-42.690 Y34.681 E0.0249
G1 X-45.751 Y31.620 E0.1656
G1 X-45.751 Y30.969 E0.0249
G1 X-42.039 Y34.681 E0.2008
G1 X-41.389 Y34.681 E0.0249
G1 X-45.751 Y30.319 E0.2360
G1 X-45.751 Y29.668 E0.0249
G1 X-40.738 Y34.681 E0.2712
G1 X-40.088 Y34.681 E0.0249
G1 X-45.751 Y29.018 E0.3063
G1 X-45.751 Y28.367 E0.0249
G1 X-39.437 Y34.681 E0.3415
G1 X-38.787 Y34.681 E0.0249
G1 X-45.751 Y27.717 E0.3767
G1 X-45.751 Y27.066 E0.0249
G1 X-38.136 Y34.681 E0.4119
G1 X-37.486 Y34.681 E0.0249
G1 X-45.751 Y26.415 E0.4471
G1 X-45.751 Y25.765 E0.0249
G1 X-36.835 Y34.681 E0.4823
G1 X-36.185 Y34.681 E0.0249
G1 X-45.751 Y25.114 E0.5175
G1 X-45.751 Y24.464 E0.0249
G1 X-35.534 Y34.681 E0.5527
G1 X-34.883 Y34.681 E0.0249
G1 X-45.751 Y23.813 E0.5879
G1 X-45.751 Y23.163 E0.0249
G1 X-34.233 Y34.681 E0.6230
G1 X-33.582 Y34.681 E0.0249
G1 X-45.751 Y22.512 E0.6582
G1 X-45.751 Y21.862 E0.0249
G1 X-32.932 Y34.681 E0.6934
G1 X-32.281 Y34.681 E0.0249
G1 X-45.751 Y21.211 E0.7286
G1 X-45.751 Y20.561 E0.0249
G1 X-31.631 Y34.681 E0.7638
G1 X-30.980 Y34.681 E0.0249
G1 X-45.751 Y19.910 E0.7990
G1 X-45.751 Y19.260 E0.0249
G1 X-30.330 Y34.681 E0.8342
G1 X-29.679 Y34.681 E0.0249
G1 X-45.751 Y18.609 E0.8694
G1 X-45.751 Y17.958 E0.0249
G1 X-29.029 Y34.681 E0.9046
G1 X-28.378 Y34.681 E0.0249
G1 X-45.751 Y17.308 E0.9397
G1 X-45.751 Y16.657 E0.0249
G1 X-27.728 Y34.681 E0.9749
G1 X-27.077 Y34.681 E0.0249
G1 X-45.751 Y16.007 E1.0101
G1 X-45.751 Y15.356 E0.0249
G1 X-26.426 Y34.681 E1.0453
G1 X-25.776 Y34.681 E0.0249
G1 X-45.751 Y14.706 E1.0805
G1 X-45.751 Y14.055 E0.0249
G1 X-25.125 Y34.681 E1.1157
G1 X-24.475 Y34.681 E0.0249
G1 X-45.751 Y13.405 E1.1509
G1 X-45.751 Y12.754 E0.0249
G1 X-23.824 Y34.681 E1.1861
G1 X-23.174 Y34.681 E0.0249
G1 X-45.751 Y12.104 E1.2213
G1 X-45.751 Y11.453 E0.0249
G1 X-22.523 Y34.681 E1.2565
G1 X-21.873 Y34.681 E0.0249
G1 X-45.751 Y10.803 E1.2916
G1 X-45.751 Y10.152 E0.0249
G1 X-21.222 Y34.681 E1.3268
G1 X-20.572 Y34.681 E0.0249
G1 X-45.751 Y9.501 E1.3620
G1 X-45.751 Y8.851 E0.0249
G1 X-19.921 Y34.681 E1.3972
G1 X-19.271 Y34.681 E0.0249
G1 X-45.751 Y8.200 E1.4324
G1 X-45.751 Y7.550 E0.0249
G1 X-18.620 Y34.681 E1.4676
G1 X-17.969 Y34.681 E0.0249
G1 X-45.751 Y6.899 E1.5028
G1 X-45.751 Y6.249 E0.0249
G1 X-17.319 Y34.681 E1.5380
G1 X-16.668 Y34.681 E0.0249
G1 X-45.751 Y5.598 E1.5732
G1 X-45.751 Y4.948 E0.0249
G1 X-16.018 Y34.681 E1.6083
G1 X-15.367 Y34.681 E0.0249
G1 X-45.751 Y4.297 E1.6435
G1 X-45.751 Y3.647 E0.0249
G1 X-14.717 Y34.681 E1.6787
G1 X-14.066 Y34.681 E0.0249
G1 X-45.751 Y2.996 E1.7139
G1 X-45.751 Y2.346 E0.0249
G1 X-13.416 Y34.681 E1.7491
G1 X-12.765 Y34.681 E0.0249
G1 X-45.751 Y1.695 E1.7843
G1 X-45.751 Y1.044 E0.0249
G1 X-12.115 Y34.681 E1.8195
G1 X-11.464 Y34.681 E0.0249
G1 X-45.751 Y0.394 E1.8547
G1 X-45.751 Y-0.257 E0.0249
G1 X-10.814 Y34.681 E1.8899
G1 X-10.163 Y34.681 E0.0249
G1 X-45.751 Y-0.907 E1.9250
G1 X-45.751 Y-1.558 E0.0249
G1 X-9.581 Y34.613 E1.9565
G1 X-9.581 Y33.962 E0.0249
G1 X-45.751 Y-2.208 E1.9565
G1 X-45.751 Y-2.859 E0.0249
G1 X-9.581 Y33.312 E1.9565
G1 X-9.581 Y32.661 E0.0249
G1 X-45.751 Y-3.509 E1.9565
G1 X-45.751 Y-4.160 E0.0249
G1 X-9.581 Y32.011 E1.9565
G1 X-9.581 Y31.360 E0.0249
G1 X-45.751 Y-4.810 E1.9565
G1 X-45.751 Y-5.461 E0.0249
G1 X-9.581 Y30.709 E1.9565
G1 X-9.581 Y30.059 E0.0249
G1 X-45.751 Y-6.111 E1.9565
G1 X-45.751 Y-6.762 E0.0249
G1 X-9.581 Y29.408 E1.9565
G1 X-9.581 Y28.758 E0.0249
G1 X-45.751 Y-7.413 E1.9565
G1 X-45.751 Y-8.063 E0.0249
G1 X-9.581 Y28.107 E1.9565
G1 X-9.581 Y27.457 E0.0249
G1 X-45.751 Y-8.714 E1.9565
G1 X-45.751 Y-9.364 E0.0249
G1 X-9.581 Y26.806 E1.9565
G1 X-9.581 Y26.156 E0.0249
G1 X-45.751 Y-10.015 E1.9565
G1 X-45.751 Y-10.665 E0.0249
G1 X-9.581 Y25.505 E1.9565
G1 X-9.581 Y24.855 E0.0249
G1 X-45.751 Y-11.316 E1.9565
G1 X-45.751 Y-11.966 E0.0249
G1 X-9.581 Y24.204 E1.9565
G1 X-9.581 Y23.554 E0.0249
G1 X-45.751 Y-12.617 E1.9565
G1 X-45.751 Y-13.267 E0.0249
G1 X-9.581 Y22.903 E1.9565
G1 X-9.581 Y22.252 E0.0249
G1 X-45.751 Y-13.918 E1.9565
G1 X-45.751 Y-14.568 E0.0249
G1 X-9.581 Y21.602 E1.9565
G1 X-9.581 Y20.951 E0.0249
G1 X-45.751 Y-15.219 E1.9565
G1 X-45.751 Y-15.870 E0.0249
G1 X-9.581 Y20.301 E1.9565
G1 X-9.581 Y19.650 E0.0249
G1 X-45.751 Y-16.520 E1.9565
G1 X-45.751 Y-17.171 E0.0249
G1 X-9.581 Y19.000 E1.9565
G1 X-9.581 Y18.349 E0.0249
G1 X-45.751 Y-17.821 E1.9565
G1 X-45.751 Y-18.472 E0.0249
G1 X-9.581 Y17.699 E1.9565
G1 X-9.581 Y17.048 E0.0249
G1 X-45.751 Y-19.122 E1.9565
G1 X-45.751 Y-19.773 E0.0249
G1 X-9.581 Y16.398 E1.9565
G1 X-9.581 Y15.747 E0.0249
G1 X-45.751 Y-20.423 E1.9565
G1 X-45.751 Y-21.074 E0.0249
G1 X-9.581 Y15.097 E1.9565
G1 X-9.581 Y14.446 E0.0249
G1 X-45.751 Y-21.724 E1.9565
G1 X-45.751 Y-22.375 E0.0249
G1 X-9.581 Y13.795 E1.9565
G1 X-9.581 Y13.145 E0.0249
G1 X-45.751 Y-23.025 E1.9565
G1 X-45.751 Y-23.676 E0.0249
G1 X-9.581 Y12.494 E1.9565
G1 X-9.581 Y11.844 E0.0249
G1 X-45.751 Y-24.327 E1.9565
G1 X-45.751 Y-24.977 E0.0249
G1 X-9.581 Y11.193 E1.9565
G1 X-9.581 Y10.543 E0.0249
G1 X-45.751 Y-25.628 E1.9565
G1 X-45.751 Y-26.278 E0.0249
G1 X-9.581 Y9.892 E1.9565
G1 X-9.581 Y9.242 E0.0249
G1 X-45.751 Y-26.929 E1.9565
G1 X-45.751 Y-27.579 E0.0249
G1 X-9.581 Y8.591 E1.9565
G1 X-9.581 Y7.941 E0.0249
G1 X-45.751 Y-28.230 E1.9565
G1 X-45.751 Y-28.880 E0.0249
G1 X-9.581 Y7.290 E1.9565
G1 X-9.581 Y6.640 E0.0249
G1 X-45.751 Y-29.531 E1.9565
G1 X-45.751 Y-30.181 E0.0249
G1 X-9.581 Y5.989 E1.9565
G1 X-9.581 Y5.338 E0.0249
G1 X-45.751 Y-30.832 E1.9565
G1 X-45.751 Y-31.482 E0.0249
G1 X-9.581 Y4.688 E1.9565
G1 X-9.581 Y4.037 E0.0249
G1 X-45.751 Y-32.133 E1.9565
G1 X-45.751 Y-32.784 E0.0249
G1 X-9.581 Y3.387 E1.9565
G1 X-9.581 Y2.736 E0.0249
G1 X-45.751 Y-33.434 E1.9565
G1 X-45.751 Y-34.085 E0.0249
G1 X-9.581 Y2.086 E1.9565
G1 X-9.581 Y1.435 E0.0249
G1 X-45.751 Y-34.735 E1.9565
G1 X-45.751 Y-35.386 E0.0249
G1 X-9.581 Y0.785 E1.9565
G1 X-9.581 Y0.134 E0.0249
G1 X-45.751 Y-36.036 E1.9565
G1 X-45.751 Y-36.687 E0.0249
G1 X-9.581 Y-0.516 E1.9565
G1 X-9.581 Y-1.167 E0.0249
G1 X-45.751 Y-37.337 E1.9565
G1 X-45.751 Y-37.988 E0.0249
G1 X-9.581 Y-1.817 E1.9565
G1 X-9.581 Y-2.468 E0.0249
G1 X-45.751 Y-38.638 E1.9565
G1 X-45.751 Y-39.289 E0.0249
G1 X-9.581 Y-3.119 E1.9565
G1 X-9.581 Y-3.769 E0.0249
G1 X-45.751 Y-39.939 E1.9565
G1 X-45.751 Y-40.590 E0.0249
G1 X-9.581 Y-4.420 E1.9565
G1 X-9.581 Y-5.070 E0.0249
G1 X-45.751 Y-41.241 E1.9565
G1 E-1.9000 F1200
G1 Z0.700 F1200
G1 X-10.046 Y-66.686 F9000
G1 Z0.200 F1200
G1 E1.9000 F1200
G1 X-9.581 Y-66.221 E0.0252 F2400
G1 X-9.581 Y-65.570 E0.0249
G1 X-10.696 Y-66.686 E0.0604
G1 X-11.347 Y-66.686 E0.0249
G1 X-9.581 Y-64.920 E0.0955
G1 X-9.581 Y-64.269 E0.0249
G1 X-11.997 Y-66.686 E0.1307
G1 X-12.648 Y-66.686 E0.0249
G1 X-9.581 Y-63.619 E0.1659
G1 X-9.581 Y-62.968 E0.0249
G1 X-13.299 Y-66.686 E0.2011
G1 X-13.949 Y-66.686 E0.0249
G1 X-9.581 Y-62.317 E0.2363
G1 X-9.581 Y-61.667 E0.0249
G1 X-14.600 Y-66.686 E0.2715
G1 X-15.250 Y-66.686 E0.0249
G1 X-9.581 Y-61.016 E0.3067
G1 X-9.581 Y-60.366 E0.0249
G1 X-15.901 Y-66.686 E0.3419
G1 X-16.551 Y-66.686 E0.0249
G1 X-9.581 Y-59.715 E0.3771
G1 X-9.581 Y-59.065 E0.0249
G1 X-17.202 Y-66.686 E0.4122
G1 X-17.852 Y-66.686 E0.0249
G1 X-9.581 Y-58.414 E0.4474
G1 X-9.581 Y-57.764 E0.0249
G1 X-18.503 Y-66.686 E0.4826
G1 X-19.153 Y-66.686 E0.0249
G1 X-9.581 Y-57.113 E0.5178
G1 X-9.581 Y-56.463 E0.0249
G1 X-19.804 Y-66.686 E0.5530
G1 X-20.454 Y-66.686 E0.0249
G1 X-9.581 Y-55.812 E0.5882
G1 X-9.581 Y-55.162 E0.0249
G1 X-21.105 Y-66.686 E0.6234
G1 X-21.756 Y-66.686 E0.0249
G1 X-9.581 Y-54.511 E0.6586
G1 X-9.581 Y-53.860 E0.0249
G1 X-22.406 Y-66.686 E0.6938
G1 X-23.057 Y-66.686 E0.0249
G1 X-9.581 Y-53.210 E0.7289
G1 X-9.581 Y-52.559 E0.0249
G1 X-23.707 Y-66.686 E0.7641
G1 X-24.358 Y-66.686 E0.0249
G1 X-9.581 Y-51.909 E0.7993
G1 X-9.581 Y-51.258 E0.0249
G1 X-25.008 Y-66.686 E0.8345
G1 X-25.659 Y-66.686 E0.0249
