; G-Code generated by Simplify3D(R) Version 4.1.2
; Apr 2, 2020 at 12:50:24 PM
; Settings Summary
;   processName,Process1
;   applyToModels,VUK sign,VUK sign(2),VUK sign(3),VUK sign(4),VUK sign(5)
;   profileName,MakerBot Replicator 2 HBP (modified)
;   profileVersion,2020-03-12 10:48:50
;   baseProfile,MakerBot Replicator 2(2)
;   printMaterial,PLA
;   printQuality,Medium
;   printExtruders,
;   extruderName,Primary Extruder
;   extruderToolheadNumber,0
;   extruderDiameter,0.4
;   extruderAutoWidth,0
;   extruderWidth,0.4
;   extrusionMultiplier,1
;   extruderUseRetract,1
;   extruderRetractionDistance,1.9
;   extruderExtraRestartDistance,0
;   extruderRetractionZLift,0.5
;   extruderRetractionSpeed,1200
;   extruderUseCoasting,0
;   extruderCoastingDistance,0.2
;   extruderUseWipe,0
;   extruderWipeDistance,5
;   primaryExtruder,0
;   layerHeight,0.2
;   topSolidLayers,3
;   bottomSolidLayers,3
;   perimeterOutlines,2
;   printPerimetersInsideOut,1
;   startPointOption,3
;   startPointOriginX,0
;   startPointOriginY,150
;   sequentialIslands,0
;   spiralVaseMode,0
;   firstLayerHeightPercentage,100
;   firstLayerWidthPercentage,115
;   firstLayerUnderspeed,0.5
;   useRaft,0
;   raftExtruder,0
;   raftTopLayers,2
;   raftBaseLayers,1
;   raftOffset,1
;   raftSeparationDistance,0.14
;   raftTopInfill,90
;   aboveRaftSpeedMultiplier,0.3
;   useSkirt,0
;   skirtExtruder,0
;   skirtLayers,1
;   skirtOutlines,5
;   skirtOffset,0
;   usePrimePillar,0
;   primePillarExtruder,999
;   primePillarWidth,12
;   primePillarLocation,7
;   primePillarSpeedMultiplier,1
;   useOozeShield,0
;   oozeShieldExtruder,999
;   oozeShieldOffset,2
;   oozeShieldOutlines,1
;   oozeShieldSidewallShape,1
;   oozeShieldSidewallAngle,30
;   oozeShieldSpeedMultiplier,1
;   infillExtruder,0
;   internalInfillPattern,Rectilinear
;   externalInfillPattern,Rectilinear
;   infillPercentage,15
;   outlineOverlapPercentage,25
;   infillExtrusionWidthPercentage,100
;   minInfillLength,5
;   infillLayerInterval,1
;   internalInfillAngles,45,-45
;   overlapInternalInfillAngles,0
;   externalInfillAngles,45,-45
;   generateSupport,1
;   supportExtruder,0
;   supportInfillPercentage,20
;   supportExtraInflation,0.5
;   supportBaseLayers,0
;   denseSupportExtruder,0
;   denseSupportLayers,2
;   denseSupportInfillPercentage,90
;   supportLayerInterval,1
;   supportHorizontalPartOffset,0.3
;   supportUpperSeparationLayers,1
;   supportLowerSeparationLayers,1
;   supportType,1
;   supportGridSpacing,2
;   maxOverhangAngle,45
;   supportAngles,45,-45
;   temperatureName,Primary Extruder,Heated Build Platform
;   temperatureNumber,0,0
;   temperatureSetpointCount,1,1
;   temperatureSetpointLayers,1,1
;   temperatureSetpointTemperatures,230,60
;   temperatureStabilizeAtStartup,1,1
;   temperatureHeatedBed,0,1
;   fanLayers,1,2
;   fanSpeeds,0,100
;   blipFanToFullPower,1
;   adjustSpeedForCooling,1
;   minSpeedLayerTime,15
;   minCoolingSpeedSlowdown,20
;   increaseFanForCooling,1
;   minFanLayerTime,45
;   maxCoolingFanSpeed,100
;   increaseFanForBridging,1
;   bridgingFanSpeed,100
;   use5D,1
;   relativeEdistances,1
;   allowEaxisZeroing,0
;   independentExtruderAxes,1
;   includeM10123,0
;   stickySupport,1
;   applyToolheadOffsets,0
;   gcodeXoffset,0
;   gcodeYoffset,0
;   gcodeZoffset,0
;   overrideMachineDefinition,1
;   machineTypeOverride,0
;   strokeXoverride,280
;   strokeYoverride,150
;   strokeZoverride,150
;   originOffsetXoverride,140
;   originOffsetYoverride,75
;   originOffsetZoverride,0
;   homeXdirOverride,1
;   homeYdirOverride,1
;   homeZdirOverride,-1
;   flipXoverride,1
;   flipYoverride,-1
;   flipZoverride,1
;   toolheadOffsets,0,0|0,0|0,0|0,0|0,0|0,0
;   overrideFirmwareConfiguration,1
;   firmwareTypeOverride,MakerBot/Sailfish Firmware
;   GPXconfigOverride,r2h
;   baudRateOverride,115200
;   overridePrinterModels,1
;   printerModelsOverride,MakerBot_Replicator2.stl
;   startingGcode,; **** Replicator 2 start.gcode ****,M73 P0 ; enable build progress,G162 X Y F3000 ; home XY maximum,G161 Z F1200 ; home Z minimum,G92 Z-5 ; set Z to -5,G1 Z0 ; move Z to 0,G161 Z F100 ; home Z slowly,M132 X Y Z A B ; recall home offsets,G1 X-145 Y-75 Z30 F9000 ; move to wait position off table,G130 X20 Y20 Z20 A20 B20 ; lower stepper Vrefs while heating,M126 S[fan_speed_pwm],M140 S[bed0_temperature] T0,M134 T0 ; stabilize bed temperature,M104 S[extruder0_temperature] T0,M133 T0 ; stabilize extruder temperature,G130 X127 Y127 Z40 A127 B127 ; default stepper Vrefs,G92 A0 ; zero extruder,G1 Z0.4 ; position nozzle,G1 E25 F300 ; purge nozzle,G1 X-140 Y-70 Z0.15 F1200 ; slow wipe,G1 X-135 Y-65 Z0.5 F1200 ; lift,G92 A0 ; zero extruder,M73 P1 ;@body (notify GPX body has started),; **** end of start.gcode ****
;   layerChangeGcode,
;   retractionGcode,
;   toolChangeGcode,
;   endingGcode,; **** Replicator 2 end.gcode ****,M73 P100 ; end build progress,G1 Z155 F1000 ; send Z axis to bottom of machine,M104 S0 T0 ; cool down extruder,M140 S0 T0 ; cool down HBP,M127 ; stop blower fan,G162 X Y F3000 ; home XY maximum,M18 ; disable stepper,M0 ; stop codes,M72 P1 ; play Ta-Da song,; **** end of end.gcode ****
;   exportFileFormat,gcode
;   celebration,0
;   celebrationSong,Random Song
;   postProcessing,
;   defaultSpeed,4800
;   outlineUnderspeed,0.5
;   solidInfillUnderspeed,1
;   supportUnderspeed,1
;   rapidXYspeed,9000
;   rapidZspeed,1200
;   minBridgingArea,50
;   bridgingExtraInflation,0
;   bridgingExtrusionMultiplier,1
;   bridgingSpeedMultiplier,0.8
;   useFixedBridgingAngle,0
;   fixedBridgingAngle,0
;   applyBridgingToPerimeters,0
;   filamentDiameters,1.75|1.75|1.75|1.75|1.75|1.75
;   filamentPricesPerKg,46|46|46|46|46|46
;   filamentDensities,1.25|1.25|1.25|1.25|1.25|1.25
;   useMinPrintHeight,0
;   minPrintHeight,0
;   useMaxPrintHeight,0
;   maxPrintHeight,4.84
;   useDiaphragm,0
;   diaphragmLayerInterval,20
;   robustSlicing,1
;   mergeAllIntoSolid,0
;   onlyRetractWhenCrossingOutline,0
;   retractBetweenLayers,0
;   useRetractionMinTravel,1
;   retractionMinTravel,7
;   retractWhileWiping,1
;   onlyWipeOutlines,1
;   avoidCrossingOutline,0
;   maxMovementDetourFactor,3
;   toolChangeRetractionDistance,12
;   toolChangeExtraRestartDistance,-0.5
;   toolChangeRetractionSpeed,600
;   externalThinWallType,0
;   internalThinWallType,0
;   thinWallAllowedOverlapPercentage,10
;   singleExtrusionMinLength,1
;   singleExtrusionMinPrintingWidthPercentage,50
;   singleExtrusionMaxPrintingWidthPercentage,200
;   singleExtrusionEndpointExtension,0.2
;   horizontalSizeCompensation,0
G90
M83
; **** Replicator 2 start.gcode ****
M73 P0 ; enable build progress
G162 X Y F3000 ; home XY maximum
G161 Z F1200 ; home Z minimum
G92 Z-5 ; set Z to -5
G1 Z0 ; move Z to 0
G161 Z F100 ; home Z slowly
M132 X Y Z A B ; recall home offsets
G1 X-145 Y-75 Z30 F9000 ; move to wait position off table
G130 X20 Y20 Z20 A20 B20 ; lower stepper Vrefs while heating
M127
M140 S60 T0
M134 T0 ; stabilize bed temperature
M104 S230 T0
M133 T0 ; stabilize extruder temperature
G130 X127 Y127 Z40 A127 B127 ; default stepper Vrefs
G92 A0 ; zero extruder
G1 Z0.4 ; position nozzle
G1 E25 F300 ; purge nozzle
G1 X-140 Y-70 Z0.15 F1200 ; slow wipe
G1 X-135 Y-65 Z0.5 F1200 ; lift
G92 A0 ; zero extruder
M73 P1 ;@body (notify GPX body has started)
; **** end of start.gcode ****
; process Process1
; layer 1, Z = 0.200
M135 T0
G1 E-1.9000 F1200
; feature inner perimeter
; tool H0.200 W0.460
G1 Z0.500 F1200
G1 X-3.190 Y0.969 F9000
G1 Z0.200 F1200
G1 E1.9000 F1200
G1 X-64.687 Y0.969 E2.3522 F1800
G1 X-64.817 Y0.872 E0.0062
G1 X-64.883 Y0.779 E0.0043
G1 X-64.962 Y0.714 E0.0039
G1 X-65.308 Y-0.094 E0.0336
G1 X-66.059 Y-0.435 E0.0315
G1 X-66.496 Y-0.921 E0.0250
G1 X-66.967 Y-1.320 E0.0236
G1 X-67.321 Y-1.556 E0.0163
G1 X-67.901 Y-1.904 E0.0259
G1 X-68.695 Y-2.132 E0.0316
G1 X-69.142 Y-2.669 E0.0267
G1 X-69.142 Y-10.982 E0.3180
G1 X-3.190 Y-10.982 E2.5226
G1 X-3.190 Y0.969 E0.4571
; feature outer perimeter
G1 X-2.730 Y1.429 F9000
G1 X-64.839 Y1.429 E2.3756 F1200
G1 X-65.150 Y1.197 E0.0148
G1 X-65.222 Y1.095 E0.0048
G1 X-65.341 Y0.998 E0.0059
G1 X-65.661 Y0.251 E0.0311
G1 X-66.336 Y-0.056 E0.0284
G1 X-66.817 Y-0.590 E0.0275
G1 X-67.244 Y-0.952 E0.0214
G1 X-67.567 Y-1.167 E0.0148
G1 X-68.086 Y-1.478 E0.0232
G1 X-68.951 Y-1.727 E0.0344
G1 X-68.961 Y-1.733 E0.0005
G1 X-69.515 Y-2.397 E0.0331
G1 X-69.602 Y-2.479 E0.0046
G1 X-69.602 Y-11.442 E0.3428
G1 X-2.730 Y-11.442 E2.5578
G1 X-2.730 Y1.429 E0.4923
G1 E-1.9000 F1200
; feature solid layer
G1 Z0.700 F1200
G1 X-4.132 Y-10.637 F9000
G1 Z0.200 F1200
G1 E1.9000 F1200
G1 X-3.535 Y-10.040 E0.0323 F2400
G1 X-3.535 Y-9.390 E0.0249
G1 X-4.782 Y-10.637 E0.0675
G1 X-5.433 Y-10.637 E0.0249
G1 X-3.535 Y-8.739 E0.1027
G1 X-3.535 Y-8.089 E0.0249
G1 X-6.083 Y-10.637 E0.1378
G1 X-6.734 Y-10.637 E0.0249
G1 X-3.535 Y-7.438 E0.1730
G1 X-3.535 Y-6.788 E0.0249
G1 X-7.384 Y-10.637 E0.2082
G1 X-8.035 Y-10.637 E0.0249
G1 X-3.535 Y-6.137 E0.2434
G1 X-3.535 Y-5.487 E0.0249
G1 X-8.685 Y-10.637 E0.2786
G1 X-9.336 Y-10.637 E0.0249
G1 X-3.535 Y-4.836 E0.3138
G1 X-3.535 Y-4.186 E0.0249
G1 X-9.986 Y-10.637 E0.3490
G1 X-10.637 Y-10.637 E0.0249
G1 X-3.535 Y-3.535 E0.3842
G1 X-3.535 Y-2.884 E0.0249
G1 X-11.288 Y-10.637 E0.4194
G1 X-11.938 Y-10.637 E0.0249
G1 X-3.535 Y-2.234 E0.4545
G1 X-3.535 Y-1.583 E0.0249
G1 X-12.589 Y-10.637 E0.4897
G1 X-13.239 Y-10.637 E0.0249
G1 X-3.535 Y-0.933 E0.5249
G1 X-3.535 Y-0.282 E0.0249
G1 X-13.890 Y-10.637 E0.5601
G1 X-14.540 Y-10.637 E0.0249
G1 X-3.535 Y0.368 E0.5953
G1 X-3.535 Y0.624 E0.0098
G1 X-3.930 Y0.624 E0.0151
G1 X-15.191 Y-10.637 E0.6091
G1 X-15.841 Y-10.637 E0.0249
G1 X-4.580 Y0.624 E0.6091
G1 X-5.231 Y0.624 E0.0249
G1 X-16.492 Y-10.637 E0.6091
G1 X-17.142 Y-10.637 E0.0249
G1 X-5.881 Y0.624 E0.6091
G1 X-6.532 Y0.624 E0.0249
G1 X-17.793 Y-10.637 E0.6091
G1 X-18.443 Y-10.637 E0.0249
G1 X-7.182 Y0.624 E0.6091
G1 X-7.833 Y0.624 E0.0249
G1 X-19.094 Y-10.637 E0.6091
G1 X-19.745 Y-10.637 E0.0249
G1 X-8.483 Y0.624 E0.6091
G1 X-9.134 Y0.624 E0.0249
G1 X-20.395 Y-10.637 E0.6091
G1 X-21.046 Y-10.637 E0.0249
G1 X-9.785 Y0.624 E0.6091
G1 X-10.435 Y0.624 E0.0249
G1 X-21.696 Y-10.637 E0.6091
G1 X-22.347 Y-10.637 E0.0249
G1 X-11.086 Y0.624 E0.6091
G1 X-11.736 Y0.624 E0.0249
G1 X-22.997 Y-10.637 E0.6091
G1 X-23.648 Y-10.637 E0.0249
G1 X-12.387 Y0.624 E0.6091
G1 X-13.037 Y0.624 E0.0249
G1 X-24.298 Y-10.637 E0.6091
G1 X-24.949 Y-10.637 E0.0249
G1 X-13.688 Y0.624 E0.6091
G1 X-14.338 Y0.624 E0.0249
G1 X-25.599 Y-10.637 E0.6091
G1 X-26.250 Y-10.637 E0.0249
G1 X-14.989 Y0.624 E0.6091
G1 X-15.639 Y0.624 E0.0249
G1 X-26.900 Y-10.637 E0.6091
G1 X-27.551 Y-10.637 E0.0249
G1 X-16.290 Y0.624 E0.6091
G1 X-16.940 Y0.624 E0.0249
G1 X-28.202 Y-10.637 E0.6091
G1 X-28.852 Y-10.637 E0.0249
G1 X-17.591 Y0.624 E0.6091
G1 X-18.242 Y0.624 E0.0249
G1 X-29.503 Y-10.637 E0.6091
G1 X-30.153 Y-10.637 E0.0249
G1 X-18.892 Y0.624 E0.6091
G1 X-19.543 Y0.624 E0.0249
G1 X-30.804 Y-10.637 E0.6091
G1 X-31.454 Y-10.637 E0.0249
G1 X-20.193 Y0.624 E0.6091
G1 X-20.844 Y0.624 E0.0249
G1 X-32.105 Y-10.637 E0.6091
G1 X-32.755 Y-10.637 E0.0249
G1 X-21.494 Y0.624 E0.6091
G1 X-22.145 Y0.624 E0.0249
G1 X-33.406 Y-10.637 E0.6091
G1 X-34.056 Y-10.637 E0.0249
G1 X-22.795 Y0.624 E0.6091
G1 X-23.446 Y0.624 E0.0249
G1 X-34.707 Y-10.637 E0.6091
G1 X-35.357 Y-10.637 E0.0249
G1 X-24.096 Y0.624 E0.6091
G1 X-24.747 Y0.624 E0.0249
G1 X-36.008 Y-10.637 E0.6091
G1 X-36.659 Y-10.637 E0.0249
G1 X-25.397 Y0.624 E0.6091
G1 X-26.048 Y0.624 E0.0249
G1 X-37.309 Y-10.637 E0.6091
G1 X-37.960 Y-10.637 E0.0249
G1 X-26.699 Y0.624 E0.6091
G1 X-27.349 Y0.624 E0.0249
G1 X-38.610 Y-10.637 E0.6091
G1 X-39.261 Y-10.637 E0.0249
G1 X-28.000 Y0.624 E0.6091
G1 X-28.650 Y0.624 E0.0249
G1 X-39.911 Y-10.637 E0.6091
G1 X-40.562 Y-10.637 E0.0249
G1 X-29.301 Y0.624 E0.6091
G1 X-29.951 Y0.624 E0.0249
G1 X-41.212 Y-10.637 E0.6091
G1 X-41.863 Y-10.637 E0.0249
G1 X-30.602 Y0.624 E0.6091
G1 X-31.252 Y0.624 E0.0249
G1 X-42.513 Y-10.637 E0.6091
G1 X-43.164 Y-10.637 E0.0249
G1 X-31.903 Y0.624 E0.6091
G1 X-32.553 Y0.624 E0.0249
G1 X-43.814 Y-10.637 E0.6091
G1 X-44.465 Y-10.637 E0.0249
G1 X-33.204 Y0.624 E0.6091
G1 X-33.854 Y0.624 E0.0249
G1 X-45.116 Y-10.637 E0.6091
G1 X-45.766 Y-10.637 E0.0249
G1 X-34.505 Y0.624 E0.6091
G1 X-35.156 Y0.624 E0.0249
G1 X-46.417 Y-10.637 E0.6091
G1 X-47.067 Y-10.637 E0.0249
G1 X-35.806 Y0.624 E0.6091
G1 X-36.457 Y0.624 E0.0249
G1 X-47.718 Y-10.637 E0.6091
G1 X-48.368 Y-10.637 E0.0249
G1 X-37.107 Y0.624 E0.6091
G1 X-37.758 Y0.624 E0.0249
G1 X-49.019 Y-10.637 E0.6091
G1 X-49.669 Y-10.637 E0.0249
G1 X-38.408 Y0.624 E0.6091
G1 X-39.059 Y0.624 E0.0249
G1 X-50.320 Y-10.637 E0.6091
G1 X-50.970 Y-10.637 E0.0249
G1 X-39.709 Y0.624 E0.6091
G1 X-40.360 Y0.624 E0.0249
G1 X-51.621 Y-10.637 E0.6091
G1 X-52.271 Y-10.637 E0.0249
G1 X-41.010 Y0.624 E0.6091
G1 X-41.661 Y0.624 E0.0249
G1 X-52.922 Y-10.637 E0.6091
G1 X-53.573 Y-10.637 E0.0249
G1 X-42.311 Y0.624 E0.6091
G1 X-42.962 Y0.624 E0.0249
G1 X-54.223 Y-10.637 E0.6091
G1 X-54.874 Y-10.637 E0.0249
G1 X-43.613 Y0.624 E0.6091
G1 X-44.263 Y0.624 E0.0249
G1 X-55.524 Y-10.637 E0.6091
G1 X-56.175 Y-10.637 E0.0249
G1 X-44.914 Y0.624 E0.6091
G1 X-45.564 Y0.624 E0.0249
G1 X-56.825 Y-10.637 E0.6091
G1 X-57.476 Y-10.637 E0.0249
G1 X-46.215 Y0.624 E0.6091
G1 X-46.865 Y0.624 E0.0249
G1 X-58.126 Y-10.637 E0.6091
G1 X-58.777 Y-10.637 E0.0249
G1 X-47.516 Y0.624 E0.6091
G1 X-48.166 Y0.624 E0.0249
G1 X-59.427 Y-10.637 E0.6091
G1 X-60.078 Y-10.637 E0.0249
G1 X-48.817 Y0.624 E0.6091
G1 X-49.467 Y0.624 E0.0249
G1 X-60.728 Y-10.637 E0.6091
G1 X-61.379 Y-10.637 E0.0249
G1 X-50.118 Y0.624 E0.6091
G1 X-50.768 Y0.624 E0.0249
G1 X-62.030 Y-10.637 E0.6091
G1 X-62.680 Y-10.637 E0.0249
G1 X-51.419 Y0.624 E0.6091
G1 X-52.070 Y0.624 E0.0249
G1 X-63.331 Y-10.637 E0.6091
G1 X-63.981 Y-10.637 E0.0249
G1 X-52.720 Y0.624 E0.6091
G1 X-53.371 Y0.624 E0.0249
G1 X-64.632 Y-10.637 E0.6091
G1 X-65.282 Y-10.637 E0.0249
G1 X-54.021 Y0.624 E0.6091
G1 X-54.672 Y0.624 E0.0249
G1 X-65.933 Y-10.637 E0.6091
G1 X-66.583 Y-10.637 E0.0249
G1 X-55.322 Y0.624 E0.6091
G1 X-55.973 Y0.624 E0.0249
G1 X-67.234 Y-10.637 E0.6091
G1 X-67.884 Y-10.637 E0.0249
G1 X-56.623 Y0.624 E0.6091
G1 X-57.274 Y0.624 E0.0249
G1 X-68.535 Y-10.637 E0.6091
G1 X-68.797 Y-10.637 E0.0100
G1 X-68.797 Y-10.249 E0.0149
G1 X-57.924 Y0.624 E0.5881
G1 X-58.575 Y0.624 E0.0249
G1 X-68.797 Y-9.598 E0.5529
G1 X-68.797 Y-8.948 E0.0249
G1 X-59.225 Y0.624 E0.5178
G1 X-59.876 Y0.624 E0.0249
G1 X-68.797 Y-8.297 E0.4826
G1 X-68.797 Y-7.647 E0.0249
G1 X-60.527 Y0.624 E0.4474
G1 X-61.177 Y0.624 E0.0249
G1 X-68.797 Y-6.996 E0.4122
G1 X-68.797 Y-6.345 E0.0249
G1 X-61.828 Y0.624 E0.3770
G1 X-62.478 Y0.624 E0.0249
G1 X-68.797 Y-5.695 E0.3418
G1 X-68.797 Y-5.044 E0.0249
G1 X-63.129 Y0.624 E0.3066
G1 X-63.779 Y0.624 E0.0249
G1 X-68.797 Y-4.394 E0.2714
G1 X-68.797 Y-3.743 E0.0249
G1 X-65.709 Y-0.655 E0.1671
G1 X-65.850 Y-0.719 E0.0059
G1 X-66.256 Y-1.169 E0.0232
G1 X-66.759 Y-1.596 E0.0252
G1 X-67.136 Y-1.847 E0.0173
G1 X-67.762 Y-2.223 E0.0279
G1 X-67.994 Y-2.289 E0.0092
G1 X-68.797 Y-3.093 E0.0435
G1 X-64.771 Y0.282 F9000
G1 X-64.430 Y0.624 E0.0185 F2400
G1 E-1.9000 F1200
; feature inner perimeter
G1 Z0.700 F1200
G1 X-3.190 Y29.313 F9000
G1 Z0.200 F1200
G1 E1.9000 F1200
G1 X-64.687 Y29.313 E2.3522 F1800
G1 X-64.817 Y29.216 E0.0062
G1 X-64.883 Y29.123 E0.0043
G1 X-64.962 Y29.058 E0.0039
G1 X-65.308 Y28.250 E0.0336
G1 X-66.059 Y27.909 E0.0315
G1 X-66.496 Y27.423 E0.0250
G1 X-66.967 Y27.025 E0.0236
G1 X-67.321 Y26.788 E0.0163
G1 X-67.901 Y26.440 E0.0259
G1 X-68.695 Y26.212 E0.0316
G1 X-69.142 Y25.675 E0.0267
G1 X-69.142 Y17.362 E0.3180
G1 X-3.190 Y17.362 E2.5226
G1 X-3.190 Y29.313 E0.4571
; feature outer perimeter
G1 X-2.730 Y29.773 F9000
G1 X-64.839 Y29.773 E2.3756 F1200
G1 X-65.150 Y29.541 E0.0148
G1 X-65.222 Y29.439 E0.0048
G1 X-65.341 Y29.342 E0.0059
G1 X-65.661 Y28.595 E0.0311
G1 X-66.336 Y28.288 E0.0284
G1 X-66.817 Y27.754 E0.0275
G1 X-67.244 Y27.393 E0.0214
G1 X-67.567 Y27.177 E0.0148
G1 X-68.086 Y26.866 E0.0232
G1 X-68.951 Y26.617 E0.0344
G1 X-68.961 Y26.611 E0.0005
