; G-Code generated by Simplify3D(R) Version 4.1.2
; Apr 6, 2020 at 12:40:52 PM
; Settings Summary
;   processName,Process1
;   applyToModels,Newton Bracket,Newton Bracket(2)
;   profileName,MakerBot Replicator 2 HBP (modified)
;   profileVersion,2019-08-23 15:32:08
;   baseProfile,MakerBot Replicator 2(2)
;   printMaterial,PLA
;   printQuality,Medium
;   printExtruders,
;   extruderName,Primary Extruder
;   extruderToolheadNumber,0
;   extruderDiameter,0.4
;   extruderAutoWidth,0
;   extruderWidth,0.4
;   extrusionMultiplier,1
;   extruderUseRetract,1
;   extruderRetractionDistance,1
;   extruderExtraRestartDistance,0
;   extruderRetractionZLift,0.5
;   extruderRetractionSpeed,1200
;   extruderUseCoasting,0
;   extruderCoastingDistance,0.2
;   extruderUseWipe,0
;   extruderWipeDistance,5
;   primaryExtruder,0
;   layerHeight,0.2
;   topSolidLayers,3
;   bottomSolidLayers,3
;   perimeterOutlines,2
;   printPerimetersInsideOut,1
;   startPointOption,3
;   startPointOriginX,0
;   startPointOriginY,150
;   sequentialIslands,0
;   spiralVaseMode,0
;   firstLayerHeightPercentage,100
;   firstLayerWidthPercentage,100
;   firstLayerUnderspeed,0.5
;   useRaft,0
;   raftExtruder,0
;   raftTopLayers,2
;   raftBaseLayers,1
;   raftOffset,1
;   raftSeparationDistance,0.14
;   raftTopInfill,90
;   aboveRaftSpeedMultiplier,0.3
;   useSkirt,0
;   skirtExtruder,0
;   skirtLayers,1
;   skirtOutlines,5
;   skirtOffset,0
;   usePrimePillar,0
;   primePillarExtruder,999
;   primePillarWidth,12
;   primePillarLocation,7
;   primePillarSpeedMultiplier,1
;   useOozeShield,0
;   oozeShieldExtruder,999
;   oozeShieldOffset,2
;   oozeShieldOutlines,1
;   oozeShieldSidewallShape,1
;   oozeShieldSidewallAngle,30
;   oozeShieldSpeedMultiplier,1
;   infillExtruder,0
;   internalInfillPattern,Rectilinear
;   externalInfillPattern,Rectilinear
;   infillPercentage,15
;   outlineOverlapPercentage,20
;   infillExtrusionWidthPercentage,100
;   minInfillLength,5
;   infillLayerInterval,1
;   internalInfillAngles,45,-45
;   overlapInternalInfillAngles,0
;   externalInfillAngles,45,-45
;   generateSupport,1
;   supportExtruder,0
;   supportInfillPercentage,10
;   supportExtraInflation,0.5
;   supportBaseLayers,0
;   denseSupportExtruder,0
;   denseSupportLayers,2
;   denseSupportInfillPercentage,70
;   supportLayerInterval,1
;   supportHorizontalPartOffset,0.3
;   supportUpperSeparationLayers,1
;   supportLowerSeparationLayers,1
;   supportType,0
;   supportGridSpacing,2
;   maxOverhangAngle,45
;   supportAngles,0
;   temperatureName,Primary Extruder,Heated Build Platform
;   temperatureNumber,0,0
;   temperatureSetpointCount,1,1
;   temperatureSetpointLayers,1,1
;   temperatureSetpointTemperatures,230,60
;   temperatureStabilizeAtStartup,1,1
;   temperatureHeatedBed,0,1
;   fanLayers,1,2
;   fanSpeeds,0,100
;   blipFanToFullPower,1
;   adjustSpeedForCooling,1
;   minSpeedLayerTime,15
;   minCoolingSpeedSlowdown,20
;   increaseFanForCooling,1
;   minFanLayerTime,45
;   maxCoolingFanSpeed,100
;   increaseFanForBridging,1
;   bridgingFanSpeed,100
;   use5D,1
;   relativeEdistances,1
;   allowEaxisZeroing,0
;   independentExtruderAxes,1
;   includeM10123,0
;   stickySupport,1
;   applyToolheadOffsets,0
;   gcodeXoffset,0
;   gcodeYoffset,0
;   gcodeZoffset,0
;   overrideMachineDefinition,1
;   machineTypeOverride,0
;   strokeXoverride,280
;   strokeYoverride,150
;   strokeZoverride,150
;   originOffsetXoverride,140
;   originOffsetYoverride,75
;   originOffsetZoverride,0
;   homeXdirOverride,1
;   homeYdirOverride,1
;   homeZdirOverride,-1
;   flipXoverride,1
;   flipYoverride,-1
;   flipZoverride,1
;   toolheadOffsets,0,0|0,0|0,0|0,0|0,0|0,0
;   overrideFirmwareConfiguration,1
;   firmwareTypeOverride,MakerBot/Sailfish Firmware
;   GPXconfigOverride,r2h
;   baudRateOverride,115200
;   overridePrinterModels,1
;   printerModelsOverride,MakerBot_Replicator2.stl
;   startingGcode,; **** Replicator 2 start.gcode ****,M73 P0 ; enable build progress,G162 X Y F3000 ; home XY maximum,G161 Z F1200 ; home Z minimum,G92 Z-5 ; set Z to -5,G1 Z0 ; move Z to 0,G161 Z F100 ; home Z slowly,M132 X Y Z A B ; recall home offsets,G1 X-145 Y-75 Z30 F9000 ; move to wait position off table,G130 X20 Y20 Z20 A20 B20 ; lower stepper Vrefs while heating,M126 S[fan_speed_pwm],M140 S[bed0_temperature] T0,M134 T0 ; stabilize bed temperature,M104 S[extruder0_temperature] T0,M133 T0 ; stabilize extruder temperature,G130 X127 Y127 Z40 A127 B127 ; default stepper Vrefs,G92 A0 ; zero extruder,G1 Z0.4 ; position nozzle,G1 E25 F300 ; purge nozzle,G1 X-140 Y-70 Z0.15 F1200 ; slow wipe,G1 X-135 Y-65 Z0.5 F1200 ; lift,G92 A0 ; zero extruder,M73 P1 ;@body (notify GPX body has started),; **** end of start.gcode ****
;   layerChangeGcode,
;   retractionGcode,
;   toolChangeGcode,
;   endingGcode,; **** Replicator 2 end.gcode ****,M73 P100 ; end build progress,G1 Z155 F1000 ; send Z axis to bottom of machine,M104 S0 T0 ; cool down extruder,M140 S0 T0 ; cool down HBP,M127 ; stop blower fan,G162 X Y F3000 ; home XY maximum,M18 ; disable stepper,M0 ; stop codes,M72 P1 ; play Ta-Da song,; **** end of end.gcode ****
;   exportFileFormat,gcode
;   celebration,0
;   celebrationSong,Random Song
;   postProcessing,
;   defaultSpeed,4800
;   outlineUnderspeed,0.5
;   solidInfillUnderspeed,1
;   supportUnderspeed,1
;   rapidXYspeed,9000
;   rapidZspeed,1200
;   minBridgingArea,50
;   bridgingExtraInflation,0
;   bridgingExtrusionMultiplier,1
;   bridgingSpeedMultiplier,0.8
;   useFixedBridgingAngle,0
;   fixedBridgingAngle,0
;   applyBridgingToPerimeters,0
;   filamentDiameters,1.75|1.75|1.75|1.75|1.75|1.75
;   filamentPricesPerKg,46|46|46|46|46|46
;   filamentDensities,1.25|1.25|1.25|1.25|1.25|1.25
;   useMinPrintHeight,0
;   minPrintHeight,0
;   useMaxPrintHeight,0
;   maxPrintHeight,4.84
;   useDiaphragm,0
;   diaphragmLayerInterval,20
;   robustSlicing,1
;   mergeAllIntoSolid,0
;   onlyRetractWhenCrossingOutline,0
;   retractBetweenLayers,0
;   useRetractionMinTravel,1
;   retractionMinTravel,7
;   retractWhileWiping,1
;   onlyWipeOutlines,1
;   avoidCrossingOutline,0
;   maxMovementDetourFactor,3
;   toolChangeRetractionDistance,12
;   toolChangeExtraRestartDistance,-0.5
;   toolChangeRetractionSpeed,600
;   externalThinWallType,0
;   internalThinWallType,0
;   thinWallAllowedOverlapPercentage,10
;   singleExtrusionMinLength,1
;   singleExtrusionMinPrintingWidthPercentage,50
;   singleExtrusionMaxPrintingWidthPercentage,200
;   singleExtrusionEndpointExtension,0.2
;   horizontalSizeCompensation,0
G90
M83
; **** Replicator 2 start.gcode ****
M73 P0 ; enable build progress
G162 X Y F3000 ; home XY maximum
G161 Z F1200 ; home Z minimum
G92 Z-5 ; set Z to -5
G1 Z0 ; move Z to 0
G161 Z F100 ; home Z slowly
M132 X Y Z A B ; recall home offsets
G1 X-145 Y-75 Z30 F9000 ; move to wait position off table
G130 X20 Y20 Z20 A20 B20 ; lower stepper Vrefs while heating
M126 S67
M140 S60 T0
M134 T0 ; stabilize bed temperature
M104 S230 T0
M133 T0 ; stabilize extruder temperature
G130 X127 Y127 Z40 A127 B127 ; default stepper Vrefs
G92 A0 ; zero extruder
G1 Z0.4 ; position nozzle
G1 E25 F300 ; purge nozzle
G1 X-140 Y-70 Z0.15 F1200 ; slow wipe
G1 X-135 Y-65 Z0.5 F1200 ; lift
G92 A0 ; zero extruder
M73 P1 ;@body (notify GPX body has started)
; **** end of start.gcode ****
; process Process1
; layer 1, Z = 0.200
M135 T0
G1 E-1.0000 F1200
; feature inner perimeter
; tool H0.200 W0.400
G1 Z0.500 F1200
G1 X-5.559 Y-0.779 F9000
G1 Z0.200 F1200
G1 E1.0000 F1200
G1 X-14.696 Y-0.779 E0.3039 F1800
G1 X-14.697 Y-5.977 E0.1729
G1 X-5.559 Y-5.977 E0.3039
G1 X-5.559 Y-0.779 E0.1729
; feature outer perimeter
G1 X-5.159 Y-0.379 F9000
G1 X-15.096 Y-0.379 E0.3305 F1200
G1 X-15.097 Y-6.377 E0.1995
G1 X-5.159 Y-6.377 E0.3305
G1 X-5.159 Y-0.379 E0.1995
; feature solid layer
G1 X-6.223 Y-5.657 F9000
G1 X-5.879 Y-5.313 E0.0162 F2400
G1 X-5.879 Y-4.748 E0.0188
G1 X-6.788 Y-5.657 E0.0428
G1 X-7.354 Y-5.657 E0.0188
G1 X-5.879 Y-4.182 E0.0694
G1 X-5.879 Y-3.616 E0.0188
G1 X-7.920 Y-5.657 E0.0960
G1 X-8.485 Y-5.657 E0.0188
G1 X-5.879 Y-3.051 E0.1226
G1 X-5.879 Y-2.485 E0.0188
G1 X-9.051 Y-5.657 E0.1492
G1 X-9.617 Y-5.657 E0.0188
G1 X-5.879 Y-1.919 E0.1758
G1 X-5.879 Y-1.354 E0.0188
G1 X-10.183 Y-5.657 E0.2024
G1 X-10.748 Y-5.657 E0.0188
G1 X-6.190 Y-1.099 E0.2144
G1 X-6.756 Y-1.099 E0.0188
G1 X-11.314 Y-5.657 E0.2144
G1 X-11.880 Y-5.657 E0.0188
G1 X-7.322 Y-1.099 E0.2144
G1 X-7.887 Y-1.099 E0.0188
G1 X-12.445 Y-5.657 E0.2144
G1 X-13.011 Y-5.657 E0.0188
G1 X-8.453 Y-1.099 E0.2144
G1 X-9.019 Y-1.099 E0.0188
G1 X-13.577 Y-5.657 E0.2144
G1 X-14.142 Y-5.657 E0.0188
G1 X-9.584 Y-1.099 E0.2144
G1 X-10.150 Y-1.099 E0.0188
G1 X-14.376 Y-5.325 E0.1988
G1 X-14.376 Y-4.760 E0.0188
G1 X-10.716 Y-1.099 E0.1722
G1 X-11.281 Y-1.099 E0.0188
G1 X-14.376 Y-4.194 E0.1456
G1 X-14.376 Y-3.628 E0.0188
G1 X-11.847 Y-1.099 E0.1190
G1 X-12.413 Y-1.099 E0.0188
G1 X-14.376 Y-3.062 E0.0923
G1 X-14.376 Y-2.497 E0.0188
G1 X-12.979 Y-1.099 E0.0657
G1 X-13.544 Y-1.099 E0.0188
G1 X-14.376 Y-1.931 E0.0391
G1 X-14.376 Y-1.365 E0.0188
G1 X-14.110 Y-1.099 E0.0125
G1 E-1.0000 F1200
; feature inner perimeter
G1 Z0.700 F1200
G1 X-28.691 Y-0.779 F9000
G1 Z0.200 F1200
G1 E1.0000 F1200
G1 X-37.828 Y-0.779 E0.3039 F1800
G1 X-37.828 Y-5.977 E0.1729
G1 X-28.690 Y-5.977 E0.3039
G1 X-28.691 Y-0.779 E0.1729
; feature outer perimeter
G1 X-28.291 Y-0.379 F9000
G1 X-38.228 Y-0.379 E0.3305 F1200
G1 X-38.228 Y-6.377 E0.1995
G1 X-28.290 Y-6.377 E0.3305
G1 X-28.291 Y-0.379 E0.1995
; feature solid layer
G1 X-29.416 Y-5.657 F9000
G1 X-29.010 Y-5.252 E0.0191 F2400
G1 X-29.010 Y-4.686 E0.0188
G1 X-29.982 Y-5.657 E0.0457
G1 X-30.547 Y-5.657 E0.0188
G1 X-29.011 Y-4.120 E0.0723
G1 X-29.011 Y-3.555 E0.0188
G1 X-31.113 Y-5.657 E0.0989
G1 X-31.679 Y-5.657 E0.0188
G1 X-29.011 Y-2.989 E0.1255
G1 X-29.011 Y-2.424 E0.0188
G1 X-32.244 Y-5.657 E0.1521
G1 X-32.810 Y-5.657 E0.0188
G1 X-29.011 Y-1.858 E0.1787
G1 X-29.011 Y-1.292 E0.0188
G1 X-33.376 Y-5.657 E0.2053
G1 X-33.941 Y-5.657 E0.0188
G1 X-29.383 Y-1.099 E0.2144
G1 X-29.949 Y-1.099 E0.0188
G1 X-34.507 Y-5.657 E0.2144
G1 X-35.073 Y-5.657 E0.0188
G1 X-30.515 Y-1.099 E0.2144
G1 X-31.080 Y-1.099 E0.0188
G1 X-35.638 Y-5.657 E0.2144
G1 X-36.204 Y-5.657 E0.0188
G1 X-31.646 Y-1.099 E0.2144
G1 X-32.212 Y-1.099 E0.0188
G1 X-36.770 Y-5.657 E0.2144
G1 X-37.335 Y-5.657 E0.0188
G1 X-32.778 Y-1.099 E0.2144
G1 X-33.343 Y-1.099 E0.0188
G1 X-37.508 Y-5.264 E0.1959
G1 X-37.508 Y-4.698 E0.0188
G1 X-33.909 Y-1.099 E0.1693
G1 X-34.475 Y-1.099 E0.0188
G1 X-37.508 Y-4.132 E0.1427
G1 X-37.508 Y-3.567 E0.0188
G1 X-35.040 Y-1.099 E0.1161
G1 X-35.606 Y-1.099 E0.0188
G1 X-37.508 Y-3.001 E0.0895
G1 X-37.508 Y-2.435 E0.0188
G1 X-36.172 Y-1.099 E0.0628
G1 X-36.737 Y-1.099 E0.0188
G1 X-37.508 Y-1.870 E0.0362
G1 X-37.508 Y-1.304 E0.0188
G1 X-37.303 Y-1.099 E0.0096
G1 E-1.0000 F1200
; feature inner perimeter
G1 Z0.700 F1200
G1 X5.559 Y-0.779 F9000
G1 Z0.200 F1200
G1 E1.0000 F1200
G1 X5.559 Y-5.977 E0.1729 F1800
G1 X14.697 Y-5.977 E0.3039
G1 X14.696 Y-0.779 E0.1729
G1 X5.559 Y-0.779 E0.3039
; feature outer perimeter
G1 X5.159 Y-0.379 F9000
G1 X5.159 Y-6.377 E0.1995 F1200
G1 X15.097 Y-6.377 E0.3305
G1 X15.096 Y-0.379 E0.1995
G1 X5.159 Y-0.379 E0.3305
; feature solid layer
G1 X6.255 Y-1.099 F9000
G1 X5.879 Y-1.475 E0.0177 F2400
G1 X5.879 Y-2.040 E0.0188
G1 X6.820 Y-1.099 E0.0443
G1 X7.386 Y-1.099 E0.0188
G1 X5.879 Y-2.606 E0.0709
G1 X5.879 Y-3.172 E0.0188
G1 X7.952 Y-1.099 E0.0975
G1 X8.518 Y-1.099 E0.0188
G1 X5.879 Y-3.738 E0.1241
G1 X5.879 Y-4.303 E0.0188
G1 X9.083 Y-1.099 E0.1507
G1 X9.649 Y-1.099 E0.0188
G1 X5.879 Y-4.869 E0.1773
G1 X5.879 Y-5.435 E0.0188
G1 X10.215 Y-1.099 E0.2039
G1 X10.780 Y-1.099 E0.0188
G1 X6.222 Y-5.657 E0.2144
G1 X6.788 Y-5.657 E0.0188
G1 X11.346 Y-1.099 E0.2144
G1 X11.912 Y-1.099 E0.0188
G1 X7.354 Y-5.657 E0.2144
G1 X7.919 Y-5.657 E0.0188
G1 X12.477 Y-1.099 E0.2144
G1 X13.043 Y-1.099 E0.0188
G1 X8.485 Y-5.657 E0.2144
G1 X9.051 Y-5.657 E0.0188
G1 X13.609 Y-1.099 E0.2144
G1 X14.174 Y-1.099 E0.0188
G1 X9.616 Y-5.657 E0.2144
G1 X10.182 Y-5.657 E0.0188
G1 X14.376 Y-1.463 E0.1973
G1 X14.376 Y-2.029 E0.0188
G1 X10.748 Y-5.657 E0.1707
G1 X11.314 Y-5.657 E0.0188
G1 X14.376 Y-2.595 E0.1440
G1 X14.376 Y-3.160 E0.0188
G1 X11.879 Y-5.657 E0.1174
G1 X12.445 Y-5.657 E0.0188
G1 X14.376 Y-3.726 E0.0908
G1 X14.376 Y-4.291 E0.0188
G1 X13.011 Y-5.657 E0.0642
G1 X13.576 Y-5.657 E0.0188
G1 X14.376 Y-4.857 E0.0376
G1 X14.376 Y-5.423 E0.0188
G1 X14.142 Y-5.657 E0.0110
G1 E-1.0000 F1200
; feature inner perimeter
G1 Z0.700 F1200
G1 X28.691 Y-0.779 F9000
G1 Z0.200 F1200
G1 E1.0000 F1200
G1 X28.690 Y-5.977 E0.1729 F1800
G1 X37.828 Y-5.977 E0.3039
G1 X37.828 Y-0.779 E0.1729
G1 X28.691 Y-0.779 E0.3039
; feature outer perimeter
G1 X28.291 Y-0.379 F9000
G1 X28.290 Y-6.377 E0.1995 F1200
G1 X38.228 Y-6.377 E0.3305
G1 X38.228 Y-0.379 E0.1995
G1 X28.291 Y-0.379 E0.3305
; feature solid layer
G1 X29.448 Y-1.099 F9000
G1 X29.011 Y-1.536 E0.0206 F2400
G1 X29.011 Y-2.102 E0.0188
G1 X30.014 Y-1.099 E0.0472
G1 X30.579 Y-1.099 E0.0188
G1 X29.011 Y-2.668 E0.0738
G1 X29.011 Y-3.233 E0.0188
G1 X31.145 Y-1.099 E0.1004
G1 X31.711 Y-1.099 E0.0188
G1 X29.011 Y-3.799 E0.1270
G1 X29.011 Y-4.365 E0.0188
G1 X32.276 Y-1.099 E0.1536
G1 X32.842 Y-1.099 E0.0188
G1 X29.010 Y-4.931 E0.1802
G1 X29.010 Y-5.496 E0.0188
G1 X33.408 Y-1.099 E0.2068
G1 X33.973 Y-1.099 E0.0188
G1 X29.415 Y-5.657 E0.2144
G1 X29.981 Y-5.657 E0.0188
G1 X34.539 Y-1.099 E0.2144
G1 X35.105 Y-1.099 E0.0188
G1 X30.547 Y-5.657 E0.2144
G1 X31.113 Y-5.657 E0.0188
G1 X35.670 Y-1.099 E0.2144
G1 X36.236 Y-1.099 E0.0188
G1 X31.678 Y-5.657 E0.2144
G1 X32.244 Y-5.657 E0.0188
G1 X36.802 Y-1.099 E0.2144
G1 X37.367 Y-1.099 E0.0188
G1 X32.810 Y-5.657 E0.2144
G1 X33.375 Y-5.657 E0.0188
G1 X37.508 Y-1.525 E0.1944
G1 X37.508 Y-2.090 E0.0188
G1 X33.941 Y-5.657 E0.1678
G1 X34.507 Y-5.657 E0.0188
G1 X37.508 Y-2.656 E0.1412
G1 X37.508 Y-3.222 E0.0188
G1 X35.072 Y-5.657 E0.1146
G1 X35.638 Y-5.657 E0.0188
G1 X37.508 Y-3.787 E0.0879
G1 X37.508 Y-4.353 E0.0188
G1 X36.204 Y-5.657 E0.0613
G1 X36.769 Y-5.657 E0.0188
G1 X37.508 Y-4.919 E0.0347
G1 X37.508 Y-5.484 E0.0188
G1 X37.335 Y-5.657 E0.0081
G1 E-1.0000 F1200
; feature support
G1 Z0.700 F1200
G1 X29.203 Y24.000 F9000
G1 Z0.200 F1200
G1 E1.0000 F1200
G1 X14.183 Y24.000 E0.4996 F2400
G1 X14.183 Y20.000 E0.1330
G1 X29.203 Y20.000 E0.4996
G1 X29.203 Y16.000 E0.1330
G1 X14.183 Y16.000 E0.4996
G1 X14.183 Y12.000 E0.1330
G1 X29.203 Y12.000 E0.4996
G1 X29.203 Y8.000 E0.1330
G1 X14.183 Y8.000 E0.4996
G1 X14.183 Y4.000 E0.1330
G1 X29.203 Y4.000 E0.4996
G1 X29.203 Y0.331 E0.1220
G1 X27.581 Y0.331 E0.0540
G1 X27.581 Y0.000 E0.0110
G1 X15.806 Y0.000 E0.3917
G1 X15.806 Y-4.000 E0.1330
G1 X27.581 Y-4.000 E0.3916
G1 X27.580 Y-7.087 E0.1027
G1 X29.203 Y-7.087 E0.0540
G1 X29.203 Y-8.000 E0.0304
G1 X14.183 Y-8.000 E0.4996
G1 X14.183 Y-12.000 E0.1330
G1 X29.203 Y-12.000 E0.4996
G1 X29.203 Y-16.000 E0.1330
G1 X14.183 Y-16.000 E0.4996
G1 X14.183 Y-20.000 E0.1330
G1 X29.203 Y-20.000 E0.4996
G1 X29.203 Y-24.000 E0.1330
G1 X14.183 Y-24.000 E0.4996
G1 E-1.0000 F1200
G1 Z0.700 F1200
G1 X-14.183 Y24.000 F9000
G1 Z0.200 F1200
G1 E1.0000 F1200
G1 X-29.203 Y24.000 E0.4996 F2400
G1 X-29.203 Y20.000 E0.1330
G1 X-14.183 Y20.000 E0.4996
G1 X-14.183 Y16.000 E0.1330
G1 X-29.203 Y16.000 E0.4996
G1 X-29.203 Y12.000 E0.1330
G1 X-14.183 Y12.000 E0.4996
G1 X-14.183 Y8.000 E0.1330
G1 X-29.203 Y8.000 E0.4996
G1 X-29.203 Y4.000 E0.1330
G1 X-14.183 Y4.000 E0.4996
G1 X-14.183 Y0.331 E0.1220
G1 X-15.806 Y0.331 E0.0540
G1 X-15.806 Y0.000 E0.0110
G1 X-27.581 Y0.000 E0.3917
G1 X-27.581 Y-4.000 E0.1330
G1 X-15.806 Y-4.000 E0.3916
G1 X-15.807 Y-7.087 E0.1027
G1 X-14.183 Y-7.087 E0.0540
G1 X-14.183 Y-8.000 E0.0304
G1 X-29.203 Y-8.000 E0.4996
G1 X-29.203 Y-12.000 E0.1330
G1 X-14.183 Y-12.000 E0.4996
G1 X-14.183 Y-16.000 E0.1330
G1 X-29.203 Y-16.000 E0.4996
G1 X-29.203 Y-20.000 E0.1330
G1 X-14.183 Y-20.000 E0.4996
G1 X-14.183 Y-24.000 E0.1330
G1 X-29.203 Y-24.000 E0.4996
G1 E-1.0000 F1200
; layer 2, Z = 0.400
M126 S255
; feature inner perimeter
G1 Z0.700 F1200
