; G-Code generated by Simplify3D(R) Version 4.1.2
; Apr 6, 2020 at 12:41:09 PM
; Settings Summary
;   processName,Process1
;   applyToModels,Newton Bracket,Newton Bracket(2),Newton Bracket(3),Newton Bracket(2)(2)
;   profileName,MakerBot Replicator 2 HBP (modified)
;   profileVersion,2019-08-23 15:32:08
;   baseProfile,MakerBot Replicator 2(2)
;   printMaterial,PLA
;   printQuality,Medium
;   printExtruders,
;   extruderName,Primary Extruder
;   extruderToolheadNumber,0
;   extruderDiameter,0.4
;   extruderAutoWidth,0
;   extruderWidth,0.4
;   extrusionMultiplier,1
;   extruderUseRetract,1
;   extruderRetractionDistance,1
;   extruderExtraRestartDistance,0
;   extruderRetractionZLift,0.5
;   extruderRetractionSpeed,1200
;   extruderUseCoasting,0
;   extruderCoastingDistance,0.2
;   extruderUseWipe,0
;   extruderWipeDistance,5
;   primaryExtruder,0
;   layerHeight,0.2
;   topSolidLayers,3
;   bottomSolidLayers,3
;   perimeterOutlines,2
;   printPerimetersInsideOut,1
;   startPointOption,3
;   startPointOriginX,0
;   startPointOriginY,150
;   sequentialIslands,0
;   spiralVaseMode,0
;   firstLayerHeightPercentage,100
;   firstLayerWidthPercentage,100
;   firstLayerUnderspeed,0.5
;   useRaft,0
;   raftExtruder,0
;   raftTopLayers,2
;   raftBaseLayers,1
;   raftOffset,1
;   raftSeparationDistance,0.14
;   raftTopInfill,90
;   aboveRaftSpeedMultiplier,0.3
;   useSkirt,0
;   skirtExtruder,0
;   skirtLayers,1
;   skirtOutlines,5
;   skirtOffset,0
;   usePrimePillar,0
;   primePillarExtruder,999
;   primePillarWidth,12
;   primePillarLocation,7
;   primePillarSpeedMultiplier,1
;   useOozeShield,0
;   oozeShieldExtruder,999
;   oozeShieldOffset,2
;   oozeShieldOutlines,1
;   oozeShieldSidewallShape,1
;   oozeShieldSidewallAngle,30
;   oozeShieldSpeedMultiplier,1
;   infillExtruder,0
;   internalInfillPattern,Rectilinear
;   externalInfillPattern,Rectilinear
;   infillPercentage,15
;   outlineOverlapPercentage,20
;   infillExtrusionWidthPercentage,100
;   minInfillLength,5
;   infillLayerInterval,1
;   internalInfillAngles,45,-45
;   overlapInternalInfillAngles,0
;   externalInfillAngles,45,-45
;   generateSupport,1
;   supportExtruder,0
;   supportInfillPercentage,10
;   supportExtraInflation,0.5
;   supportBaseLayers,0
;   denseSupportExtruder,0
;   denseSupportLayers,2
;   denseSupportInfillPercentage,70
;   supportLayerInterval,1
;   supportHorizontalPartOffset,0.3
;   supportUpperSeparationLayers,1
;   supportLowerSeparationLayers,1
;   supportType,0
;   supportGridSpacing,2
;   maxOverhangAngle,45
;   supportAngles,0
;   temperatureName,Primary Extruder,Heated Build Platform
;   temperatureNumber,0,0
;   temperatureSetpointCount,1,1
;   temperatureSetpointLayers,1,1
;   temperatureSetpointTemperatures,230,60
;   temperatureStabilizeAtStartup,1,1
;   temperatureHeatedBed,0,1
;   fanLayers,1,2
;   fanSpeeds,0,100
;   blipFanToFullPower,1
;   adjustSpeedForCooling,1
;   minSpeedLayerTime,15
;   minCoolingSpeedSlowdown,20
;   increaseFanForCooling,1
;   minFanLayerTime,45
;   maxCoolingFanSpeed,100
;   increaseFanForBridging,1
;   bridgingFanSpeed,100
;   use5D,1
;   relativeEdistances,1
;   allowEaxisZeroing,0
;   independentExtruderAxes,1
;   includeM10123,0
;   stickySupport,1
;   applyToolheadOffsets,0
;   gcodeXoffset,0
;   gcodeYoffset,0
;   gcodeZoffset,0
;   overrideMachineDefinition,1
;   machineTypeOverride,0
;   strokeXoverride,280
;   strokeYoverride,150
;   strokeZoverride,150
;   originOffsetXoverride,140
;   originOffsetYoverride,75
;   originOffsetZoverride,0
;   homeXdirOverride,1
;   homeYdirOverride,1
;   homeZdirOverride,-1
;   flipXoverride,1
;   flipYoverride,-1
;   flipZoverride,1
;   toolheadOffsets,0,0|0,0|0,0|0,0|0,0|0,0
;   overrideFirmwareConfiguration,1
;   firmwareTypeOverride,MakerBot/Sailfish Firmware
;   GPXconfigOverride,r2h
;   baudRateOverride,115200
;   overridePrinterModels,1
;   printerModelsOverride,MakerBot_Replicator2.stl
;   startingGcode,; **** Replicator 2 start.gcode ****,M73 P0 ; enable build progress,G162 X Y F3000 ; home XY maximum,G161 Z F1200 ; home Z minimum,G92 Z-5 ; set Z to -5,G1 Z0 ; move Z to 0,G161 Z F100 ; home Z slowly,M132 X Y Z A B ; recall home offsets,G1 X-145 Y-75 Z30 F9000 ; move to wait position off table,G130 X20 Y20 Z20 A20 B20 ; lower stepper Vrefs while heating,M126 S[fan_speed_pwm],M140 S[bed0_temperature] T0,M134 T0 ; stabilize bed temperature,M104 S[extruder0_temperature] T0,M133 T0 ; stabilize extruder temperature,G130 X127 Y127 Z40 A127 B127 ; default stepper Vrefs,G92 A0 ; zero extruder,G1 Z0.4 ; position nozzle,G1 E25 F300 ; purge nozzle,G1 X-140 Y-70 Z0.15 F1200 ; slow wipe,G1 X-135 Y-65 Z0.5 F1200 ; lift,G92 A0 ; zero extruder,M73 P1 ;@body (notify GPX body has started),; **** end of start.gcode ****
;   layerChangeGcode,
;   retractionGcode,
;   toolChangeGcode,
;   endingGcode,; **** Replicator 2 end.gcode ****,M73 P100 ; end build progress,G1 Z155 F1000 ; send Z axis to bottom of machine,M104 S0 T0 ; cool down extruder,M140 S0 T0 ; cool down HBP,M127 ; stop blower fan,G162 X Y F3000 ; home XY maximum,M18 ; disable stepper,M0 ; stop codes,M72 P1 ; play Ta-Da song,; **** end of end.gcode ****
;   exportFileFormat,gcode
;   celebration,0
;   celebrationSong,Random Song
;   postProcessing,
;   defaultSpeed,4800
;   outlineUnderspeed,0.5
;   solidInfillUnderspeed,1
;   supportUnderspeed,1
;   rapidXYspeed,9000
;   rapidZspeed,1200
;   minBridgingArea,50
;   bridgingExtraInflation,0
;   bridgingExtrusionMultiplier,1
;   bridgingSpeedMultiplier,0.8
;   useFixedBridgingAngle,0
;   fixedBridgingAngle,0
;   applyBridgingToPerimeters,0
;   filamentDiameters,1.75|1.75|1.75|1.75|1.75|1.75
;   filamentPricesPerKg,46|46|46|46|46|46
;   filamentDensities,1.25|1.25|1.25|1.25|1.25|1.25
;   useMinPrintHeight,0
;   minPrintHeight,0
;   useMaxPrintHeight,0
;   maxPrintHeight,4.84
;   useDiaphragm,0
;   diaphragmLayerInterval,20
;   robustSlicing,1
;   mergeAllIntoSolid,0
;   onlyRetractWhenCrossingOutline,0
;   retractBetweenLayers,0
;   useRetractionMinTravel,1
;   retractionMinTravel,7
;   retractWhileWiping,1
;   onlyWipeOutlines,1
;   avoidCrossingOutline,0
;   maxMovementDetourFactor,3
;   toolChangeRetractionDistance,12
;   toolChangeExtraRestartDistance,-0.5
;   toolChangeRetractionSpeed,600
;   externalThinWallType,0
;   internalThinWallType,0
;   thinWallAllowedOverlapPercentage,10
;   singleExtrusionMinLength,1
;   singleExtrusionMinPrintingWidthPercentage,50
;   singleExtrusionMaxPrintingWidthPercentage,200
;   singleExtrusionEndpointExtension,0.2
;   horizontalSizeCompensation,0
G90
M83
; **** Replicator 2 start.gcode ****
M73 P0 ; enable build progress
G162 X Y F3000 ; home XY maximum
G161 Z F1200 ; home Z minimum
G92 Z-5 ; set Z to -5
G1 Z0 ; move Z to 0
G161 Z F100 ; home Z slowly
M132 X Y Z A B ; recall home offsets
G1 X-145 Y-75 Z30 F9000 ; move to wait position off table
G130 X20 Y20 Z20 A20 B20 ; lower stepper Vrefs while heating
M127
M140 S60 T0
M134 T0 ; stabilize bed temperature
M104 S230 T0
M133 T0 ; stabilize extruder temperature
G130 X127 Y127 Z40 A127 B127 ; default stepper Vrefs
G92 A0 ; zero extruder
G1 Z0.4 ; position nozzle
G1 E25 F300 ; purge nozzle
G1 X-140 Y-70 Z0.15 F1200 ; slow wipe
G1 X-135 Y-65 Z0.5 F1200 ; lift
G92 A0 ; zero extruder
M73 P1 ;@body (notify GPX body has started)
; **** end of start.gcode ****
; process Process1
; layer 1, Z = 0.200
M135 T0
G1 E-1.0000 F1200
; feature inner perimeter
; tool H0.200 W0.400
G1 Z0.500 F1200
G1 X-6.998 Y-29.280 F9000
G1 Z0.200 F1200
G1 E1.0000 F1200
G1 X-16.134 Y-29.280 E0.3039 F1800
G1 X-16.134 Y-34.478 E0.1729
G1 X-6.997 Y-34.478 E0.3039
G1 X-6.998 Y-29.280 E0.1729
; feature outer perimeter
G1 X-6.598 Y-28.880 F9000
G1 X-16.534 Y-28.880 E0.3305 F1200
G1 X-16.534 Y-34.878 E0.1995
G1 X-6.597 Y-34.878 E0.3305
G1 X-6.598 Y-28.880 E0.1995
; feature solid layer
G1 X-7.571 Y-34.158 F9000
G1 X-7.317 Y-33.904 E0.0119 F2400
G1 X-7.317 Y-33.339 E0.0188
G1 X-8.137 Y-34.158 E0.0385
G1 X-8.702 Y-34.158 E0.0188
G1 X-7.317 Y-32.773 E0.0652
G1 X-7.317 Y-32.207 E0.0188
G1 X-9.268 Y-34.158 E0.0918
G1 X-9.834 Y-34.158 E0.0188
G1 X-7.317 Y-31.642 E0.1184
G1 X-7.317 Y-31.076 E0.0188
G1 X-10.399 Y-34.158 E0.1450
G1 X-10.965 Y-34.158 E0.0188
G1 X-7.318 Y-30.511 E0.1716
G1 X-7.318 Y-29.945 E0.0188
G1 X-11.531 Y-34.158 E0.1982
G1 X-12.096 Y-34.158 E0.0188
G1 X-7.538 Y-29.600 E0.2144
G1 X-8.104 Y-29.600 E0.0188
G1 X-12.662 Y-34.158 E0.2144
G1 X-13.228 Y-34.158 E0.0188
G1 X-8.670 Y-29.600 E0.2144
G1 X-9.236 Y-29.600 E0.0188
G1 X-13.793 Y-34.158 E0.2144
G1 X-14.359 Y-34.158 E0.0188
G1 X-9.801 Y-29.600 E0.2144
G1 X-10.367 Y-29.600 E0.0188
G1 X-14.925 Y-34.158 E0.2144
G1 X-15.491 Y-34.158 E0.0188
G1 X-10.933 Y-29.600 E0.2144
G1 X-11.498 Y-29.600 E0.0188
G1 X-15.814 Y-33.916 E0.2030
G1 X-15.814 Y-33.351 E0.0188
G1 X-12.064 Y-29.600 E0.1764
G1 X-12.630 Y-29.600 E0.0188
G1 X-15.814 Y-32.785 E0.1498
G1 X-15.814 Y-32.219 E0.0188
G1 X-13.195 Y-29.600 E0.1232
G1 X-13.761 Y-29.600 E0.0188
G1 X-15.814 Y-31.653 E0.0966
G1 X-15.814 Y-31.088 E0.0188
G1 X-14.327 Y-29.600 E0.0700
G1 X-14.892 Y-29.600 E0.0188
G1 X-15.814 Y-30.522 E0.0434
G1 X-15.814 Y-29.956 E0.0188
G1 X-15.458 Y-29.600 E0.0168
G1 E-1.0000 F1200
; feature inner perimeter
G1 Z0.700 F1200
G1 X-27.253 Y-29.280 F9000
G1 Z0.200 F1200
G1 E1.0000 F1200
G1 X-36.389 Y-29.280 E0.3039 F1800
G1 X-36.390 Y-34.478 E0.1729
G1 X-27.253 Y-34.478 E0.3039
G1 X-27.253 Y-29.280 E0.1729
; feature outer perimeter
G1 X-26.853 Y-28.880 F9000
G1 X-36.789 Y-28.880 E0.3305 F1200
G1 X-36.790 Y-34.878 E0.1995
G1 X-26.853 Y-34.878 E0.3305
G1 X-26.853 Y-28.880 E0.1995
; feature solid layer
G1 X-27.936 Y-34.158 F9000
G1 X-27.573 Y-33.795 E0.0171 F2400
G1 X-27.573 Y-33.229 E0.0188
G1 X-28.501 Y-34.158 E0.0437
G1 X-29.067 Y-34.158 E0.0188
G1 X-27.573 Y-32.664 E0.0703
G1 X-27.573 Y-32.098 E0.0188
G1 X-29.633 Y-34.158 E0.0969
G1 X-30.198 Y-34.158 E0.0188
G1 X-27.573 Y-31.532 E0.1235
G1 X-27.573 Y-30.967 E0.0188
G1 X-30.764 Y-34.158 E0.1501
G1 X-31.330 Y-34.158 E0.0188
G1 X-27.573 Y-30.401 E0.1767
G1 X-27.573 Y-29.835 E0.0188
G1 X-31.895 Y-34.158 E0.2033
G1 X-32.461 Y-34.158 E0.0188
G1 X-27.903 Y-29.600 E0.2144
G1 X-28.469 Y-29.600 E0.0188
G1 X-33.027 Y-34.158 E0.2144
G1 X-33.592 Y-34.158 E0.0188
G1 X-29.035 Y-29.600 E0.2144
G1 X-29.600 Y-29.600 E0.0188
G1 X-34.158 Y-34.158 E0.2144
G1 X-34.724 Y-34.158 E0.0188
G1 X-30.166 Y-29.600 E0.2144
G1 X-30.732 Y-29.600 E0.0188
G1 X-35.289 Y-34.158 E0.2144
G1 X-35.855 Y-34.158 E0.0188
G1 X-31.297 Y-29.600 E0.2144
G1 X-31.863 Y-29.600 E0.0188
G1 X-36.070 Y-33.807 E0.1979
G1 X-36.070 Y-33.241 E0.0188
G1 X-32.429 Y-29.600 E0.1713
G1 X-32.994 Y-29.600 E0.0188
G1 X-36.070 Y-32.676 E0.1447
G1 X-36.070 Y-32.110 E0.0188
G1 X-33.560 Y-29.600 E0.1180
G1 X-34.126 Y-29.600 E0.0188
G1 X-36.069 Y-31.544 E0.0914
G1 X-36.069 Y-30.978 E0.0188
G1 X-34.691 Y-29.600 E0.0648
G1 X-35.257 Y-29.600 E0.0188
G1 X-36.069 Y-30.412 E0.0382
G1 X-36.069 Y-29.847 E0.0188
G1 X-35.823 Y-29.600 E0.0116
G1 E-1.0000 F1200
; feature inner perimeter
G1 Z0.700 F1200
G1 X-50.385 Y-29.280 F9000
G1 Z0.200 F1200
G1 E1.0000 F1200
G1 X-59.521 Y-29.280 E0.3039 F1800
G1 X-59.521 Y-34.478 E0.1729
G1 X-50.384 Y-34.478 E0.3039
G1 X-50.385 Y-29.280 E0.1729
; feature outer perimeter
G1 X-49.985 Y-28.880 F9000
G1 X-59.921 Y-28.880 E0.3305 F1200
G1 X-59.921 Y-34.878 E0.1995
G1 X-49.984 Y-34.878 E0.3305
G1 X-49.985 Y-28.880 E0.1995
; feature solid layer
G1 X-51.129 Y-34.158 F9000
G1 X-50.704 Y-33.733 E0.0200 F2400
G1 X-50.704 Y-33.168 E0.0188
G1 X-51.694 Y-34.158 E0.0466
G1 X-52.260 Y-34.158 E0.0188
G1 X-50.704 Y-32.602 E0.0732
G1 X-50.704 Y-32.036 E0.0188
G1 X-52.826 Y-34.158 E0.0998
G1 X-53.391 Y-34.158 E0.0188
G1 X-50.704 Y-31.471 E0.1264
G1 X-50.704 Y-30.905 E0.0188
G1 X-53.957 Y-34.158 E0.1530
G1 X-54.523 Y-34.158 E0.0188
G1 X-50.704 Y-30.340 E0.1796
G1 X-50.704 Y-29.774 E0.0188
G1 X-55.088 Y-34.158 E0.2062
G1 X-55.654 Y-34.158 E0.0188
G1 X-51.096 Y-29.600 E0.2144
G1 X-51.662 Y-29.600 E0.0188
G1 X-56.220 Y-34.158 E0.2144
G1 X-56.786 Y-34.158 E0.0188
G1 X-52.228 Y-29.600 E0.2144
G1 X-52.793 Y-29.600 E0.0188
G1 X-57.351 Y-34.158 E0.2144
G1 X-57.917 Y-34.158 E0.0188
G1 X-53.359 Y-29.600 E0.2144
G1 X-53.925 Y-29.600 E0.0188
G1 X-58.483 Y-34.158 E0.2144
G1 X-59.048 Y-34.158 E0.0188
G1 X-54.490 Y-29.600 E0.2144
G1 X-55.056 Y-29.600 E0.0188
G1 X-59.201 Y-33.745 E0.1950
G1 X-59.201 Y-33.180 E0.0188
G1 X-55.622 Y-29.600 E0.1684
G1 X-56.187 Y-29.600 E0.0188
G1 X-59.201 Y-32.614 E0.1418
G1 X-59.201 Y-32.048 E0.0188
G1 X-56.753 Y-29.600 E0.1151
G1 X-57.319 Y-29.600 E0.0188
G1 X-59.201 Y-31.483 E0.0885
G1 X-59.201 Y-30.917 E0.0188
G1 X-57.884 Y-29.600 E0.0619
G1 X-58.450 Y-29.600 E0.0188
G1 X-59.201 Y-30.351 E0.0353
G1 X-59.201 Y-29.785 E0.0188
G1 X-59.016 Y-29.600 E0.0087
G1 E-1.0000 F1200
; feature inner perimeter
G1 Z0.700 F1200
G1 X-50.385 Y27.722 F9000
G1 Z0.200 F1200
G1 E1.0000 F1200
G1 X-59.521 Y27.722 E0.3039 F1800
G1 X-59.521 Y22.524 E0.1729
G1 X-50.384 Y22.524 E0.3039
G1 X-50.385 Y27.722 E0.1729
; feature outer perimeter
G1 X-49.985 Y28.122 F9000
G1 X-59.921 Y28.122 E0.3305 F1200
G1 X-59.921 Y22.124 E0.1995
G1 X-49.984 Y22.124 E0.3305
G1 X-49.985 Y28.122 E0.1995
; feature solid layer
G1 X-51.261 Y22.844 F9000
G1 X-50.704 Y23.401 E0.0262 F2400
G1 X-50.704 Y23.967 E0.0188
G1 X-51.826 Y22.844 E0.0528
G1 X-52.392 Y22.844 E0.0188
G1 X-50.704 Y24.532 E0.0794
G1 X-50.704 Y25.098 E0.0188
G1 X-52.958 Y22.844 E0.1060
G1 X-53.523 Y22.844 E0.0188
G1 X-50.704 Y25.663 E0.1326
G1 X-50.704 Y26.229 E0.0188
G1 X-54.089 Y22.844 E0.1592
G1 X-54.655 Y22.844 E0.0188
G1 X-50.704 Y26.795 E0.1858
G1 X-50.704 Y27.360 E0.0188
G1 X-55.221 Y22.844 E0.2124
G1 X-55.786 Y22.844 E0.0188
G1 X-51.228 Y27.402 E0.2144
G1 X-51.794 Y27.402 E0.0188
G1 X-56.352 Y22.844 E0.2144
G1 X-56.918 Y22.844 E0.0188
G1 X-52.360 Y27.402 E0.2144
G1 X-52.925 Y27.402 E0.0188
G1 X-57.483 Y22.844 E0.2144
G1 X-58.049 Y22.844 E0.0188
G1 X-53.491 Y27.402 E0.2144
G1 X-54.057 Y27.402 E0.0188
G1 X-58.615 Y22.844 E0.2144
G1 X-59.180 Y22.844 E0.0188
G1 X-54.622 Y27.402 E0.2144
G1 X-55.188 Y27.402 E0.0188
G1 X-59.201 Y23.389 E0.1888
G1 X-59.201 Y23.955 E0.0188
G1 X-55.754 Y27.402 E0.1621
G1 X-56.319 Y27.402 E0.0188
G1 X-59.201 Y24.520 E0.1355
G1 X-59.201 Y25.086 E0.0188
G1 X-56.885 Y27.402 E0.1089
G1 X-57.451 Y27.402 E0.0188
G1 X-59.201 Y25.652 E0.0823
G1 X-59.201 Y26.217 E0.0188
G1 X-58.017 Y27.402 E0.0557
G1 X-58.582 Y27.402 E0.0188
G1 X-59.201 Y26.783 E0.0291
G1 X-59.201 Y27.349 E0.0188
G1 X-59.148 Y27.402 E0.0025
G1 E-1.0000 F1200
; feature inner perimeter
G1 Z0.700 F1200
G1 X-27.253 Y27.722 F9000
G1 Z0.200 F1200
G1 E1.0000 F1200
G1 X-36.389 Y27.722 E0.3039 F1800
G1 X-36.390 Y22.524 E0.1729
G1 X-27.253 Y22.524 E0.3039
G1 X-27.253 Y27.722 E0.1729
; feature outer perimeter
G1 X-26.852 Y28.122 F9000
G1 X-36.789 Y28.122 E0.3305 F1200
G1 X-36.790 Y22.124 E0.1995
G1 X-26.852 Y22.124 E0.3305
G1 X-26.852 Y28.122 E0.1995
; feature solid layer
G1 X-28.068 Y22.844 F9000
G1 X-27.573 Y23.339 E0.0233 F2400
G1 X-27.573 Y23.905 E0.0188
G1 X-28.633 Y22.844 E0.0499
G1 X-29.199 Y22.844 E0.0188
G1 X-27.573 Y24.471 E0.0765
G1 X-27.573 Y25.036 E0.0188
G1 X-29.765 Y22.844 E0.1031
G1 X-30.330 Y22.844 E0.0188
G1 X-27.573 Y25.602 E0.1297
G1 X-27.573 Y26.168 E0.0188
G1 X-30.896 Y22.844 E0.1563
G1 X-31.462 Y22.844 E0.0188
G1 X-27.573 Y26.733 E0.1829
G1 X-27.573 Y27.299 E0.0188
G1 X-32.027 Y22.844 E0.2095
G1 X-32.593 Y22.844 E0.0188
G1 X-28.035 Y27.402 E0.2144
G1 X-28.601 Y27.402 E0.0188
G1 X-33.159 Y22.844 E0.2144
G1 X-33.724 Y22.844 E0.0188
G1 X-29.167 Y27.402 E0.2144
G1 X-29.732 Y27.402 E0.0188
G1 X-34.290 Y22.844 E0.2144
G1 X-34.856 Y22.844 E0.0188
G1 X-30.298 Y27.402 E0.2144
G1 X-30.864 Y27.402 E0.0188
G1 X-35.422 Y22.844 E0.2144
G1 X-35.987 Y22.844 E0.0188
G1 X-31.429 Y27.402 E0.2144
G1 X-31.995 Y27.402 E0.0188
G1 X-36.070 Y23.327 E0.1917
G1 X-36.070 Y23.893 E0.0188
G1 X-32.561 Y27.402 E0.1651
G1 X-33.126 Y27.402 E0.0188
G1 X-36.070 Y24.459 E0.1384
G1 X-36.070 Y25.025 E0.0188
G1 X-33.692 Y27.402 E0.1118
G1 X-34.258 Y27.402 E0.0188
G1 X-36.069 Y25.590 E0.0852
