; G-Code generated by Simplify3D(R) Version 4.1.2
; Apr 2, 2020 at 1:44:02 PM
; Settings Summary
;   processName,Process1
;   applyToModels,PyramidV1R1
;   profileName,MakerBot Replicator 2 HBP (modified)
;   profileVersion,2020-03-12 10:48:50
;   baseProfile,MakerBot Replicator 2(2)
;   printMaterial,PLA
;   printQuality,Medium
;   printExtruders,
;   extruderName,Primary Extruder
;   extruderToolheadNumber,0
;   extruderDiameter,0.4
;   extruderAutoWidth,0
;   extruderWidth,0.4
;   extrusionMultiplier,1
;   extruderUseRetract,1
;   extruderRetractionDistance,1.9
;   extruderExtraRestartDistance,0
;   extruderRetractionZLift,0.5
;   extruderRetractionSpeed,1200
;   extruderUseCoasting,0
;   extruderCoastingDistance,0.2
;   extruderUseWipe,0
;   extruderWipeDistance,5
;   primaryExtruder,0
;   layerHeight,0.2
;   topSolidLayers,3
;   bottomSolidLayers,3
;   perimeterOutlines,2
;   printPerimetersInsideOut,1
;   startPointOption,3
;   startPointOriginX,0
;   startPointOriginY,150
;   sequentialIslands,0
;   spiralVaseMode,0
;   firstLayerHeightPercentage,100
;   firstLayerWidthPercentage,115
;   firstLayerUnderspeed,0.5
;   useRaft,0
;   raftExtruder,0
;   raftTopLayers,2
;   raftBaseLayers,1
;   raftOffset,1
;   raftSeparationDistance,0.14
;   raftTopInfill,90
;   aboveRaftSpeedMultiplier,0.3
;   useSkirt,0
;   skirtExtruder,0
;   skirtLayers,1
;   skirtOutlines,5
;   skirtOffset,0
;   usePrimePillar,0
;   primePillarExtruder,999
;   primePillarWidth,12
;   primePillarLocation,7
;   primePillarSpeedMultiplier,1
;   useOozeShield,0
;   oozeShieldExtruder,999
;   oozeShieldOffset,2
;   oozeShieldOutlines,1
;   oozeShieldSidewallShape,1
;   oozeShieldSidewallAngle,30
;   oozeShieldSpeedMultiplier,1
;   infillExtruder,0
;   internalInfillPattern,Rectilinear
;   externalInfillPattern,Rectilinear
;   infillPercentage,15
;   outlineOverlapPercentage,25
;   infillExtrusionWidthPercentage,100
;   minInfillLength,5
;   infillLayerInterval,1
;   internalInfillAngles,45,-45
;   overlapInternalInfillAngles,0
;   externalInfillAngles,45,-45
;   generateSupport,0
;   supportExtruder,0
;   supportInfillPercentage,30
;   supportExtraInflation,0.5
;   supportBaseLayers,0
;   denseSupportExtruder,0
;   denseSupportLayers,2
;   denseSupportInfillPercentage,90
;   supportLayerInterval,1
;   supportHorizontalPartOffset,0.3
;   supportUpperSeparationLayers,1
;   supportLowerSeparationLayers,1
;   supportType,1
;   supportGridSpacing,2
;   maxOverhangAngle,45
;   supportAngles,45,-45
;   temperatureName,Primary Extruder,Heated Build Platform
;   temperatureNumber,0,0
;   temperatureSetpointCount,1,1
;   temperatureSetpointLayers,1,1
;   temperatureSetpointTemperatures,230,60
;   temperatureStabilizeAtStartup,1,1
;   temperatureHeatedBed,0,1
;   fanLayers,1,2
;   fanSpeeds,0,100
;   blipFanToFullPower,1
;   adjustSpeedForCooling,1
;   minSpeedLayerTime,15
;   minCoolingSpeedSlowdown,20
;   increaseFanForCooling,1
;   minFanLayerTime,45
;   maxCoolingFanSpeed,100
;   increaseFanForBridging,1
;   bridgingFanSpeed,100
;   use5D,1
;   relativeEdistances,1
;   allowEaxisZeroing,0
;   independentExtruderAxes,1
;   includeM10123,0
;   stickySupport,1
;   applyToolheadOffsets,0
;   gcodeXoffset,0
;   gcodeYoffset,0
;   gcodeZoffset,0
;   overrideMachineDefinition,1
;   machineTypeOverride,0
;   strokeXoverride,280
;   strokeYoverride,150
;   strokeZoverride,150
;   originOffsetXoverride,140
;   originOffsetYoverride,75
;   originOffsetZoverride,0
;   homeXdirOverride,1
;   homeYdirOverride,1
;   homeZdirOverride,-1
;   flipXoverride,1
;   flipYoverride,-1
;   flipZoverride,1
;   toolheadOffsets,0,0|0,0|0,0|0,0|0,0|0,0
;   overrideFirmwareConfiguration,1
;   firmwareTypeOverride,MakerBot/Sailfish Firmware
;   GPXconfigOverride,r2h
;   baudRateOverride,115200
;   overridePrinterModels,1
;   printerModelsOverride,MakerBot_Replicator2.stl
;   startingGcode,; **** Replicator 2 start.gcode ****,M73 P0 ; enable build progress,G162 X Y F3000 ; home XY maximum,G161 Z F1200 ; home Z minimum,G92 Z-5 ; set Z to -5,G1 Z0 ; move Z to 0,G161 Z F100 ; home Z slowly,M132 X Y Z A B ; recall home offsets,G1 X-145 Y-75 Z30 F9000 ; move to wait position off table,G130 X20 Y20 Z20 A20 B20 ; lower stepper Vrefs while heating,M126 S[fan_speed_pwm],M140 S[bed0_temperature] T0,M134 T0 ; stabilize bed temperature,M104 S[extruder0_temperature] T0,M133 T0 ; stabilize extruder temperature,G130 X127 Y127 Z40 A127 B127 ; default stepper Vrefs,G92 A0 ; zero extruder,G1 Z0.4 ; position nozzle,G1 E25 F300 ; purge nozzle,G1 X-140 Y-70 Z0.15 F1200 ; slow wipe,G1 X-135 Y-65 Z0.5 F1200 ; lift,G92 A0 ; zero extruder,M73 P1 ;@body (notify GPX body has started),; **** end of start.gcode ****
;   layerChangeGcode,
;   retractionGcode,
;   toolChangeGcode,
;   endingGcode,; **** Replicator 2 end.gcode ****,M73 P100 ; end build progress,G1 Z155 F1000 ; send Z axis to bottom of machine,M104 S0 T0 ; cool down extruder,M140 S0 T0 ; cool down HBP,M127 ; stop blower fan,G162 X Y F3000 ; home XY maximum,M18 ; disable stepper,M0 ; stop codes,M72 P1 ; play Ta-Da song,; **** end of end.gcode ****
;   exportFileFormat,gcode
;   celebration,0
;   celebrationSong,Random Song
;   postProcessing,
;   defaultSpeed,4800
;   outlineUnderspeed,0.5
;   solidInfillUnderspeed,1
;   supportUnderspeed,1
;   rapidXYspeed,9000
;   rapidZspeed,1200
;   minBridgingArea,50
;   bridgingExtraInflation,0
;   bridgingExtrusionMultiplier,1
;   bridgingSpeedMultiplier,0.8
;   useFixedBridgingAngle,0
;   fixedBridgingAngle,0
;   applyBridgingToPerimeters,0
;   filamentDiameters,1.75|1.75|1.75|1.75|1.75|1.75
;   filamentPricesPerKg,46|46|46|46|46|46
;   filamentDensities,1.25|1.25|1.25|1.25|1.25|1.25
;   useMinPrintHeight,0
;   minPrintHeight,0
;   useMaxPrintHeight,0
;   maxPrintHeight,4.84
;   useDiaphragm,0
;   diaphragmLayerInterval,20
;   robustSlicing,1
;   mergeAllIntoSolid,0
;   onlyRetractWhenCrossingOutline,0
;   retractBetweenLayers,0
;   useRetractionMinTravel,1
;   retractionMinTravel,7
;   retractWhileWiping,1
;   onlyWipeOutlines,1
;   avoidCrossingOutline,0
;   maxMovementDetourFactor,3
;   toolChangeRetractionDistance,12
;   toolChangeExtraRestartDistance,-0.5
;   toolChangeRetractionSpeed,600
;   externalThinWallType,0
;   internalThinWallType,0
;   thinWallAllowedOverlapPercentage,10
;   singleExtrusionMinLength,1
;   singleExtrusionMinPrintingWidthPercentage,50
;   singleExtrusionMaxPrintingWidthPercentage,200
;   singleExtrusionEndpointExtension,0.2
;   horizontalSizeCompensation,0
G90
M83
; **** Replicator 2 start.gcode ****
M73 P0 ; enable build progress
G162 X Y F3000 ; home XY maximum
G161 Z F1200 ; home Z minimum
G92 Z-5 ; set Z to -5
G1 Z0 ; move Z to 0
G161 Z F100 ; home Z slowly
M132 X Y Z A B ; recall home offsets
G1 X-145 Y-75 Z30 F9000 ; move to wait position off table
G130 X20 Y20 Z20 A20 B20 ; lower stepper Vrefs while heating
M127
M140 S60 T0
M134 T0 ; stabilize bed temperature
M104 S230 T0
M133 T0 ; stabilize extruder temperature
G130 X127 Y127 Z40 A127 B127 ; default stepper Vrefs
G92 A0 ; zero extruder
G1 Z0.4 ; position nozzle
G1 E25 F300 ; purge nozzle
G1 X-140 Y-70 Z0.15 F1200 ; slow wipe
G1 X-135 Y-65 Z0.5 F1200 ; lift
G92 A0 ; zero extruder
M73 P1 ;@body (notify GPX body has started)
; **** end of start.gcode ****
; process Process1
; layer 1, Z = 0.200
M135 T0
G1 E-1.9000 F1200
; feature inner perimeter
; tool H0.200 W0.460
G1 Z0.500 F1200
G1 X35.642 Y36.562 F9000
G1 Z0.200 F1200
G1 E1.9000 F1200
G1 X35.642 Y-32.880 E2.6561 F1800
G1 X-35.642 Y-32.880 E2.7266
G1 X-35.642 Y36.562 E2.6561
G1 X-38.261 Y36.562 E0.1001
G1 X-38.261 Y10.562 E0.9945
G1 X-39.247 Y10.562 E0.0377
G1 X-39.247 Y-36.499 E1.8001
G1 X-9.685 Y-36.499 E1.1307
G1 X-9.685 Y-34.204 E0.0878
G1 X0.000 Y-34.234 E0.3705
G1 X9.685 Y-34.204 E0.3705
G1 X9.685 Y-36.499 E0.0878
G1 X39.247 Y-36.499 E1.1307
G1 X39.247 Y10.562 E1.8001
G1 X38.261 Y10.562 E0.0377
G1 X38.261 Y36.562 E0.9945
G1 X35.642 Y36.562 E0.1001
; feature outer perimeter
G1 X35.182 Y37.022 F9000
G1 X35.182 Y-32.420 E2.6561 F1200
G1 X-35.182 Y-32.420 E2.6914
G1 X-35.182 Y37.022 E2.6561
G1 X-38.721 Y37.022 E0.1353
G1 X-38.721 Y11.022 E0.9945
G1 X-39.707 Y11.022 E0.0377
G1 X-39.707 Y-36.959 E1.8352
G1 X-9.225 Y-36.959 E1.1659
G1 X-9.225 Y-34.666 E0.0877
G1 X0.000 Y-34.694 E0.3529
G1 X9.225 Y-34.666 E0.3529
G1 X9.225 Y-36.959 E0.0877
G1 X39.707 Y-36.959 E1.1659
G1 X39.707 Y11.022 E1.8352
G1 X38.721 Y11.022 E0.0377
G1 X38.721 Y37.022 E0.9945
G1 X35.182 Y37.022 E0.1353
; feature solid layer
G1 X35.987 Y35.987 F9000
G1 X36.217 Y36.217 E0.0124 F2400
G1 X36.867 Y36.217 E0.0249
G1 X35.987 Y35.337 E0.0476
G1 X35.987 Y34.686 E0.0249
G1 X37.518 Y36.217 E0.0828
G1 X37.916 Y36.217 E0.0152
G1 X37.916 Y35.964 E0.0097
G1 X35.987 Y34.036 E0.1043
G1 X35.987 Y33.385 E0.0249
G1 X37.916 Y35.313 E0.1043
G1 X37.916 Y34.663 E0.0249
G1 X35.987 Y32.735 E0.1043
G1 X35.987 Y32.084 E0.0249
G1 X37.916 Y34.012 E0.1043
G1 X37.916 Y33.362 E0.0249
G1 X35.987 Y31.434 E0.1043
G1 X35.987 Y30.783 E0.0249
G1 X37.916 Y32.711 E0.1043
G1 X37.916 Y32.061 E0.0249
G1 X35.987 Y30.133 E0.1043
G1 X35.987 Y29.482 E0.0249
G1 X37.916 Y31.410 E0.1043
G1 X37.916 Y30.760 E0.0249
G1 X35.987 Y28.832 E0.1043
G1 X35.987 Y28.181 E0.0249
G1 X37.916 Y30.109 E0.1043
G1 X37.916 Y29.459 E0.0249
G1 X35.987 Y27.530 E0.1043
G1 X35.987 Y26.880 E0.0249
G1 X37.916 Y28.808 E0.1043
G1 X37.916 Y28.158 E0.0249
G1 X35.987 Y26.229 E0.1043
G1 X35.987 Y25.579 E0.0249
G1 X37.916 Y27.507 E0.1043
G1 X37.916 Y26.856 E0.0249
G1 X35.987 Y24.928 E0.1043
G1 X35.987 Y24.278 E0.0249
G1 X37.916 Y26.206 E0.1043
G1 X37.916 Y25.555 E0.0249
G1 X35.987 Y23.627 E0.1043
G1 X35.987 Y22.977 E0.0249
G1 X37.916 Y24.905 E0.1043
G1 X37.916 Y24.254 E0.0249
G1 X35.987 Y22.326 E0.1043
G1 X35.987 Y21.676 E0.0249
G1 X37.916 Y23.604 E0.1043
G1 X37.916 Y22.953 E0.0249
G1 X35.987 Y21.025 E0.1043
G1 X35.987 Y20.375 E0.0249
G1 X37.916 Y22.303 E0.1043
G1 X37.916 Y21.652 E0.0249
G1 X35.987 Y19.724 E0.1043
G1 X35.987 Y19.073 E0.0249
G1 X37.916 Y21.002 E0.1043
G1 X37.916 Y20.351 E0.0249
G1 X35.987 Y18.423 E0.1043
G1 X35.987 Y17.772 E0.0249
G1 X37.916 Y19.701 E0.1043
G1 X37.916 Y19.050 E0.0249
G1 X35.987 Y17.122 E0.1043
G1 X35.987 Y16.471 E0.0249
G1 X37.916 Y18.399 E0.1043
G1 X37.916 Y17.749 E0.0249
G1 X35.987 Y15.821 E0.1043
G1 X35.987 Y15.170 E0.0249
G1 X37.916 Y17.098 E0.1043
G1 X37.916 Y16.448 E0.0249
G1 X35.987 Y14.520 E0.1043
G1 X35.987 Y13.869 E0.0249
G1 X37.916 Y15.797 E0.1043
G1 X37.916 Y15.147 E0.0249
G1 X35.987 Y13.219 E0.1043
G1 X35.987 Y12.568 E0.0249
G1 X37.916 Y14.496 E0.1043
G1 X37.916 Y13.846 E0.0249
G1 X35.987 Y11.918 E0.1043
G1 X35.987 Y11.267 E0.0249
G1 X37.916 Y13.195 E0.1043
G1 X37.916 Y12.545 E0.0249
G1 X35.987 Y10.616 E0.1043
G1 X35.987 Y9.966 E0.0249
G1 X37.916 Y11.894 E0.1043
G1 X37.916 Y11.244 E0.0249
G1 X35.987 Y9.315 E0.1043
G1 X35.987 Y8.665 E0.0249
G1 X37.916 Y10.593 E0.1043
G1 X37.916 Y10.217 E0.0144
G1 X38.190 Y10.217 E0.0105
G1 X35.987 Y8.014 E0.1192
G1 X35.987 Y7.364 E0.0249
G1 X38.841 Y10.217 E0.1544
G1 X38.902 Y10.217 E0.0023
G1 X38.902 Y9.627 E0.0226
G1 X35.987 Y6.713 E0.1576
G1 X35.987 Y6.063 E0.0249
G1 X38.902 Y8.977 E0.1576
G1 X38.902 Y8.326 E0.0249
G1 X35.987 Y5.412 E0.1576
G1 X35.987 Y4.762 E0.0249
G1 X38.902 Y7.676 E0.1576
G1 X38.902 Y7.025 E0.0249
G1 X35.987 Y4.111 E0.1576
G1 X35.987 Y3.461 E0.0249
G1 X38.902 Y6.375 E0.1576
G1 X38.902 Y5.724 E0.0249
G1 X35.987 Y2.810 E0.1576
G1 X35.987 Y2.159 E0.0249
G1 X38.902 Y5.074 E0.1576
G1 X38.902 Y4.423 E0.0249
G1 X35.987 Y1.509 E0.1576
G1 X35.987 Y0.858 E0.0249
G1 X38.902 Y3.773 E0.1576
G1 X38.902 Y3.122 E0.0249
G1 X35.987 Y0.208 E0.1576
G1 X35.987 Y-0.443 E0.0249
G1 X38.902 Y2.472 E0.1576
G1 X38.902 Y1.821 E0.0249
G1 X35.987 Y-1.093 E0.1576
G1 X35.987 Y-1.744 E0.0249
G1 X38.902 Y1.170 E0.1576
G1 X38.902 Y0.520 E0.0249
G1 X35.987 Y-2.394 E0.1576
G1 X35.987 Y-3.045 E0.0249
G1 X38.902 Y-0.131 E0.1576
G1 X38.902 Y-0.781 E0.0249
G1 X35.987 Y-3.695 E0.1576
G1 X35.987 Y-4.346 E0.0249
G1 X38.902 Y-1.432 E0.1576
G1 X38.902 Y-2.082 E0.0249
G1 X35.987 Y-4.996 E0.1576
G1 X35.987 Y-5.647 E0.0249
G1 X38.902 Y-2.733 E0.1576
G1 X38.902 Y-3.383 E0.0249
G1 X35.987 Y-6.298 E0.1576
G1 X35.987 Y-6.948 E0.0249
G1 X38.902 Y-4.034 E0.1576
G1 X38.902 Y-4.684 E0.0249
G1 X35.987 Y-7.599 E0.1576
G1 X35.987 Y-8.249 E0.0249
G1 X38.902 Y-5.335 E0.1576
G1 X38.902 Y-5.985 E0.0249
G1 X35.987 Y-8.900 E0.1576
G1 X35.987 Y-9.550 E0.0249
G1 X38.902 Y-6.636 E0.1576
G1 X38.902 Y-7.287 E0.0249
G1 X35.987 Y-10.201 E0.1576
G1 X35.987 Y-10.851 E0.0249
G1 X38.902 Y-7.937 E0.1576
G1 X38.902 Y-8.588 E0.0249
G1 X35.987 Y-11.502 E0.1576
G1 X35.987 Y-12.152 E0.0249
G1 X38.902 Y-9.238 E0.1576
G1 X38.902 Y-9.889 E0.0249
G1 X35.987 Y-12.803 E0.1576
G1 X35.987 Y-13.453 E0.0249
G1 X38.902 Y-10.539 E0.1576
G1 X38.902 Y-11.190 E0.0249
G1 X35.987 Y-14.104 E0.1576
G1 X35.987 Y-14.755 E0.0249
G1 X38.902 Y-11.840 E0.1576
G1 X38.902 Y-12.491 E0.0249
G1 X35.987 Y-15.405 E0.1576
G1 X35.987 Y-16.056 E0.0249
G1 X38.902 Y-13.141 E0.1576
G1 X38.902 Y-13.792 E0.0249
G1 X35.987 Y-16.706 E0.1576
G1 X35.987 Y-17.357 E0.0249
G1 X38.902 Y-14.442 E0.1576
G1 X38.902 Y-15.093 E0.0249
G1 X35.987 Y-18.007 E0.1576
G1 X35.987 Y-18.658 E0.0249
G1 X38.902 Y-15.744 E0.1576
G1 X38.902 Y-16.394 E0.0249
G1 X35.987 Y-19.308 E0.1576
G1 X35.987 Y-19.959 E0.0249
G1 X38.902 Y-17.045 E0.1576
G1 X38.902 Y-17.695 E0.0249
G1 X35.987 Y-20.609 E0.1576
G1 X35.987 Y-21.260 E0.0249
G1 X38.902 Y-18.346 E0.1576
G1 X38.902 Y-18.996 E0.0249
G1 X35.987 Y-21.910 E0.1576
G1 X35.987 Y-22.561 E0.0249
G1 X38.902 Y-19.647 E0.1576
G1 X38.902 Y-20.297 E0.0249
G1 X35.987 Y-23.212 E0.1576
G1 X35.987 Y-23.862 E0.0249
G1 X38.902 Y-20.948 E0.1576
G1 X38.902 Y-21.598 E0.0249
G1 X35.987 Y-24.513 E0.1576
G1 X35.987 Y-25.163 E0.0249
G1 X38.902 Y-22.249 E0.1576
G1 X38.902 Y-22.899 E0.0249
G1 X35.987 Y-25.814 E0.1576
G1 X35.987 Y-26.464 E0.0249
G1 X38.902 Y-23.550 E0.1576
G1 X38.902 Y-24.201 E0.0249
G1 X35.987 Y-27.115 E0.1576
G1 X35.987 Y-27.765 E0.0249
G1 X38.902 Y-24.851 E0.1576
G1 X38.902 Y-25.502 E0.0249
G1 X35.987 Y-28.416 E0.1576
G1 X35.987 Y-29.066 E0.0249
G1 X38.902 Y-26.152 E0.1576
G1 X38.902 Y-26.803 E0.0249
G1 X35.987 Y-29.717 E0.1576
G1 X35.987 Y-30.367 E0.0249
G1 X38.902 Y-27.453 E0.1576
G1 X38.902 Y-28.104 E0.0249
G1 X35.987 Y-31.018 E0.1576
G1 X35.987 Y-31.669 E0.0249
G1 X38.902 Y-28.754 E0.1576
G1 X38.902 Y-29.405 E0.0249
G1 X35.987 Y-32.319 E0.1576
G1 X38.658 Y-36.154 F9000
G1 X38.902 Y-35.910 E0.0132 F2400
G1 X38.902 Y-35.260 E0.0249
G1 X38.007 Y-36.154 E0.0484
G1 X37.357 Y-36.154 E0.0249
G1 X38.902 Y-34.609 E0.0836
G1 X38.902 Y-33.959 E0.0249
G1 X36.706 Y-36.154 E0.1188
G1 X36.056 Y-36.154 E0.0249
G1 X38.902 Y-33.308 E0.1539
G1 X38.902 Y-32.658 E0.0249
G1 X35.405 Y-36.154 E0.1891
G1 X34.755 Y-36.154 E0.0249
G1 X38.902 Y-32.007 E0.2243
G1 X38.902 Y-31.356 E0.0249
G1 X34.104 Y-36.154 E0.2595
G1 X33.454 Y-36.154 E0.0249
G1 X38.902 Y-30.706 E0.2947
G1 X38.902 Y-30.055 E0.0249
G1 X35.987 Y-32.970 E0.1576
G1 X35.987 Y-33.225 E0.0098
G1 X35.732 Y-33.225 E0.0098
G1 X32.803 Y-36.154 E0.1584
G1 X32.152 Y-36.154 E0.0249
G1 X35.082 Y-33.225 E0.1584
G1 X34.431 Y-33.225 E0.0249
G1 X31.502 Y-36.154 E0.1584
G1 X30.851 Y-36.154 E0.0249
G1 X33.781 Y-33.225 E0.1584
G1 X33.130 Y-33.225 E0.0249
G1 X30.201 Y-36.154 E0.1584
G1 X29.550 Y-36.154 E0.0249
G1 X32.479 Y-33.225 E0.1584
G1 X31.829 Y-33.225 E0.0249
G1 X28.900 Y-36.154 E0.1584
G1 X28.249 Y-36.154 E0.0249
G1 X31.178 Y-33.225 E0.1584
G1 X30.528 Y-33.225 E0.0249
G1 X27.599 Y-36.154 E0.1584
G1 X26.948 Y-36.154 E0.0249
G1 X29.877 Y-33.225 E0.1584
G1 X29.227 Y-33.225 E0.0249
G1 X26.298 Y-36.154 E0.1584
G1 X25.647 Y-36.154 E0.0249
G1 X28.576 Y-33.225 E0.1584
G1 X27.926 Y-33.225 E0.0249
G1 X24.997 Y-36.154 E0.1584
G1 X24.346 Y-36.154 E0.0249
G1 X27.275 Y-33.225 E0.1584
G1 X26.625 Y-33.225 E0.0249
G1 X23.695 Y-36.154 E0.1584
G1 X23.045 Y-36.154 E0.0249
G1 X25.974 Y-33.225 E0.1584
G1 X25.324 Y-33.225 E0.0249
G1 X22.394 Y-36.154 E0.1584
G1 X21.744 Y-36.154 E0.0249
G1 X24.673 Y-33.225 E0.1584
G1 X24.022 Y-33.225 E0.0249
G1 X21.093 Y-36.154 E0.1584
