; G-Code generated by Simplify3D(R) Version 4.1.2
; Apr 2, 2020 at 2:51:01 PM
; Settings Summary
;   processName,Process1
;   applyToModels,ringAV1R1,ringBV1R1,ringCV1R1,ringAV1R1(2),ringBV1R1(2),ringCV1R1(2)
;   profileName,MakerBot Replicator 2 HBP (modified)
;   profileVersion,2020-03-12 10:48:50
;   baseProfile,MakerBot Replicator 2(2)
;   printMaterial,PLA
;   printQuality,Medium
;   printExtruders,
;   extruderName,Primary Extruder
;   extruderToolheadNumber,0
;   extruderDiameter,0.4
;   extruderAutoWidth,0
;   extruderWidth,0.4
;   extrusionMultiplier,1
;   extruderUseRetract,1
;   extruderRetractionDistance,1.9
;   extruderExtraRestartDistance,0
;   extruderRetractionZLift,0.5
;   extruderRetractionSpeed,1200
;   extruderUseCoasting,0
;   extruderCoastingDistance,0.2
;   extruderUseWipe,0
;   extruderWipeDistance,5
;   primaryExtruder,0
;   layerHeight,0.2
;   topSolidLayers,3
;   bottomSolidLayers,3
;   perimeterOutlines,2
;   printPerimetersInsideOut,1
;   startPointOption,3
;   startPointOriginX,0
;   startPointOriginY,150
;   sequentialIslands,0
;   spiralVaseMode,0
;   firstLayerHeightPercentage,100
;   firstLayerWidthPercentage,115
;   firstLayerUnderspeed,0.5
;   useRaft,0
;   raftExtruder,0
;   raftTopLayers,2
;   raftBaseLayers,1
;   raftOffset,1
;   raftSeparationDistance,0.14
;   raftTopInfill,90
;   aboveRaftSpeedMultiplier,0.3
;   useSkirt,0
;   skirtExtruder,0
;   skirtLayers,1
;   skirtOutlines,5
;   skirtOffset,0
;   usePrimePillar,0
;   primePillarExtruder,999
;   primePillarWidth,12
;   primePillarLocation,7
;   primePillarSpeedMultiplier,1
;   useOozeShield,0
;   oozeShieldExtruder,999
;   oozeShieldOffset,2
;   oozeShieldOutlines,1
;   oozeShieldSidewallShape,1
;   oozeShieldSidewallAngle,30
;   oozeShieldSpeedMultiplier,1
;   infillExtruder,0
;   internalInfillPattern,Rectilinear
;   externalInfillPattern,Rectilinear
;   infillPercentage,15
;   outlineOverlapPercentage,25
;   infillExtrusionWidthPercentage,100
;   minInfillLength,5
;   infillLayerInterval,1
;   internalInfillAngles,45,-45
;   overlapInternalInfillAngles,0
;   externalInfillAngles,45,-45
;   generateSupport,0
;   supportExtruder,0
;   supportInfillPercentage,30
;   supportExtraInflation,0.5
;   supportBaseLayers,0
;   denseSupportExtruder,0
;   denseSupportLayers,2
;   denseSupportInfillPercentage,90
;   supportLayerInterval,1
;   supportHorizontalPartOffset,0.3
;   supportUpperSeparationLayers,1
;   supportLowerSeparationLayers,1
;   supportType,1
;   supportGridSpacing,2
;   maxOverhangAngle,45
;   supportAngles,45,-45
;   temperatureName,Primary Extruder,Heated Build Platform
;   temperatureNumber,0,0
;   temperatureSetpointCount,1,1
;   temperatureSetpointLayers,1,1
;   temperatureSetpointTemperatures,230,60
;   temperatureStabilizeAtStartup,1,1
;   temperatureHeatedBed,0,1
;   fanLayers,1,2
;   fanSpeeds,0,100
;   blipFanToFullPower,1
;   adjustSpeedForCooling,1
;   minSpeedLayerTime,15
;   minCoolingSpeedSlowdown,20
;   increaseFanForCooling,1
;   minFanLayerTime,45
;   maxCoolingFanSpeed,100
;   increaseFanForBridging,1
;   bridgingFanSpeed,100
;   use5D,1
;   relativeEdistances,1
;   allowEaxisZeroing,0
;   independentExtruderAxes,1
;   includeM10123,0
;   stickySupport,1
;   applyToolheadOffsets,0
;   gcodeXoffset,0
;   gcodeYoffset,0
;   gcodeZoffset,0
;   overrideMachineDefinition,1
;   machineTypeOverride,0
;   strokeXoverride,280
;   strokeYoverride,150
;   strokeZoverride,150
;   originOffsetXoverride,140
;   originOffsetYoverride,75
;   originOffsetZoverride,0
;   homeXdirOverride,1
;   homeYdirOverride,1
;   homeZdirOverride,-1
;   flipXoverride,1
;   flipYoverride,-1
;   flipZoverride,1
;   toolheadOffsets,0,0|0,0|0,0|0,0|0,0|0,0
;   overrideFirmwareConfiguration,1
;   firmwareTypeOverride,MakerBot/Sailfish Firmware
;   GPXconfigOverride,r2h
;   baudRateOverride,115200
;   overridePrinterModels,1
;   printerModelsOverride,MakerBot_Replicator2.stl
;   startingGcode,; **** Replicator 2 start.gcode ****,M73 P0 ; enable build progress,G162 X Y F3000 ; home XY maximum,G161 Z F1200 ; home Z minimum,G92 Z-5 ; set Z to -5,G1 Z0 ; move Z to 0,G161 Z F100 ; home Z slowly,M132 X Y Z A B ; recall home offsets,G1 X-145 Y-75 Z30 F9000 ; move to wait position off table,G130 X20 Y20 Z20 A20 B20 ; lower stepper Vrefs while heating,M126 S[fan_speed_pwm],M140 S[bed0_temperature] T0,M134 T0 ; stabilize bed temperature,M104 S[extruder0_temperature] T0,M133 T0 ; stabilize extruder temperature,G130 X127 Y127 Z40 A127 B127 ; default stepper Vrefs,G92 A0 ; zero extruder,G1 Z0.4 ; position nozzle,G1 E25 F300 ; purge nozzle,G1 X-140 Y-70 Z0.15 F1200 ; slow wipe,G1 X-135 Y-65 Z0.5 F1200 ; lift,G92 A0 ; zero extruder,M73 P1 ;@body (notify GPX body has started),; **** end of start.gcode ****
;   layerChangeGcode,
;   retractionGcode,
;   toolChangeGcode,
;   endingGcode,; **** Replicator 2 end.gcode ****,M73 P100 ; end build progress,G1 Z155 F1000 ; send Z axis to bottom of machine,M104 S0 T0 ; cool down extruder,M140 S0 T0 ; cool down HBP,M127 ; stop blower fan,G162 X Y F3000 ; home XY maximum,M18 ; disable stepper,M0 ; stop codes,M72 P1 ; play Ta-Da song,; **** end of end.gcode ****
;   exportFileFormat,gcode
;   celebration,0
;   celebrationSong,Random Song
;   postProcessing,
;   defaultSpeed,4800
;   outlineUnderspeed,0.5
;   solidInfillUnderspeed,1
;   supportUnderspeed,1
;   rapidXYspeed,9000
;   rapidZspeed,1200
;   minBridgingArea,50
;   bridgingExtraInflation,0
;   bridgingExtrusionMultiplier,1
;   bridgingSpeedMultiplier,0.8
;   useFixedBridgingAngle,0
;   fixedBridgingAngle,0
;   applyBridgingToPerimeters,0
;   filamentDiameters,1.75|1.75|1.75|1.75|1.75|1.75
;   filamentPricesPerKg,46|46|46|46|46|46
;   filamentDensities,1.25|1.25|1.25|1.25|1.25|1.25
;   useMinPrintHeight,0
;   minPrintHeight,0
;   useMaxPrintHeight,0
;   maxPrintHeight,4.84
;   useDiaphragm,0
;   diaphragmLayerInterval,20
;   robustSlicing,1
;   mergeAllIntoSolid,0
;   onlyRetractWhenCrossingOutline,0
;   retractBetweenLayers,0
;   useRetractionMinTravel,1
;   retractionMinTravel,7
;   retractWhileWiping,1
;   onlyWipeOutlines,1
;   avoidCrossingOutline,0
;   maxMovementDetourFactor,3
;   toolChangeRetractionDistance,12
;   toolChangeExtraRestartDistance,-0.5
;   toolChangeRetractionSpeed,600
;   externalThinWallType,0
;   internalThinWallType,0
;   thinWallAllowedOverlapPercentage,10
;   singleExtrusionMinLength,1
;   singleExtrusionMinPrintingWidthPercentage,50
;   singleExtrusionMaxPrintingWidthPercentage,200
;   singleExtrusionEndpointExtension,0.2
;   horizontalSizeCompensation,0
G90
M83
; **** Replicator 2 start.gcode ****
M73 P0 ; enable build progress
G162 X Y F3000 ; home XY maximum
G161 Z F1200 ; home Z minimum
G92 Z-5 ; set Z to -5
G1 Z0 ; move Z to 0
G161 Z F100 ; home Z slowly
M132 X Y Z A B ; recall home offsets
G1 X-145 Y-75 Z30 F9000 ; move to wait position off table
G130 X20 Y20 Z20 A20 B20 ; lower stepper Vrefs while heating
M127
M140 S60 T0
M134 T0 ; stabilize bed temperature
M104 S230 T0
M133 T0 ; stabilize extruder temperature
G130 X127 Y127 Z40 A127 B127 ; default stepper Vrefs
G92 A0 ; zero extruder
G1 Z0.4 ; position nozzle
G1 E25 F300 ; purge nozzle
G1 X-140 Y-70 Z0.15 F1200 ; slow wipe
G1 X-135 Y-65 Z0.5 F1200 ; lift
G92 A0 ; zero extruder
M73 P1 ;@body (notify GPX body has started)
; **** end of start.gcode ****
; process Process1
; layer 1, Z = 0.200
M135 T0
G1 E-1.9000 F1200
; feature inner perimeter
; tool H0.200 W0.460
G1 Z0.500 F1200
G1 X-16.664 Y0.218 F9000
G1 Z0.200 F1200
G1 E1.9000 F1200
G1 X-18.078 Y0.370 E0.0544 F1800
G1 X-18.323 Y0.379 E0.0094
G1 X-19.499 Y0.421 E0.0450
G1 X-20.920 Y0.370 E0.0544
G1 X-22.334 Y0.218 E0.0544
G1 X-23.733 Y-0.035 E0.0544
G1 X-23.970 Y-0.095 E0.0094
G1 X-25.111 Y-0.386 E0.0450
G1 X-26.460 Y-0.835 E0.0544
G1 X-27.774 Y-1.379 E0.0544
G1 X-29.046 Y-2.016 E0.0544
G1 X-29.256 Y-2.141 E0.0094
G1 X-30.269 Y-2.742 E0.0450
G1 X-31.436 Y-3.552 E0.0544
G1 X-32.544 Y-4.445 E0.0544
G1 X-33.584 Y-5.414 E0.0544
G1 X-34.553 Y-6.454 E0.0544
G1 X-35.446 Y-7.562 E0.0544
G1 X-36.257 Y-8.730 E0.0544
G1 X-36.982 Y-9.953 E0.0544
G1 X-37.619 Y-11.224 E0.0544
G1 X-38.163 Y-12.538 E0.0544
G1 X-38.612 Y-13.887 E0.0544
G1 X-38.672 Y-14.124 E0.0094
G1 X-38.964 Y-15.265 E0.0450
G1 X-39.216 Y-16.664 E0.0544
G1 X-39.368 Y-18.078 E0.0544
G1 X-39.419 Y-19.499 E0.0544
G1 X-39.368 Y-20.920 E0.0544
G1 X-39.216 Y-22.334 E0.0544
G1 X-38.964 Y-23.733 E0.0544
G1 X-38.612 Y-25.111 E0.0544
G1 X-38.163 Y-26.460 E0.0544
G1 X-37.619 Y-27.774 E0.0544
G1 X-37.509 Y-27.993 E0.0094
G1 X-36.982 Y-29.045 E0.0450
G1 X-36.257 Y-30.268 E0.0544
G1 X-35.446 Y-31.437 E0.0544
G1 X-34.553 Y-32.544 E0.0544
G1 X-33.584 Y-33.584 E0.0544
G1 X-32.544 Y-34.553 E0.0544
G1 X-31.436 Y-35.446 E0.0544
G1 X-30.269 Y-36.257 E0.0544
G1 X-29.046 Y-36.982 E0.0544
G1 X-27.774 Y-37.619 E0.0544
G1 X-26.460 Y-38.163 E0.0544
G1 X-26.228 Y-38.240 E0.0094
G1 X-25.111 Y-38.612 E0.0450
G1 X-23.733 Y-38.964 E0.0544
G1 X-22.334 Y-39.216 E0.0544
G1 X-20.920 Y-39.368 E0.0544
G1 X-19.499 Y-39.419 E0.0544
G1 X-18.078 Y-39.368 E0.0544
G1 X-16.664 Y-39.216 E0.0544
G1 X-16.423 Y-39.173 E0.0094
G1 X-15.265 Y-38.964 E0.0450
G1 X-13.887 Y-38.612 E0.0544
G1 X-12.538 Y-38.163 E0.0544
G1 X-11.224 Y-37.619 E0.0544
G1 X-11.005 Y-37.509 E0.0094
G1 X-9.953 Y-36.982 E0.0450
G1 X-8.730 Y-36.257 E0.0544
G1 X-7.562 Y-35.446 E0.0544
G1 X-6.454 Y-34.553 E0.0544
G1 X-5.414 Y-33.584 E0.0544
G1 X-4.445 Y-32.544 E0.0544
G1 X-4.291 Y-32.353 E0.0094
G1 X-3.553 Y-31.437 E0.0450
G1 X-2.742 Y-30.268 E0.0544
G1 X-2.016 Y-29.046 E0.0544
G1 X-1.379 Y-27.774 E0.0544
G1 X-0.835 Y-26.460 E0.0544
G1 X-0.386 Y-25.111 E0.0544
G1 X-0.035 Y-23.733 E0.0544
G1 X0.218 Y-22.334 E0.0544
G1 X0.370 Y-20.920 E0.0544
G1 X0.421 Y-19.499 E0.0544
G1 X0.370 Y-18.078 E0.0544
G1 X0.218 Y-16.664 E0.0544
G1 X0.174 Y-16.423 E0.0094
G1 X-0.035 Y-15.265 E0.0450
G1 X-0.386 Y-13.887 E0.0544
G1 X-0.835 Y-12.538 E0.0544
G1 X-1.379 Y-11.224 E0.0544
G1 X-1.489 Y-11.005 E0.0094
G1 X-2.016 Y-9.953 E0.0450
G1 X-2.741 Y-8.730 E0.0544
G1 X-3.553 Y-7.562 E0.0544
G1 X-4.445 Y-6.454 E0.0544
G1 X-4.611 Y-6.275 E0.0094
G1 X-5.414 Y-5.414 E0.0450
G1 X-6.454 Y-4.445 E0.0544
G1 X-7.562 Y-3.552 E0.0544
G1 X-8.730 Y-2.741 E0.0544
G1 X-9.953 Y-2.016 E0.0544
G1 X-11.224 Y-1.379 E0.0544
G1 X-12.538 Y-0.835 E0.0544
G1 X-12.770 Y-0.758 E0.0094
G1 X-13.887 Y-0.386 E0.0450
G1 X-15.265 Y-0.035 E0.0544
G1 X-16.664 Y0.218 E0.0544
; feature outer perimeter
G1 X-16.599 Y0.674 F9000
G1 X-18.045 Y0.829 E0.0556 F1200
G1 X-18.306 Y0.838 E0.0100
G1 X-19.499 Y0.881 E0.0457
G1 X-20.953 Y0.829 E0.0556
G1 X-22.399 Y0.674 E0.0556
G1 X-23.831 Y0.415 E0.0556
G1 X-24.084 Y0.351 E0.0100
G1 X-25.241 Y0.055 E0.0457
G1 X-26.621 Y-0.404 E0.0556
G1 X-27.965 Y-0.961 E0.0556
G1 X-29.266 Y-1.612 E0.0556
G1 X-29.491 Y-1.745 E0.0100
G1 X-30.517 Y-2.354 E0.0457
G1 X-31.712 Y-3.184 E0.0556
G1 X-32.845 Y-4.097 E0.0557
G1 X-33.910 Y-5.088 E0.0556
G1 X-34.901 Y-6.153 E0.0556
G1 X-35.814 Y-7.286 E0.0557
G1 X-36.644 Y-8.481 E0.0556
G1 X-37.386 Y-9.732 E0.0556
G1 X-38.037 Y-11.033 E0.0556
G1 X-38.594 Y-12.377 E0.0556
G1 X-39.054 Y-13.757 E0.0556
G1 X-39.118 Y-14.010 E0.0100
G1 X-39.413 Y-15.167 E0.0457
G1 X-39.672 Y-16.599 E0.0556
G1 X-39.827 Y-18.045 E0.0556
G1 X-39.879 Y-19.499 E0.0556
G1 X-39.827 Y-20.953 E0.0556
G1 X-39.672 Y-22.399 E0.0556
G1 X-39.413 Y-23.831 E0.0556
G1 X-39.054 Y-25.241 E0.0556
G1 X-38.594 Y-26.621 E0.0556
G1 X-38.037 Y-27.965 E0.0556
G1 X-37.921 Y-28.199 E0.0100
G1 X-37.386 Y-29.266 E0.0457
G1 X-36.644 Y-30.517 E0.0556
G1 X-35.814 Y-31.712 E0.0556
G1 X-34.901 Y-32.845 E0.0557
G1 X-33.910 Y-33.910 E0.0556
G1 X-32.845 Y-34.901 E0.0556
G1 X-31.712 Y-35.814 E0.0557
G1 X-30.517 Y-36.644 E0.0556
G1 X-29.266 Y-37.386 E0.0556
G1 X-27.965 Y-38.037 E0.0556
G1 X-26.621 Y-38.594 E0.0556
G1 X-26.373 Y-38.677 E0.0100
G1 X-25.241 Y-39.054 E0.0457
G1 X-23.831 Y-39.413 E0.0556
G1 X-22.399 Y-39.672 E0.0557
G1 X-20.953 Y-39.827 E0.0556
G1 X-19.499 Y-39.879 E0.0556
G1 X-18.045 Y-39.827 E0.0556
G1 X-16.599 Y-39.672 E0.0556
G1 X-16.342 Y-39.625 E0.0100
G1 X-15.167 Y-39.413 E0.0457
G1 X-13.757 Y-39.054 E0.0556
G1 X-12.377 Y-38.594 E0.0556
G1 X-11.033 Y-38.037 E0.0556
G1 X-10.799 Y-37.921 E0.0100
G1 X-9.732 Y-37.386 E0.0457
G1 X-8.481 Y-36.644 E0.0556
G1 X-7.286 Y-35.814 E0.0556
G1 X-6.153 Y-34.901 E0.0556
G1 X-5.088 Y-33.910 E0.0556
G1 X-4.097 Y-32.845 E0.0557
G1 X-3.933 Y-32.642 E0.0100
G1 X-3.184 Y-31.712 E0.0457
G1 X-2.354 Y-30.517 E0.0557
G1 X-1.612 Y-29.266 E0.0556
G1 X-0.961 Y-27.965 E0.0556
G1 X-0.404 Y-26.621 E0.0556
G1 X0.055 Y-25.241 E0.0556
G1 X0.415 Y-23.831 E0.0556
G1 X0.674 Y-22.399 E0.0557
G1 X0.829 Y-20.953 E0.0556
G1 X0.881 Y-19.499 E0.0556
G1 X0.829 Y-18.045 E0.0556
G1 X0.674 Y-16.599 E0.0556
G1 X0.627 Y-16.342 E0.0100
G1 X0.415 Y-15.167 E0.0457
G1 X0.055 Y-13.757 E0.0556
G1 X-0.404 Y-12.377 E0.0556
G1 X-0.961 Y-11.033 E0.0556
G1 X-1.078 Y-10.799 E0.0100
G1 X-1.612 Y-9.732 E0.0457
G1 X-2.354 Y-8.481 E0.0556
G1 X-3.184 Y-7.286 E0.0557
G1 X-4.097 Y-6.153 E0.0556
G1 X-4.275 Y-5.962 E0.0100
G1 X-5.088 Y-5.088 E0.0457
G1 X-6.153 Y-4.097 E0.0557
G1 X-7.286 Y-3.184 E0.0556
G1 X-8.481 Y-2.354 E0.0557
G1 X-9.732 Y-1.612 E0.0556
G1 X-11.033 Y-0.961 E0.0556
G1 X-12.377 Y-0.404 E0.0556
G1 X-12.625 Y-0.322 E0.0100
G1 X-13.757 Y0.055 E0.0457
G1 X-15.167 Y0.415 E0.0556
G1 X-16.599 Y0.674 E0.0556
; feature inner perimeter
G1 X-16.580 Y-1.069 F9000
G1 X-16.137 Y-1.112 E0.0170 F1800
G1 X-14.183 Y-1.580 E0.0768
G1 X-12.301 Y-2.250 E0.0764
G1 X-10.501 Y-3.117 E0.0764
G1 X-8.804 Y-4.171 E0.0764
G1 X-7.220 Y-5.407 E0.0768
G1 X-6.910 Y-5.726 E0.0170
G1 X-6.652 Y-6.103 E0.0174
G1 X-6.462 Y-6.517 E0.0174
G1 X-6.344 Y-6.958 E0.0174
G1 X-6.303 Y-7.412 E0.0174
G1 X-6.338 Y-7.867 E0.0174
G1 X-6.450 Y-8.309 E0.0174
G1 X-6.635 Y-8.726 E0.0174
G1 X-6.888 Y-9.106 E0.0174
G1 X-7.181 Y-9.416 E0.0163
G1 X-7.597 Y-9.788 E0.0213
G1 X-7.918 Y-10.032 E0.0154
G1 X-8.298 Y-10.234 E0.0165
G1 X-8.706 Y-10.373 E0.0165
G1 X-9.130 Y-10.445 E0.0165
G1 X-9.561 Y-10.449 E0.0165
G1 X-9.987 Y-10.384 E0.0165
G1 X-10.397 Y-10.252 E0.0165
G1 X-10.787 Y-10.053 E0.0168
G1 X-12.192 Y-8.975 E0.0677
G1 X-13.340 Y-8.264 E0.0517
G1 X-14.555 Y-7.679 E0.0516
G1 X-15.827 Y-7.224 E0.0517
G1 X-17.545 Y-6.798 E0.0677
G1 X-17.945 Y-6.617 E0.0168
G1 X-18.303 Y-6.379 E0.0165
G1 X-18.620 Y-6.087 E0.0165
G1 X-18.885 Y-5.747 E0.0165
G1 X-19.094 Y-5.370 E0.0165
G1 X-19.239 Y-4.965 E0.0165
G1 X-19.318 Y-4.542 E0.0165
G1 X-19.328 Y-4.139 E0.0154
G1 X-19.298 Y-3.618 E0.0200
G1 X-19.237 Y-3.162 E0.0176
G1 X-19.097 Y-2.725 E0.0175
G1 X-18.886 Y-2.320 E0.0174
G1 X-18.610 Y-1.957 E0.0174
G1 X-18.277 Y-1.646 E0.0174
G1 X-17.896 Y-1.395 E0.0174
G1 X-17.478 Y-1.212 E0.0174
G1 X-17.035 Y-1.103 E0.0174
G1 X-16.580 Y-1.069 E0.0174
; feature outer perimeter
G1 X-16.586 Y-1.531 F9000
G1 X-16.213 Y-1.567 E0.0143 F1200
G1 X-14.314 Y-2.022 E0.0747
G1 X-12.478 Y-2.675 E0.0745
G1 X-10.723 Y-3.520 E0.0745
G1 X-9.067 Y-4.549 E0.0745
G1 X-7.528 Y-5.750 E0.0747
G1 X-7.268 Y-6.018 E0.0143
G1 X-7.054 Y-6.330 E0.0145
G1 X-6.896 Y-6.674 E0.0145
G1 X-6.799 Y-7.039 E0.0145
G1 X-6.764 Y-7.415 E0.0145
G1 X-6.794 Y-7.792 E0.0145
G1 X-6.887 Y-8.158 E0.0145
G1 X-7.040 Y-8.504 E0.0145
G1 X-7.249 Y-8.818 E0.0145
G1 X-7.502 Y-9.086 E0.0141
G1 X-7.890 Y-9.433 E0.0199
G1 X-8.166 Y-9.643 E0.0133
G1 X-8.482 Y-9.810 E0.0137
G1 X-8.819 Y-9.926 E0.0137
G1 X-9.171 Y-9.986 E0.0137
G1 X-9.528 Y-9.989 E0.0137
G1 X-9.881 Y-9.935 E0.0137
G1 X-10.220 Y-9.825 E0.0137
G1 X-10.541 Y-9.662 E0.0137
G1 X-11.930 Y-8.596 E0.0670
G1 X-13.119 Y-7.860 E0.0535
G1 X-14.378 Y-7.254 E0.0534
G1 X-15.694 Y-6.783 E0.0535
G1 X-17.394 Y-6.362 E0.0670
G1 X-17.721 Y-6.213 E0.0137
G1 X-18.018 Y-6.016 E0.0137
G1 X-18.281 Y-5.774 E0.0137
G1 X-18.501 Y-5.493 E0.0137
G1 X-18.673 Y-5.180 E0.0137
G1 X-18.794 Y-4.844 E0.0137
G1 X-18.859 Y-4.494 E0.0137
G1 X-18.867 Y-4.146 E0.0133
G1 X-18.840 Y-3.661 E0.0186
G1 X-18.787 Y-3.263 E0.0154
G1 X-18.671 Y-2.903 E0.0145
G1 X-18.496 Y-2.567 E0.0145
G1 X-18.268 Y-2.266 E0.0145
G1 X-17.992 Y-2.008 E0.0145
G1 X-17.676 Y-1.801 E0.0145
G1 X-17.330 Y-1.649 E0.0145
