; G-Code generated by Simplify3D(R) Version 4.1.2
; Apr 1, 2020 at 11:26:39 AM
; Settings Summary
;   processName,Process1
;   applyToModels,Amp TubesV1R2,Speaker insert
;   profileName,MakerBot Replicator 2 HBP (modified)
;   profileVersion,2020-03-12 10:48:50
;   baseProfile,MakerBot Replicator 2(2)
;   printMaterial,PLA
;   printQuality,Medium
;   printExtruders,
;   extruderName,Primary Extruder
;   extruderToolheadNumber,0
;   extruderDiameter,0.4
;   extruderAutoWidth,0
;   extruderWidth,0.4
;   extrusionMultiplier,1
;   extruderUseRetract,1
;   extruderRetractionDistance,1.9
;   extruderExtraRestartDistance,0
;   extruderRetractionZLift,0.5
;   extruderRetractionSpeed,1200
;   extruderUseCoasting,0
;   extruderCoastingDistance,0.2
;   extruderUseWipe,0
;   extruderWipeDistance,5
;   primaryExtruder,0
;   layerHeight,0.2
;   topSolidLayers,3
;   bottomSolidLayers,3
;   perimeterOutlines,2
;   printPerimetersInsideOut,1
;   startPointOption,3
;   startPointOriginX,0
;   startPointOriginY,150
;   sequentialIslands,0
;   spiralVaseMode,0
;   firstLayerHeightPercentage,100
;   firstLayerWidthPercentage,115
;   firstLayerUnderspeed,0.5
;   useRaft,0
;   raftExtruder,0
;   raftTopLayers,2
;   raftBaseLayers,1
;   raftOffset,1
;   raftSeparationDistance,0.14
;   raftTopInfill,90
;   aboveRaftSpeedMultiplier,0.3
;   useSkirt,0
;   skirtExtruder,0
;   skirtLayers,1
;   skirtOutlines,5
;   skirtOffset,0
;   usePrimePillar,0
;   primePillarExtruder,999
;   primePillarWidth,12
;   primePillarLocation,7
;   primePillarSpeedMultiplier,1
;   useOozeShield,0
;   oozeShieldExtruder,999
;   oozeShieldOffset,2
;   oozeShieldOutlines,1
;   oozeShieldSidewallShape,1
;   oozeShieldSidewallAngle,30
;   oozeShieldSpeedMultiplier,1
;   infillExtruder,0
;   internalInfillPattern,Rectilinear
;   externalInfillPattern,Rectilinear
;   infillPercentage,15
;   outlineOverlapPercentage,25
;   infillExtrusionWidthPercentage,100
;   minInfillLength,5
;   infillLayerInterval,1
;   internalInfillAngles,45,-45
;   overlapInternalInfillAngles,0
;   externalInfillAngles,45,-45
;   generateSupport,0
;   supportExtruder,0
;   supportInfillPercentage,5
;   supportExtraInflation,0.5
;   supportBaseLayers,0
;   denseSupportExtruder,0
;   denseSupportLayers,2
;   denseSupportInfillPercentage,90
;   supportLayerInterval,1
;   supportHorizontalPartOffset,0.3
;   supportUpperSeparationLayers,1
;   supportLowerSeparationLayers,1
;   supportType,1
;   supportGridSpacing,2
;   maxOverhangAngle,45
;   supportAngles,45,-45
;   temperatureName,Primary Extruder,Heated Build Platform
;   temperatureNumber,0,0
;   temperatureSetpointCount,1,1
;   temperatureSetpointLayers,1,1
;   temperatureSetpointTemperatures,230,75
;   temperatureStabilizeAtStartup,1,1
;   temperatureHeatedBed,0,1
;   fanLayers,1,2
;   fanSpeeds,0,100
;   blipFanToFullPower,1
;   adjustSpeedForCooling,1
;   minSpeedLayerTime,15
;   minCoolingSpeedSlowdown,20
;   increaseFanForCooling,1
;   minFanLayerTime,45
;   maxCoolingFanSpeed,100
;   increaseFanForBridging,1
;   bridgingFanSpeed,100
;   use5D,1
;   relativeEdistances,1
;   allowEaxisZeroing,0
;   independentExtruderAxes,1
;   includeM10123,0
;   stickySupport,1
;   applyToolheadOffsets,0
;   gcodeXoffset,0
;   gcodeYoffset,0
;   gcodeZoffset,0
;   overrideMachineDefinition,1
;   machineTypeOverride,0
;   strokeXoverride,280
;   strokeYoverride,150
;   strokeZoverride,150
;   originOffsetXoverride,140
;   originOffsetYoverride,75
;   originOffsetZoverride,0
;   homeXdirOverride,1
;   homeYdirOverride,1
;   homeZdirOverride,-1
;   flipXoverride,1
;   flipYoverride,-1
;   flipZoverride,1
;   toolheadOffsets,0,0|0,0|0,0|0,0|0,0|0,0
;   overrideFirmwareConfiguration,1
;   firmwareTypeOverride,MakerBot/Sailfish Firmware
;   GPXconfigOverride,r2h
;   baudRateOverride,115200
;   overridePrinterModels,1
;   printerModelsOverride,MakerBot_Replicator2.stl
;   startingGcode,; **** Replicator 2 start.gcode ****,M73 P0 ; enable build progress,G162 X Y F3000 ; home XY maximum,G161 Z F1200 ; home Z minimum,G92 Z-5 ; set Z to -5,G1 Z0 ; move Z to 0,G161 Z F100 ; home Z slowly,M132 X Y Z A B ; recall home offsets,G1 X-145 Y-75 Z30 F9000 ; move to wait position off table,G130 X20 Y20 Z20 A20 B20 ; lower stepper Vrefs while heating,M126 S[fan_speed_pwm],M140 S[bed0_temperature] T0,M134 T0 ; stabilize bed temperature,M104 S[extruder0_temperature] T0,M133 T0 ; stabilize extruder temperature,G130 X127 Y127 Z40 A127 B127 ; default stepper Vrefs,G92 A0 ; zero extruder,G1 Z0.4 ; position nozzle,G1 E25 F300 ; purge nozzle,G1 X-140 Y-70 Z0.15 F1200 ; slow wipe,G1 X-135 Y-65 Z0.5 F1200 ; lift,G92 A0 ; zero extruder,M73 P1 ;@body (notify GPX body has started),; **** end of start.gcode ****
;   layerChangeGcode,
;   retractionGcode,
;   toolChangeGcode,
;   endingGcode,; **** Replicator 2 end.gcode ****,M73 P100 ; end build progress,G1 Z155 F1000 ; send Z axis to bottom of machine,M104 S0 T0 ; cool down extruder,M140 S0 T0 ; cool down HBP,M127 ; stop blower fan,G162 X Y F3000 ; home XY maximum,M18 ; disable stepper,M0 ; stop codes,M72 P1 ; play Ta-Da song,; **** end of end.gcode ****
;   exportFileFormat,x3g
;   celebration,0
;   celebrationSong,Random Song
;   postProcessing,
;   defaultSpeed,4800
;   outlineUnderspeed,0.5
;   solidInfillUnderspeed,1
;   supportUnderspeed,1
;   rapidXYspeed,9000
;   rapidZspeed,1200
;   minBridgingArea,50
;   bridgingExtraInflation,0
;   bridgingExtrusionMultiplier,1
;   bridgingSpeedMultiplier,0.8
;   useFixedBridgingAngle,0
;   fixedBridgingAngle,0
;   applyBridgingToPerimeters,0
;   filamentDiameters,1.75|1.75|1.75|1.75|1.75|1.75
;   filamentPricesPerKg,46|46|46|46|46|46
;   filamentDensities,1.25|1.25|1.25|1.25|1.25|1.25
;   useMinPrintHeight,0
;   minPrintHeight,0
;   useMaxPrintHeight,0
;   maxPrintHeight,4.84
;   useDiaphragm,0
;   diaphragmLayerInterval,20
;   robustSlicing,1
;   mergeAllIntoSolid,0
;   onlyRetractWhenCrossingOutline,0
;   retractBetweenLayers,0
;   useRetractionMinTravel,1
;   retractionMinTravel,7
;   retractWhileWiping,1
;   onlyWipeOutlines,1
;   avoidCrossingOutline,0
;   maxMovementDetourFactor,3
;   toolChangeRetractionDistance,12
;   toolChangeExtraRestartDistance,-0.5
;   toolChangeRetractionSpeed,600
;   externalThinWallType,0
;   internalThinWallType,0
;   thinWallAllowedOverlapPercentage,10
;   singleExtrusionMinLength,1
;   singleExtrusionMinPrintingWidthPercentage,50
;   singleExtrusionMaxPrintingWidthPercentage,200
;   singleExtrusionEndpointExtension,0.2
;   horizontalSizeCompensation,0
G90
M83
; **** Replicator 2 start.gcode ****
M73 P0 ; enable build progress
G162 X Y F3000 ; home XY maximum
G161 Z F1200 ; home Z minimum
G92 Z-5 ; set Z to -5
G1 Z0 ; move Z to 0
G161 Z F100 ; home Z slowly
M132 X Y Z A B ; recall home offsets
G1 X-145 Y-75 Z30 F9000 ; move to wait position off table
G130 X20 Y20 Z20 A20 B20 ; lower stepper Vrefs while heating
M127
M140 S75 T0
M134 T0 ; stabilize bed temperature
M104 S230 T0
M133 T0 ; stabilize extruder temperature
G130 X127 Y127 Z40 A127 B127 ; default stepper Vrefs
G92 A0 ; zero extruder
G1 Z0.4 ; position nozzle
G1 E25 F300 ; purge nozzle
G1 X-140 Y-70 Z0.15 F1200 ; slow wipe
G1 X-135 Y-65 Z0.5 F1200 ; lift
G92 A0 ; zero extruder
M73 P1 ;@body (notify GPX body has started)
; **** end of start.gcode ****
; process Process1
; layer 1, Z = 0.200
M135 T0
G1 E-1.9000 F1200
; feature inner perimeter
; tool H0.200 W0.460
G1 Z0.500 F1200
G1 X4.664 Y6.087 F9000
G1 Z0.200 F1200
G1 E1.9000 F1200
G1 X4.664 Y1.484 E0.1761 F1800
G1 X-8.099 Y1.484 E0.4882
G1 X-8.099 Y6.087 E0.1761
G1 X-8.236 Y6.087 E0.0052
G1 X-8.236 Y1.484 E0.1761
G1 X-26.303 Y1.484 E0.6911
G1 X-26.303 Y-25.188 E1.0202
G1 X22.946 Y-25.188 E1.8837
G1 X22.946 Y1.484 E1.0202
G1 X4.935 Y1.484 E0.6889
G1 X4.935 Y6.087 E0.1761
G1 X4.664 Y6.087 E0.0103
; feature outer perimeter
G1 X4.204 Y5.862 F9000
G1 X4.204 Y1.944 E0.1498 F1200
G1 X-7.639 Y1.944 E0.4530
G1 X-7.639 Y5.864 E0.1499
G1 X-4.504 Y5.864 E0.1199
G1 X-4.505 Y6.663 E0.0306
G1 X-7.404 Y6.547 E0.1110
G1 X-8.696 Y6.547 E0.0494
G1 X-8.696 Y1.944 E0.1761
G1 X-26.763 Y1.944 E0.6911
G1 X-26.763 Y-25.648 E1.0554
G1 X23.406 Y-25.648 E1.9189
G1 X23.406 Y1.944 E1.0554
G1 X5.395 Y1.944 E0.6889
G1 X5.395 Y6.547 E0.1761
G1 X1.206 Y6.547 E0.1602
G1 X1.206 Y5.863 E0.0262
G1 X4.204 Y5.862 E0.1147
G1 E-1.9000 F1200
; feature solid layer
G1 Z0.700 F1200
G1 X-25.958 Y0.714 F9000
G1 Z0.200 F1200
G1 E1.9000 F1200
G1 X-25.533 Y1.139 E0.0230 F2400
G1 X-24.882 Y1.139 E0.0249
G1 X-25.958 Y0.063 E0.0582
G1 X-25.958 Y-0.587 E0.0249
G1 X-24.232 Y1.139 E0.0934
G1 X-23.581 Y1.139 E0.0249
G1 X-25.958 Y-1.238 E0.1286
G1 X-25.958 Y-1.888 E0.0249
G1 X-22.931 Y1.139 E0.1638
G1 X-22.280 Y1.139 E0.0249
G1 X-25.958 Y-2.539 E0.1990
G1 X-25.958 Y-3.189 E0.0249
G1 X-21.630 Y1.139 E0.2341
G1 X-20.979 Y1.139 E0.0249
G1 X-25.958 Y-3.840 E0.2693
G1 X-25.958 Y-4.490 E0.0249
G1 X-20.329 Y1.139 E0.3045
G1 X-19.678 Y1.139 E0.0249
G1 X-25.958 Y-5.141 E0.3397
G1 X-25.958 Y-5.792 E0.0249
G1 X-19.028 Y1.139 E0.3749
G1 X-18.377 Y1.139 E0.0249
G1 X-25.958 Y-6.442 E0.4101
G1 X-25.958 Y-7.093 E0.0249
G1 X-17.727 Y1.139 E0.4453
G1 X-17.076 Y1.139 E0.0249
G1 X-25.958 Y-7.743 E0.4805
G1 X-25.958 Y-8.394 E0.0249
G1 X-16.425 Y1.139 E0.5157
G1 X-15.775 Y1.139 E0.0249
G1 X-25.958 Y-9.044 E0.5508
G1 X-25.958 Y-9.695 E0.0249
G1 X-15.124 Y1.139 E0.5860
G1 X-14.474 Y1.139 E0.0249
G1 X-25.958 Y-10.345 E0.6212
G1 X-25.958 Y-10.996 E0.0249
G1 X-13.823 Y1.139 E0.6564
G1 X-13.173 Y1.139 E0.0249
G1 X-25.958 Y-11.646 E0.6916
G1 X-25.958 Y-12.297 E0.0249
G1 X-12.522 Y1.139 E0.7268
G1 X-11.872 Y1.139 E0.0249
G1 X-25.958 Y-12.947 E0.7620
G1 X-25.958 Y-13.598 E0.0249
G1 X-11.221 Y1.139 E0.7972
G1 X-10.571 Y1.139 E0.0249
G1 X-25.958 Y-14.249 E0.8324
G1 X-25.958 Y-14.899 E0.0249
G1 X-9.920 Y1.139 E0.8675
G1 X-9.270 Y1.139 E0.0249
G1 X-25.958 Y-15.550 E0.9027
G1 X-25.958 Y-16.200 E0.0249
G1 X-8.619 Y1.139 E0.9379
G1 X-7.968 Y1.139 E0.0249
G1 X-25.958 Y-16.851 E0.9731
G1 X-25.958 Y-17.501 E0.0249
G1 X-7.318 Y1.139 E1.0083
G1 X-6.667 Y1.139 E0.0249
G1 X-25.958 Y-18.152 E1.0435
G1 X-25.958 Y-18.802 E0.0249
G1 X-6.017 Y1.139 E1.0787
G1 X-5.366 Y1.139 E0.0249
G1 X-25.958 Y-19.453 E1.1139
G1 X-25.958 Y-20.103 E0.0249
G1 X-4.716 Y1.139 E1.1491
G1 X-4.065 Y1.139 E0.0249
G1 X-25.958 Y-20.754 E1.1842
G1 X-25.958 Y-21.404 E0.0249
G1 X-3.415 Y1.139 E1.2194
G1 X-2.764 Y1.139 E0.0249
G1 X-25.958 Y-22.055 E1.2546
G1 X-25.958 Y-22.706 E0.0249
G1 X-2.114 Y1.139 E1.2898
G1 X-1.463 Y1.139 E0.0249
G1 X-25.958 Y-23.356 E1.3250
G1 X-25.958 Y-24.007 E0.0249
G1 X-0.813 Y1.139 E1.3602
G1 X-0.162 Y1.139 E0.0249
G1 X-25.958 Y-24.657 E1.3954
G1 X-25.958 Y-24.843 E0.0071
G1 X-25.493 Y-24.843 E0.0178
G1 X0.489 Y1.139 E1.4054
G1 X1.139 Y1.139 E0.0249
G1 X-24.843 Y-24.843 E1.4054
G1 X-24.192 Y-24.843 E0.0249
G1 X1.790 Y1.139 E1.4054
G1 X2.440 Y1.139 E0.0249
G1 X-23.542 Y-24.843 E1.4054
G1 X-22.891 Y-24.843 E0.0249
G1 X3.091 Y1.139 E1.4054
G1 X3.741 Y1.139 E0.0249
G1 X-22.241 Y-24.843 E1.4054
G1 X-21.590 Y-24.843 E0.0249
G1 X4.392 Y1.139 E1.4054
G1 X5.042 Y1.139 E0.0249
G1 X-20.940 Y-24.843 E1.4054
G1 X-20.289 Y-24.843 E0.0249
G1 X5.693 Y1.139 E1.4054
G1 X6.343 Y1.139 E0.0249
G1 X-19.639 Y-24.843 E1.4054
G1 X-18.988 Y-24.843 E0.0249
G1 X6.994 Y1.139 E1.4054
G1 X7.644 Y1.139 E0.0249
G1 X-18.337 Y-24.843 E1.4054
G1 X-17.687 Y-24.843 E0.0249
G1 X8.295 Y1.139 E1.4054
G1 X8.946 Y1.139 E0.0249
G1 X-17.036 Y-24.843 E1.4054
G1 X-16.386 Y-24.843 E0.0249
G1 X9.596 Y1.139 E1.4054
G1 X10.247 Y1.139 E0.0249
G1 X-15.735 Y-24.843 E1.4054
G1 X-15.085 Y-24.843 E0.0249
G1 X10.897 Y1.139 E1.4054
G1 X11.548 Y1.139 E0.0249
G1 X-14.434 Y-24.843 E1.4054
G1 X-13.784 Y-24.843 E0.0249
G1 X12.198 Y1.139 E1.4054
G1 X12.849 Y1.139 E0.0249
G1 X-13.133 Y-24.843 E1.4054
G1 X-12.483 Y-24.843 E0.0249
G1 X13.499 Y1.139 E1.4054
G1 X14.150 Y1.139 E0.0249
G1 X-11.832 Y-24.843 E1.4054
G1 X-11.182 Y-24.843 E0.0249
G1 X14.800 Y1.139 E1.4054
G1 X15.451 Y1.139 E0.0249
G1 X-10.531 Y-24.843 E1.4054
G1 X-9.880 Y-24.843 E0.0249
G1 X16.101 Y1.139 E1.4054
G1 X16.752 Y1.139 E0.0249
G1 X-9.230 Y-24.843 E1.4054
G1 X-8.579 Y-24.843 E0.0249
G1 X17.403 Y1.139 E1.4054
G1 X18.053 Y1.139 E0.0249
G1 X-7.929 Y-24.843 E1.4054
G1 X-7.278 Y-24.843 E0.0249
G1 X18.704 Y1.139 E1.4054
G1 X19.354 Y1.139 E0.0249
G1 X-6.628 Y-24.843 E1.4054
G1 X-5.977 Y-24.843 E0.0249
G1 X20.005 Y1.139 E1.4054
G1 X20.655 Y1.139 E0.0249
G1 X-5.327 Y-24.843 E1.4054
G1 X-4.676 Y-24.843 E0.0249
G1 X21.306 Y1.139 E1.4054
G1 X21.956 Y1.139 E0.0249
G1 X-4.026 Y-24.843 E1.4054
G1 X-3.375 Y-24.843 E0.0249
G1 X22.601 Y1.133 E1.4051
G1 X22.601 Y0.482 E0.0249
G1 X-2.725 Y-24.843 E1.3699
G1 X-2.074 Y-24.843 E0.0249
G1 X22.601 Y-0.168 E1.3347
G1 X22.601 Y-0.819 E0.0249
G1 X-1.424 Y-24.843 E1.2995
G1 X-0.773 Y-24.843 E0.0249
G1 X22.601 Y-1.469 E1.2643
G1 X22.601 Y-2.120 E0.0249
G1 X-0.122 Y-24.843 E1.2292
G1 X0.528 Y-24.843 E0.0249
G1 X22.601 Y-2.770 E1.1940
G1 X22.601 Y-3.421 E0.0249
G1 X1.179 Y-24.843 E1.1588
G1 X1.829 Y-24.843 E0.0249
G1 X22.601 Y-4.071 E1.1236
G1 X22.601 Y-4.722 E0.0249
G1 X2.480 Y-24.843 E1.0884
G1 X3.130 Y-24.843 E0.0249
G1 X22.601 Y-5.372 E1.0532
G1 X22.601 Y-6.023 E0.0249
G1 X3.781 Y-24.843 E1.0180
G1 X4.431 Y-24.843 E0.0249
G1 X22.601 Y-6.673 E0.9828
G1 X22.601 Y-7.324 E0.0249
G1 X5.082 Y-24.843 E0.9476
G1 X5.732 Y-24.843 E0.0249
G1 X22.601 Y-7.975 E0.9124
G1 X22.601 Y-8.625 E0.0249
G1 X6.383 Y-24.843 E0.8773
G1 X7.033 Y-24.843 E0.0249
G1 X22.601 Y-9.276 E0.8421
G1 X22.601 Y-9.926 E0.0249
G1 X7.684 Y-24.843 E0.8069
G1 X8.335 Y-24.843 E0.0249
G1 X22.601 Y-10.577 E0.7717
G1 X22.601 Y-11.227 E0.0249
G1 X8.985 Y-24.843 E0.7365
G1 X9.636 Y-24.843 E0.0249
G1 X22.601 Y-11.878 E0.7013
G1 X22.601 Y-12.528 E0.0249
G1 X10.286 Y-24.843 E0.6661
G1 X10.937 Y-24.843 E0.0249
G1 X22.601 Y-13.179 E0.6309
G1 X22.601 Y-13.829 E0.0249
G1 X11.587 Y-24.843 E0.5957
G1 X12.238 Y-24.843 E0.0249
G1 X22.601 Y-14.480 E0.5606
G1 X22.601 Y-15.130 E0.0249
G1 X12.888 Y-24.843 E0.5254
G1 X13.539 Y-24.843 E0.0249
G1 X22.601 Y-15.781 E0.4902
G1 X22.601 Y-16.432 E0.0249
G1 X14.189 Y-24.843 E0.4550
G1 X14.840 Y-24.843 E0.0249
G1 X22.601 Y-17.082 E0.4198
G1 X22.601 Y-17.733 E0.0249
G1 X15.490 Y-24.843 E0.3846
G1 X16.141 Y-24.843 E0.0249
G1 X22.601 Y-18.383 E0.3494
G1 X22.601 Y-19.034 E0.0249
G1 X16.792 Y-24.843 E0.3142
G1 X17.442 Y-24.843 E0.0249
G1 X22.601 Y-19.684 E0.2790
G1 X22.601 Y-20.335 E0.0249
G1 X18.093 Y-24.843 E0.2439
G1 X18.743 Y-24.843 E0.0249
G1 X22.601 Y-20.985 E0.2087
G1 X22.601 Y-21.636 E0.0249
G1 X19.394 Y-24.843 E0.1735
G1 X20.044 Y-24.843 E0.0249
G1 X22.601 Y-22.286 E0.1383
G1 X22.601 Y-22.937 E0.0249
G1 X20.695 Y-24.843 E0.1031
G1 X21.345 Y-24.843 E0.0249
G1 X22.601 Y-23.587 E0.0679
G1 X22.601 Y-24.238 E0.0249
G1 X21.996 Y-24.843 E0.0327
G1 E-1.9000 F1200
; feature inner perimeter
G1 Z0.700 F1200
G1 X26.303 Y25.188 F9000
G1 Z0.200 F1200
G1 E1.9000 F1200
G1 X-26.303 Y25.188 E2.0122 F1800
G1 X-26.303 Y12.593 E0.4818
G1 X26.303 Y12.593 E2.0122
G1 X26.303 Y25.188 E0.4818
; feature outer perimeter
G1 X26.763 Y25.648 F9000
G1 X-26.763 Y25.648 E2.0473 F1200
G1 X-26.763 Y12.133 E0.5170
G1 X26.763 Y12.133 E2.0473
G1 X26.763 Y25.648 E0.5170
G1 E-1.9000 F1200
; feature solid layer
G1 Z0.700 F1200
G1 X25.948 Y12.938 F9000
G1 Z0.200 F1200
G1 E1.9000 F1200
G1 X25.958 Y12.947 E0.0005 F2400
G1 X25.958 Y13.598 E0.0249
G1 X25.298 Y12.938 E0.0357
G1 X24.647 Y12.938 E0.0249
G1 X25.958 Y14.249 E0.0709
G1 X25.958 Y14.899 E0.0249
G1 X23.997 Y12.938 E0.1061
G1 X23.346 Y12.938 E0.0249
G1 X25.958 Y15.550 E0.1413
G1 X25.958 Y16.200 E0.0249
G1 X22.696 Y12.938 E0.1765
G1 X22.045 Y12.938 E0.0249
G1 X25.958 Y16.851 E0.2117
G1 X25.958 Y17.501 E0.0249
G1 X21.395 Y12.938 E0.2469
G1 X20.744 Y12.938 E0.0249
G1 X25.958 Y18.152 E0.2821
G1 X25.958 Y18.802 E0.0249
G1 X20.093 Y12.938 E0.3172
G1 X19.443 Y12.938 E0.0249
G1 X25.958 Y19.453 E0.3524
G1 X25.958 Y20.103 E0.0249
G1 X18.792 Y12.938 E0.3876
G1 X18.142 Y12.938 E0.0249
G1 X25.958 Y20.754 E0.4228
G1 X25.958 Y21.404 E0.0249
G1 X17.491 Y12.938 E0.4580
G1 X16.841 Y12.938 E0.0249
G1 X25.958 Y22.055 E0.4932
