; G-Code generated by Simplify3D(R) Version 4.1.2
; Apr 1, 2020 at 11:23:04 AM
; Settings Summary
;   processName,Process1
;   applyToModels,Amp Body,Pro Speaker,Strip Harness
;   profileName,MakerBot Replicator 2 HBP (modified)
;   profileVersion,2020-03-12 10:48:50
;   baseProfile,MakerBot Replicator 2(2)
;   printMaterial,PLA
;   printQuality,Medium
;   printExtruders,
;   extruderName,Primary Extruder
;   extruderToolheadNumber,0
;   extruderDiameter,0.4
;   extruderAutoWidth,0
;   extruderWidth,0.4
;   extrusionMultiplier,1
;   extruderUseRetract,1
;   extruderRetractionDistance,1.9
;   extruderExtraRestartDistance,0
;   extruderRetractionZLift,0.5
;   extruderRetractionSpeed,1200
;   extruderUseCoasting,0
;   extruderCoastingDistance,0.2
;   extruderUseWipe,0
;   extruderWipeDistance,5
;   primaryExtruder,0
;   layerHeight,0.2
;   topSolidLayers,3
;   bottomSolidLayers,3
;   perimeterOutlines,2
;   printPerimetersInsideOut,1
;   startPointOption,3
;   startPointOriginX,0
;   startPointOriginY,150
;   sequentialIslands,0
;   spiralVaseMode,0
;   firstLayerHeightPercentage,100
;   firstLayerWidthPercentage,115
;   firstLayerUnderspeed,0.5
;   useRaft,0
;   raftExtruder,0
;   raftTopLayers,2
;   raftBaseLayers,1
;   raftOffset,1
;   raftSeparationDistance,0.14
;   raftTopInfill,90
;   aboveRaftSpeedMultiplier,0.3
;   useSkirt,0
;   skirtExtruder,0
;   skirtLayers,1
;   skirtOutlines,5
;   skirtOffset,0
;   usePrimePillar,0
;   primePillarExtruder,999
;   primePillarWidth,12
;   primePillarLocation,7
;   primePillarSpeedMultiplier,1
;   useOozeShield,0
;   oozeShieldExtruder,999
;   oozeShieldOffset,2
;   oozeShieldOutlines,1
;   oozeShieldSidewallShape,1
;   oozeShieldSidewallAngle,30
;   oozeShieldSpeedMultiplier,1
;   infillExtruder,0
;   internalInfillPattern,Rectilinear
;   externalInfillPattern,Rectilinear
;   infillPercentage,15
;   outlineOverlapPercentage,25
;   infillExtrusionWidthPercentage,100
;   minInfillLength,5
;   infillLayerInterval,1
;   internalInfillAngles,45,-45
;   overlapInternalInfillAngles,0
;   externalInfillAngles,45,-45
;   generateSupport,0
;   supportExtruder,0
;   supportInfillPercentage,5
;   supportExtraInflation,0.5
;   supportBaseLayers,0
;   denseSupportExtruder,0
;   denseSupportLayers,2
;   denseSupportInfillPercentage,90
;   supportLayerInterval,1
;   supportHorizontalPartOffset,0.3
;   supportUpperSeparationLayers,1
;   supportLowerSeparationLayers,1
;   supportType,1
;   supportGridSpacing,2
;   maxOverhangAngle,45
;   supportAngles,45,-45
;   temperatureName,Primary Extruder,Heated Build Platform
;   temperatureNumber,0,0
;   temperatureSetpointCount,1,1
;   temperatureSetpointLayers,1,1
;   temperatureSetpointTemperatures,230,75
;   temperatureStabilizeAtStartup,1,1
;   temperatureHeatedBed,0,1
;   fanLayers,1,2
;   fanSpeeds,0,100
;   blipFanToFullPower,1
;   adjustSpeedForCooling,1
;   minSpeedLayerTime,15
;   minCoolingSpeedSlowdown,20
;   increaseFanForCooling,1
;   minFanLayerTime,45
;   maxCoolingFanSpeed,100
;   increaseFanForBridging,1
;   bridgingFanSpeed,100
;   use5D,1
;   relativeEdistances,1
;   allowEaxisZeroing,0
;   independentExtruderAxes,1
;   includeM10123,0
;   stickySupport,1
;   applyToolheadOffsets,0
;   gcodeXoffset,0
;   gcodeYoffset,0
;   gcodeZoffset,0
;   overrideMachineDefinition,1
;   machineTypeOverride,0
;   strokeXoverride,280
;   strokeYoverride,150
;   strokeZoverride,150
;   originOffsetXoverride,140
;   originOffsetYoverride,75
;   originOffsetZoverride,0
;   homeXdirOverride,1
;   homeYdirOverride,1
;   homeZdirOverride,-1
;   flipXoverride,1
;   flipYoverride,-1
;   flipZoverride,1
;   toolheadOffsets,0,0|0,0|0,0|0,0|0,0|0,0
;   overrideFirmwareConfiguration,1
;   firmwareTypeOverride,MakerBot/Sailfish Firmware
;   GPXconfigOverride,r2h
;   baudRateOverride,115200
;   overridePrinterModels,1
;   printerModelsOverride,MakerBot_Replicator2.stl
;   startingGcode,; **** Replicator 2 start.gcode ****,M73 P0 ; enable build progress,G162 X Y F3000 ; home XY maximum,G161 Z F1200 ; home Z minimum,G92 Z-5 ; set Z to -5,G1 Z0 ; move Z to 0,G161 Z F100 ; home Z slowly,M132 X Y Z A B ; recall home offsets,G1 X-145 Y-75 Z30 F9000 ; move to wait position off table,G130 X20 Y20 Z20 A20 B20 ; lower stepper Vrefs while heating,M126 S[fan_speed_pwm],M140 S[bed0_temperature] T0,M134 T0 ; stabilize bed temperature,M104 S[extruder0_temperature] T0,M133 T0 ; stabilize extruder temperature,G130 X127 Y127 Z40 A127 B127 ; default stepper Vrefs,G92 A0 ; zero extruder,G1 Z0.4 ; position nozzle,G1 E25 F300 ; purge nozzle,G1 X-140 Y-70 Z0.15 F1200 ; slow wipe,G1 X-135 Y-65 Z0.5 F1200 ; lift,G92 A0 ; zero extruder,M73 P1 ;@body (notify GPX body has started),; **** end of start.gcode ****
;   layerChangeGcode,
;   retractionGcode,
;   toolChangeGcode,
;   endingGcode,; **** Replicator 2 end.gcode ****,M73 P100 ; end build progress,G1 Z155 F1000 ; send Z axis to bottom of machine,M104 S0 T0 ; cool down extruder,M140 S0 T0 ; cool down HBP,M127 ; stop blower fan,G162 X Y F3000 ; home XY maximum,M18 ; disable stepper,M0 ; stop codes,M72 P1 ; play Ta-Da song,; **** end of end.gcode ****
;   exportFileFormat,x3g
;   celebration,0
;   celebrationSong,Random Song
;   postProcessing,
;   defaultSpeed,4800
;   outlineUnderspeed,0.5
;   solidInfillUnderspeed,1
;   supportUnderspeed,1
;   rapidXYspeed,9000
;   rapidZspeed,1200
;   minBridgingArea,50
;   bridgingExtraInflation,0
;   bridgingExtrusionMultiplier,1
;   bridgingSpeedMultiplier,0.8
;   useFixedBridgingAngle,0
;   fixedBridgingAngle,0
;   applyBridgingToPerimeters,0
;   filamentDiameters,1.75|1.75|1.75|1.75|1.75|1.75
;   filamentPricesPerKg,46|46|46|46|46|46
;   filamentDensities,1.25|1.25|1.25|1.25|1.25|1.25
;   useMinPrintHeight,0
;   minPrintHeight,0
;   useMaxPrintHeight,0
;   maxPrintHeight,4.84
;   useDiaphragm,0
;   diaphragmLayerInterval,20
;   robustSlicing,1
;   mergeAllIntoSolid,0
;   onlyRetractWhenCrossingOutline,0
;   retractBetweenLayers,0
;   useRetractionMinTravel,1
;   retractionMinTravel,7
;   retractWhileWiping,1
;   onlyWipeOutlines,1
;   avoidCrossingOutline,0
;   maxMovementDetourFactor,3
;   toolChangeRetractionDistance,12
;   toolChangeExtraRestartDistance,-0.5
;   toolChangeRetractionSpeed,600
;   externalThinWallType,0
;   internalThinWallType,0
;   thinWallAllowedOverlapPercentage,10
;   singleExtrusionMinLength,1
;   singleExtrusionMinPrintingWidthPercentage,50
;   singleExtrusionMaxPrintingWidthPercentage,200
;   singleExtrusionEndpointExtension,0.2
;   horizontalSizeCompensation,0
G90
M83
; **** Replicator 2 start.gcode ****
M73 P0 ; enable build progress
G162 X Y F3000 ; home XY maximum
G161 Z F1200 ; home Z minimum
G92 Z-5 ; set Z to -5
G1 Z0 ; move Z to 0
G161 Z F100 ; home Z slowly
M132 X Y Z A B ; recall home offsets
G1 X-145 Y-75 Z30 F9000 ; move to wait position off table
G130 X20 Y20 Z20 A20 B20 ; lower stepper Vrefs while heating
M127
M140 S75 T0
M134 T0 ; stabilize bed temperature
M104 S230 T0
M133 T0 ; stabilize extruder temperature
G130 X127 Y127 Z40 A127 B127 ; default stepper Vrefs
G92 A0 ; zero extruder
G1 Z0.4 ; position nozzle
G1 E25 F300 ; purge nozzle
G1 X-140 Y-70 Z0.15 F1200 ; slow wipe
G1 X-135 Y-65 Z0.5 F1200 ; lift
G92 A0 ; zero extruder
M73 P1 ;@body (notify GPX body has started)
; **** end of start.gcode ****
; process Process1
; layer 1, Z = 0.200
M135 T0
G1 E-1.9000 F1200
; feature inner perimeter
; tool H0.200 W0.460
G1 Z0.500 F1200
G1 X4.357 Y5.440 F9000
G1 Z0.200 F1200
G1 E1.9000 F1200
G1 X-57.357 Y5.440 E2.3605 F1800
G1 X-57.357 Y-22.888 E1.0835
G1 X-23.183 Y-22.888 E1.3071
G1 X-23.183 Y-32.832 E0.3804
G1 X-14.563 Y-32.832 E0.3297
G1 X-14.563 Y-22.888 E0.3804
G1 X4.357 Y-22.888 E0.7237
G1 X4.357 Y5.440 E1.0835
; feature outer perimeter
G1 X4.817 Y5.900 F9000
G1 X-57.817 Y5.900 E2.3957 F1200
G1 X-57.817 Y-23.348 E1.1187
G1 X-23.643 Y-23.348 E1.3071
G1 X-23.643 Y-33.292 E0.3804
G1 X-14.103 Y-33.292 E0.3649
G1 X-14.103 Y-23.348 E0.3804
G1 X4.817 Y-23.348 E0.7237
G1 X4.817 Y5.900 E1.1187
G1 E-1.9000 F1200
; feature inner perimeter
G1 Z0.700 F1200
G1 X-17.060 Y-26.008 F9000
G1 Z0.200 F1200
G1 E1.9000 F1200
G1 X-16.613 Y-26.374 E0.0221 F1800
G1 X-16.247 Y-26.820 E0.0221
G1 X-15.975 Y-27.329 E0.0221
G1 X-15.808 Y-27.881 E0.0221
G1 X-15.751 Y-28.456 E0.0221
G1 X-15.808 Y-29.030 E0.0221
G1 X-15.975 Y-29.582 E0.0221
G1 X-16.247 Y-30.091 E0.0221
G1 X-16.613 Y-30.537 E0.0221
G1 X-17.060 Y-30.903 E0.0221
G1 X-17.568 Y-31.175 E0.0221
G1 X-18.121 Y-31.342 E0.0221
G1 X-18.695 Y-31.399 E0.0221
G1 X-19.269 Y-31.342 E0.0221
G1 X-19.821 Y-31.175 E0.0221
G1 X-20.330 Y-30.903 E0.0221
G1 X-20.776 Y-30.537 E0.0221
G1 X-21.142 Y-30.091 E0.0221
G1 X-21.414 Y-29.582 E0.0221
G1 X-21.582 Y-29.030 E0.0221
G1 X-21.638 Y-28.456 E0.0221
G1 X-21.582 Y-27.881 E0.0221
G1 X-21.414 Y-27.329 E0.0221
G1 X-21.142 Y-26.820 E0.0221
G1 X-20.776 Y-26.374 E0.0221
G1 X-20.330 Y-26.008 E0.0221
G1 X-19.821 Y-25.736 E0.0221
G1 X-19.269 Y-25.569 E0.0221
G1 X-18.695 Y-25.512 E0.0221
G1 X-18.121 Y-25.569 E0.0221
G1 X-17.568 Y-25.736 E0.0221
G1 X-17.060 Y-26.008 E0.0221
; feature outer perimeter
G1 X-17.316 Y-26.393 F9000
G1 X-16.940 Y-26.701 E0.0186 F1200
G1 X-16.632 Y-27.077 E0.0186
G1 X-16.402 Y-27.506 E0.0186
G1 X-16.261 Y-27.972 E0.0186
G1 X-16.214 Y-28.456 E0.0186
G1 X-16.261 Y-28.940 E0.0186
G1 X-16.402 Y-29.405 E0.0186
G1 X-16.632 Y-29.834 E0.0186
G1 X-16.940 Y-30.210 E0.0186
G1 X-17.316 Y-30.519 E0.0186
G1 X-17.745 Y-30.748 E0.0186
G1 X-18.211 Y-30.889 E0.0186
G1 X-18.695 Y-30.937 E0.0186
G1 X-19.179 Y-30.889 E0.0186
G1 X-19.644 Y-30.748 E0.0186
G1 X-20.073 Y-30.519 E0.0186
G1 X-20.449 Y-30.210 E0.0186
G1 X-20.758 Y-29.834 E0.0186
G1 X-20.987 Y-29.405 E0.0186
G1 X-21.128 Y-28.940 E0.0186
G1 X-21.176 Y-28.456 E0.0186
G1 X-21.128 Y-27.972 E0.0186
G1 X-20.987 Y-27.506 E0.0186
G1 X-20.758 Y-27.077 E0.0186
G1 X-20.449 Y-26.701 E0.0186
G1 X-20.073 Y-26.393 E0.0186
G1 X-19.644 Y-26.163 E0.0186
G1 X-19.179 Y-26.022 E0.0186
G1 X-18.695 Y-25.974 E0.0186
G1 X-18.211 Y-26.022 E0.0186
G1 X-17.745 Y-26.163 E0.0186
G1 X-17.316 Y-26.393 E0.0186
; feature solid layer
G1 X-18.663 Y-25.169 F9000
G1 X4.012 Y-2.493 E1.2266 F2400
G1 X4.012 Y-1.842 E0.0249
G1 X-19.390 Y-25.245 E1.2659
G1 E-1.9000 F1200
G1 Z0.700 F1200
G1 X-18.175 Y-32.487 F9000
G1 Z0.200 F1200
G1 E1.9000 F1200
G1 X-16.893 Y-31.205 E0.0693 F2400
G1 X-17.436 Y-31.495 E0.0235
G1 X-18.007 Y-31.669 E0.0228
G1 X-18.825 Y-32.487 E0.0443
G1 X-19.476 Y-32.487 E0.0249
G1 X-18.731 Y-31.742 E0.0403
G1 X-19.323 Y-31.684 E0.0228
G1 X-20.126 Y-32.487 E0.0434
G1 X-20.777 Y-32.487 E0.0249
G1 X-19.825 Y-31.534 E0.0515
G1 X-19.954 Y-31.495 E0.0052
G1 X-20.268 Y-31.327 E0.0136
G1 X-21.428 Y-32.487 E0.0627
G1 X-22.078 Y-32.487 E0.0249
G1 X-20.665 Y-31.074 E0.0764
G1 X-21.022 Y-30.780 E0.0177
G1 X-22.729 Y-32.487 E0.0923
G1 X-22.838 Y-32.487 E0.0042
G1 X-22.838 Y-31.946 E0.0207
G1 X-21.316 Y-30.423 E0.0824
G1 X-21.430 Y-30.283 E0.0069
G1 X-21.568 Y-30.025 E0.0112
G1 X-22.838 Y-31.295 E0.0687
G1 X-22.838 Y-30.645 E0.0249
G1 X-21.775 Y-29.581 E0.0575
G1 X-21.922 Y-29.097 E0.0193
G1 X-21.923 Y-29.079 E0.0007
G1 X-22.838 Y-29.994 E0.0495
G1 X-22.838 Y-29.343 E0.0249
G1 X-21.982 Y-28.487 E0.0463
G1 X-21.985 Y-28.456 E0.0012
G1 X-21.922 Y-27.814 E0.0247
G1 X-21.905 Y-27.760 E0.0021
G1 X-22.838 Y-28.693 E0.0505
G1 X-22.838 Y-28.042 E0.0249
G1 X-21.438 Y-26.642 E0.0757
G1 X-21.430 Y-26.628 E0.0006
G1 X-21.021 Y-26.129 E0.0247
G1 X-20.523 Y-25.720 E0.0247
G1 X-20.508 Y-25.712 E0.0006
G1 X4.012 Y-1.192 E1.3264
G1 X4.012 Y-0.541 E0.0249
G1 X-22.838 Y-27.392 E1.4524
G1 X-22.838 Y-26.741 E0.0249
G1 X4.012 Y0.109 E1.4524
G1 X4.012 Y0.760 E0.0249
G1 X-22.838 Y-26.091 E1.4524
G1 X-22.838 Y-25.440 E0.0249
G1 X4.012 Y1.410 E1.4524
G1 X4.012 Y2.061 E0.0249
G1 X-22.838 Y-24.790 E1.4524
G1 X-22.838 Y-24.139 E0.0249
G1 X4.012 Y2.711 E1.4524
G1 X4.012 Y3.362 E0.0249
G1 X-22.838 Y-23.489 E1.4524
G1 X-22.838 Y-22.838 E0.0249
G1 X4.012 Y4.012 E1.4524
G1 X4.012 Y4.663 E0.0249
G1 X-23.193 Y-22.543 E1.4716
G1 X-23.844 Y-22.543 E0.0249
G1 X3.794 Y5.095 E1.4950
G1 X3.143 Y5.095 E0.0249
G1 X-24.494 Y-22.543 E1.4950
G1 X-25.145 Y-22.543 E0.0249
G1 X2.492 Y5.095 E1.4950
G1 X1.842 Y5.095 E0.0249
G1 X-25.795 Y-22.543 E1.4950
G1 X-26.446 Y-22.543 E0.0249
G1 X1.191 Y5.095 E1.4950
G1 X0.541 Y5.095 E0.0249
G1 X-27.096 Y-22.543 E1.4950
G1 X-27.747 Y-22.543 E0.0249
G1 X-0.110 Y5.095 E1.4950
G1 X-0.760 Y5.095 E0.0249
G1 X-28.397 Y-22.543 E1.4950
G1 X-29.048 Y-22.543 E0.0249
G1 X-1.411 Y5.095 E1.4950
G1 X-2.061 Y5.095 E0.0249
G1 X-29.698 Y-22.543 E1.4950
G1 X-30.349 Y-22.543 E0.0249
G1 X-2.712 Y5.095 E1.4950
G1 X-3.362 Y5.095 E0.0249
G1 X-31.000 Y-22.543 E1.4950
G1 X-31.650 Y-22.543 E0.0249
G1 X-4.013 Y5.095 E1.4950
G1 X-4.663 Y5.095 E0.0249
G1 X-32.301 Y-22.543 E1.4950
G1 X-32.951 Y-22.543 E0.0249
G1 X-5.314 Y5.095 E1.4950
G1 X-5.965 Y5.095 E0.0249
G1 X-33.602 Y-22.543 E1.4950
G1 X-34.252 Y-22.543 E0.0249
G1 X-6.615 Y5.095 E1.4950
G1 X-7.266 Y5.095 E0.0249
G1 X-34.903 Y-22.543 E1.4950
G1 X-35.553 Y-22.543 E0.0249
G1 X-7.916 Y5.095 E1.4950
G1 X-8.567 Y5.095 E0.0249
G1 X-36.204 Y-22.543 E1.4950
G1 X-36.854 Y-22.543 E0.0249
G1 X-9.217 Y5.095 E1.4950
G1 X-9.868 Y5.095 E0.0249
G1 X-37.505 Y-22.543 E1.4950
G1 X-38.155 Y-22.543 E0.0249
G1 X-10.518 Y5.095 E1.4950
G1 X-11.169 Y5.095 E0.0249
G1 X-38.806 Y-22.543 E1.4950
G1 X-39.457 Y-22.543 E0.0249
G1 X-11.819 Y5.095 E1.4950
G1 X-12.470 Y5.095 E0.0249
G1 X-40.107 Y-22.543 E1.4950
G1 X-40.758 Y-22.543 E0.0249
G1 X-13.120 Y5.095 E1.4950
G1 X-13.771 Y5.095 E0.0249
G1 X-41.408 Y-22.543 E1.4950
G1 X-42.059 Y-22.543 E0.0249
G1 X-14.422 Y5.095 E1.4950
G1 X-15.072 Y5.095 E0.0249
G1 X-42.709 Y-22.543 E1.4950
G1 X-43.360 Y-22.543 E0.0249
G1 X-15.723 Y5.095 E1.4950
G1 X-16.373 Y5.095 E0.0249
G1 X-44.010 Y-22.543 E1.4950
G1 X-44.661 Y-22.543 E0.0249
G1 X-17.024 Y5.095 E1.4950
G1 X-17.674 Y5.095 E0.0249
G1 X-45.311 Y-22.543 E1.4950
G1 X-45.962 Y-22.543 E0.0249
G1 X-18.325 Y5.095 E1.4950
G1 X-18.975 Y5.095 E0.0249
G1 X-46.612 Y-22.543 E1.4950
G1 X-47.263 Y-22.543 E0.0249
G1 X-19.626 Y5.095 E1.4950
G1 X-20.276 Y5.095 E0.0249
G1 X-47.914 Y-22.543 E1.4950
G1 X-48.564 Y-22.543 E0.0249
G1 X-20.927 Y5.095 E1.4950
G1 X-21.577 Y5.095 E0.0249
G1 X-49.215 Y-22.543 E1.4950
G1 X-49.865 Y-22.543 E0.0249
G1 X-22.228 Y5.095 E1.4950
G1 X-22.879 Y5.095 E0.0249
G1 X-50.516 Y-22.543 E1.4950
G1 X-51.166 Y-22.543 E0.0249
G1 X-23.529 Y5.095 E1.4950
G1 X-24.180 Y5.095 E0.0249
G1 X-51.817 Y-22.543 E1.4950
G1 X-52.467 Y-22.543 E0.0249
G1 X-24.830 Y5.095 E1.4950
G1 X-25.481 Y5.095 E0.0249
G1 X-53.118 Y-22.543 E1.4950
G1 X-53.768 Y-22.543 E0.0249
G1 X-26.131 Y5.095 E1.4950
G1 X-26.782 Y5.095 E0.0249
G1 X-54.419 Y-22.543 E1.4950
G1 X-55.069 Y-22.543 E0.0249
G1 X-27.432 Y5.095 E1.4950
G1 X-28.083 Y5.095 E0.0249
G1 X-55.720 Y-22.543 E1.4950
G1 X-56.371 Y-22.543 E0.0249
G1 X-28.733 Y5.095 E1.4950
G1 X-29.384 Y5.095 E0.0249
G1 X-57.012 Y-22.534 E1.4945
G1 X-57.012 Y-21.883 E0.0249
G1 X-30.034 Y5.095 E1.4593
G1 X-30.685 Y5.095 E0.0249
G1 X-57.012 Y-21.233 E1.4241
G1 X-57.012 Y-20.582 E0.0249
G1 X-31.336 Y5.095 E1.3889
G1 X-31.986 Y5.095 E0.0249
G1 X-57.012 Y-19.932 E1.3537
G1 X-57.012 Y-19.281 E0.0249
G1 X-32.637 Y5.095 E1.3186
G1 X-33.287 Y5.095 E0.0249
G1 X-57.012 Y-18.631 E1.2834
G1 X-57.012 Y-17.980 E0.0249
G1 X-33.938 Y5.095 E1.2482
G1 X-34.588 Y5.095 E0.0249
G1 X-57.012 Y-17.330 E1.2130
G1 X-57.012 Y-16.679 E0.0249
G1 X-35.239 Y5.095 E1.1778
G1 X-35.889 Y5.095 E0.0249
G1 X-57.012 Y-16.029 E1.1426
G1 X-57.012 Y-15.378 E0.0249
G1 X-36.540 Y5.095 E1.1074
G1 X-37.190 Y5.095 E0.0249
G1 X-57.012 Y-14.727 E1.0722
G1 X-57.012 Y-14.077 E0.0249
G1 X-37.841 Y5.095 E1.0370
G1 X-38.491 Y5.095 E0.0249
G1 X-57.012 Y-13.426 E1.0018
G1 X-57.012 Y-12.776 E0.0249
G1 X-39.142 Y5.095 E0.9667
G1 X-39.793 Y5.095 E0.0249
G1 X-57.012 Y-12.125 E0.9315
G1 X-57.012 Y-11.475 E0.0249
G1 X-40.443 Y5.095 E0.8963
G1 X-41.094 Y5.095 E0.0249
G1 X-57.012 Y-10.824 E0.8611
G1 X-57.012 Y-10.174 E0.0249
G1 X-41.744 Y5.095 E0.8259
G1 X-42.395 Y5.095 E0.0249
G1 X-57.012 Y-9.523 E0.7907
G1 X-57.012 Y-8.873 E0.0249
