; G-Code generated by Simplify3D(R) Version 4.1.2
; Apr 1, 2020 at 11:25:29 AM
; Settings Summary
;   processName,Process1
;   applyToModels,Strip Harness,Amp Body(2),Prem Speaker,Sol cover
;   profileName,MakerBot Replicator 2 HBP (modified)
;   profileVersion,2020-03-12 10:48:50
;   baseProfile,MakerBot Replicator 2(2)
;   printMaterial,PLA
;   printQuality,Medium
;   printExtruders,
;   extruderName,Primary Extruder
;   extruderToolheadNumber,0
;   extruderDiameter,0.4
;   extruderAutoWidth,0
;   extruderWidth,0.4
;   extrusionMultiplier,1
;   extruderUseRetract,1
;   extruderRetractionDistance,1.9
;   extruderExtraRestartDistance,0
;   extruderRetractionZLift,0.5
;   extruderRetractionSpeed,1200
;   extruderUseCoasting,0
;   extruderCoastingDistance,0.2
;   extruderUseWipe,0
;   extruderWipeDistance,5
;   primaryExtruder,0
;   layerHeight,0.2
;   topSolidLayers,3
;   bottomSolidLayers,3
;   perimeterOutlines,2
;   printPerimetersInsideOut,1
;   startPointOption,3
;   startPointOriginX,0
;   startPointOriginY,150
;   sequentialIslands,0
;   spiralVaseMode,0
;   firstLayerHeightPercentage,100
;   firstLayerWidthPercentage,115
;   firstLayerUnderspeed,0.5
;   useRaft,0
;   raftExtruder,0
;   raftTopLayers,2
;   raftBaseLayers,1
;   raftOffset,1
;   raftSeparationDistance,0.14
;   raftTopInfill,90
;   aboveRaftSpeedMultiplier,0.3
;   useSkirt,0
;   skirtExtruder,0
;   skirtLayers,1
;   skirtOutlines,5
;   skirtOffset,0
;   usePrimePillar,0
;   primePillarExtruder,999
;   primePillarWidth,12
;   primePillarLocation,7
;   primePillarSpeedMultiplier,1
;   useOozeShield,0
;   oozeShieldExtruder,999
;   oozeShieldOffset,2
;   oozeShieldOutlines,1
;   oozeShieldSidewallShape,1
;   oozeShieldSidewallAngle,30
;   oozeShieldSpeedMultiplier,1
;   infillExtruder,0
;   internalInfillPattern,Rectilinear
;   externalInfillPattern,Rectilinear
;   infillPercentage,15
;   outlineOverlapPercentage,25
;   infillExtrusionWidthPercentage,100
;   minInfillLength,5
;   infillLayerInterval,1
;   internalInfillAngles,45,-45
;   overlapInternalInfillAngles,0
;   externalInfillAngles,45,-45
;   generateSupport,0
;   supportExtruder,0
;   supportInfillPercentage,5
;   supportExtraInflation,0.5
;   supportBaseLayers,0
;   denseSupportExtruder,0
;   denseSupportLayers,2
;   denseSupportInfillPercentage,90
;   supportLayerInterval,1
;   supportHorizontalPartOffset,0.3
;   supportUpperSeparationLayers,1
;   supportLowerSeparationLayers,1
;   supportType,1
;   supportGridSpacing,2
;   maxOverhangAngle,45
;   supportAngles,45,-45
;   temperatureName,Primary Extruder,Heated Build Platform
;   temperatureNumber,0,0
;   temperatureSetpointCount,1,1
;   temperatureSetpointLayers,1,1
;   temperatureSetpointTemperatures,230,75
;   temperatureStabilizeAtStartup,1,1
;   temperatureHeatedBed,0,1
;   fanLayers,1,2
;   fanSpeeds,0,100
;   blipFanToFullPower,1
;   adjustSpeedForCooling,1
;   minSpeedLayerTime,15
;   minCoolingSpeedSlowdown,20
;   increaseFanForCooling,1
;   minFanLayerTime,45
;   maxCoolingFanSpeed,100
;   increaseFanForBridging,1
;   bridgingFanSpeed,100
;   use5D,1
;   relativeEdistances,1
;   allowEaxisZeroing,0
;   independentExtruderAxes,1
;   includeM10123,0
;   stickySupport,1
;   applyToolheadOffsets,0
;   gcodeXoffset,0
;   gcodeYoffset,0
;   gcodeZoffset,0
;   overrideMachineDefinition,1
;   machineTypeOverride,0
;   strokeXoverride,280
;   strokeYoverride,150
;   strokeZoverride,150
;   originOffsetXoverride,140
;   originOffsetYoverride,75
;   originOffsetZoverride,0
;   homeXdirOverride,1
;   homeYdirOverride,1
;   homeZdirOverride,-1
;   flipXoverride,1
;   flipYoverride,-1
;   flipZoverride,1
;   toolheadOffsets,0,0|0,0|0,0|0,0|0,0|0,0
;   overrideFirmwareConfiguration,1
;   firmwareTypeOverride,MakerBot/Sailfish Firmware
;   GPXconfigOverride,r2h
;   baudRateOverride,115200
;   overridePrinterModels,1
;   printerModelsOverride,MakerBot_Replicator2.stl
;   startingGcode,; **** Replicator 2 start.gcode ****,M73 P0 ; enable build progress,G162 X Y F3000 ; home XY maximum,G161 Z F1200 ; home Z minimum,G92 Z-5 ; set Z to -5,G1 Z0 ; move Z to 0,G161 Z F100 ; home Z slowly,M132 X Y Z A B ; recall home offsets,G1 X-145 Y-75 Z30 F9000 ; move to wait position off table,G130 X20 Y20 Z20 A20 B20 ; lower stepper Vrefs while heating,M126 S[fan_speed_pwm],M140 S[bed0_temperature] T0,M134 T0 ; stabilize bed temperature,M104 S[extruder0_temperature] T0,M133 T0 ; stabilize extruder temperature,G130 X127 Y127 Z40 A127 B127 ; default stepper Vrefs,G92 A0 ; zero extruder,G1 Z0.4 ; position nozzle,G1 E25 F300 ; purge nozzle,G1 X-140 Y-70 Z0.15 F1200 ; slow wipe,G1 X-135 Y-65 Z0.5 F1200 ; lift,G92 A0 ; zero extruder,M73 P1 ;@body (notify GPX body has started),; **** end of start.gcode ****
;   layerChangeGcode,
;   retractionGcode,
;   toolChangeGcode,
;   endingGcode,; **** Replicator 2 end.gcode ****,M73 P100 ; end build progress,G1 Z155 F1000 ; send Z axis to bottom of machine,M104 S0 T0 ; cool down extruder,M140 S0 T0 ; cool down HBP,M127 ; stop blower fan,G162 X Y F3000 ; home XY maximum,M18 ; disable stepper,M0 ; stop codes,M72 P1 ; play Ta-Da song,; **** end of end.gcode ****
;   exportFileFormat,x3g
;   celebration,0
;   celebrationSong,Random Song
;   postProcessing,
;   defaultSpeed,4800
;   outlineUnderspeed,0.5
;   solidInfillUnderspeed,1
;   supportUnderspeed,1
;   rapidXYspeed,9000
;   rapidZspeed,1200
;   minBridgingArea,50
;   bridgingExtraInflation,0
;   bridgingExtrusionMultiplier,1
;   bridgingSpeedMultiplier,0.8
;   useFixedBridgingAngle,0
;   fixedBridgingAngle,0
;   applyBridgingToPerimeters,0
;   filamentDiameters,1.75|1.75|1.75|1.75|1.75|1.75
;   filamentPricesPerKg,46|46|46|46|46|46
;   filamentDensities,1.25|1.25|1.25|1.25|1.25|1.25
;   useMinPrintHeight,0
;   minPrintHeight,0
;   useMaxPrintHeight,0
;   maxPrintHeight,4.84
;   useDiaphragm,0
;   diaphragmLayerInterval,20
;   robustSlicing,1
;   mergeAllIntoSolid,0
;   onlyRetractWhenCrossingOutline,0
;   retractBetweenLayers,0
;   useRetractionMinTravel,1
;   retractionMinTravel,7
;   retractWhileWiping,1
;   onlyWipeOutlines,1
;   avoidCrossingOutline,0
;   maxMovementDetourFactor,3
;   toolChangeRetractionDistance,12
;   toolChangeExtraRestartDistance,-0.5
;   toolChangeRetractionSpeed,600
;   externalThinWallType,0
;   internalThinWallType,0
;   thinWallAllowedOverlapPercentage,10
;   singleExtrusionMinLength,1
;   singleExtrusionMinPrintingWidthPercentage,50
;   singleExtrusionMaxPrintingWidthPercentage,200
;   singleExtrusionEndpointExtension,0.2
;   horizontalSizeCompensation,0
G90
M83
; **** Replicator 2 start.gcode ****
M73 P0 ; enable build progress
G162 X Y F3000 ; home XY maximum
G161 Z F1200 ; home Z minimum
G92 Z-5 ; set Z to -5
G1 Z0 ; move Z to 0
G161 Z F100 ; home Z slowly
M132 X Y Z A B ; recall home offsets
G1 X-145 Y-75 Z30 F9000 ; move to wait position off table
G130 X20 Y20 Z20 A20 B20 ; lower stepper Vrefs while heating
M127
M140 S75 T0
M134 T0 ; stabilize bed temperature
M104 S230 T0
M133 T0 ; stabilize extruder temperature
G130 X127 Y127 Z40 A127 B127 ; default stepper Vrefs
G92 A0 ; zero extruder
G1 Z0.4 ; position nozzle
G1 E25 F300 ; purge nozzle
G1 X-140 Y-70 Z0.15 F1200 ; slow wipe
G1 X-135 Y-65 Z0.5 F1200 ; lift
G92 A0 ; zero extruder
M73 P1 ;@body (notify GPX body has started)
; **** end of start.gcode ****
; process Process1
; layer 1, Z = 0.200
M135 T0
G1 E-1.9000 F1200
; feature inner perimeter
; tool H0.200 W0.460
G1 Z0.500 F1200
G1 X2.599 Y-2.543 F9000
G1 Z0.200 F1200
G1 E1.9000 F1200
G1 X2.599 Y-30.912 E1.0851 F1800
G1 X13.101 Y-30.912 E0.4017
G1 X13.101 Y-40.835 E0.3796
G1 X21.721 Y-40.835 E0.3297
G1 X21.721 Y-30.912 E0.3796
G1 X64.401 Y-30.912 E1.6325
G1 X64.401 Y-2.543 E1.0851
G1 X51.144 Y-2.543 E0.5071
G1 X51.158 Y-9.636 E0.2713
G1 X51.134 Y-26.635 E0.6502
G1 X33.010 Y-26.596 E0.6932
G1 X33.010 Y-14.041 E0.4802
G1 X14.779 Y-14.041 E0.6973
G1 X14.779 Y-2.543 E0.4398
G1 X2.599 Y-2.543 E0.4659
; feature outer perimeter
G1 X2.139 Y-2.083 F9000
G1 X2.139 Y-31.372 E1.1203 F1200
G1 X12.641 Y-31.372 E0.4017
G1 X12.641 Y-41.295 E0.3796
G1 X22.180 Y-41.295 E0.3649
G1 X22.180 Y-31.372 E0.3796
G1 X64.861 Y-31.372 E1.6325
G1 X64.861 Y-2.083 E1.1203
G1 X50.683 Y-2.083 E0.5423
G1 X50.698 Y-9.636 E0.2889
G1 X50.674 Y-26.174 E0.6326
G1 X33.470 Y-26.137 E0.6580
G1 X33.470 Y-13.581 E0.4803
G1 X15.239 Y-13.581 E0.6973
G1 X15.239 Y-2.083 E0.4398
G1 X2.139 Y-2.083 E0.5011
G1 E-1.9000 F1200
; feature inner perimeter
G1 Z0.700 F1200
G1 X16.455 Y-33.871 F9000
G1 Z0.200 F1200
G1 E1.9000 F1200
G1 X17.007 Y-33.703 E0.0221 F1800
G1 X17.581 Y-33.647 E0.0221
G1 X18.155 Y-33.703 E0.0221
G1 X18.707 Y-33.871 E0.0221
G1 X19.216 Y-34.143 E0.0221
G1 X19.662 Y-34.509 E0.0221
G1 X20.028 Y-34.955 E0.0221
G1 X20.300 Y-35.464 E0.0221
G1 X20.468 Y-36.016 E0.0221
G1 X20.524 Y-36.590 E0.0221
G1 X20.468 Y-37.164 E0.0221
G1 X20.300 Y-37.717 E0.0221
G1 X20.028 Y-38.225 E0.0221
G1 X19.661 Y-38.673 E0.0221
G1 X19.203 Y-39.045 E0.0226
G1 X18.707 Y-39.310 E0.0215
G1 X18.155 Y-39.477 E0.0221
G1 X17.581 Y-39.534 E0.0221
G1 X17.007 Y-39.477 E0.0221
G1 X16.455 Y-39.310 E0.0221
G1 X15.946 Y-39.038 E0.0221
G1 X15.500 Y-38.671 E0.0221
G1 X15.134 Y-38.225 E0.0221
G1 X14.862 Y-37.717 E0.0221
G1 X14.694 Y-37.164 E0.0221
G1 X14.638 Y-36.590 E0.0221
G1 X14.694 Y-36.016 E0.0221
G1 X14.862 Y-35.464 E0.0221
G1 X15.134 Y-34.955 E0.0221
G1 X15.500 Y-34.509 E0.0221
G1 X15.946 Y-34.143 E0.0221
G1 X16.455 Y-33.871 E0.0221
; feature outer perimeter
G1 X16.631 Y-34.298 F9000
G1 X17.097 Y-34.157 E0.0186 F1200
G1 X17.581 Y-34.109 E0.0186
G1 X18.065 Y-34.157 E0.0186
G1 X18.530 Y-34.298 E0.0186
G1 X18.959 Y-34.527 E0.0186
G1 X19.335 Y-34.836 E0.0186
G1 X19.644 Y-35.212 E0.0186
G1 X19.873 Y-35.641 E0.0186
G1 X20.014 Y-36.106 E0.0186
G1 X20.062 Y-36.590 E0.0186
G1 X20.014 Y-37.074 E0.0186
G1 X19.873 Y-37.540 E0.0186
G1 X19.644 Y-37.969 E0.0186
G1 X19.335 Y-38.345 E0.0186
G1 X18.947 Y-38.660 E0.0191
G1 X18.530 Y-38.882 E0.0181
G1 X18.065 Y-39.024 E0.0186
G1 X17.581 Y-39.071 E0.0186
G1 X17.097 Y-39.024 E0.0186
G1 X16.631 Y-38.882 E0.0186
G1 X16.202 Y-38.653 E0.0186
G1 X15.826 Y-38.345 E0.0186
G1 X15.518 Y-37.969 E0.0186
G1 X15.289 Y-37.540 E0.0186
G1 X15.147 Y-37.074 E0.0186
G1 X15.100 Y-36.590 E0.0186
G1 X15.147 Y-36.106 E0.0186
G1 X15.289 Y-35.641 E0.0186
G1 X15.518 Y-35.212 E0.0186
G1 X15.826 Y-34.836 E0.0186
G1 X16.202 Y-34.527 E0.0186
G1 X16.631 Y-34.298 E0.0186
; feature solid layer
G1 X17.427 Y-33.315 F9000
G1 X32.665 Y-18.077 E0.8243 F2400
G1 X32.665 Y-18.727 E0.0249
G1 X18.046 Y-33.346 E0.7908
G1 E-1.9000 F1200
G1 Z0.700 F1200
G1 X17.408 Y-40.490 F9000
G1 Z0.200 F1200
G1 E1.9000 F1200
G1 X18.065 Y-39.833 E0.0356 F2400
G1 X17.581 Y-39.880 E0.0186
G1 X17.386 Y-39.861 E0.0075
G1 X16.757 Y-40.490 E0.0340
G1 X16.107 Y-40.490 E0.0249
G1 X16.817 Y-39.780 E0.0384
G1 X16.318 Y-39.628 E0.0199
G1 X15.456 Y-40.490 E0.0466
G1 X14.806 Y-40.490 E0.0249
G1 X15.894 Y-39.401 E0.0589
G1 X15.753 Y-39.326 E0.0061
G1 X15.515 Y-39.130 E0.0118
G1 X14.155 Y-40.490 E0.0736
G1 X13.505 Y-40.490 E0.0249
G1 X15.175 Y-38.820 E0.0904
G1 X14.882 Y-38.462 E0.0177
G1 X13.446 Y-39.899 E0.0777
G1 X13.446 Y-39.248 E0.0249
G1 X14.647 Y-38.047 E0.0650
G1 X14.541 Y-37.849 E0.0086
G1 X14.460 Y-37.583 E0.0107
G1 X13.446 Y-38.598 E0.0549
G1 X13.446 Y-37.947 E0.0249
G1 X14.337 Y-37.056 E0.0482
G1 X14.291 Y-36.590 E0.0179
G1 X14.306 Y-36.436 E0.0059
G1 X13.446 Y-37.296 E0.0465
G1 X13.446 Y-36.646 E0.0249
G1 X14.446 Y-35.645 E0.0541
G1 X14.541 Y-35.331 E0.0126
G1 X14.845 Y-34.762 E0.0247
G1 X15.254 Y-34.264 E0.0247
G1 X15.753 Y-33.855 E0.0247
G1 X16.322 Y-33.551 E0.0247
G1 X16.636 Y-33.455 E0.0126
G1 X32.665 Y-17.426 E0.8671
G1 X32.665 Y-16.776 E0.0249
G1 X13.446 Y-35.995 E1.0396
G1 X13.446 Y-35.345 E0.0249
G1 X32.665 Y-16.125 E1.0396
G1 X32.665 Y-15.475 E0.0249
G1 X13.446 Y-34.694 E1.0396
G1 X13.446 Y-34.044 E0.0249
G1 X32.665 Y-14.824 E1.0396
G1 X32.665 Y-14.386 E0.0168
G1 X32.453 Y-14.386 E0.0081
G1 X13.446 Y-33.393 E1.0282
G1 X13.446 Y-32.743 E0.0249
G1 X31.802 Y-14.386 E0.9930
G1 X31.152 Y-14.386 E0.0249
G1 X13.446 Y-32.092 E0.9578
G1 X13.446 Y-31.442 E0.0249
G1 X30.501 Y-14.386 E0.9226
G1 X29.851 Y-14.386 E0.0249
G1 X13.446 Y-30.791 E0.8874
G1 X13.446 Y-30.567 E0.0086
G1 X13.019 Y-30.567 E0.0163
G1 X29.200 Y-14.386 E0.8753
G1 X28.550 Y-14.386 E0.0249
G1 X12.369 Y-30.567 E0.8753
G1 X11.718 Y-30.567 E0.0249
G1 X27.899 Y-14.386 E0.8753
G1 X27.248 Y-14.386 E0.0249
G1 X11.068 Y-30.567 E0.8753
G1 X10.417 Y-30.567 E0.0249
G1 X26.598 Y-14.386 E0.8753
G1 X25.947 Y-14.386 E0.0249
G1 X9.767 Y-30.567 E0.8753
G1 X9.116 Y-30.567 E0.0249
G1 X25.297 Y-14.386 E0.8753
G1 X24.646 Y-14.386 E0.0249
G1 X8.466 Y-30.567 E0.8753
G1 X7.815 Y-30.567 E0.0249
G1 X23.996 Y-14.386 E0.8753
G1 X23.345 Y-14.386 E0.0249
G1 X7.164 Y-30.567 E0.8753
G1 X6.514 Y-30.567 E0.0249
G1 X22.695 Y-14.386 E0.8753
G1 X22.044 Y-14.386 E0.0249
G1 X5.863 Y-30.567 E0.8753
G1 X5.213 Y-30.567 E0.0249
G1 X21.394 Y-14.386 E0.8753
G1 X20.743 Y-14.386 E0.0249
G1 X4.562 Y-30.567 E0.8753
G1 X3.912 Y-30.567 E0.0249
G1 X20.093 Y-14.386 E0.8753
G1 X19.442 Y-14.386 E0.0249
G1 X3.261 Y-30.567 E0.8753
G1 X2.944 Y-30.567 E0.0122
G1 X2.944 Y-30.234 E0.0127
G1 X18.791 Y-14.386 E0.8573
G1 X18.141 Y-14.386 E0.0249
G1 X2.944 Y-29.583 E0.8221
G1 X2.944 Y-28.933 E0.0249
G1 X17.490 Y-14.386 E0.7869
G1 X16.840 Y-14.386 E0.0249
G1 X2.944 Y-28.282 E0.7517
G1 X2.944 Y-27.632 E0.0249
G1 X16.189 Y-14.386 E0.7165
G1 X15.539 Y-14.386 E0.0249
G1 X2.944 Y-26.981 E0.6813
G1 X2.944 Y-26.331 E0.0249
G1 X14.888 Y-14.386 E0.6461
G1 X14.434 Y-14.386 E0.0174
G1 X14.434 Y-14.190 E0.0075
G1 X2.944 Y-25.680 E0.6215
G1 X2.944 Y-25.030 E0.0249
G1 X14.434 Y-13.539 E0.6215
G1 X14.434 Y-12.889 E0.0249
G1 X2.944 Y-24.379 E0.6215
G1 X2.944 Y-23.729 E0.0249
G1 X14.434 Y-12.238 E0.6215
G1 X14.434 Y-11.588 E0.0249
G1 X2.944 Y-23.078 E0.6215
G1 X2.944 Y-22.427 E0.0249
G1 X14.434 Y-10.937 E0.6215
G1 X14.434 Y-10.286 E0.0249
G1 X2.944 Y-21.777 E0.6215
G1 X2.944 Y-21.126 E0.0249
G1 X14.434 Y-9.636 E0.6215
G1 X14.434 Y-8.985 E0.0249
G1 X2.944 Y-20.476 E0.6215
G1 X2.944 Y-19.825 E0.0249
G1 X14.434 Y-8.335 E0.6215
G1 X14.434 Y-7.684 E0.0249
G1 X2.944 Y-19.175 E0.6215
G1 X2.944 Y-18.524 E0.0249
G1 X14.434 Y-7.034 E0.6215
G1 X14.434 Y-6.383 E0.0249
G1 X2.944 Y-17.874 E0.6215
G1 X2.944 Y-17.223 E0.0249
G1 X14.434 Y-5.733 E0.6215
G1 X14.434 Y-5.082 E0.0249
G1 X2.944 Y-16.573 E0.6215
G1 X2.944 Y-15.922 E0.0249
G1 X14.434 Y-4.432 E0.6215
G1 X14.434 Y-3.781 E0.0249
G1 X2.944 Y-15.272 E0.6215
G1 X2.944 Y-14.621 E0.0249
G1 X14.434 Y-3.131 E0.6215
G1 X14.434 Y-2.888 E0.0093
G1 X14.026 Y-2.888 E0.0156
G1 X2.944 Y-13.970 E0.5995
G1 X2.944 Y-13.320 E0.0249
G1 X13.375 Y-2.888 E0.5643
G1 X12.725 Y-2.888 E0.0249
G1 X2.944 Y-12.669 E0.5291
G1 X2.944 Y-12.019 E0.0249
G1 X12.074 Y-2.888 E0.4939
G1 X11.424 Y-2.888 E0.0249
G1 X2.944 Y-11.368 E0.4587
G1 X2.944 Y-10.718 E0.0249
G1 X10.773 Y-2.888 E0.4235
G1 X10.123 Y-2.888 E0.0249
G1 X2.944 Y-10.067 E0.3883
G1 X2.944 Y-9.417 E0.0249
G1 X9.472 Y-2.888 E0.3531
G1 X8.822 Y-2.888 E0.0249
G1 X2.944 Y-8.766 E0.3180
G1 X2.944 Y-8.116 E0.0249
G1 X8.171 Y-2.888 E0.2828
G1 X7.521 Y-2.888 E0.0249
G1 X2.944 Y-7.465 E0.2476
G1 X2.944 Y-6.815 E0.0249
G1 X6.870 Y-2.888 E0.2124
G1 X6.219 Y-2.888 E0.0249
G1 X2.944 Y-6.164 E0.1772
G1 X2.944 Y-5.513 E0.0249
G1 X5.569 Y-2.888 E0.1420
G1 X4.918 Y-2.888 E0.0249
G1 X2.944 Y-4.863 E0.1068
G1 X2.944 Y-4.212 E0.0249
G1 X4.268 Y-2.888 E0.0716
G1 X3.617 Y-2.888 E0.0249
G1 X2.944 Y-3.562 E0.0364
G1 X2.944 Y-2.911 E0.0249
G1 X2.967 Y-2.888 E0.0013
G1 E-1.9000 F1200
G1 Z0.700 F1200
G1 X21.375 Y-40.426 F9000
G1 Z0.200 F1200
G1 E1.9000 F1200
G1 X21.311 Y-40.490 E0.0035 F2400
G1 X20.660 Y-40.490 E0.0249
G1 X21.375 Y-39.775 E0.0387
G1 X21.375 Y-39.125 E0.0249
G1 X20.010 Y-40.490 E0.0739
G1 X19.359 Y-40.490 E0.0249
G1 X21.375 Y-38.474 E0.1091
G1 X21.375 Y-37.823 E0.0249
G1 X18.709 Y-40.490 E0.1442
G1 X18.058 Y-40.490 E0.0249
G1 X19.009 Y-39.539 E0.0514
G1 X19.395 Y-39.333 E0.0167
G1 X19.905 Y-38.919 E0.0252
G1 X20.316 Y-38.418 E0.0248
G1 X20.530 Y-38.018 E0.0173
G1 X21.375 Y-37.173 E0.0457
