; G-Code generated by Simplify3D(R) Version 4.1.2
; Apr 1, 2020 at 11:31:36 AM
; Settings Summary
;   processName,Process1
;   applyToModels,KISS BckbxV4
;   profileName,MakerBot Replicator 2 HBP (modified)
;   profileVersion,2020-03-12 10:48:50
;   baseProfile,MakerBot Replicator 2(2)
;   printMaterial,PLA
;   printQuality,Medium
;   printExtruders,
;   extruderName,Primary Extruder
;   extruderToolheadNumber,0
;   extruderDiameter,0.4
;   extruderAutoWidth,0
;   extruderWidth,0.4
;   extrusionMultiplier,1
;   extruderUseRetract,1
;   extruderRetractionDistance,1.9
;   extruderExtraRestartDistance,0
;   extruderRetractionZLift,0.5
;   extruderRetractionSpeed,1200
;   extruderUseCoasting,0
;   extruderCoastingDistance,0.2
;   extruderUseWipe,0
;   extruderWipeDistance,5
;   primaryExtruder,0
;   layerHeight,0.2
;   topSolidLayers,3
;   bottomSolidLayers,3
;   perimeterOutlines,2
;   printPerimetersInsideOut,1
;   startPointOption,3
;   startPointOriginX,0
;   startPointOriginY,150
;   sequentialIslands,0
;   spiralVaseMode,0
;   firstLayerHeightPercentage,100
;   firstLayerWidthPercentage,115
;   firstLayerUnderspeed,0.5
;   useRaft,0
;   raftExtruder,0
;   raftTopLayers,2
;   raftBaseLayers,1
;   raftOffset,1
;   raftSeparationDistance,0.14
;   raftTopInfill,90
;   aboveRaftSpeedMultiplier,0.3
;   useSkirt,0
;   skirtExtruder,0
;   skirtLayers,1
;   skirtOutlines,5
;   skirtOffset,0
;   usePrimePillar,0
;   primePillarExtruder,999
;   primePillarWidth,12
;   primePillarLocation,7
;   primePillarSpeedMultiplier,1
;   useOozeShield,0
;   oozeShieldExtruder,999
;   oozeShieldOffset,2
;   oozeShieldOutlines,1
;   oozeShieldSidewallShape,1
;   oozeShieldSidewallAngle,30
;   oozeShieldSpeedMultiplier,1
;   infillExtruder,0
;   internalInfillPattern,Rectilinear
;   externalInfillPattern,Rectilinear
;   infillPercentage,15
;   outlineOverlapPercentage,25
;   infillExtrusionWidthPercentage,100
;   minInfillLength,5
;   infillLayerInterval,1
;   internalInfillAngles,45,-45
;   overlapInternalInfillAngles,0
;   externalInfillAngles,45,-45
;   generateSupport,0
;   supportExtruder,0
;   supportInfillPercentage,5
;   supportExtraInflation,0.5
;   supportBaseLayers,0
;   denseSupportExtruder,0
;   denseSupportLayers,2
;   denseSupportInfillPercentage,90
;   supportLayerInterval,1
;   supportHorizontalPartOffset,0.3
;   supportUpperSeparationLayers,1
;   supportLowerSeparationLayers,1
;   supportType,1
;   supportGridSpacing,2
;   maxOverhangAngle,45
;   supportAngles,45,-45
;   temperatureName,Primary Extruder,Heated Build Platform
;   temperatureNumber,0,0
;   temperatureSetpointCount,1,1
;   temperatureSetpointLayers,1,1
;   temperatureSetpointTemperatures,230,75
;   temperatureStabilizeAtStartup,1,1
;   temperatureHeatedBed,0,1
;   fanLayers,1,2
;   fanSpeeds,0,100
;   blipFanToFullPower,1
;   adjustSpeedForCooling,1
;   minSpeedLayerTime,15
;   minCoolingSpeedSlowdown,20
;   increaseFanForCooling,1
;   minFanLayerTime,45
;   maxCoolingFanSpeed,100
;   increaseFanForBridging,1
;   bridgingFanSpeed,100
;   use5D,1
;   relativeEdistances,1
;   allowEaxisZeroing,0
;   independentExtruderAxes,1
;   includeM10123,0
;   stickySupport,1
;   applyToolheadOffsets,0
;   gcodeXoffset,0
;   gcodeYoffset,0
;   gcodeZoffset,0
;   overrideMachineDefinition,1
;   machineTypeOverride,0
;   strokeXoverride,280
;   strokeYoverride,150
;   strokeZoverride,150
;   originOffsetXoverride,140
;   originOffsetYoverride,75
;   originOffsetZoverride,0
;   homeXdirOverride,1
;   homeYdirOverride,1
;   homeZdirOverride,-1
;   flipXoverride,1
;   flipYoverride,-1
;   flipZoverride,1
;   toolheadOffsets,0,0|0,0|0,0|0,0|0,0|0,0
;   overrideFirmwareConfiguration,1
;   firmwareTypeOverride,MakerBot/Sailfish Firmware
;   GPXconfigOverride,r2h
;   baudRateOverride,115200
;   overridePrinterModels,1
;   printerModelsOverride,MakerBot_Replicator2.stl
;   startingGcode,; **** Replicator 2 start.gcode ****,M73 P0 ; enable build progress,G162 X Y F3000 ; home XY maximum,G161 Z F1200 ; home Z minimum,G92 Z-5 ; set Z to -5,G1 Z0 ; move Z to 0,G161 Z F100 ; home Z slowly,M132 X Y Z A B ; recall home offsets,G1 X-145 Y-75 Z30 F9000 ; move to wait position off table,G130 X20 Y20 Z20 A20 B20 ; lower stepper Vrefs while heating,M126 S[fan_speed_pwm],M140 S[bed0_temperature] T0,M134 T0 ; stabilize bed temperature,M104 S[extruder0_temperature] T0,M133 T0 ; stabilize extruder temperature,G130 X127 Y127 Z40 A127 B127 ; default stepper Vrefs,G92 A0 ; zero extruder,G1 Z0.4 ; position nozzle,G1 E25 F300 ; purge nozzle,G1 X-140 Y-70 Z0.15 F1200 ; slow wipe,G1 X-135 Y-65 Z0.5 F1200 ; lift,G92 A0 ; zero extruder,M73 P1 ;@body (notify GPX body has started),; **** end of start.gcode ****
;   layerChangeGcode,
;   retractionGcode,
;   toolChangeGcode,
;   endingGcode,; **** Replicator 2 end.gcode ****,M73 P100 ; end build progress,G1 Z155 F1000 ; send Z axis to bottom of machine,M104 S0 T0 ; cool down extruder,M140 S0 T0 ; cool down HBP,M127 ; stop blower fan,G162 X Y F3000 ; home XY maximum,M18 ; disable stepper,M0 ; stop codes,M72 P1 ; play Ta-Da song,; **** end of end.gcode ****
;   exportFileFormat,x3g
;   celebration,0
;   celebrationSong,Random Song
;   postProcessing,
;   defaultSpeed,4800
;   outlineUnderspeed,0.5
;   solidInfillUnderspeed,1
;   supportUnderspeed,1
;   rapidXYspeed,9000
;   rapidZspeed,1200
;   minBridgingArea,50
;   bridgingExtraInflation,0
;   bridgingExtrusionMultiplier,1
;   bridgingSpeedMultiplier,0.8
;   useFixedBridgingAngle,0
;   fixedBridgingAngle,0
;   applyBridgingToPerimeters,0
;   filamentDiameters,1.75|1.75|1.75|1.75|1.75|1.75
;   filamentPricesPerKg,46|46|46|46|46|46
;   filamentDensities,1.25|1.25|1.25|1.25|1.25|1.25
;   useMinPrintHeight,0
;   minPrintHeight,0
;   useMaxPrintHeight,0
;   maxPrintHeight,4.84
;   useDiaphragm,0
;   diaphragmLayerInterval,20
;   robustSlicing,1
;   mergeAllIntoSolid,0
;   onlyRetractWhenCrossingOutline,0
;   retractBetweenLayers,0
;   useRetractionMinTravel,1
;   retractionMinTravel,7
;   retractWhileWiping,1
;   onlyWipeOutlines,1
;   avoidCrossingOutline,0
;   maxMovementDetourFactor,3
;   toolChangeRetractionDistance,12
;   toolChangeExtraRestartDistance,-0.5
;   toolChangeRetractionSpeed,600
;   externalThinWallType,0
;   internalThinWallType,1
;   thinWallAllowedOverlapPercentage,10
;   singleExtrusionMinLength,1
;   singleExtrusionMinPrintingWidthPercentage,50
;   singleExtrusionMaxPrintingWidthPercentage,200
;   singleExtrusionEndpointExtension,0.2
;   horizontalSizeCompensation,0
G90
M83
; **** Replicator 2 start.gcode ****
M73 P0 ; enable build progress
G162 X Y F3000 ; home XY maximum
G161 Z F1200 ; home Z minimum
G92 Z-5 ; set Z to -5
G1 Z0 ; move Z to 0
G161 Z F100 ; home Z slowly
M132 X Y Z A B ; recall home offsets
G1 X-145 Y-75 Z30 F9000 ; move to wait position off table
G130 X20 Y20 Z20 A20 B20 ; lower stepper Vrefs while heating
M127
M140 S75 T0
M134 T0 ; stabilize bed temperature
M104 S230 T0
M133 T0 ; stabilize extruder temperature
G130 X127 Y127 Z40 A127 B127 ; default stepper Vrefs
G92 A0 ; zero extruder
G1 Z0.4 ; position nozzle
G1 E25 F300 ; purge nozzle
G1 X-140 Y-70 Z0.15 F1200 ; slow wipe
G1 X-135 Y-65 Z0.5 F1200 ; lift
G92 A0 ; zero extruder
M73 P1 ;@body (notify GPX body has started)
; **** end of start.gcode ****
; process Process1
; layer 1, Z = 0.200
M135 T0
G1 E-1.9000 F1200
; feature inner perimeter
; tool H0.200 W0.460
G1 Z0.500 F1200
G1 X52.004 Y64.099 F9000
G1 Z0.200 F1200
G1 E1.9000 F1200
G1 X-74.616 Y64.099 E4.8431 F1800
G1 X-74.616 Y48.599 E0.5929
G1 X-90.084 Y48.599 E0.5917
G1 X-91.914 Y43.252 E0.2162
G1 X-94.425 Y37.364 E0.2448
G1 X-98.569 Y31.693 E0.2687
G1 X-104.071 Y26.776 E0.2823
G1 X-104.071 Y48.599 E0.8347
G1 X-139.101 Y48.599 E1.3399
G1 X-139.101 Y-64.099 E4.3106
G1 X-104.071 Y-64.099 E1.3399
G1 X-104.071 Y-15.218 E1.8696
G1 X-96.530 Y-23.129 E0.4180
G1 X-91.621 Y-30.451 E0.3372
G1 X-87.705 Y-38.748 E0.3509
G1 X-85.511 Y-45.953 E0.2881
G1 X-84.063 Y-55.593 E0.3729
G1 X-83.874 Y-64.098 E0.3254
G1 X35.280 Y-64.098 E4.5575
G1 X59.734 Y-3.123 E2.5128
G1 X92.906 Y-3.099 E1.2688
G1 X93.955 Y-4.319 E0.0615
G1 X73.089 Y-64.099 E2.4218
G1 X114.527 Y-64.099 E1.5850
G1 X138.878 Y17.783 E3.2675
G1 X110.099 Y19.073 E1.1019
G1 X108.872 Y19.733 E0.0533
G1 X118.446 Y48.599 E1.1633
G1 X80.832 Y48.599 E1.4387
G1 X68.648 Y17.786 E1.2674
G1 X37.412 Y17.511 E1.1948
G1 X37.262 Y18.824 E0.0506
G1 X52.508 Y48.599 E1.2795
G1 X52.004 Y48.599 E0.0193
G1 X52.004 Y64.099 E0.5929
; feature outer perimeter
G1 X52.464 Y64.559 F9000
G1 X-75.076 Y64.559 E4.8783 F1200
G1 X-75.076 Y49.059 E0.5929
G1 X-90.413 Y49.059 E0.5866
G1 X-92.344 Y43.417 E0.2281
G1 X-94.827 Y37.593 E0.2422
G1 X-98.911 Y32.003 E0.2648
G1 X-103.611 Y27.804 E0.2411
G1 X-103.611 Y49.059 E0.8130
G1 X-139.561 Y49.059 E1.3750
G1 X-139.561 Y-64.559 E4.3458
G1 X-103.611 Y-64.559 E1.3750
G1 X-103.611 Y-16.367 E1.8433
G1 X-96.890 Y-23.418 E0.3726
G1 X-92.022 Y-30.678 E0.3344
G1 X-88.135 Y-38.914 E0.3483
G1 X-85.960 Y-46.054 E0.2855
G1 X-84.522 Y-55.632 E0.3705
G1 X-84.324 Y-64.558 E0.3415
G1 X35.591 Y-64.558 E4.5866
G1 X60.045 Y-3.582 E2.5128
G1 X92.695 Y-3.559 E1.2488
G1 X93.433 Y-4.418 E0.0433
G1 X72.441 Y-64.558 E2.4364
G1 X114.870 Y-64.559 E1.6229
G1 X139.487 Y18.216 E3.3031
G1 X110.225 Y19.527 E1.1204
G1 X109.430 Y19.955 E0.0345
G1 X119.083 Y49.059 E1.1728
G1 X80.519 Y49.059 E1.4750
G1 X68.334 Y18.243 E1.2675
G1 X37.822 Y17.974 E1.1671
G1 X37.734 Y18.738 E0.0294
G1 X53.261 Y49.059 E1.3029
G1 X52.464 Y49.059 E0.0305
G1 X52.464 Y64.559 E0.5929
G1 E-1.9000 F1200
; feature inner perimeter
G1 Z0.700 F1200
G1 X16.324 Y49.979 F9000
G1 Z0.200 F1200
G1 E1.9000 F1200
G1 X-8.844 Y10.255 E1.7987 F1800
G1 X-9.839 Y10.543 E0.0396
G1 X-9.839 Y49.979 E1.5084
G1 X16.324 Y49.979 E1.0007
; feature outer perimeter
G1 X15.488 Y49.519 F9000
G1 X-9.047 Y10.793 E1.7535 F1200
G1 X-9.379 Y10.889 E0.0132
G1 X-9.379 Y49.519 E1.4776
G1 X15.488 Y49.519 E0.9512
G1 E-1.9000 F1200
; feature inner perimeter
G1 Z0.700 F1200
G1 X22.514 Y-1.742 F9000
G1 Z0.200 F1200
G1 E1.9000 F1200
G1 X22.797 Y-3.276 E0.0596 F1800
G1 X-8.796 Y-61.988 E2.5502
G1 X-9.839 Y-61.725 E0.0411
G1 X-9.839 Y-1.742 E2.2943
G1 X22.514 Y-1.742 E1.2375
; feature outer perimeter
G1 X22.131 Y-2.202 F9000
G1 X22.316 Y-3.200 E0.0388 F1200
G1 X-9.031 Y-61.454 E2.5303
G1 X-9.379 Y-61.367 E0.0137
G1 X-9.379 Y-2.202 E2.2630
G1 X22.131 Y-2.202 E1.2052
G1 E-1.9000 F1200
; feature inner perimeter
G1 Z0.700 F1200
G1 X-47.505 Y-37.582 F9000
G1 Z0.200 F1200
G1 E1.9000 F1200
G1 X-48.592 Y-37.813 E0.0425 F1800
G1 X-53.472 Y-27.005 E0.4536
G1 X-58.944 Y-15.531 E0.4862
G1 X-66.201 Y-4.839 E0.4942
G1 X-75.894 Y4.402 E0.5123
G1 X-68.196 Y13.567 E0.4578
G1 X-61.063 Y25.345 E0.5267
G1 X-56.718 Y37.102 E0.4794
G1 X-54.559 Y49.979 E0.4994
G1 X-47.007 Y49.979 E0.2889
G1 X-47.505 Y-37.582 E3.3492
; feature outer perimeter
G1 X-47.962 Y-37.209 F9000
G1 X-48.325 Y-37.286 E0.0142 F1200
G1 X-53.054 Y-26.811 E0.4396
G1 X-58.544 Y-15.301 E0.4878
G1 X-65.848 Y-4.540 E0.4975
G1 X-75.264 Y4.437 E0.4976
G1 X-67.820 Y13.298 E0.4427
G1 X-60.646 Y25.144 E0.5297
G1 X-56.272 Y36.983 E0.4828
G1 X-54.170 Y49.519 E0.4862
G1 X-47.470 Y49.519 E0.2563
G1 X-47.962 Y-37.209 E3.3173
; feature solid layer
G1 X-47.159 Y-37.400 F9000
G1 X51.659 Y61.417 E5.3453 F2400
G1 X51.659 Y62.068 E0.0249
G1 X-47.155 Y-36.746 E5.3451
G1 X-47.151 Y-36.092 E0.0250
G1 X51.659 Y62.719 E5.3449
G1 X51.659 Y63.369 E0.0249
G1 X-47.147 Y-35.438 E5.3447
G1 X-47.144 Y-34.783 E0.0250
G1 X51.394 Y63.754 E5.3301
G1 X50.743 Y63.754 E0.0249
G1 X-47.140 Y-34.129 E5.2947
G1 X-47.136 Y-33.475 E0.0250
G1 X50.093 Y63.754 E5.2594
G1 X49.442 Y63.754 E0.0249
G1 X-47.132 Y-32.821 E5.2240
G1 X-47.129 Y-32.166 E0.0250
G1 X48.792 Y63.754 E5.1886
G1 X48.141 Y63.754 E0.0249
G1 X-47.125 Y-31.512 E5.1532
G1 X-47.121 Y-30.858 E0.0250
G1 X47.491 Y63.754 E5.1178
G1 X46.840 Y63.754 E0.0249
G1 X-47.118 Y-30.204 E5.0824
G1 X-47.114 Y-29.549 E0.0250
G1 X46.190 Y63.754 E5.0470
G1 X45.539 Y63.754 E0.0249
G1 X-47.110 Y-28.895 E5.0116
G1 X-47.106 Y-28.241 E0.0250
G1 X-8.942 Y9.924 E2.0644
G1 X-9.446 Y10.070 E0.0201
G1 X-47.103 Y-27.587 E2.0369
G1 X-47.099 Y-26.932 E0.0250
G1 X-9.950 Y10.216 E2.0095
G1 X-10.184 Y10.284 E0.0093
G1 X-10.184 Y10.633 E0.0133
G1 X-47.095 Y-26.278 E1.9966
G1 X-47.092 Y-25.624 E0.0250
G1 X-10.184 Y11.284 E1.9964
G1 X-10.184 Y11.934 E0.0249
G1 X-47.088 Y-24.970 E1.9962
G1 X-47.084 Y-24.315 E0.0250
G1 X-10.184 Y12.585 E1.9960
G1 X-10.184 Y13.235 E0.0249
G1 X-47.080 Y-23.661 E1.9958
G1 X-47.077 Y-23.007 E0.0250
G1 X-10.184 Y13.886 E1.9956
G1 X-10.184 Y14.536 E0.0249
G1 X-47.073 Y-22.353 E1.9954
G1 X-47.069 Y-21.698 E0.0250
G1 X-10.184 Y15.187 E1.9952
G1 X-10.184 Y15.837 E0.0249
G1 X-47.066 Y-21.044 E1.9950
G1 X-47.062 Y-20.390 E0.0250
G1 X-10.184 Y16.488 E1.9948
G1 X-10.184 Y17.139 E0.0249
G1 X-47.058 Y-19.736 E1.9946
G1 X-47.054 Y-19.081 E0.0250
G1 X-10.184 Y17.789 E1.9944
G1 X-10.184 Y18.440 E0.0249
G1 X-47.051 Y-18.427 E1.9942
G1 X-47.047 Y-17.773 E0.0250
G1 X-10.184 Y19.090 E1.9940
G1 X-10.184 Y19.741 E0.0249
G1 X-47.043 Y-17.119 E1.9938
G1 X-47.040 Y-16.464 E0.0250
G1 X-10.184 Y20.391 E1.9936
G1 X-10.184 Y21.042 E0.0249
G1 X-47.036 Y-15.810 E1.9934
G1 X-47.032 Y-15.156 E0.0250
G1 X-10.184 Y21.692 E1.9932
G1 X-10.184 Y22.343 E0.0249
G1 X-47.028 Y-14.501 E1.9930
G1 X-47.025 Y-13.847 E0.0250
G1 X-10.184 Y22.993 E1.9928
G1 X-10.184 Y23.644 E0.0249
G1 X-47.021 Y-13.193 E1.9926
G1 X-47.017 Y-12.539 E0.0250
G1 X-10.184 Y24.294 E1.9924
G1 X-10.184 Y24.945 E0.0249
G1 X-47.014 Y-11.884 E1.9922
G1 X-47.010 Y-11.230 E0.0250
G1 X-10.184 Y25.596 E1.9920
G1 X-10.184 Y26.246 E0.0249
G1 X-47.006 Y-10.576 E1.9918
G1 X-47.002 Y-9.922 E0.0250
G1 X-10.184 Y26.897 E1.9916
G1 X-10.184 Y27.547 E0.0249
G1 X-46.999 Y-9.267 E1.9914
G1 X-46.995 Y-8.613 E0.0250
G1 X-10.184 Y28.198 E1.9912
G1 X-10.184 Y28.848 E0.0249
G1 X-46.991 Y-7.959 E1.9910
G1 X-46.988 Y-7.305 E0.0250
G1 X-10.184 Y29.499 E1.9908
G1 X-10.184 Y30.149 E0.0249
G1 X-46.984 Y-6.650 E1.9906
G1 X-46.980 Y-5.996 E0.0250
G1 X-10.184 Y30.800 E1.9904
G1 X-10.184 Y31.450 E0.0249
G1 X-46.976 Y-5.342 E1.9902
G1 X-46.973 Y-4.688 E0.0250
G1 X-10.184 Y32.101 E1.9900
G1 X-10.184 Y32.751 E0.0249
G1 X-46.969 Y-4.033 E1.9898
G1 X-46.965 Y-3.379 E0.0250
G1 X-10.184 Y33.402 E1.9896
G1 X-10.184 Y34.053 E0.0249
G1 X-46.962 Y-2.725 E1.9894
G1 X-46.958 Y-2.071 E0.0250
G1 X-10.184 Y34.703 E1.9892
G1 X-10.184 Y35.354 E0.0249
G1 X-46.954 Y-1.416 E1.9890
G1 X-46.950 Y-0.762 E0.0250
G1 X-10.184 Y36.004 E1.9888
G1 X-10.184 Y36.655 E0.0249
G1 X-46.947 Y-0.108 E1.9886
G1 X-46.943 Y0.546 E0.0250
G1 X-10.184 Y37.305 E1.9884
G1 X-10.184 Y37.956 E0.0249
G1 X-46.939 Y1.201 E1.9882
G1 X-46.935 Y1.855 E0.0250
G1 X-10.184 Y38.606 E1.9880
G1 X-10.184 Y39.257 E0.0249
G1 X-46.932 Y2.509 E1.9878
G1 X-46.928 Y3.163 E0.0250
G1 X-10.184 Y39.907 E1.9876
G1 X-10.184 Y40.558 E0.0249
G1 X-46.924 Y3.818 E1.9874
G1 X-46.921 Y4.472 E0.0250
G1 X-10.184 Y41.208 E1.9872
G1 X-10.184 Y41.859 E0.0249
G1 X-46.917 Y5.126 E1.9870
G1 X-46.913 Y5.780 E0.0250
G1 X-10.184 Y42.510 E1.9868
G1 X-10.184 Y43.160 E0.0249
G1 X-46.909 Y6.435 E1.9866
G1 X-46.906 Y7.089 E0.0250
G1 X-10.184 Y43.811 E1.9864
G1 X-10.184 Y44.461 E0.0249
G1 X-46.902 Y7.743 E1.9862
G1 X-46.898 Y8.397 E0.0250
G1 X-10.184 Y45.112 E1.9860
G1 X-10.184 Y45.762 E0.0249
G1 X-46.895 Y9.052 E1.9858
G1 X-46.891 Y9.706 E0.0250
G1 X-10.184 Y46.413 E1.9856
G1 X-10.184 Y47.063 E0.0249
G1 X-46.887 Y10.360 E1.9854
G1 X-46.883 Y11.014 E0.0250
G1 X-10.184 Y47.714 E1.9852
G1 X-10.184 Y48.364 E0.0249
G1 X-46.880 Y11.669 E1.9850
G1 X-46.876 Y12.323 E0.0250
G1 X-10.184 Y49.015 E1.9848
G1 X-10.184 Y49.665 E0.0249
G1 X-46.872 Y12.977 E1.9846
G1 X-46.869 Y13.631 E0.0250
G1 X-10.184 Y50.316 E1.9844
G1 X-10.184 Y50.324 E0.0003
G1 X-10.176 Y50.324 E0.0003
G1 X3.254 Y63.754 E0.7265
G1 X2.604 Y63.754 E0.0249
G1 X-46.865 Y14.286 E2.6759
G1 X-46.861 Y14.940 E0.0250
G1 X1.953 Y63.754 E2.6405
G1 X1.302 Y63.754 E0.0249
G1 X-46.857 Y15.594 E2.6051
G1 X-46.854 Y16.249 E0.0250
G1 X0.652 Y63.754 E2.5697
G1 X0.001 Y63.754 E0.0249
