; G-Code generated by Simplify3D(R) Version 4.1.2
; Apr 3, 2020 at 4:27:54 PM
; Settings Summary
;   processName,Process1
;   applyToModels,firehouseRoof
;   profileName,MakerBot Replicator 2 HBP (modified)
;   profileVersion,2020-03-12 10:48:50
;   baseProfile,MakerBot Replicator 2(2)
;   printMaterial,PLA
;   printQuality,Medium
;   printExtruders,
;   extruderName,Primary Extruder
;   extruderToolheadNumber,0
;   extruderDiameter,0.4
;   extruderAutoWidth,0
;   extruderWidth,0.4
;   extrusionMultiplier,1
;   extruderUseRetract,1
;   extruderRetractionDistance,1.9
;   extruderExtraRestartDistance,0
;   extruderRetractionZLift,0.5
;   extruderRetractionSpeed,1200
;   extruderUseCoasting,0
;   extruderCoastingDistance,0.2
;   extruderUseWipe,0
;   extruderWipeDistance,5
;   primaryExtruder,0
;   layerHeight,0.2
;   topSolidLayers,3
;   bottomSolidLayers,3
;   perimeterOutlines,2
;   printPerimetersInsideOut,1
;   startPointOption,3
;   startPointOriginX,0
;   startPointOriginY,150
;   sequentialIslands,0
;   spiralVaseMode,0
;   firstLayerHeightPercentage,100
;   firstLayerWidthPercentage,115
;   firstLayerUnderspeed,0.5
;   useRaft,0
;   raftExtruder,0
;   raftTopLayers,2
;   raftBaseLayers,1
;   raftOffset,1
;   raftSeparationDistance,0.14
;   raftTopInfill,90
;   aboveRaftSpeedMultiplier,0.3
;   useSkirt,0
;   skirtExtruder,0
;   skirtLayers,1
;   skirtOutlines,10
;   skirtOffset,0
;   usePrimePillar,0
;   primePillarExtruder,999
;   primePillarWidth,12
;   primePillarLocation,7
;   primePillarSpeedMultiplier,1
;   useOozeShield,0
;   oozeShieldExtruder,999
;   oozeShieldOffset,2
;   oozeShieldOutlines,1
;   oozeShieldSidewallShape,1
;   oozeShieldSidewallAngle,30
;   oozeShieldSpeedMultiplier,1
;   infillExtruder,0
;   internalInfillPattern,Rectilinear
;   externalInfillPattern,Rectilinear
;   infillPercentage,15
;   outlineOverlapPercentage,25
;   infillExtrusionWidthPercentage,100
;   minInfillLength,5
;   infillLayerInterval,1
;   internalInfillAngles,45,-45
;   overlapInternalInfillAngles,0
;   externalInfillAngles,45,-45
;   generateSupport,0
;   supportExtruder,0
;   supportInfillPercentage,30
;   supportExtraInflation,0.5
;   supportBaseLayers,0
;   denseSupportExtruder,0
;   denseSupportLayers,2
;   denseSupportInfillPercentage,90
;   supportLayerInterval,1
;   supportHorizontalPartOffset,0.3
;   supportUpperSeparationLayers,1
;   supportLowerSeparationLayers,1
;   supportType,1
;   supportGridSpacing,2
;   maxOverhangAngle,45
;   supportAngles,45,-45
;   temperatureName,Primary Extruder,Heated Build Platform
;   temperatureNumber,0,0
;   temperatureSetpointCount,1,1
;   temperatureSetpointLayers,1,1
;   temperatureSetpointTemperatures,230,60
;   temperatureStabilizeAtStartup,1,1
;   temperatureHeatedBed,0,1
;   fanLayers,1,2
;   fanSpeeds,0,100
;   blipFanToFullPower,1
;   adjustSpeedForCooling,1
;   minSpeedLayerTime,15
;   minCoolingSpeedSlowdown,20
;   increaseFanForCooling,1
;   minFanLayerTime,45
;   maxCoolingFanSpeed,100
;   increaseFanForBridging,1
;   bridgingFanSpeed,100
;   use5D,1
;   relativeEdistances,1
;   allowEaxisZeroing,0
;   independentExtruderAxes,1
;   includeM10123,0
;   stickySupport,1
;   applyToolheadOffsets,0
;   gcodeXoffset,0
;   gcodeYoffset,0
;   gcodeZoffset,0
;   overrideMachineDefinition,1
;   machineTypeOverride,0
;   strokeXoverride,280
;   strokeYoverride,150
;   strokeZoverride,150
;   originOffsetXoverride,140
;   originOffsetYoverride,75
;   originOffsetZoverride,0
;   homeXdirOverride,1
;   homeYdirOverride,1
;   homeZdirOverride,-1
;   flipXoverride,1
;   flipYoverride,-1
;   flipZoverride,1
;   toolheadOffsets,0,0|0,0|0,0|0,0|0,0|0,0
;   overrideFirmwareConfiguration,1
;   firmwareTypeOverride,MakerBot/Sailfish Firmware
;   GPXconfigOverride,r2h
;   baudRateOverride,115200
;   overridePrinterModels,1
;   printerModelsOverride,MakerBot_Replicator2.stl
;   startingGcode,; **** Replicator 2 start.gcode ****,M73 P0 ; enable build progress,G162 X Y F3000 ; home XY maximum,G161 Z F1200 ; home Z minimum,G92 Z-5 ; set Z to -5,G1 Z0 ; move Z to 0,G161 Z F100 ; home Z slowly,M132 X Y Z A B ; recall home offsets,G1 X-145 Y-75 Z30 F9000 ; move to wait position off table,G130 X20 Y20 Z20 A20 B20 ; lower stepper Vrefs while heating,M126 S[fan_speed_pwm],M140 S[bed0_temperature] T0,M134 T0 ; stabilize bed temperature,M104 S[extruder0_temperature] T0,M133 T0 ; stabilize extruder temperature,G130 X127 Y127 Z40 A127 B127 ; default stepper Vrefs,G92 A0 ; zero extruder,G1 Z0.4 ; position nozzle,G1 E25 F300 ; purge nozzle,G1 X-140 Y-70 Z0.15 F1200 ; slow wipe,G1 X-135 Y-65 Z0.5 F1200 ; lift,G92 A0 ; zero extruder,M73 P1 ;@body (notify GPX body has started),; **** end of start.gcode ****
;   layerChangeGcode,
;   retractionGcode,
;   toolChangeGcode,
;   endingGcode,; **** Replicator 2 end.gcode ****,M73 P100 ; end build progress,G1 Z155 F1000 ; send Z axis to bottom of machine,M104 S0 T0 ; cool down extruder,M140 S0 T0 ; cool down HBP,M127 ; stop blower fan,G162 X Y F3000 ; home XY maximum,M18 ; disable stepper,M0 ; stop codes,M72 P1 ; play Ta-Da song,; **** end of end.gcode ****
;   exportFileFormat,gcode
;   celebration,0
;   celebrationSong,Random Song
;   postProcessing,
;   defaultSpeed,4800
;   outlineUnderspeed,0.5
;   solidInfillUnderspeed,1
;   supportUnderspeed,1
;   rapidXYspeed,9000
;   rapidZspeed,1200
;   minBridgingArea,50
;   bridgingExtraInflation,0
;   bridgingExtrusionMultiplier,1
;   bridgingSpeedMultiplier,0.8
;   useFixedBridgingAngle,0
;   fixedBridgingAngle,0
;   applyBridgingToPerimeters,0
;   filamentDiameters,1.75|1.75|1.75|1.75|1.75|1.75
;   filamentPricesPerKg,46|46|46|46|46|46
;   filamentDensities,1.25|1.25|1.25|1.25|1.25|1.25
;   useMinPrintHeight,0
;   minPrintHeight,0
;   useMaxPrintHeight,0
;   maxPrintHeight,4.84
;   useDiaphragm,0
;   diaphragmLayerInterval,20
;   robustSlicing,1
;   mergeAllIntoSolid,0
;   onlyRetractWhenCrossingOutline,0
;   retractBetweenLayers,0
;   useRetractionMinTravel,1
;   retractionMinTravel,7
;   retractWhileWiping,1
;   onlyWipeOutlines,1
;   avoidCrossingOutline,0
;   maxMovementDetourFactor,3
;   toolChangeRetractionDistance,12
;   toolChangeExtraRestartDistance,-0.5
;   toolChangeRetractionSpeed,600
;   externalThinWallType,0
;   internalThinWallType,0
;   thinWallAllowedOverlapPercentage,10
;   singleExtrusionMinLength,1
;   singleExtrusionMinPrintingWidthPercentage,50
;   singleExtrusionMaxPrintingWidthPercentage,200
;   singleExtrusionEndpointExtension,0.2
;   horizontalSizeCompensation,0
G90
M83
; **** Replicator 2 start.gcode ****
M73 P0 ; enable build progress
G162 X Y F3000 ; home XY maximum
G161 Z F1200 ; home Z minimum
G92 Z-5 ; set Z to -5
G1 Z0 ; move Z to 0
G161 Z F100 ; home Z slowly
M132 X Y Z A B ; recall home offsets
G1 X-145 Y-75 Z30 F9000 ; move to wait position off table
G130 X20 Y20 Z20 A20 B20 ; lower stepper Vrefs while heating
M127
M140 S60 T0
M134 T0 ; stabilize bed temperature
M104 S230 T0
M133 T0 ; stabilize extruder temperature
G130 X127 Y127 Z40 A127 B127 ; default stepper Vrefs
G92 A0 ; zero extruder
G1 Z0.4 ; position nozzle
G1 E25 F300 ; purge nozzle
G1 X-140 Y-70 Z0.15 F1200 ; slow wipe
G1 X-135 Y-65 Z0.5 F1200 ; lift
G92 A0 ; zero extruder
M73 P1 ;@body (notify GPX body has started)
; **** end of start.gcode ****
; process Process1
; layer 1, Z = 0.200
M135 T0
G1 E-1.9000 F1200
; feature inner perimeter
; tool H0.200 W0.460
G1 Z0.500 F1200
G1 X-52.199 Y24.478 F9000
G1 Z0.200 F1200
G1 E1.9000 F1200
G1 X-52.199 Y18.384 E0.2331 F1800
G1 X-43.833 Y-24.478 E1.6704
G1 X52.199 Y-24.478 E3.6731
G1 X52.199 Y24.478 E1.8726
G1 X-52.199 Y24.478 E3.9931
; feature outer perimeter
G1 X-52.659 Y24.938 F9000
G1 X-52.659 Y18.340 E0.2524 F1200
G1 X-44.212 Y-24.938 E1.6866
G1 X52.659 Y-24.938 E3.7052
G1 X52.659 Y24.938 E1.9077
G1 X-52.659 Y24.938 E4.0283
G1 E-1.9000 F1200
; feature inner perimeter
G1 Z0.700 F1200
G1 X-16.592 Y3.192 F9000
G1 Z0.200 F1200
G1 E1.9000 F1200
G1 X-14.607 Y5.611 E0.1197 F1800
G1 X-12.188 Y7.597 E0.1197
G1 X-9.428 Y9.072 E0.1197
G1 X-6.433 Y9.980 E0.1197
G1 X-3.319 Y10.287 E0.1197
G1 X-0.205 Y9.980 E0.1197
G1 X2.790 Y9.072 E0.1197
G1 X5.550 Y7.597 E0.1197
G1 X7.969 Y5.611 E0.1197
G1 X9.954 Y3.192 E0.1197
G1 X11.429 Y0.432 E0.1197
G1 X12.338 Y-2.562 E0.1197
G1 X12.645 Y-5.677 E0.1197
G1 X12.338 Y-8.791 E0.1197
G1 X11.429 Y-11.786 E0.1197
G1 X9.954 Y-14.546 E0.1197
G1 X7.969 Y-16.965 E0.1197
G1 X5.550 Y-18.950 E0.1197
G1 X2.790 Y-20.425 E0.1197
G1 X-0.205 Y-21.334 E0.1197
G1 X-3.319 Y-21.640 E0.1197
G1 X-6.433 Y-21.334 E0.1197
G1 X-9.428 Y-20.425 E0.1197
G1 X-12.188 Y-18.950 E0.1197
G1 X-14.607 Y-16.965 E0.1197
G1 X-16.592 Y-14.546 E0.1197
G1 X-18.067 Y-11.786 E0.1197
G1 X-18.976 Y-8.791 E0.1197
G1 X-19.283 Y-5.677 E0.1197
G1 X-18.976 Y-2.562 E0.1197
G1 X-18.067 Y0.432 E0.1197
G1 X-16.592 Y3.192 E0.1197
; feature outer perimeter
G1 X-16.208 Y2.935 F9000
G1 X-14.280 Y5.284 E0.1162 F1200
G1 X-11.931 Y7.212 E0.1162
G1 X-9.251 Y8.645 E0.1162
G1 X-6.343 Y9.527 E0.1162
G1 X-3.319 Y9.825 E0.1162
G1 X-0.295 Y9.527 E0.1162
G1 X2.613 Y8.645 E0.1162
G1 X5.293 Y7.212 E0.1162
G1 X7.642 Y5.285 E0.1162
G1 X9.570 Y2.935 E0.1162
G1 X11.002 Y0.255 E0.1162
G1 X11.885 Y-2.652 E0.1162
G1 X12.182 Y-5.677 E0.1162
G1 X11.885 Y-8.701 E0.1162
G1 X11.002 Y-11.609 E0.1162
G1 X9.570 Y-14.289 E0.1162
G1 X7.642 Y-16.638 E0.1162
G1 X5.293 Y-18.566 E0.1162
G1 X2.613 Y-19.998 E0.1162
G1 X-0.295 Y-20.880 E0.1162
G1 X-3.319 Y-21.178 E0.1162
G1 X-6.343 Y-20.880 E0.1162
G1 X-9.251 Y-19.998 E0.1162
G1 X-11.931 Y-18.566 E0.1162
G1 X-14.280 Y-16.638 E0.1162
G1 X-16.208 Y-14.289 E0.1162
G1 X-17.640 Y-11.609 E0.1162
G1 X-18.523 Y-8.701 E0.1162
G1 X-18.820 Y-5.677 E0.1162
G1 X-18.523 Y-2.652 E0.1162
G1 X-17.640 Y0.255 E0.1162
G1 X-16.208 Y2.935 E0.1162
; feature solid layer
G1 X-12.168 Y7.998 F9000
G1 X3.967 Y24.133 E0.8728 F2400
G1 X4.617 Y24.133 E0.0249
G1 X-10.771 Y8.745 E0.8324
G1 X-9.561 Y9.392 E0.0525
G1 X-9.436 Y9.430 E0.0050
G1 X5.268 Y24.133 E0.7953
G1 X5.918 Y24.133 E0.0249
G1 X-8.502 Y9.713 E0.7800
G1 X-7.568 Y9.997 E0.0373
G1 X6.569 Y24.133 E0.7647
G1 X7.219 Y24.133 E0.0249
G1 X-6.634 Y10.280 E0.7494
G1 X-6.501 Y10.320 E0.0053
G1 X-5.882 Y10.381 E0.0238
G1 X7.870 Y24.133 E0.7439
G1 X8.520 Y24.133 E0.0249
G1 X-5.161 Y10.452 E0.7400
G1 X-4.439 Y10.523 E0.0277
G1 X9.171 Y24.133 E0.7362
G1 X9.822 Y24.133 E0.0249
G1 X-3.717 Y10.594 E0.7324
G1 X-3.319 Y10.634 E0.0153
G1 X-3.054 Y10.608 E0.0102
G1 X10.472 Y24.133 E0.7316
G1 X11.123 Y24.133 E0.0249
G1 X-2.462 Y10.549 E0.7348
G1 X-1.869 Y10.491 E0.0228
G1 X11.773 Y24.133 E0.7380
G1 X12.424 Y24.133 E0.0249
G1 X-1.277 Y10.433 E0.7411
G1 X-0.685 Y10.374 E0.0228
G1 X13.074 Y24.133 E0.7443
G1 X13.725 Y24.133 E0.0249
G1 X-0.100 Y10.309 E0.7478
G1 X0.399 Y10.158 E0.0200
G1 X14.375 Y24.133 E0.7560
G1 X15.026 Y24.133 E0.0249
G1 X0.899 Y10.006 E0.7642
G1 X1.398 Y9.855 E0.0200
G1 X15.676 Y24.133 E0.7724
G1 X16.327 Y24.133 E0.0249
G1 X1.897 Y9.703 E0.7806
G1 X2.396 Y9.552 E0.0200
G1 X16.977 Y24.133 E0.7888
G1 X17.628 Y24.133 E0.0249
G1 X2.895 Y9.400 E0.7969
G1 X2.923 Y9.392 E0.0011
G1 X3.323 Y9.178 E0.0174
G1 X18.279 Y24.133 E0.8090
G1 X18.929 Y24.133 E0.0249
G1 X3.747 Y8.951 E0.8212
G1 X4.171 Y8.725 E0.0184
G1 X19.580 Y24.133 E0.8335
G1 X20.230 Y24.133 E0.0249
G1 X4.595 Y8.498 E0.8457
G1 X5.019 Y8.272 E0.0184
G1 X20.881 Y24.133 E0.8580
G1 X21.531 Y24.133 E0.0249
G1 X5.443 Y8.045 E0.8703
G1 X5.742 Y7.885 E0.0130
G1 X5.847 Y7.799 E0.0052
G1 X22.182 Y24.133 E0.8836
G1 X22.832 Y24.133 E0.0249
G1 X6.205 Y7.506 E0.8994
G1 X6.562 Y7.212 E0.0177
G1 X23.483 Y24.133 E0.9153
G1 X24.133 Y24.133 E0.0249
G1 X6.919 Y6.919 E0.9312
G1 X7.277 Y6.626 E0.0177
G1 X24.784 Y24.133 E0.9470
G1 X25.434 Y24.133 E0.0249
G1 X7.634 Y6.333 E0.9629
G1 X7.991 Y6.039 E0.0177
G1 X26.085 Y24.133 E0.9787
G1 X26.736 Y24.133 E0.0249
G1 X8.324 Y5.722 E0.9959
G1 X8.618 Y5.365 E0.0177
G1 X27.386 Y24.133 E1.0152
G1 X28.037 Y24.133 E0.0249
G1 X8.911 Y5.008 E1.0346
G1 X9.204 Y4.650 E0.0177
G1 X28.687 Y24.133 E1.0539
G1 X29.338 Y24.133 E0.0249
G1 X9.497 Y4.293 E1.0732
G1 X9.790 Y3.936 E0.0177
G1 X29.988 Y24.133 E1.0925
G1 X30.639 Y24.133 E0.0249
G1 X10.084 Y3.578 E1.1119
G1 X10.242 Y3.385 E0.0096
G1 X10.346 Y3.190 E0.0084
G1 X31.289 Y24.133 E1.1329
G1 X31.940 Y24.133 E0.0249
G1 X10.573 Y2.767 E1.1558
G1 X10.800 Y2.343 E0.0184
G1 X32.590 Y24.133 E1.1787
G1 X33.241 Y24.133 E0.0249
G1 X11.026 Y1.919 E1.2017
G1 X11.253 Y1.495 E0.0184
G1 X33.891 Y24.133 E1.2246
G1 X34.542 Y24.133 E0.0249
G1 X11.479 Y1.071 E1.2475
G1 X11.706 Y0.647 E0.0184
G1 X35.193 Y24.133 E1.2704
G1 X35.843 Y24.133 E0.0249
G1 X11.872 Y0.162 E1.2967
G1 X12.023 Y-0.337 E0.0200
G1 X36.494 Y24.133 E1.3237
G1 X37.144 Y24.133 E0.0249
G1 X12.175 Y-0.836 E1.3507
G1 X12.326 Y-1.335 E0.0200
G1 X37.795 Y24.133 E1.3777
G1 X38.445 Y24.133 E0.0249
G1 X12.478 Y-1.834 E1.4047
G1 X12.629 Y-2.333 E0.0200
G1 X39.096 Y24.133 E1.4317
G1 X39.746 Y24.133 E0.0249
G1 X12.717 Y-2.896 E1.4621
G1 X12.776 Y-3.488 E0.0228
G1 X40.397 Y24.133 E1.4941
G1 X41.047 Y24.133 E0.0249
G1 X12.834 Y-4.080 E1.5261
G1 X12.892 Y-4.672 E0.0228
G1 X41.698 Y24.133 E1.5582
G1 X42.348 Y24.133 E0.0249
G1 X12.951 Y-5.264 E1.5902
G1 X12.991 Y-5.677 E0.0158
G1 X12.970 Y-5.896 E0.0084
G1 X42.999 Y24.133 E1.6244
G1 X43.650 Y24.133 E0.0249
G1 X12.899 Y-6.618 E1.6634
G1 X12.828 Y-7.339 E0.0277
G1 X44.300 Y24.133 E1.7024
G1 X44.951 Y24.133 E0.0249
G1 X12.756 Y-8.061 E1.7415
G1 X12.685 Y-8.782 E0.0277
G1 X45.601 Y24.133 E1.7805
G1 X46.252 Y24.133 E0.0249
G1 X12.425 Y-9.694 E1.8298
G1 X12.141 Y-10.628 E0.0373
G1 X46.902 Y24.133 E1.8803
G1 X47.553 Y24.133 E0.0249
G1 X11.858 Y-11.561 E1.9308
G1 X11.750 Y-11.918 E0.0143
G1 X11.288 Y-12.782 E0.0374
G1 X48.203 Y24.133 E1.9968
G1 X48.854 Y24.133 E0.0249
G1 X10.541 Y-14.179 E2.0724
G1 E-1.9000 F1200
G1 Z0.700 F1200
G1 X51.329 Y-24.133 F9000
G1 Z0.200 F1200
G1 E1.9000 F1200
G1 X51.854 Y-23.608 E0.0284 F2400
G1 X51.854 Y-22.958 E0.0249
G1 X50.679 Y-24.133 E0.0636
G1 X50.028 Y-24.133 E0.0249
G1 X51.854 Y-22.307 E0.0988
G1 X51.854 Y-21.657 E0.0249
G1 X49.377 Y-24.133 E0.1340
G1 X48.727 Y-24.133 E0.0249
G1 X51.854 Y-21.006 E0.1692
G1 X51.854 Y-20.356 E0.0249
G1 X48.076 Y-24.133 E0.2043
G1 X47.426 Y-24.133 E0.0249
G1 X51.854 Y-19.705 E0.2395
G1 X51.854 Y-19.055 E0.0249
G1 X46.775 Y-24.133 E0.2747
G1 X46.125 Y-24.133 E0.0249
G1 X51.854 Y-18.404 E0.3099
G1 X51.854 Y-17.753 E0.0249
G1 X45.474 Y-24.133 E0.3451
G1 X44.824 Y-24.133 E0.0249
G1 X51.854 Y-17.103 E0.3803
G1 X51.854 Y-16.452 E0.0249
G1 X44.173 Y-24.133 E0.4155
G1 X43.523 Y-24.133 E0.0249
G1 X51.854 Y-15.802 E0.4507
G1 X51.854 Y-15.151 E0.0249
G1 X42.872 Y-24.133 E0.4859
G1 X42.222 Y-24.133 E0.0249
G1 X51.854 Y-14.501 E0.5211
G1 X51.854 Y-13.850 E0.0249
G1 X41.571 Y-24.133 E0.5562
G1 X40.920 Y-24.133 E0.0249
G1 X51.854 Y-13.200 E0.5914
G1 X51.854 Y-12.549 E0.0249
G1 X40.270 Y-24.133 E0.6266
G1 X39.619 Y-24.133 E0.0249
G1 X51.854 Y-11.899 E0.6618
G1 X51.854 Y-11.248 E0.0249
G1 X38.969 Y-24.133 E0.6970
G1 X38.318 Y-24.133 E0.0249
G1 X51.854 Y-10.598 E0.7322
G1 X51.854 Y-9.947 E0.0249
G1 X37.668 Y-24.133 E0.7674
G1 X37.017 Y-24.133 E0.0249
G1 X51.854 Y-9.296 E0.8026
G1 X51.854 Y-8.646 E0.0249
G1 X36.367 Y-24.133 E0.8378
G1 X35.716 Y-24.133 E0.0249
G1 X51.854 Y-7.995 E0.8729
G1 X51.854 Y-7.345 E0.0249
G1 X35.066 Y-24.133 E0.9081
G1 X34.415 Y-24.133 E0.0249
G1 X51.854 Y-6.694 E0.9433
G1 X51.854 Y-6.044 E0.0249
G1 X33.765 Y-24.133 E0.9785
G1 X33.114 Y-24.133 E0.0249
G1 X51.854 Y-5.393 E1.0137
G1 X51.854 Y-4.743 E0.0249
G1 X32.463 Y-24.133 E1.0489
G1 X31.813 Y-24.133 E0.0249
G1 X51.854 Y-4.092 E1.0841
G1 X51.854 Y-3.442 E0.0249
G1 X31.162 Y-24.133 E1.1193
G1 X30.512 Y-24.133 E0.0249
G1 X51.854 Y-2.791 E1.1545
G1 X51.854 Y-2.141 E0.0249
G1 X29.861 Y-24.133 E1.1896
G1 X29.211 Y-24.133 E0.0249
G1 X51.854 Y-1.490 E1.2248
G1 X51.854 Y-0.839 E0.0249
G1 X28.560 Y-24.133 E1.2600
G1 X27.910 Y-24.133 E0.0249
G1 X51.854 Y-0.189 E1.2952
G1 X51.854 Y0.462 E0.0249
G1 X27.259 Y-24.133 E1.3304
G1 X26.609 Y-24.133 E0.0249
G1 X51.854 Y1.112 E1.3656
G1 X51.854 Y1.763 E0.0249
G1 X25.958 Y-24.133 E1.4008
