; G-Code generated by Simplify3D(R) Version 4.1.2
; Mar 28, 2020 at 12:39:00 PM
; Settings Summary
;   processName,Process1
;   applyToModels,firehouseFancy,firehouseFront,firehouseRoof,firehouseFancy(2)
;   profileName,MakerBot Replicator 2 HBP (modified)
;   profileVersion,2020-03-12 10:48:50
;   baseProfile,MakerBot Replicator 2(2)
;   printMaterial,PLA
;   printQuality,Medium
;   printExtruders,
;   extruderName,Primary Extruder
;   extruderToolheadNumber,0
;   extruderDiameter,0.4
;   extruderAutoWidth,0
;   extruderWidth,0.4
;   extrusionMultiplier,1
;   extruderUseRetract,1
;   extruderRetractionDistance,1.9
;   extruderExtraRestartDistance,0
;   extruderRetractionZLift,0.5
;   extruderRetractionSpeed,1200
;   extruderUseCoasting,0
;   extruderCoastingDistance,0.2
;   extruderUseWipe,0
;   extruderWipeDistance,5
;   primaryExtruder,0
;   layerHeight,0.2
;   topSolidLayers,3
;   bottomSolidLayers,3
;   perimeterOutlines,2
;   printPerimetersInsideOut,1
;   startPointOption,3
;   startPointOriginX,0
;   startPointOriginY,150
;   sequentialIslands,0
;   spiralVaseMode,0
;   firstLayerHeightPercentage,100
;   firstLayerWidthPercentage,115
;   firstLayerUnderspeed,0.5
;   useRaft,0
;   raftExtruder,0
;   raftTopLayers,2
;   raftBaseLayers,1
;   raftOffset,1
;   raftSeparationDistance,0.14
;   raftTopInfill,90
;   aboveRaftSpeedMultiplier,0.3
;   useSkirt,0
;   skirtExtruder,0
;   skirtLayers,1
;   skirtOutlines,5
;   skirtOffset,0
;   usePrimePillar,0
;   primePillarExtruder,999
;   primePillarWidth,12
;   primePillarLocation,7
;   primePillarSpeedMultiplier,1
;   useOozeShield,0
;   oozeShieldExtruder,999
;   oozeShieldOffset,2
;   oozeShieldOutlines,1
;   oozeShieldSidewallShape,1
;   oozeShieldSidewallAngle,30
;   oozeShieldSpeedMultiplier,1
;   infillExtruder,0
;   internalInfillPattern,Rectilinear
;   externalInfillPattern,Rectilinear
;   infillPercentage,15
;   outlineOverlapPercentage,25
;   infillExtrusionWidthPercentage,100
;   minInfillLength,5
;   infillLayerInterval,1
;   internalInfillAngles,45,-45
;   overlapInternalInfillAngles,0
;   externalInfillAngles,45,-45
;   generateSupport,0
;   supportExtruder,0
;   supportInfillPercentage,5
;   supportExtraInflation,0.5
;   supportBaseLayers,0
;   denseSupportExtruder,0
;   denseSupportLayers,2
;   denseSupportInfillPercentage,90
;   supportLayerInterval,1
;   supportHorizontalPartOffset,0.3
;   supportUpperSeparationLayers,1
;   supportLowerSeparationLayers,1
;   supportType,1
;   supportGridSpacing,2
;   maxOverhangAngle,45
;   supportAngles,45,-45
;   temperatureName,Primary Extruder,Heated Build Platform
;   temperatureNumber,0,0
;   temperatureSetpointCount,1,1
;   temperatureSetpointLayers,1,1
;   temperatureSetpointTemperatures,230,75
;   temperatureStabilizeAtStartup,1,1
;   temperatureHeatedBed,0,1
;   fanLayers,1,2
;   fanSpeeds,0,100
;   blipFanToFullPower,1
;   adjustSpeedForCooling,1
;   minSpeedLayerTime,15
;   minCoolingSpeedSlowdown,20
;   increaseFanForCooling,1
;   minFanLayerTime,45
;   maxCoolingFanSpeed,100
;   increaseFanForBridging,1
;   bridgingFanSpeed,100
;   use5D,1
;   relativeEdistances,1
;   allowEaxisZeroing,0
;   independentExtruderAxes,1
;   includeM10123,0
;   stickySupport,1
;   applyToolheadOffsets,0
;   gcodeXoffset,0
;   gcodeYoffset,0
;   gcodeZoffset,0
;   overrideMachineDefinition,1
;   machineTypeOverride,0
;   strokeXoverride,280
;   strokeYoverride,150
;   strokeZoverride,150
;   originOffsetXoverride,140
;   originOffsetYoverride,75
;   originOffsetZoverride,0
;   homeXdirOverride,1
;   homeYdirOverride,1
;   homeZdirOverride,-1
;   flipXoverride,1
;   flipYoverride,-1
;   flipZoverride,1
;   toolheadOffsets,0,0|0,0|0,0|0,0|0,0|0,0
;   overrideFirmwareConfiguration,1
;   firmwareTypeOverride,MakerBot/Sailfish Firmware
;   GPXconfigOverride,r2h
;   baudRateOverride,115200
;   overridePrinterModels,1
;   printerModelsOverride,MakerBot_Replicator2.stl
;   startingGcode,; **** Replicator 2 start.gcode ****,M73 P0 ; enable build progress,G162 X Y F3000 ; home XY maximum,G161 Z F1200 ; home Z minimum,G92 Z-5 ; set Z to -5,G1 Z0 ; move Z to 0,G161 Z F100 ; home Z slowly,M132 X Y Z A B ; recall home offsets,G1 X-145 Y-75 Z30 F9000 ; move to wait position off table,G130 X20 Y20 Z20 A20 B20 ; lower stepper Vrefs while heating,M126 S[fan_speed_pwm],M140 S[bed0_temperature] T0,M134 T0 ; stabilize bed temperature,M104 S[extruder0_temperature] T0,M133 T0 ; stabilize extruder temperature,G130 X127 Y127 Z40 A127 B127 ; default stepper Vrefs,G92 A0 ; zero extruder,G1 Z0.4 ; position nozzle,G1 E25 F300 ; purge nozzle,G1 X-140 Y-70 Z0.15 F1200 ; slow wipe,G1 X-135 Y-65 Z0.5 F1200 ; lift,G92 A0 ; zero extruder,M73 P1 ;@body (notify GPX body has started),; **** end of start.gcode ****
;   layerChangeGcode,
;   retractionGcode,
;   toolChangeGcode,
;   endingGcode,; **** Replicator 2 end.gcode ****,M73 P100 ; end build progress,G1 Z155 F1000 ; send Z axis to bottom of machine,M104 S0 T0 ; cool down extruder,M140 S0 T0 ; cool down HBP,M127 ; stop blower fan,G162 X Y F3000 ; home XY maximum,M18 ; disable stepper,M0 ; stop codes,M72 P1 ; play Ta-Da song,; **** end of end.gcode ****
;   exportFileFormat,gcode
;   celebration,0
;   celebrationSong,Random Song
;   postProcessing,
;   defaultSpeed,4800
;   outlineUnderspeed,0.5
;   solidInfillUnderspeed,1
;   supportUnderspeed,1
;   rapidXYspeed,9000
;   rapidZspeed,1200
;   minBridgingArea,50
;   bridgingExtraInflation,0
;   bridgingExtrusionMultiplier,1
;   bridgingSpeedMultiplier,0.8
;   useFixedBridgingAngle,0
;   fixedBridgingAngle,0
;   applyBridgingToPerimeters,0
;   filamentDiameters,1.75|1.75|1.75|1.75|1.75|1.75
;   filamentPricesPerKg,46|46|46|46|46|46
;   filamentDensities,1.25|1.25|1.25|1.25|1.25|1.25
;   useMinPrintHeight,0
;   minPrintHeight,0
;   useMaxPrintHeight,0
;   maxPrintHeight,4.84
;   useDiaphragm,0
;   diaphragmLayerInterval,20
;   robustSlicing,1
;   mergeAllIntoSolid,0
;   onlyRetractWhenCrossingOutline,0
;   retractBetweenLayers,0
;   useRetractionMinTravel,1
;   retractionMinTravel,7
;   retractWhileWiping,1
;   onlyWipeOutlines,1
;   avoidCrossingOutline,0
;   maxMovementDetourFactor,3
;   toolChangeRetractionDistance,12
;   toolChangeExtraRestartDistance,-0.5
;   toolChangeRetractionSpeed,600
;   externalThinWallType,0
;   internalThinWallType,0
;   thinWallAllowedOverlapPercentage,10
;   singleExtrusionMinLength,1
;   singleExtrusionMinPrintingWidthPercentage,50
;   singleExtrusionMaxPrintingWidthPercentage,200
;   singleExtrusionEndpointExtension,0.2
;   horizontalSizeCompensation,0
G90
M83
; **** Replicator 2 start.gcode ****
M73 P0 ; enable build progress
G162 X Y F3000 ; home XY maximum
G161 Z F1200 ; home Z minimum
G92 Z-5 ; set Z to -5
G1 Z0 ; move Z to 0
G161 Z F100 ; home Z slowly
M132 X Y Z A B ; recall home offsets
G1 X-145 Y-75 Z30 F9000 ; move to wait position off table
G130 X20 Y20 Z20 A20 B20 ; lower stepper Vrefs while heating
M127
M140 S75 T0
M134 T0 ; stabilize bed temperature
M104 S230 T0
M133 T0 ; stabilize extruder temperature
G130 X127 Y127 Z40 A127 B127 ; default stepper Vrefs
G92 A0 ; zero extruder
G1 Z0.4 ; position nozzle
G1 E25 F300 ; purge nozzle
G1 X-140 Y-70 Z0.15 F1200 ; slow wipe
G1 X-135 Y-65 Z0.5 F1200 ; lift
G92 A0 ; zero extruder
M73 P1 ;@body (notify GPX body has started)
; **** end of start.gcode ****
; process Process1
; layer 1, Z = 0.200
M135 T0
G1 E-1.9000 F1200
; feature inner perimeter
; tool H0.200 W0.460
G1 Z0.500 F1200
G1 X2.782 Y11.249 F9000
G1 Z0.200 F1200
G1 E1.9000 F1200
G1 X2.782 Y8.481 E0.1059 F1800
G1 X-5.710 Y8.481 E0.3248
G1 X-5.710 Y11.249 E0.1059
G1 X-10.427 Y11.249 E0.1804
G1 X-10.427 Y8.481 E0.1059
G1 X-19.064 Y8.481 E0.3304
G1 X-19.064 Y11.249 E0.1059
G1 X-24.185 Y11.249 E0.1959
G1 X-24.185 Y8.481 E0.1059
G1 X-32.515 Y8.481 E0.3186
G1 X-32.515 Y11.249 E0.1059
G1 X-37.856 Y11.249 E0.2043
G1 X-37.856 Y8.481 E0.1059
G1 X-46.319 Y8.481 E0.3237
G1 X-46.319 Y11.249 E0.1059
G1 X-51.538 Y11.249 E0.1996
G1 X-51.538 Y8.481 E0.1059
G1 X-57.704 Y8.481 E0.2358
G1 X-57.704 Y13.654 E0.1979
G1 X-85.197 Y13.654 E1.0516
G1 X-85.196 Y-30.608 E1.6930
G1 X-62.055 Y-30.608 E0.8851
G1 X-62.055 Y-15.863 E0.5640
G1 X-22.967 Y-15.863 E1.4951
G1 X-22.967 Y-39.220 E0.8934
G1 X-50.588 Y-39.220 E1.0565
G1 X-50.588 Y-42.183 E0.1133
G1 X-22.967 Y-42.183 E1.0565
G1 X-22.967 Y-62.521 E0.7779
G1 X-50.588 Y-62.521 E1.0565
G1 X-50.588 Y-68.990 E0.2474
G1 X-46.122 Y-68.990 E0.1708
G1 X-46.122 Y-66.191 E0.1071
G1 X-37.338 Y-66.191 E0.3360
G1 X-37.338 Y-68.990 E0.1071
G1 X-32.694 Y-68.990 E0.1776
G1 X-32.694 Y-66.191 E0.1071
G1 X-24.119 Y-66.191 E0.3280
G1 X-24.119 Y-68.990 E0.1071
G1 X-19.064 Y-68.990 E0.1933
G1 X-19.064 Y-66.191 E0.1071
G1 X-10.427 Y-66.191 E0.3304
G1 X-10.427 Y-68.990 E0.1071
G1 X-5.710 Y-68.990 E0.1804
G1 X-5.710 Y-66.191 E0.1071
G1 X2.782 Y-66.191 E0.3248
G1 X2.782 Y-68.990 E0.1071
G1 X7.930 Y-68.990 E0.1969
G1 X7.930 Y-66.191 E0.1071
G1 X16.405 Y-66.191 E0.3241
G1 X16.405 Y-68.990 E0.1071
G1 X21.468 Y-68.990 E0.1937
G1 X21.468 Y-66.191 E0.1071
G1 X29.991 Y-66.191 E0.3260
G1 X29.991 Y-68.990 E0.1071
G1 X35.209 Y-68.990 E0.1996
G1 X35.209 Y-66.191 E0.1071
G1 X56.340 Y-66.191 E0.8082
G1 X56.340 Y8.481 E2.8561
G1 X35.117 Y8.481 E0.8117
G1 X35.117 Y11.249 E0.1059
G1 X29.797 Y11.249 E0.2035
G1 X29.797 Y8.481 E0.1059
G1 X21.395 Y8.481 E0.3214
G1 X21.395 Y11.249 E0.1059
G1 X16.260 Y11.249 E0.1964
G1 X16.260 Y8.481 E0.1059
G1 X7.640 Y8.481 E0.3297
G1 X7.640 Y11.249 E0.1059
G1 X2.782 Y11.249 E0.1858
; feature outer perimeter
G1 X2.322 Y11.709 F9000
G1 X2.322 Y8.941 E0.1059 F1200
G1 X-5.250 Y8.941 E0.2896
G1 X-5.250 Y11.709 E0.1059
G1 X-10.887 Y11.709 E0.2156
G1 X-10.887 Y8.941 E0.1059
G1 X-18.604 Y8.941 E0.2952
G1 X-18.604 Y11.709 E0.1059
G1 X-24.645 Y11.709 E0.2311
G1 X-24.645 Y8.941 E0.1059
G1 X-32.055 Y8.941 E0.2834
G1 X-32.055 Y11.709 E0.1059
G1 X-38.316 Y11.709 E0.2395
G1 X-38.316 Y8.941 E0.1059
G1 X-45.859 Y8.941 E0.2885
G1 X-45.859 Y11.709 E0.1059
G1 X-51.998 Y11.709 E0.2348
G1 X-51.998 Y8.941 E0.1059
G1 X-57.244 Y8.941 E0.2007
G1 X-57.244 Y14.114 E0.1979
G1 X-85.656 Y14.114 E1.0867
G1 X-85.656 Y-31.068 E1.7282
G1 X-61.595 Y-31.068 E0.9203
G1 X-61.595 Y-16.323 E0.5640
G1 X-23.427 Y-16.323 E1.4599
G1 X-23.427 Y-38.760 E0.8582
G1 X-51.048 Y-38.760 E1.0565
G1 X-51.048 Y-42.643 E0.1485
G1 X-23.427 Y-42.643 E1.0565
G1 X-23.427 Y-62.061 E0.7427
G1 X-51.048 Y-62.061 E1.0565
G1 X-51.048 Y-69.450 E0.2826
G1 X-45.662 Y-69.450 E0.2060
G1 X-45.662 Y-66.651 E0.1071
G1 X-37.798 Y-66.651 E0.3008
G1 X-37.798 Y-69.450 E0.1071
G1 X-32.234 Y-69.450 E0.2128
G1 X-32.234 Y-66.651 E0.1071
G1 X-24.579 Y-66.651 E0.2928
G1 X-24.579 Y-69.450 E0.1071
G1 X-18.604 Y-69.450 E0.2285
G1 X-18.604 Y-66.651 E0.1071
G1 X-10.887 Y-66.651 E0.2952
G1 X-10.887 Y-69.450 E0.1071
G1 X-5.250 Y-69.450 E0.2156
G1 X-5.250 Y-66.651 E0.1071
G1 X2.322 Y-66.651 E0.2896
G1 X2.322 Y-69.450 E0.1071
G1 X8.390 Y-69.450 E0.2321
G1 X8.390 Y-66.651 E0.1071
G1 X15.945 Y-66.651 E0.2890
G1 X15.945 Y-69.450 E0.1071
G1 X21.928 Y-69.450 E0.2288
G1 X21.928 Y-66.651 E0.1071
G1 X29.531 Y-66.651 E0.2908
G1 X29.531 Y-69.450 E0.1071
G1 X35.669 Y-69.450 E0.2348
G1 X35.669 Y-66.651 E0.1071
G1 X56.800 Y-66.651 E0.8082
G1 X56.800 Y8.941 E2.8913
G1 X35.577 Y8.941 E0.8117
G1 X35.577 Y11.709 E0.1059
G1 X29.337 Y11.709 E0.2387
G1 X29.337 Y8.941 E0.1059
G1 X21.855 Y8.941 E0.2862
G1 X21.855 Y11.709 E0.1059
G1 X15.800 Y11.709 E0.2316
G1 X15.800 Y8.941 E0.1059
G1 X8.100 Y8.941 E0.2945
G1 X8.100 Y11.709 E0.1059
G1 X2.322 Y11.709 E0.2210
; feature inner perimeter
G1 X6.193 Y7.580 F9000
G1 X44.638 Y7.580 E1.4705 F1800
G1 X44.638 Y-12.537 E0.7695
G1 X6.193 Y-12.537 E1.4705
G1 X6.193 Y7.580 E0.7695
; feature outer perimeter
G1 X6.653 Y7.120 F9000
G1 X44.178 Y7.120 E1.4353 F1200
G1 X44.178 Y-12.077 E0.7343
G1 X6.653 Y-12.077 E1.4353
G1 X6.653 Y7.120 E0.7343
G1 E-1.9000 F1200
; feature inner perimeter
G1 Z0.700 F1200
G1 X6.193 Y-15.863 F9000
G1 Z0.200 F1200
G1 E1.9000 F1200
G1 X44.638 Y-15.863 E1.4705 F1800
G1 X44.638 Y-39.220 E0.8934
G1 X6.193 Y-39.220 E1.4705
G1 X6.193 Y-15.863 E0.8934
; feature outer perimeter
G1 X6.653 Y-16.323 F9000
G1 X44.178 Y-16.323 E1.4353 F1200
G1 X44.178 Y-38.760 E0.8582
G1 X6.653 Y-38.760 E1.4353
G1 X6.653 Y-16.323 E0.8582
G1 E-1.9000 F1200
; feature inner perimeter
G1 Z0.700 F1200
G1 X6.193 Y-42.183 F9000
G1 Z0.200 F1200
G1 E1.9000 F1200
G1 X44.638 Y-42.183 E1.4705 F1800
G1 X44.638 Y-62.521 E0.7779
G1 X6.193 Y-62.521 E1.4705
G1 X6.193 Y-42.183 E0.7779
; feature outer perimeter
G1 X6.653 Y-42.643 F9000
G1 X44.178 Y-42.643 E1.4353 F1200
G1 X44.178 Y-62.061 E0.7427
G1 X6.653 Y-62.061 E1.4353
G1 X6.653 Y-42.643 E0.7427
G1 E-1.9000 F1200
; feature inner perimeter
G1 Z0.700 F1200
G1 X-22.967 Y-12.537 F9000
G1 Z0.200 F1200
G1 E1.9000 F1200
G1 X-62.055 Y-12.537 E1.4951 F1800
G1 X-62.055 Y7.580 E0.7695
G1 X-22.967 Y7.580 E1.4951
G1 X-22.967 Y-12.537 E0.7695
; feature outer perimeter
G1 X-23.427 Y-12.077 F9000
G1 X-61.595 Y-12.077 E1.4599 F1200
G1 X-61.595 Y7.120 E0.7343
G1 X-23.427 Y7.120 E1.4599
G1 X-23.427 Y-12.077 E0.7343
; feature solid layer
G1 X-22.622 Y-12.864 F9000
G1 X-1.623 Y8.136 E1.1359 F2400
G1 X-2.273 Y8.136 E0.0249
G1 X-22.622 Y-12.214 E1.1007
G1 X-22.622 Y-11.563 E0.0249
G1 X-2.924 Y8.136 E1.0656
G1 X-3.574 Y8.136 E0.0249
G1 X-22.622 Y-10.913 E1.0304
G1 X-22.622 Y-10.262 E0.0249
G1 X-4.225 Y8.136 E0.9952
G1 X-4.875 Y8.136 E0.0249
G1 X-22.622 Y-9.612 E0.9600
G1 X-22.622 Y-8.961 E0.0249
G1 X-5.526 Y8.136 E0.9248
G1 X-6.055 Y8.136 E0.0202
G1 X-6.055 Y8.257 E0.0046
G1 X-22.622 Y-8.310 E0.8962
G1 X-22.622 Y-7.660 E0.0249
G1 X-6.055 Y8.907 E0.8962
G1 X-6.055 Y9.558 E0.0249
G1 X-22.622 Y-7.009 E0.8962
G1 X-22.622 Y-6.359 E0.0249
G1 X-6.055 Y10.208 E0.8962
G1 X-6.055 Y10.859 E0.0249
G1 X-22.622 Y-5.708 E0.8962
G1 X-22.622 Y-5.058 E0.0249
G1 X-6.660 Y10.904 E0.8634
G1 X-7.311 Y10.904 E0.0249
G1 X-22.622 Y-4.407 E0.8282
G1 X-22.622 Y-3.757 E0.0249
G1 X-10.730 Y8.136 E0.6433
G1 X-11.381 Y8.136 E0.0249
G1 X-22.622 Y-3.106 E0.6081
G1 X-22.622 Y-2.456 E0.0249
G1 X-12.031 Y8.136 E0.5729
G1 X-12.682 Y8.136 E0.0249
G1 X-22.622 Y-1.805 E0.5377
G1 X-22.622 Y-1.155 E0.0249
G1 X-13.332 Y8.136 E0.5025
G1 X-13.983 Y8.136 E0.0249
G1 X-22.622 Y-0.504 E0.4673
G1 X-22.622 Y0.147 E0.0249
G1 X-14.633 Y8.136 E0.4321
G1 X-15.284 Y8.136 E0.0249
G1 X-22.622 Y0.797 E0.3970
G1 X-22.622 Y1.448 E0.0249
G1 X-15.934 Y8.136 E0.3618
G1 X-16.585 Y8.136 E0.0249
G1 X-22.622 Y2.098 E0.3266
G1 X-22.622 Y2.749 E0.0249
G1 X-17.235 Y8.136 E0.2914
G1 X-17.886 Y8.136 E0.0249
G1 X-22.622 Y3.399 E0.2562
G1 X-22.622 Y4.050 E0.0249
G1 X-18.537 Y8.136 E0.2210
G1 X-19.187 Y8.136 E0.0249
G1 X-22.622 Y4.700 E0.1858
G1 X-22.622 Y5.351 E0.0249
G1 X-19.409 Y8.564 E0.1738
G1 X-19.409 Y9.214 E0.0249
G1 X-22.622 Y6.001 E0.1738
G1 X-22.622 Y6.652 E0.0249
G1 X-19.409 Y9.865 E0.1738
G1 X-19.409 Y10.515 E0.0249
G1 X-22.622 Y7.302 E0.1738
G1 X-22.622 Y7.925 E0.0238
G1 X-22.650 Y7.925 E0.0011
G1 X-19.671 Y10.904 E0.1612
G1 X-20.322 Y10.904 E0.0249
G1 X-23.301 Y7.925 E0.1612
G1 X-23.951 Y7.925 E0.0249
G1 X-20.972 Y10.904 E0.1612
G1 X-21.623 Y10.904 E0.0249
G1 X-23.840 Y8.687 E0.1200
G1 X-23.840 Y8.136 E0.0211
G1 X-24.391 Y8.136 E0.0211
G1 X-24.602 Y7.925 E0.0114
G1 X-25.252 Y7.925 E0.0249
G1 X-25.042 Y8.136 E0.0114
G1 X-25.692 Y8.136 E0.0249
G1 X-25.903 Y7.925 E0.0114
G1 X-26.554 Y7.925 E0.0249
G1 X-26.343 Y8.136 E0.0114
G1 X-26.994 Y8.136 E0.0249
G1 X-27.204 Y7.925 E0.0114
G1 X-27.855 Y7.925 E0.0249
G1 X-27.644 Y8.136 E0.0114
G1 X-28.295 Y8.136 E0.0249
G1 X-28.505 Y7.925 E0.0114
G1 X-29.156 Y7.925 E0.0249
G1 X-28.945 Y8.136 E0.0114
G1 X-29.596 Y8.136 E0.0249
G1 X-29.806 Y7.925 E0.0114
G1 X-30.457 Y7.925 E0.0249
G1 X-30.246 Y8.136 E0.0114
G1 X-30.897 Y8.136 E0.0249
G1 X-31.107 Y7.925 E0.0114
G1 X-31.758 Y7.925 E0.0249
G1 X-31.547 Y8.136 E0.0114
G1 X-32.198 Y8.136 E0.0249
G1 X-32.408 Y7.925 E0.0114
G1 X-33.059 Y7.925 E0.0249
G1 X-32.848 Y8.136 E0.0114
G1 X-32.860 Y8.136 E0.0004
G1 X-32.860 Y8.775 E0.0245
G1 X-33.709 Y7.925 E0.0460
G1 X-34.360 Y7.925 E0.0249
G1 X-32.860 Y9.425 E0.0812
G1 X-32.860 Y10.076 E0.0249
