; G-Code generated by Simplify3D(R) Version 4.1.2
; Apr 2, 2020 at 1:00:12 PM
; Settings Summary
;   processName,Process1
;   applyToModels,firehouse brick A
;   profileName,MakerBot Replicator 2 HBP (modified)
;   profileVersion,2020-03-12 10:48:50
;   baseProfile,MakerBot Replicator 2(2)
;   printMaterial,PLA
;   printQuality,Medium
;   printExtruders,
;   extruderName,Primary Extruder
;   extruderToolheadNumber,0
;   extruderDiameter,0.4
;   extruderAutoWidth,0
;   extruderWidth,0.4
;   extrusionMultiplier,1
;   extruderUseRetract,1
;   extruderRetractionDistance,1.9
;   extruderExtraRestartDistance,0
;   extruderRetractionZLift,0.5
;   extruderRetractionSpeed,1200
;   extruderUseCoasting,0
;   extruderCoastingDistance,0.2
;   extruderUseWipe,0
;   extruderWipeDistance,5
;   primaryExtruder,0
;   layerHeight,0.2
;   topSolidLayers,3
;   bottomSolidLayers,3
;   perimeterOutlines,2
;   printPerimetersInsideOut,1
;   startPointOption,3
;   startPointOriginX,0
;   startPointOriginY,150
;   sequentialIslands,0
;   spiralVaseMode,0
;   firstLayerHeightPercentage,100
;   firstLayerWidthPercentage,115
;   firstLayerUnderspeed,0.5
;   useRaft,0
;   raftExtruder,0
;   raftTopLayers,2
;   raftBaseLayers,1
;   raftOffset,1
;   raftSeparationDistance,0.14
;   raftTopInfill,90
;   aboveRaftSpeedMultiplier,0.3
;   useSkirt,0
;   skirtExtruder,0
;   skirtLayers,1
;   skirtOutlines,5
;   skirtOffset,0
;   usePrimePillar,0
;   primePillarExtruder,999
;   primePillarWidth,12
;   primePillarLocation,7
;   primePillarSpeedMultiplier,1
;   useOozeShield,0
;   oozeShieldExtruder,999
;   oozeShieldOffset,2
;   oozeShieldOutlines,1
;   oozeShieldSidewallShape,1
;   oozeShieldSidewallAngle,30
;   oozeShieldSpeedMultiplier,1
;   infillExtruder,0
;   internalInfillPattern,Rectilinear
;   externalInfillPattern,Rectilinear
;   infillPercentage,15
;   outlineOverlapPercentage,25
;   infillExtrusionWidthPercentage,100
;   minInfillLength,5
;   infillLayerInterval,1
;   internalInfillAngles,45,-45
;   overlapInternalInfillAngles,0
;   externalInfillAngles,45,-45
;   generateSupport,1
;   supportExtruder,0
;   supportInfillPercentage,30
;   supportExtraInflation,0.5
;   supportBaseLayers,0
;   denseSupportExtruder,0
;   denseSupportLayers,2
;   denseSupportInfillPercentage,90
;   supportLayerInterval,1
;   supportHorizontalPartOffset,0.3
;   supportUpperSeparationLayers,1
;   supportLowerSeparationLayers,1
;   supportType,1
;   supportGridSpacing,2
;   maxOverhangAngle,45
;   supportAngles,45,-45
;   temperatureName,Primary Extruder,Heated Build Platform
;   temperatureNumber,0,0
;   temperatureSetpointCount,1,1
;   temperatureSetpointLayers,1,1
;   temperatureSetpointTemperatures,230,60
;   temperatureStabilizeAtStartup,1,1
;   temperatureHeatedBed,0,1
;   fanLayers,1,2
;   fanSpeeds,0,100
;   blipFanToFullPower,1
;   adjustSpeedForCooling,1
;   minSpeedLayerTime,15
;   minCoolingSpeedSlowdown,20
;   increaseFanForCooling,1
;   minFanLayerTime,45
;   maxCoolingFanSpeed,100
;   increaseFanForBridging,1
;   bridgingFanSpeed,100
;   use5D,1
;   relativeEdistances,1
;   allowEaxisZeroing,0
;   independentExtruderAxes,1
;   includeM10123,0
;   stickySupport,1
;   applyToolheadOffsets,0
;   gcodeXoffset,0
;   gcodeYoffset,0
;   gcodeZoffset,0
;   overrideMachineDefinition,1
;   machineTypeOverride,0
;   strokeXoverride,280
;   strokeYoverride,150
;   strokeZoverride,150
;   originOffsetXoverride,140
;   originOffsetYoverride,75
;   originOffsetZoverride,0
;   homeXdirOverride,1
;   homeYdirOverride,1
;   homeZdirOverride,-1
;   flipXoverride,1
;   flipYoverride,-1
;   flipZoverride,1
;   toolheadOffsets,0,0|0,0|0,0|0,0|0,0|0,0
;   overrideFirmwareConfiguration,1
;   firmwareTypeOverride,MakerBot/Sailfish Firmware
;   GPXconfigOverride,r2h
;   baudRateOverride,115200
;   overridePrinterModels,1
;   printerModelsOverride,MakerBot_Replicator2.stl
;   startingGcode,; **** Replicator 2 start.gcode ****,M73 P0 ; enable build progress,G162 X Y F3000 ; home XY maximum,G161 Z F1200 ; home Z minimum,G92 Z-5 ; set Z to -5,G1 Z0 ; move Z to 0,G161 Z F100 ; home Z slowly,M132 X Y Z A B ; recall home offsets,G1 X-145 Y-75 Z30 F9000 ; move to wait position off table,G130 X20 Y20 Z20 A20 B20 ; lower stepper Vrefs while heating,M126 S[fan_speed_pwm],M140 S[bed0_temperature] T0,M134 T0 ; stabilize bed temperature,M104 S[extruder0_temperature] T0,M133 T0 ; stabilize extruder temperature,G130 X127 Y127 Z40 A127 B127 ; default stepper Vrefs,G92 A0 ; zero extruder,G1 Z0.4 ; position nozzle,G1 E25 F300 ; purge nozzle,G1 X-140 Y-70 Z0.15 F1200 ; slow wipe,G1 X-135 Y-65 Z0.5 F1200 ; lift,G92 A0 ; zero extruder,M73 P1 ;@body (notify GPX body has started),; **** end of start.gcode ****
;   layerChangeGcode,
;   retractionGcode,
;   toolChangeGcode,
;   endingGcode,; **** Replicator 2 end.gcode ****,M73 P100 ; end build progress,G1 Z155 F1000 ; send Z axis to bottom of machine,M104 S0 T0 ; cool down extruder,M140 S0 T0 ; cool down HBP,M127 ; stop blower fan,G162 X Y F3000 ; home XY maximum,M18 ; disable stepper,M0 ; stop codes,M72 P1 ; play Ta-Da song,; **** end of end.gcode ****
;   exportFileFormat,gcode
;   celebration,0
;   celebrationSong,Random Song
;   postProcessing,
;   defaultSpeed,4800
;   outlineUnderspeed,0.5
;   solidInfillUnderspeed,1
;   supportUnderspeed,1
;   rapidXYspeed,9000
;   rapidZspeed,1200
;   minBridgingArea,50
;   bridgingExtraInflation,0
;   bridgingExtrusionMultiplier,1
;   bridgingSpeedMultiplier,0.8
;   useFixedBridgingAngle,0
;   fixedBridgingAngle,0
;   applyBridgingToPerimeters,0
;   filamentDiameters,1.75|1.75|1.75|1.75|1.75|1.75
;   filamentPricesPerKg,46|46|46|46|46|46
;   filamentDensities,1.25|1.25|1.25|1.25|1.25|1.25
;   useMinPrintHeight,0
;   minPrintHeight,0
;   useMaxPrintHeight,0
;   maxPrintHeight,4.84
;   useDiaphragm,0
;   diaphragmLayerInterval,20
;   robustSlicing,1
;   mergeAllIntoSolid,0
;   onlyRetractWhenCrossingOutline,0
;   retractBetweenLayers,0
;   useRetractionMinTravel,1
;   retractionMinTravel,7
;   retractWhileWiping,1
;   onlyWipeOutlines,1
;   avoidCrossingOutline,0
;   maxMovementDetourFactor,3
;   toolChangeRetractionDistance,12
;   toolChangeExtraRestartDistance,-0.5
;   toolChangeRetractionSpeed,600
;   externalThinWallType,0
;   internalThinWallType,0
;   thinWallAllowedOverlapPercentage,10
;   singleExtrusionMinLength,1
;   singleExtrusionMinPrintingWidthPercentage,50
;   singleExtrusionMaxPrintingWidthPercentage,200
;   singleExtrusionEndpointExtension,0.2
;   horizontalSizeCompensation,0
G90
M83
; **** Replicator 2 start.gcode ****
M73 P0 ; enable build progress
G162 X Y F3000 ; home XY maximum
G161 Z F1200 ; home Z minimum
G92 Z-5 ; set Z to -5
G1 Z0 ; move Z to 0
G161 Z F100 ; home Z slowly
M132 X Y Z A B ; recall home offsets
G1 X-145 Y-75 Z30 F9000 ; move to wait position off table
G130 X20 Y20 Z20 A20 B20 ; lower stepper Vrefs while heating
M126 S128
M140 S60 T0
M134 T0 ; stabilize bed temperature
M104 S230 T0
M133 T0 ; stabilize extruder temperature
G130 X127 Y127 Z40 A127 B127 ; default stepper Vrefs
G92 A0 ; zero extruder
G1 Z0.4 ; position nozzle
G1 E25 F300 ; purge nozzle
G1 X-140 Y-70 Z0.15 F1200 ; slow wipe
G1 X-135 Y-65 Z0.5 F1200 ; lift
G92 A0 ; zero extruder
M73 P1 ;@body (notify GPX body has started)
; **** end of start.gcode ****
; process Process1
; layer 1, Z = 0.200
M135 T0
G1 E-1.9000 F1200
; feature inner perimeter
; tool H0.200 W0.460
G1 Z0.500 F1200
G1 X1.462 Y1.072 F9000
G1 Z0.200 F1200
G1 E1.9000 F1200
G1 X1.466 Y-0.250 E0.0506 F1800
G1 X3.442 Y-0.246 E0.0756
G1 X3.444 Y1.078 E0.0507
G1 X1.462 Y1.072 E0.0758
; feature outer perimeter
G1 X1.001 Y1.531 F9000
G1 X1.007 Y-0.547 E0.0795 F1200
G1 X1.034 Y-0.710 E0.0063
G1 X3.896 Y-0.706 E0.1095
G1 X3.901 Y-0.679 E0.0011
G1 X3.905 Y1.539 E0.0848
G1 X1.001 Y1.531 E0.1111
; feature solid layer
G1 X2.030 Y0.729 F9000
G1 X1.809 Y0.508 E0.0120 F2400
G1 X1.810 Y0.096 E0.0157
G1 X2.048 Y0.096 E0.0091
G1 X2.682 Y0.731 E0.0343
G1 X3.099 Y0.732 E0.0159
G1 X3.098 Y0.496 E0.0090
G1 X2.700 Y0.097 E0.0216
; feature inner perimeter
G1 X6.336 Y1.086 F9000
G1 X6.343 Y-0.240 E0.0507 F1800
G1 X8.320 Y-0.232 E0.0756
G1 X8.316 Y1.091 E0.0506
G1 X6.336 Y1.086 E0.0757
; feature outer perimeter
G1 X5.873 Y1.544 F9000
G1 X5.885 Y-0.635 E0.0834 F1200
G1 X5.897 Y-0.702 E0.0026
G1 X8.757 Y-0.690 E0.1094
G1 X8.780 Y-0.528 E0.0063
G1 X8.774 Y1.552 E0.0796
G1 X5.873 Y1.544 E0.1110
; feature solid layer
G1 X7.249 Y0.743 F9000
G1 X6.686 Y0.180 E0.0304 F2400
G1 X6.686 Y0.107 E0.0028
G1 X7.265 Y0.109 E0.0221
G1 X7.901 Y0.745 E0.0344
G1 X7.972 Y0.745 E0.0027
G1 X7.973 Y0.167 E0.0221
G1 X7.918 Y0.111 E0.0030
; feature inner perimeter
G1 X11.148 Y1.099 F9000
G1 X11.152 Y-0.226 E0.0507 F1800
G1 X13.207 Y-0.227 E0.0786
G1 X13.204 Y1.105 E0.0510
G1 X11.148 Y1.099 E0.0787
; feature outer perimeter
G1 X10.687 Y1.558 F9000
G1 X10.692 Y-0.522 E0.0796 F1200
G1 X10.717 Y-0.685 E0.0063
G1 X13.624 Y-0.688 E0.1112
G1 X13.641 Y-0.649 E0.0016
G1 X13.668 Y-0.516 E0.0052
G1 X13.663 Y1.566 E0.0796
G1 X10.687 Y1.558 E0.1138
; feature solid layer
G1 X11.815 Y0.756 F9000
G1 X11.495 Y0.436 E0.0173 F2400
G1 X11.496 Y0.119 E0.0121
G1 X11.829 Y0.119 E0.0127
G1 X12.467 Y0.758 E0.0346
G1 X12.860 Y0.759 E0.0150
G1 X12.861 Y0.500 E0.0099
G1 X12.478 Y0.118 E0.0207
; feature inner perimeter
G1 X16.815 Y1.115 F9000
G1 X16.823 Y-0.221 E0.0511 F1800
G1 X18.786 Y-0.213 E0.0751
G1 X18.786 Y1.120 E0.0510
G1 X16.815 Y1.115 E0.0754
; feature outer perimeter
G1 X16.352 Y1.573 F9000
G1 X16.365 Y-0.608 E0.0834 F1200
G1 X16.381 Y-0.683 E0.0029
G1 X19.230 Y-0.671 E0.1090
G1 X19.246 Y-0.592 E0.0031
G1 X19.246 Y1.581 E0.0831
G1 X16.352 Y1.573 E0.1107
; feature solid layer
G1 X17.686 Y0.772 F9000
G1 X17.165 Y0.251 E0.0282 F2400
G1 X17.166 Y0.125 E0.0048
G1 X17.692 Y0.128 E0.0201
G1 X18.338 Y0.774 E0.0350
G1 X18.441 Y0.774 E0.0039
G1 X18.441 Y0.226 E0.0210
G1 X18.345 Y0.130 E0.0052
; feature inner perimeter
G1 X21.659 Y1.128 F9000
G1 X21.664 Y-0.197 E0.0507 F1800
G1 X23.719 Y-0.204 E0.0786
G1 X23.715 Y1.134 E0.0512
G1 X21.659 Y1.128 E0.0787
; feature outer perimeter
G1 X21.197 Y1.587 F9000
G1 X21.206 Y-0.553 E0.0819 F1200
G1 X21.224 Y-0.656 E0.0040
G1 X24.127 Y-0.666 E0.1110
G1 X24.134 Y-0.654 E0.0005
G1 X24.180 Y-0.473 E0.0072
G1 X24.174 Y1.595 E0.0791
G1 X21.197 Y1.587 E0.1139
; feature solid layer
G1 X22.252 Y0.785 F9000
G1 X22.006 Y0.538 E0.0133 F2400
G1 X22.008 Y0.147 E0.0150
G1 X22.264 Y0.146 E0.0098
G1 X22.905 Y0.786 E0.0347
G1 X23.371 Y0.788 E0.0178
G1 X23.372 Y0.603 E0.0071
G1 X22.912 Y0.144 E0.0248
; feature inner perimeter
G1 X27.277 Y1.143 F9000
G1 X27.281 Y-0.199 E0.0514 F1800
G1 X29.276 Y-0.192 E0.0763
G1 X29.272 Y1.149 E0.0513
G1 X27.277 Y1.143 E0.0763
; feature outer perimeter
G1 X26.816 Y1.602 F9000
G1 X26.821 Y-0.477 E0.0795 F1200
G1 X26.850 Y-0.661 E0.0071
G1 X29.720 Y-0.650 E0.1098
G1 X29.737 Y-0.474 E0.0068
G1 X29.731 Y1.610 E0.0797
G1 X26.816 Y1.602 E0.1115
; feature solid layer
G1 X28.123 Y0.801 F9000
G1 X27.624 Y0.302 E0.0270 F2400
G1 X27.625 Y0.147 E0.0059
G1 X28.122 Y0.149 E0.0190
G1 X28.776 Y0.803 E0.0354
G1 X28.928 Y0.803 E0.0058
G1 X28.929 Y0.306 E0.0190
G1 X28.775 Y0.151 E0.0083
; feature inner perimeter
G1 X32.153 Y1.157 F9000
G1 X32.160 Y-0.181 E0.0512 F1800
G1 X34.159 Y-0.188 E0.0765
G1 X34.155 Y1.162 E0.0516
G1 X32.153 Y1.157 E0.0766
; feature outer perimeter
G1 X31.690 Y1.616 F9000
G1 X31.702 Y-0.560 E0.0832 F1200
G1 X31.716 Y-0.639 E0.0031
G1 X34.589 Y-0.649 E0.1099
G1 X34.620 Y-0.454 E0.0076
G1 X34.614 Y1.624 E0.0795
G1 X31.690 Y1.616 E0.1118
; feature solid layer
G1 X32.690 Y0.813 F9000
G1 X32.501 Y0.624 E0.0102 F2400
G1 X32.503 Y0.163 E0.0176
G1 X32.689 Y0.162 E0.0071
G1 X33.342 Y0.815 E0.0353
G1 X33.811 Y0.817 E0.0179
G1 X33.812 Y0.634 E0.0070
G1 X33.338 Y0.160 E0.0256
; feature inner perimeter
G1 X37.505 Y1.172 F9000
G1 X37.508 Y-0.180 E0.0517 F1800
G1 X39.246 Y-0.177 E0.0665
G1 X39.242 Y1.177 E0.0518
G1 X37.505 Y1.172 E0.0664
; feature outer perimeter
G1 X37.043 Y1.630 F9000
G1 X37.049 Y-0.405 E0.0778 F1200
G1 X37.133 Y-0.550 E0.0064
G1 X37.251 Y-0.641 E0.0057
G1 X39.526 Y-0.636 E0.0870
G1 X39.623 Y-0.550 E0.0050
G1 X39.706 Y-0.399 E0.0066
G1 X39.700 Y1.638 E0.0779
G1 X37.043 Y1.630 E0.1016
; feature solid layer
G1 X37.909 Y0.828 F9000
G1 X37.851 Y0.770 E0.0031 F2400
G1 X37.852 Y0.165 E0.0231
G1 X37.897 Y0.165 E0.0017
G1 X38.561 Y0.830 E0.0359
G1 X38.898 Y0.831 E0.0129
G1 X38.899 Y0.517 E0.0120
G1 X38.548 Y0.167 E0.0190
; feature inner perimeter
G1 X42.524 Y1.186 F9000
G1 X42.528 Y-0.171 E0.0519 F1800
G1 X44.610 Y-0.171 E0.0797
G1 X44.606 Y1.191 E0.0521
G1 X42.524 Y1.186 E0.0796
; feature outer perimeter
G1 X42.063 Y1.644 F9000
G1 X42.068 Y-0.421 E0.0790 F1200
G1 X42.117 Y-0.596 E0.0069
G1 X42.140 Y-0.632 E0.0016
G1 X45.053 Y-0.631 E0.1114
G1 X45.071 Y-0.432 E0.0076
G1 X45.065 Y1.653 E0.0797
G1 X42.063 Y1.644 E0.1148
; feature solid layer
G1 X43.127 Y0.842 F9000
G1 X42.871 Y0.586 E0.0139 F2400
G1 X42.872 Y0.174 E0.0158
G1 X43.109 Y0.174 E0.0091
G1 X43.780 Y0.844 E0.0363
G1 X44.262 Y0.845 E0.0185
G1 X44.263 Y0.677 E0.0065
G1 X43.760 Y0.174 E0.0272
; feature inner perimeter
G1 X47.478 Y1.199 F9000
G1 X47.481 Y-0.165 E0.0522 F1800
G1 X49.561 Y-0.158 E0.0795
G1 X49.557 Y1.205 E0.0521
G1 X47.478 Y1.199 E0.0795
; feature outer perimeter
G1 X47.016 Y1.658 F9000
G1 X47.022 Y-0.427 E0.0798 F1200
G1 X47.036 Y-0.594 E0.0064
G1 X47.043 Y-0.627 E0.0013
G1 X49.951 Y-0.616 E0.1113
G1 X49.976 Y-0.576 E0.0018
G1 X50.021 Y-0.400 E0.0070
G1 X50.015 Y1.666 E0.0790
G1 X47.016 Y1.658 E0.1147
; feature solid layer
G1 X48.346 Y0.857 F9000
G1 X47.825 Y0.336 E0.0282 F2400
G1 X47.825 Y0.181 E0.0059
G1 X48.323 Y0.183 E0.0190
G1 X48.998 Y0.858 E0.0366
G1 X49.213 Y0.859 E0.0082
G1 X49.214 Y0.424 E0.0167
G1 X48.975 Y0.185 E0.0129
; feature inner perimeter
G1 X52.955 Y1.214 F9000
G1 X52.958 Y-0.149 E0.0521 F1800
G1 X55.092 Y-0.139 E0.0816
G1 X55.088 Y1.220 E0.0520
G1 X52.955 Y1.214 E0.0816
; feature outer perimeter
G1 X52.494 Y1.673 F9000
G1 X52.499 Y-0.385 E0.0787 F1200
G1 X52.557 Y-0.553 E0.0068
G1 X52.599 Y-0.611 E0.0027
G1 X55.534 Y-0.597 E0.1123
G1 X55.552 Y-0.407 E0.0073
G1 X55.547 Y1.681 E0.0799
G1 X52.494 Y1.673 E0.1168
; feature solid layer
G1 X53.565 Y0.871 F9000
G1 X53.302 Y0.608 E0.0142 F2400
G1 X53.303 Y0.198 E0.0157
G1 X53.543 Y0.199 E0.0092
G1 X54.217 Y0.873 E0.0365
G1 X54.744 Y0.874 E0.0202
G1 X54.744 Y0.750 E0.0048
G1 X54.197 Y0.202 E0.0296
; feature inner perimeter
G1 X57.950 Y1.228 F9000
G1 X57.953 Y-0.138 E0.0522 F1800
G1 X59.947 Y-0.141 E0.0763
G1 X59.943 Y1.234 E0.0526
G1 X57.950 Y1.228 E0.0763
; feature outer perimeter
G1 X57.488 Y1.687 F9000
G1 X57.494 Y-0.396 E0.0797 F1200
G1 X57.526 Y-0.597 E0.0078
G1 X60.360 Y-0.602 E0.1084
G1 X60.374 Y-0.568 E0.0014
G1 X60.408 Y-0.376 E0.0074
G1 X60.402 Y1.695 E0.0792
G1 X57.488 Y1.687 E0.1114
; feature solid layer
G1 X58.783 Y0.885 F9000
G1 X58.297 Y0.399 E0.0263 F2400
G1 X58.297 Y0.207 E0.0073
G1 X58.754 Y0.206 E0.0175
G1 X59.436 Y0.887 E0.0368
G1 X59.599 Y0.888 E0.0063
G1 X59.601 Y0.402 E0.0186
G1 X59.404 Y0.205 E0.0107
; feature inner perimeter
G1 X63.349 Y1.243 F9000
G1 X63.359 Y-0.133 E0.0526 F1800
G1 X65.438 Y-0.124 E0.0795
G1 X65.434 Y1.249 E0.0525
G1 X63.349 Y1.243 E0.0798
; feature outer perimeter
G1 X62.886 Y1.702 F9000
G1 X62.902 Y-0.468 E0.0830 F1200
G1 X62.933 Y-0.595 E0.0050
G1 X65.881 Y-0.582 E0.1128
G1 X65.883 Y-0.570 E0.0005
G1 X65.899 Y-0.378 E0.0074
G1 X65.893 Y1.710 E0.0799
G1 X62.886 Y1.702 E0.1150
; feature solid layer
G1 X64.002 Y0.900 F9000
G1 X63.699 Y0.597 E0.0164 F2400
G1 X63.702 Y0.214 E0.0147
G1 X63.968 Y0.215 E0.0102
G1 X64.654 Y0.902 E0.0371
G1 X65.090 Y0.903 E0.0167
G1 X65.091 Y0.687 E0.0082
G1 X64.621 Y0.218 E0.0254
; feature inner perimeter
G1 X68.239 Y1.256 F9000
G1 X68.242 Y-0.036 E0.0494 F1800
G1 X68.243 Y-0.076 E0.0015
G1 X69.527 Y-0.013 E0.0492
G1 X69.529 Y0.443 E0.0174
G1 X69.517 Y1.260 E0.0313
G1 X68.239 Y1.256 E0.0489
; feature outer perimeter
G1 X67.778 Y1.715 F9000
G1 X67.782 Y-0.043 E0.0672 F1200
G1 X67.796 Y-0.513 E0.0180
G1 X67.806 Y-0.558 E0.0017
G1 X69.751 Y-0.463 E0.0745
