; G-Code generated by Simplify3D(R) Version 4.1.2
; Apr 2, 2020 at 1:00:43 PM
; Settings Summary
;   processName,Process1
;   applyToModels,signBracket
;   profileName,MakerBot Replicator 2 HBP (modified)
;   profileVersion,2020-03-12 10:48:50
;   baseProfile,MakerBot Replicator 2(2)
;   printMaterial,PLA
;   printQuality,Medium
;   printExtruders,
;   extruderName,Primary Extruder
;   extruderToolheadNumber,0
;   extruderDiameter,0.4
;   extruderAutoWidth,0
;   extruderWidth,0.4
;   extrusionMultiplier,1
;   extruderUseRetract,1
;   extruderRetractionDistance,1.9
;   extruderExtraRestartDistance,0
;   extruderRetractionZLift,0.5
;   extruderRetractionSpeed,1200
;   extruderUseCoasting,0
;   extruderCoastingDistance,0.2
;   extruderUseWipe,0
;   extruderWipeDistance,5
;   primaryExtruder,0
;   layerHeight,0.2
;   topSolidLayers,3
;   bottomSolidLayers,3
;   perimeterOutlines,2
;   printPerimetersInsideOut,1
;   startPointOption,3
;   startPointOriginX,0
;   startPointOriginY,150
;   sequentialIslands,0
;   spiralVaseMode,0
;   firstLayerHeightPercentage,100
;   firstLayerWidthPercentage,115
;   firstLayerUnderspeed,0.5
;   useRaft,0
;   raftExtruder,0
;   raftTopLayers,2
;   raftBaseLayers,1
;   raftOffset,1
;   raftSeparationDistance,0.14
;   raftTopInfill,90
;   aboveRaftSpeedMultiplier,0.3
;   useSkirt,0
;   skirtExtruder,0
;   skirtLayers,1
;   skirtOutlines,5
;   skirtOffset,0
;   usePrimePillar,0
;   primePillarExtruder,999
;   primePillarWidth,12
;   primePillarLocation,7
;   primePillarSpeedMultiplier,1
;   useOozeShield,0
;   oozeShieldExtruder,999
;   oozeShieldOffset,2
;   oozeShieldOutlines,1
;   oozeShieldSidewallShape,1
;   oozeShieldSidewallAngle,30
;   oozeShieldSpeedMultiplier,1
;   infillExtruder,0
;   internalInfillPattern,Rectilinear
;   externalInfillPattern,Rectilinear
;   infillPercentage,15
;   outlineOverlapPercentage,25
;   infillExtrusionWidthPercentage,100
;   minInfillLength,5
;   infillLayerInterval,1
;   internalInfillAngles,45,-45
;   overlapInternalInfillAngles,0
;   externalInfillAngles,45,-45
;   generateSupport,1
;   supportExtruder,0
;   supportInfillPercentage,30
;   supportExtraInflation,0.5
;   supportBaseLayers,0
;   denseSupportExtruder,0
;   denseSupportLayers,2
;   denseSupportInfillPercentage,90
;   supportLayerInterval,1
;   supportHorizontalPartOffset,0.3
;   supportUpperSeparationLayers,1
;   supportLowerSeparationLayers,1
;   supportType,1
;   supportGridSpacing,2
;   maxOverhangAngle,45
;   supportAngles,45,-45
;   temperatureName,Primary Extruder,Heated Build Platform
;   temperatureNumber,0,0
;   temperatureSetpointCount,1,1
;   temperatureSetpointLayers,1,1
;   temperatureSetpointTemperatures,230,60
;   temperatureStabilizeAtStartup,1,1
;   temperatureHeatedBed,0,1
;   fanLayers,1,2
;   fanSpeeds,0,100
;   blipFanToFullPower,1
;   adjustSpeedForCooling,1
;   minSpeedLayerTime,15
;   minCoolingSpeedSlowdown,20
;   increaseFanForCooling,1
;   minFanLayerTime,45
;   maxCoolingFanSpeed,100
;   increaseFanForBridging,1
;   bridgingFanSpeed,100
;   use5D,1
;   relativeEdistances,1
;   allowEaxisZeroing,0
;   independentExtruderAxes,1
;   includeM10123,0
;   stickySupport,1
;   applyToolheadOffsets,0
;   gcodeXoffset,0
;   gcodeYoffset,0
;   gcodeZoffset,0
;   overrideMachineDefinition,1
;   machineTypeOverride,0
;   strokeXoverride,280
;   strokeYoverride,150
;   strokeZoverride,150
;   originOffsetXoverride,140
;   originOffsetYoverride,75
;   originOffsetZoverride,0
;   homeXdirOverride,1
;   homeYdirOverride,1
;   homeZdirOverride,-1
;   flipXoverride,1
;   flipYoverride,-1
;   flipZoverride,1
;   toolheadOffsets,0,0|0,0|0,0|0,0|0,0|0,0
;   overrideFirmwareConfiguration,1
;   firmwareTypeOverride,MakerBot/Sailfish Firmware
;   GPXconfigOverride,r2h
;   baudRateOverride,115200
;   overridePrinterModels,1
;   printerModelsOverride,MakerBot_Replicator2.stl
;   startingGcode,; **** Replicator 2 start.gcode ****,M73 P0 ; enable build progress,G162 X Y F3000 ; home XY maximum,G161 Z F1200 ; home Z minimum,G92 Z-5 ; set Z to -5,G1 Z0 ; move Z to 0,G161 Z F100 ; home Z slowly,M132 X Y Z A B ; recall home offsets,G1 X-145 Y-75 Z30 F9000 ; move to wait position off table,G130 X20 Y20 Z20 A20 B20 ; lower stepper Vrefs while heating,M126 S[fan_speed_pwm],M140 S[bed0_temperature] T0,M134 T0 ; stabilize bed temperature,M104 S[extruder0_temperature] T0,M133 T0 ; stabilize extruder temperature,G130 X127 Y127 Z40 A127 B127 ; default stepper Vrefs,G92 A0 ; zero extruder,G1 Z0.4 ; position nozzle,G1 E25 F300 ; purge nozzle,G1 X-140 Y-70 Z0.15 F1200 ; slow wipe,G1 X-135 Y-65 Z0.5 F1200 ; lift,G92 A0 ; zero extruder,M73 P1 ;@body (notify GPX body has started),; **** end of start.gcode ****
;   layerChangeGcode,
;   retractionGcode,
;   toolChangeGcode,
;   endingGcode,; **** Replicator 2 end.gcode ****,M73 P100 ; end build progress,G1 Z155 F1000 ; send Z axis to bottom of machine,M104 S0 T0 ; cool down extruder,M140 S0 T0 ; cool down HBP,M127 ; stop blower fan,G162 X Y F3000 ; home XY maximum,M18 ; disable stepper,M0 ; stop codes,M72 P1 ; play Ta-Da song,; **** end of end.gcode ****
;   exportFileFormat,gcode
;   celebration,0
;   celebrationSong,Random Song
;   postProcessing,
;   defaultSpeed,4800
;   outlineUnderspeed,0.5
;   solidInfillUnderspeed,1
;   supportUnderspeed,1
;   rapidXYspeed,9000
;   rapidZspeed,1200
;   minBridgingArea,50
;   bridgingExtraInflation,0
;   bridgingExtrusionMultiplier,1
;   bridgingSpeedMultiplier,0.8
;   useFixedBridgingAngle,0
;   fixedBridgingAngle,0
;   applyBridgingToPerimeters,0
;   filamentDiameters,1.75|1.75|1.75|1.75|1.75|1.75
;   filamentPricesPerKg,46|46|46|46|46|46
;   filamentDensities,1.25|1.25|1.25|1.25|1.25|1.25
;   useMinPrintHeight,0
;   minPrintHeight,0
;   useMaxPrintHeight,0
;   maxPrintHeight,4.84
;   useDiaphragm,0
;   diaphragmLayerInterval,20
;   robustSlicing,1
;   mergeAllIntoSolid,0
;   onlyRetractWhenCrossingOutline,0
;   retractBetweenLayers,0
;   useRetractionMinTravel,1
;   retractionMinTravel,7
;   retractWhileWiping,1
;   onlyWipeOutlines,1
;   avoidCrossingOutline,0
;   maxMovementDetourFactor,3
;   toolChangeRetractionDistance,12
;   toolChangeExtraRestartDistance,-0.5
;   toolChangeRetractionSpeed,600
;   externalThinWallType,0
;   internalThinWallType,0
;   thinWallAllowedOverlapPercentage,10
;   singleExtrusionMinLength,1
;   singleExtrusionMinPrintingWidthPercentage,50
;   singleExtrusionMaxPrintingWidthPercentage,200
;   singleExtrusionEndpointExtension,0.2
;   horizontalSizeCompensation,0
G90
M83
; **** Replicator 2 start.gcode ****
M73 P0 ; enable build progress
G162 X Y F3000 ; home XY maximum
G161 Z F1200 ; home Z minimum
G92 Z-5 ; set Z to -5
G1 Z0 ; move Z to 0
G161 Z F100 ; home Z slowly
M132 X Y Z A B ; recall home offsets
G1 X-145 Y-75 Z30 F9000 ; move to wait position off table
G130 X20 Y20 Z20 A20 B20 ; lower stepper Vrefs while heating
M126 S170
M140 S60 T0
M134 T0 ; stabilize bed temperature
M104 S230 T0
M133 T0 ; stabilize extruder temperature
G130 X127 Y127 Z40 A127 B127 ; default stepper Vrefs
G92 A0 ; zero extruder
G1 Z0.4 ; position nozzle
G1 E25 F300 ; purge nozzle
G1 X-140 Y-70 Z0.15 F1200 ; slow wipe
G1 X-135 Y-65 Z0.5 F1200 ; lift
G92 A0 ; zero extruder
M73 P1 ;@body (notify GPX body has started)
; **** end of start.gcode ****
; process Process1
; layer 1, Z = 0.200
M135 T0
G1 E-1.9000 F1200
; feature inner perimeter
; tool H0.200 W0.460
G1 Z0.500 F1200
G1 X10.560 Y10.560 F9000
G1 Z0.200 F1200
G1 E1.9000 F1200
G1 X-10.560 Y10.560 E0.8078 F1101
G1 X-10.560 Y9.440 E0.0428
G1 X9.440 Y9.440 E0.7650
G1 X9.440 Y-10.560 E0.7650
G1 X10.560 Y-10.560 E0.0428
G1 X10.560 Y10.560 E0.8078
; feature outer perimeter
G1 X11.020 Y11.020 F9000
G1 X-11.020 Y11.020 E0.8430 F734
G1 X-11.020 Y8.980 E0.0780
G1 X8.980 Y8.980 E0.7650
G1 X8.980 Y-11.020 E0.7650
G1 X11.020 Y-11.020 E0.0780
G1 X11.020 Y11.020 E0.8430
G1 E-1.9000 F1200
; feature solid layer
G1 Z0.700 F1200
G1 X-9.952 Y10.215 F9000
G1 Z0.200 F1200
G1 E1.9000 F1200
G1 X-10.215 Y9.952 E0.0142 F1468
G1 X-10.215 Y9.785 E0.0064
G1 X-9.731 Y9.785 E0.0185
G1 X-9.301 Y10.215 E0.0233
G1 X-8.651 Y10.215 E0.0249
G1 X-9.081 Y9.785 E0.0233
G1 X-8.430 Y9.785 E0.0249
G1 X-8.000 Y10.215 E0.0233
G1 X-7.350 Y10.215 E0.0249
G1 X-7.780 Y9.785 E0.0233
G1 X-7.129 Y9.785 E0.0249
G1 X-6.699 Y10.215 E0.0233
G1 X-6.048 Y10.215 E0.0249
G1 X-6.478 Y9.785 E0.0233
G1 X-5.828 Y9.785 E0.0249
G1 X-5.398 Y10.215 E0.0233
G1 X-4.747 Y10.215 E0.0249
G1 X-5.177 Y9.785 E0.0233
G1 X-4.527 Y9.785 E0.0249
G1 X-4.097 Y10.215 E0.0233
G1 X-3.446 Y10.215 E0.0249
G1 X-3.876 Y9.785 E0.0233
G1 X-3.226 Y9.785 E0.0249
G1 X-2.796 Y10.215 E0.0233
G1 X-2.145 Y10.215 E0.0249
G1 X-2.575 Y9.785 E0.0233
G1 X-1.925 Y9.785 E0.0249
G1 X-1.495 Y10.215 E0.0233
G1 X-0.844 Y10.215 E0.0249
G1 X-1.274 Y9.785 E0.0233
G1 X-0.624 Y9.785 E0.0249
G1 X-0.194 Y10.215 E0.0233
G1 X0.457 Y10.215 E0.0249
G1 X0.027 Y9.785 E0.0233
G1 X0.677 Y9.785 E0.0249
G1 X1.107 Y10.215 E0.0233
G1 X1.758 Y10.215 E0.0249
G1 X1.328 Y9.785 E0.0233
G1 X1.979 Y9.785 E0.0249
G1 X2.409 Y10.215 E0.0233
G1 X3.059 Y10.215 E0.0249
G1 X2.629 Y9.785 E0.0233
G1 X3.280 Y9.785 E0.0249
G1 X3.710 Y10.215 E0.0233
G1 X4.360 Y10.215 E0.0249
G1 X3.930 Y9.785 E0.0233
G1 X4.581 Y9.785 E0.0249
G1 X5.011 Y10.215 E0.0233
G1 X5.661 Y10.215 E0.0249
G1 X5.231 Y9.785 E0.0233
G1 X5.882 Y9.785 E0.0249
G1 X6.312 Y10.215 E0.0233
G1 X6.962 Y10.215 E0.0249
G1 X6.532 Y9.785 E0.0233
G1 X7.183 Y9.785 E0.0249
G1 X7.613 Y10.215 E0.0233
G1 X8.263 Y10.215 E0.0249
G1 X7.833 Y9.785 E0.0233
G1 X8.484 Y9.785 E0.0249
G1 X8.914 Y10.215 E0.0233
G1 X9.564 Y10.215 E0.0249
G1 X9.134 Y9.785 E0.0233
G1 X9.785 Y9.785 E0.0249
G1 X10.215 Y10.215 E0.0233
G1 X10.215 Y9.564 E0.0249
G1 X9.785 Y9.135 E0.0232
G1 X9.785 Y8.484 E0.0249
G1 X10.215 Y8.914 E0.0232
G1 X10.215 Y8.263 E0.0249
G1 X9.785 Y7.834 E0.0232
G1 X9.785 Y7.183 E0.0249
G1 X10.215 Y7.613 E0.0232
G1 X10.215 Y6.962 E0.0249
G1 X9.785 Y6.533 E0.0232
G1 X9.785 Y5.882 E0.0249
G1 X10.215 Y6.312 E0.0232
G1 X10.215 Y5.661 E0.0249
G1 X9.785 Y5.231 E0.0232
G1 X9.785 Y4.581 E0.0249
G1 X10.215 Y5.011 E0.0232
G1 X10.215 Y4.360 E0.0249
G1 X9.785 Y3.930 E0.0232
G1 X9.785 Y3.280 E0.0249
G1 X10.215 Y3.709 E0.0232
G1 X10.215 Y3.059 E0.0249
G1 X9.785 Y2.629 E0.0232
G1 X9.785 Y1.979 E0.0249
G1 X10.215 Y2.408 E0.0232
G1 X10.215 Y1.758 E0.0249
G1 X9.785 Y1.328 E0.0232
G1 X9.785 Y0.678 E0.0249
G1 X10.215 Y1.107 E0.0232
G1 X10.215 Y0.457 E0.0249
G1 X9.785 Y0.027 E0.0232
G1 X9.785 Y-0.623 E0.0249
G1 X10.215 Y-0.194 E0.0232
G1 X10.215 Y-0.844 E0.0249
G1 X9.785 Y-1.274 E0.0232
G1 X9.785 Y-1.924 E0.0249
G1 X10.215 Y-1.495 E0.0232
G1 X10.215 Y-2.145 E0.0249
G1 X9.785 Y-2.575 E0.0232
G1 X9.785 Y-3.226 E0.0249
G1 X10.215 Y-2.796 E0.0232
G1 X10.215 Y-3.446 E0.0249
G1 X9.785 Y-3.876 E0.0232
G1 X9.785 Y-4.527 E0.0249
G1 X10.215 Y-4.097 E0.0232
G1 X10.215 Y-4.748 E0.0249
G1 X9.785 Y-5.177 E0.0232
G1 X9.785 Y-5.828 E0.0249
G1 X10.215 Y-5.398 E0.0232
G1 X10.215 Y-6.049 E0.0249
G1 X9.785 Y-6.478 E0.0232
G1 X9.785 Y-7.129 E0.0249
G1 X10.215 Y-6.699 E0.0232
G1 X10.215 Y-7.350 E0.0249
G1 X9.785 Y-7.779 E0.0232
G1 X9.785 Y-8.430 E0.0249
G1 X10.215 Y-8.000 E0.0232
G1 X10.215 Y-8.651 E0.0249
G1 X9.785 Y-9.080 E0.0232
G1 X9.785 Y-9.731 E0.0249
G1 X10.215 Y-9.301 E0.0232
G1 X10.215 Y-9.952 E0.0249
G1 X9.952 Y-10.215 E0.0142
G1 E-1.9000 F1200
; layer 2, Z = 0.400
M126 S255
; feature inner perimeter
; tool H0.200 W0.400
G1 Z0.700 F1200
G1 X10.650 Y10.650 F9000
G1 Z0.400 F1200
G1 E1.9000 F1200
G1 X-10.650 Y10.650 E0.7084 F1208
G1 X-10.650 Y9.350 E0.0432
G1 X9.350 Y9.350 E0.6652
G1 X9.350 Y-10.650 E0.6652
G1 X10.650 Y-10.650 E0.0432
G1 X10.650 Y10.650 E0.7084
; feature outer perimeter
G1 X11.050 Y11.050 F9000
G1 X-11.050 Y11.050 E0.7350 F805
G1 X-11.050 Y8.950 E0.0698
G1 X8.950 Y8.950 E0.6652
G1 X8.950 Y-11.050 E0.6652
G1 X11.050 Y-11.050 E0.0698
G1 X11.050 Y11.050 E0.7350
; feature solid layer
G1 X10.015 Y10.350 F9000
G1 X10.350 Y10.015 E0.0158 F1610
G1 X10.350 Y9.449 E0.0188
G1 X9.449 Y10.350 E0.0424
G1 X8.883 Y10.350 E0.0188
G1 X9.583 Y9.650 E0.0329
G1 X9.018 Y9.650 E0.0188
G1 X8.318 Y10.350 E0.0329
G1 X7.752 Y10.350 E0.0188
G1 X8.452 Y9.650 E0.0329
G1 X7.886 Y9.650 E0.0188
G1 X7.186 Y10.350 E0.0329
G1 X6.621 Y10.350 E0.0188
G1 X7.321 Y9.650 E0.0329
G1 X6.755 Y9.650 E0.0188
G1 X6.055 Y10.350 E0.0329
G1 X5.489 Y10.350 E0.0188
G1 X6.189 Y9.650 E0.0329
G1 X5.624 Y9.650 E0.0188
G1 X4.924 Y10.350 E0.0329
G1 X4.358 Y10.350 E0.0188
G1 X5.058 Y9.650 E0.0329
G1 X4.492 Y9.650 E0.0188
G1 X3.792 Y10.350 E0.0329
G1 X3.227 Y10.350 E0.0188
G1 X3.927 Y9.650 E0.0329
G1 X3.361 Y9.650 E0.0188
G1 X2.661 Y10.350 E0.0329
G1 X2.095 Y10.350 E0.0188
G1 X2.795 Y9.650 E0.0329
G1 X2.229 Y9.650 E0.0188
G1 X1.529 Y10.350 E0.0329
G1 X0.964 Y10.350 E0.0188
G1 X1.664 Y9.650 E0.0329
G1 X1.098 Y9.650 E0.0188
G1 X0.398 Y10.350 E0.0329
G1 X-0.168 Y10.350 E0.0188
G1 X0.532 Y9.650 E0.0329
G1 X-0.033 Y9.650 E0.0188
G1 X-0.733 Y10.350 E0.0329
G1 X-1.299 Y10.350 E0.0188
G1 X-0.599 Y9.650 E0.0329
G1 X-1.165 Y9.650 E0.0188
G1 X-1.865 Y10.350 E0.0329
G1 X-2.430 Y10.350 E0.0188
G1 X-1.730 Y9.650 E0.0329
G1 X-2.296 Y9.650 E0.0188
G1 X-2.996 Y10.350 E0.0329
G1 X-3.562 Y10.350 E0.0188
G1 X-2.862 Y9.650 E0.0329
G1 X-3.427 Y9.650 E0.0188
G1 X-4.127 Y10.350 E0.0329
G1 X-4.693 Y10.350 E0.0188
G1 X-3.993 Y9.650 E0.0329
G1 X-4.559 Y9.650 E0.0188
G1 X-5.259 Y10.350 E0.0329
G1 X-5.824 Y10.350 E0.0188
G1 X-5.124 Y9.650 E0.0329
G1 X-5.690 Y9.650 E0.0188
G1 X-6.390 Y10.350 E0.0329
G1 X-6.956 Y10.350 E0.0188
G1 X-6.256 Y9.650 E0.0329
G1 X-6.821 Y9.650 E0.0188
G1 X-7.521 Y10.350 E0.0329
G1 X-8.087 Y10.350 E0.0188
G1 X-7.387 Y9.650 E0.0329
G1 X-7.953 Y9.650 E0.0188
G1 X-8.653 Y10.350 E0.0329
G1 X-9.219 Y10.350 E0.0188
G1 X-8.519 Y9.650 E0.0329
G1 X-9.084 Y9.650 E0.0188
G1 X-9.784 Y10.350 E0.0329
G1 X-10.350 Y10.350 E0.0188
G1 X-9.650 Y9.650 E0.0329
G1 X-10.216 Y9.650 E0.0188
G1 X-10.350 Y9.784 E0.0063
G1 E-1.9000 F1200
G1 Z0.900 F1200
G1 X9.650 Y9.583 F9000
G1 Z0.400 F1200
G1 E1.9000 F1200
G1 X10.350 Y8.883 E0.0329 F1610
G1 X10.350 Y8.318 E0.0188
G1 X9.650 Y9.017 E0.0329
G1 X9.650 Y8.452 E0.0188
G1 X10.350 Y7.752 E0.0329
G1 X10.350 Y7.186 E0.0188
G1 X9.650 Y7.886 E0.0329
G1 X9.650 Y7.320 E0.0188
G1 X10.350 Y6.621 E0.0329
G1 X10.350 Y6.055 E0.0188
G1 X9.650 Y6.755 E0.0329
G1 X9.650 Y6.189 E0.0188
G1 X10.350 Y5.489 E0.0329
G1 X10.350 Y4.924 E0.0188
G1 X9.650 Y5.623 E0.0329
G1 X9.650 Y5.058 E0.0188
G1 X10.350 Y4.358 E0.0329
G1 X10.350 Y3.792 E0.0188
G1 X9.650 Y4.492 E0.0329
G1 X9.650 Y3.926 E0.0188
G1 X10.350 Y3.227 E0.0329
G1 X10.350 Y2.661 E0.0188
G1 X9.650 Y3.361 E0.0329
G1 X9.650 Y2.795 E0.0188
G1 X10.350 Y2.095 E0.0329
G1 X10.350 Y1.530 E0.0188
G1 X9.650 Y2.229 E0.0329
G1 X9.650 Y1.663 E0.0188
G1 X10.350 Y0.964 E0.0329
G1 X10.350 Y0.398 E0.0188
G1 X9.650 Y1.098 E0.0329
G1 X9.650 Y0.532 E0.0188
G1 X10.350 Y-0.167 E0.0329
G1 X10.350 Y-0.733 E0.0188
G1 X9.650 Y-0.034 E0.0329
G1 X9.650 Y-0.599 E0.0188
G1 X10.350 Y-1.299 E0.0329
G1 X10.350 Y-1.865 E0.0188
G1 X9.650 Y-1.165 E0.0329
G1 X9.650 Y-1.731 E0.0188
G1 X10.350 Y-2.430 E0.0329
G1 X10.350 Y-2.996 E0.0188
G1 X9.650 Y-2.296 E0.0329
G1 X9.650 Y-2.862 E0.0188
G1 X10.350 Y-3.562 E0.0329
G1 X10.350 Y-4.127 E0.0188
G1 X9.650 Y-3.428 E0.0329
G1 X9.650 Y-3.993 E0.0188
G1 X10.350 Y-4.693 E0.0329
G1 X10.350 Y-5.259 E0.0188
G1 X9.650 Y-4.559 E0.0329
G1 X9.650 Y-5.125 E0.0188
G1 X10.350 Y-5.824 E0.0329
G1 X10.350 Y-6.390 E0.0188
G1 X9.650 Y-5.690 E0.0329
G1 X9.650 Y-6.256 E0.0188
G1 X10.350 Y-6.956 E0.0329
G1 X10.350 Y-7.521 E0.0188
G1 X9.650 Y-6.822 E0.0329
G1 X9.650 Y-7.387 E0.0188
G1 X10.350 Y-8.087 E0.0329
G1 X10.350 Y-8.653 E0.0188
G1 X9.650 Y-7.953 E0.0329
G1 X9.650 Y-8.519 E0.0188
G1 X10.350 Y-9.218 E0.0329
G1 X10.350 Y-9.784 E0.0188
G1 X9.650 Y-9.085 E0.0329
G1 X9.650 Y-9.650 E0.0188
G1 X10.350 Y-10.350 E0.0329
G1 X9.784 Y-10.350 E0.0188
G1 X9.650 Y-10.216 E0.0063
G1 E-1.9000 F1200
; layer 3, Z = 0.600
; feature inner perimeter
G1 Z0.900 F1200
G1 X10.650 Y10.650 F9000
G1 Z0.600 F1200
G1 E1.9000 F1200
G1 X-10.650 Y10.650 E0.7084 F1207
G1 X-10.650 Y9.350 E0.0432
G1 X9.350 Y9.350 E0.6652
