; G-Code generated by Simplify3D(R) Version 4.1.2
; Apr 2, 2020 at 12:46:56 PM
; Settings Summary
;   processName,Process1
;   applyToModels,cockpit,base
;   profileName,MakerBot Replicator 2 HBP (modified)
;   profileVersion,2020-03-12 10:48:50
;   baseProfile,MakerBot Replicator 2(2)
;   printMaterial,PLA
;   printQuality,Medium
;   printExtruders,
;   extruderName,Primary Extruder
;   extruderToolheadNumber,0
;   extruderDiameter,0.4
;   extruderAutoWidth,0
;   extruderWidth,0.4
;   extrusionMultiplier,1
;   extruderUseRetract,1
;   extruderRetractionDistance,1.9
;   extruderExtraRestartDistance,0
;   extruderRetractionZLift,0.5
;   extruderRetractionSpeed,1200
;   extruderUseCoasting,0
;   extruderCoastingDistance,0.2
;   extruderUseWipe,0
;   extruderWipeDistance,5
;   primaryExtruder,0
;   layerHeight,0.2
;   topSolidLayers,3
;   bottomSolidLayers,3
;   perimeterOutlines,2
;   printPerimetersInsideOut,1
;   startPointOption,3
;   startPointOriginX,0
;   startPointOriginY,150
;   sequentialIslands,0
;   spiralVaseMode,0
;   firstLayerHeightPercentage,100
;   firstLayerWidthPercentage,115
;   firstLayerUnderspeed,0.5
;   useRaft,0
;   raftExtruder,0
;   raftTopLayers,2
;   raftBaseLayers,1
;   raftOffset,1
;   raftSeparationDistance,0.14
;   raftTopInfill,90
;   aboveRaftSpeedMultiplier,0.3
;   useSkirt,0
;   skirtExtruder,0
;   skirtLayers,1
;   skirtOutlines,5
;   skirtOffset,0
;   usePrimePillar,0
;   primePillarExtruder,999
;   primePillarWidth,12
;   primePillarLocation,7
;   primePillarSpeedMultiplier,1
;   useOozeShield,0
;   oozeShieldExtruder,999
;   oozeShieldOffset,2
;   oozeShieldOutlines,1
;   oozeShieldSidewallShape,1
;   oozeShieldSidewallAngle,30
;   oozeShieldSpeedMultiplier,1
;   infillExtruder,0
;   internalInfillPattern,Rectilinear
;   externalInfillPattern,Rectilinear
;   infillPercentage,15
;   outlineOverlapPercentage,25
;   infillExtrusionWidthPercentage,100
;   minInfillLength,5
;   infillLayerInterval,1
;   internalInfillAngles,45,-45
;   overlapInternalInfillAngles,0
;   externalInfillAngles,45,-45
;   generateSupport,0
;   supportExtruder,0
;   supportInfillPercentage,20
;   supportExtraInflation,0.5
;   supportBaseLayers,0
;   denseSupportExtruder,0
;   denseSupportLayers,2
;   denseSupportInfillPercentage,90
;   supportLayerInterval,1
;   supportHorizontalPartOffset,0.3
;   supportUpperSeparationLayers,1
;   supportLowerSeparationLayers,1
;   supportType,1
;   supportGridSpacing,2
;   maxOverhangAngle,45
;   supportAngles,45,-45
;   temperatureName,Primary Extruder,Heated Build Platform
;   temperatureNumber,0,0
;   temperatureSetpointCount,1,1
;   temperatureSetpointLayers,1,1
;   temperatureSetpointTemperatures,230,60
;   temperatureStabilizeAtStartup,1,1
;   temperatureHeatedBed,0,1
;   fanLayers,1,2
;   fanSpeeds,0,100
;   blipFanToFullPower,1
;   adjustSpeedForCooling,1
;   minSpeedLayerTime,15
;   minCoolingSpeedSlowdown,20
;   increaseFanForCooling,1
;   minFanLayerTime,45
;   maxCoolingFanSpeed,100
;   increaseFanForBridging,1
;   bridgingFanSpeed,100
;   use5D,1
;   relativeEdistances,1
;   allowEaxisZeroing,0
;   independentExtruderAxes,1
;   includeM10123,0
;   stickySupport,1
;   applyToolheadOffsets,0
;   gcodeXoffset,0
;   gcodeYoffset,0
;   gcodeZoffset,0
;   overrideMachineDefinition,1
;   machineTypeOverride,0
;   strokeXoverride,280
;   strokeYoverride,150
;   strokeZoverride,150
;   originOffsetXoverride,140
;   originOffsetYoverride,75
;   originOffsetZoverride,0
;   homeXdirOverride,1
;   homeYdirOverride,1
;   homeZdirOverride,-1
;   flipXoverride,1
;   flipYoverride,-1
;   flipZoverride,1
;   toolheadOffsets,0,0|0,0|0,0|0,0|0,0|0,0
;   overrideFirmwareConfiguration,1
;   firmwareTypeOverride,MakerBot/Sailfish Firmware
;   GPXconfigOverride,r2h
;   baudRateOverride,115200
;   overridePrinterModels,1
;   printerModelsOverride,MakerBot_Replicator2.stl
;   startingGcode,; **** Replicator 2 start.gcode ****,M73 P0 ; enable build progress,G162 X Y F3000 ; home XY maximum,G161 Z F1200 ; home Z minimum,G92 Z-5 ; set Z to -5,G1 Z0 ; move Z to 0,G161 Z F100 ; home Z slowly,M132 X Y Z A B ; recall home offsets,G1 X-145 Y-75 Z30 F9000 ; move to wait position off table,G130 X20 Y20 Z20 A20 B20 ; lower stepper Vrefs while heating,M126 S[fan_speed_pwm],M140 S[bed0_temperature] T0,M134 T0 ; stabilize bed temperature,M104 S[extruder0_temperature] T0,M133 T0 ; stabilize extruder temperature,G130 X127 Y127 Z40 A127 B127 ; default stepper Vrefs,G92 A0 ; zero extruder,G1 Z0.4 ; position nozzle,G1 E25 F300 ; purge nozzle,G1 X-140 Y-70 Z0.15 F1200 ; slow wipe,G1 X-135 Y-65 Z0.5 F1200 ; lift,G92 A0 ; zero extruder,M73 P1 ;@body (notify GPX body has started),; **** end of start.gcode ****
;   layerChangeGcode,
;   retractionGcode,
;   toolChangeGcode,
;   endingGcode,; **** Replicator 2 end.gcode ****,M73 P100 ; end build progress,G1 Z155 F1000 ; send Z axis to bottom of machine,M104 S0 T0 ; cool down extruder,M140 S0 T0 ; cool down HBP,M127 ; stop blower fan,G162 X Y F3000 ; home XY maximum,M18 ; disable stepper,M0 ; stop codes,M72 P1 ; play Ta-Da song,; **** end of end.gcode ****
;   exportFileFormat,gcode
;   celebration,0
;   celebrationSong,Random Song
;   postProcessing,
;   defaultSpeed,4800
;   outlineUnderspeed,0.5
;   solidInfillUnderspeed,1
;   supportUnderspeed,1
;   rapidXYspeed,9000
;   rapidZspeed,1200
;   minBridgingArea,50
;   bridgingExtraInflation,0
;   bridgingExtrusionMultiplier,1
;   bridgingSpeedMultiplier,0.8
;   useFixedBridgingAngle,0
;   fixedBridgingAngle,0
;   applyBridgingToPerimeters,0
;   filamentDiameters,1.75|1.75|1.75|1.75|1.75|1.75
;   filamentPricesPerKg,46|46|46|46|46|46
;   filamentDensities,1.25|1.25|1.25|1.25|1.25|1.25
;   useMinPrintHeight,0
;   minPrintHeight,0
;   useMaxPrintHeight,0
;   maxPrintHeight,4.84
;   useDiaphragm,0
;   diaphragmLayerInterval,20
;   robustSlicing,1
;   mergeAllIntoSolid,0
;   onlyRetractWhenCrossingOutline,0
;   retractBetweenLayers,0
;   useRetractionMinTravel,1
;   retractionMinTravel,7
;   retractWhileWiping,1
;   onlyWipeOutlines,1
;   avoidCrossingOutline,0
;   maxMovementDetourFactor,3
;   toolChangeRetractionDistance,12
;   toolChangeExtraRestartDistance,-0.5
;   toolChangeRetractionSpeed,600
;   externalThinWallType,0
;   internalThinWallType,0
;   thinWallAllowedOverlapPercentage,10
;   singleExtrusionMinLength,1
;   singleExtrusionMinPrintingWidthPercentage,50
;   singleExtrusionMaxPrintingWidthPercentage,200
;   singleExtrusionEndpointExtension,0.2
;   horizontalSizeCompensation,0
G90
M83
; **** Replicator 2 start.gcode ****
M73 P0 ; enable build progress
G162 X Y F3000 ; home XY maximum
G161 Z F1200 ; home Z minimum
G92 Z-5 ; set Z to -5
G1 Z0 ; move Z to 0
G161 Z F100 ; home Z slowly
M132 X Y Z A B ; recall home offsets
G1 X-145 Y-75 Z30 F9000 ; move to wait position off table
G130 X20 Y20 Z20 A20 B20 ; lower stepper Vrefs while heating
M127
M140 S60 T0
M134 T0 ; stabilize bed temperature
M104 S230 T0
M133 T0 ; stabilize extruder temperature
G130 X127 Y127 Z40 A127 B127 ; default stepper Vrefs
G92 A0 ; zero extruder
G1 Z0.4 ; position nozzle
G1 E25 F300 ; purge nozzle
G1 X-140 Y-70 Z0.15 F1200 ; slow wipe
G1 X-135 Y-65 Z0.5 F1200 ; lift
G92 A0 ; zero extruder
M73 P1 ;@body (notify GPX body has started)
; **** end of start.gcode ****
; process Process1
; layer 1, Z = 0.200
M135 T0
G1 E-1.9000 F1200
; feature inner perimeter
; tool H0.200 W0.460
G1 Z0.500 F1200
G1 X-0.773 Y-6.809 F9000
G1 Z0.200 F1200
G1 E1.9000 F1200
G1 X-9.688 Y-6.809 E0.3410 F1800
G1 X-9.688 Y-13.042 E0.2384
G1 X-30.399 Y-13.042 E0.7922
G1 X-30.399 Y-8.293 E0.1816
G1 X-40.488 Y-8.293 E0.3859
G1 X-40.488 Y-25.336 E0.6519
G1 X-30.399 Y-25.336 E0.3859
G1 X-30.399 Y-20.588 E0.1816
G1 X-9.688 Y-20.588 E0.7922
G1 X-9.688 Y-26.821 E0.2384
G1 X-0.773 Y-26.821 E0.3410
G1 X-0.773 Y-6.809 E0.7654
; feature outer perimeter
G1 X-0.313 Y-6.349 F9000
G1 X-10.148 Y-6.349 E0.3762 F1200
G1 X-10.148 Y-12.582 E0.2384
G1 X-29.939 Y-12.582 E0.7570
G1 X-29.939 Y-7.833 E0.1816
G1 X-40.948 Y-7.833 E0.4211
G1 X-40.948 Y-25.796 E0.6871
G1 X-29.939 Y-25.796 E0.4211
G1 X-29.939 Y-21.048 E0.1816
G1 X-10.148 Y-21.048 E0.7570
G1 X-10.148 Y-27.281 E0.2384
G1 X-0.313 Y-27.281 E0.3762
G1 X-0.313 Y-6.349 E0.8006
G1 E-1.9000 F1200
; feature solid layer
G1 Z0.700 F1200
G1 X-9.343 Y-7.391 F9000
G1 Z0.200 F1200
G1 E1.9000 F1200
G1 X-9.106 Y-7.154 E0.0128 F2400
G1 X-8.455 Y-7.154 E0.0249
G1 X-9.343 Y-8.042 E0.0480
G1 X-9.343 Y-8.692 E0.0249
G1 X-7.805 Y-7.154 E0.0832
G1 X-7.154 Y-7.154 E0.0249
G1 X-9.343 Y-9.343 E0.1184
G1 X-9.343 Y-9.993 E0.0249
G1 X-6.504 Y-7.154 E0.1536
G1 X-5.853 Y-7.154 E0.0249
G1 X-9.343 Y-10.644 E0.1888
G1 X-9.343 Y-11.294 E0.0249
G1 X-5.202 Y-7.154 E0.2240
G1 X-4.552 Y-7.154 E0.0249
G1 X-9.343 Y-11.945 E0.2591
G1 X-9.343 Y-12.595 E0.0249
G1 X-3.901 Y-7.154 E0.2943
G1 X-3.251 Y-7.154 E0.0249
G1 X-9.343 Y-13.246 E0.3295
G1 E-1.9000 F1200
G1 Z0.700 F1200
G1 X-1.755 Y-26.476 F9000
G1 Z0.200 F1200
G1 E1.9000 F1200
G1 X-1.118 Y-25.838 E0.0345 F2400
G1 X-1.118 Y-25.188 E0.0249
G1 X-2.406 Y-26.476 E0.0697
G1 X-3.056 Y-26.476 E0.0249
G1 X-1.118 Y-24.537 E0.1049
G1 X-1.118 Y-23.887 E0.0249
G1 X-3.707 Y-26.476 E0.1401
G1 X-4.357 Y-26.476 E0.0249
G1 X-1.118 Y-23.236 E0.1752
G1 X-1.118 Y-22.586 E0.0249
G1 X-5.008 Y-26.476 E0.2104
G1 X-5.658 Y-26.476 E0.0249
G1 X-1.118 Y-21.935 E0.2456
G1 X-1.118 Y-21.284 E0.0249
G1 X-6.309 Y-26.476 E0.2808
G1 X-6.960 Y-26.476 E0.0249
G1 X-1.118 Y-20.634 E0.3160
G1 X-1.118 Y-19.983 E0.0249
G1 X-7.610 Y-26.476 E0.3512
G1 X-8.261 Y-26.476 E0.0249
G1 X-1.118 Y-19.333 E0.3864
G1 X-1.118 Y-18.682 E0.0249
G1 X-8.911 Y-26.476 E0.4216
G1 X-9.343 Y-26.476 E0.0165
G1 X-9.343 Y-26.257 E0.0084
G1 X-1.118 Y-18.032 E0.4449
G1 X-1.118 Y-17.381 E0.0249
G1 X-9.343 Y-25.606 E0.4449
G1 X-9.343 Y-24.956 E0.0249
G1 X-1.118 Y-16.731 E0.4449
G1 X-1.118 Y-16.080 E0.0249
G1 X-9.343 Y-24.305 E0.4449
G1 X-9.343 Y-23.655 E0.0249
G1 X-1.118 Y-15.430 E0.4449
G1 X-1.118 Y-14.779 E0.0249
G1 X-9.343 Y-23.004 E0.4449
G1 X-9.343 Y-22.353 E0.0249
G1 X-1.118 Y-14.129 E0.4449
G1 X-1.118 Y-13.478 E0.0249
G1 X-9.343 Y-21.703 E0.4449
G1 X-9.343 Y-21.052 E0.0249
G1 X-1.118 Y-12.827 E0.4449
G1 X-1.118 Y-12.177 E0.0249
G1 X-9.343 Y-20.402 E0.4449
G1 X-9.343 Y-20.243 E0.0061
G1 X-9.835 Y-20.243 E0.0188
G1 X-1.118 Y-11.526 E0.4715
G1 X-1.118 Y-10.876 E0.0249
G1 X-10.485 Y-20.243 E0.5067
G1 X-11.136 Y-20.243 E0.0249
G1 X-1.118 Y-10.225 E0.5419
G1 X-1.118 Y-9.575 E0.0249
G1 X-11.786 Y-20.243 E0.5771
G1 X-12.437 Y-20.243 E0.0249
G1 X-1.118 Y-8.924 E0.6123
G1 X-1.118 Y-8.274 E0.0249
G1 X-13.087 Y-20.243 E0.6475
G1 X-13.738 Y-20.243 E0.0249
G1 X-1.118 Y-7.623 E0.6826
G1 X-1.118 Y-7.154 E0.0179
G1 X-1.299 Y-7.154 E0.0069
G1 X-14.388 Y-20.243 E0.7080
G1 X-15.039 Y-20.243 E0.0249
G1 X-1.950 Y-7.154 E0.7080
G1 X-2.600 Y-7.154 E0.0249
G1 X-15.689 Y-20.243 E0.7080
G1 X-16.340 Y-20.243 E0.0249
G1 X-9.483 Y-13.387 E0.3709
G1 X-10.134 Y-13.387 E0.0249
G1 X-16.990 Y-20.243 E0.3709
G1 X-17.641 Y-20.243 E0.0249
G1 X-10.784 Y-13.387 E0.3709
G1 X-11.435 Y-13.387 E0.0249
G1 X-18.292 Y-20.243 E0.3709
G1 X-18.942 Y-20.243 E0.0249
G1 X-12.086 Y-13.387 E0.3709
G1 X-12.736 Y-13.387 E0.0249
G1 X-19.593 Y-20.243 E0.3709
G1 X-20.243 Y-20.243 E0.0249
G1 X-13.387 Y-13.387 E0.3709
G1 X-14.037 Y-13.387 E0.0249
G1 X-20.894 Y-20.243 E0.3709
G1 X-21.544 Y-20.243 E0.0249
G1 X-14.688 Y-13.387 E0.3709
G1 X-15.338 Y-13.387 E0.0249
G1 X-22.195 Y-20.243 E0.3709
G1 X-22.845 Y-20.243 E0.0249
G1 X-15.989 Y-13.387 E0.3709
G1 X-16.639 Y-13.387 E0.0249
G1 X-23.496 Y-20.243 E0.3709
G1 X-24.146 Y-20.243 E0.0249
G1 X-17.290 Y-13.387 E0.3709
G1 X-17.940 Y-13.387 E0.0249
G1 X-24.797 Y-20.243 E0.3709
G1 X-25.447 Y-20.243 E0.0249
G1 X-18.591 Y-13.387 E0.3709
G1 X-19.241 Y-13.387 E0.0249
G1 X-26.098 Y-20.243 E0.3709
G1 X-26.749 Y-20.243 E0.0249
G1 X-19.892 Y-13.387 E0.3709
G1 X-20.543 Y-13.387 E0.0249
G1 X-27.399 Y-20.243 E0.3709
G1 X-28.050 Y-20.243 E0.0249
G1 X-21.193 Y-13.387 E0.3709
G1 X-21.844 Y-13.387 E0.0249
G1 X-28.700 Y-20.243 E0.3709
G1 X-29.351 Y-20.243 E0.0249
G1 X-22.494 Y-13.387 E0.3709
G1 X-23.145 Y-13.387 E0.0249
G1 X-30.001 Y-20.243 E0.3709
G1 X-30.652 Y-20.243 E0.0249
G1 X-23.795 Y-13.387 E0.3709
G1 X-24.446 Y-13.387 E0.0249
G1 X-36.051 Y-24.991 E0.6277
G1 X-35.400 Y-24.991 E0.0249
G1 X-30.744 Y-20.336 E0.2518
G1 X-30.744 Y-20.986 E0.0249
G1 X-34.750 Y-24.991 E0.2167
G1 X-34.099 Y-24.991 E0.0249
G1 X-30.744 Y-21.637 E0.1815
G1 X-30.744 Y-22.287 E0.0249
G1 X-33.448 Y-24.991 E0.1463
G1 X-32.798 Y-24.991 E0.0249
G1 X-30.744 Y-22.938 E0.1111
G1 X-30.744 Y-23.588 E0.0249
G1 X-32.147 Y-24.991 E0.0759
G1 X-31.497 Y-24.991 E0.0249
G1 X-30.744 Y-24.239 E0.0407
G1 X-30.744 Y-24.889 E0.0249
G1 X-30.846 Y-24.991 E0.0055
G1 X-36.701 Y-24.991 F9000
G1 X-25.096 Y-13.387 E0.6277 F2400
G1 X-25.747 Y-13.387 E0.0249
G1 X-37.352 Y-24.991 E0.6277
G1 X-38.002 Y-24.991 E0.0249
G1 X-26.397 Y-13.387 E0.6277
G1 X-27.048 Y-13.387 E0.0249
G1 X-38.653 Y-24.991 E0.6277
G1 X-39.303 Y-24.991 E0.0249
G1 X-27.698 Y-13.387 E0.6277
G1 X-28.349 Y-13.387 E0.0249
G1 X-39.954 Y-24.991 E0.6277
G1 X-40.143 Y-24.991 E0.0073
G1 X-40.143 Y-24.531 E0.0176
G1 X-29.000 Y-13.387 E0.6028
G1 X-29.650 Y-13.387 E0.0249
G1 X-40.143 Y-23.880 E0.5676
G1 X-40.143 Y-23.229 E0.0249
G1 X-30.301 Y-13.387 E0.5324
G1 X-30.744 Y-13.387 E0.0170
G1 X-30.744 Y-13.180 E0.0079
G1 X-40.143 Y-22.579 E0.5084
G1 X-40.143 Y-21.928 E0.0249
G1 X-30.744 Y-12.529 E0.5084
G1 X-30.744 Y-11.879 E0.0249
G1 X-40.143 Y-21.278 E0.5084
G1 X-40.143 Y-20.627 E0.0249
G1 X-30.744 Y-11.228 E0.5084
G1 X-30.744 Y-10.577 E0.0249
G1 X-40.143 Y-19.977 E0.5084
G1 X-40.143 Y-19.326 E0.0249
G1 X-30.744 Y-9.927 E0.5084
G1 X-30.744 Y-9.276 E0.0249
G1 X-40.143 Y-18.676 E0.5084
G1 X-40.143 Y-18.025 E0.0249
G1 X-30.757 Y-8.638 E0.5078
G1 X-31.407 Y-8.638 E0.0249
G1 X-40.143 Y-17.375 E0.4726
G1 X-40.143 Y-16.724 E0.0249
G1 X-32.058 Y-8.638 E0.4374
G1 X-32.708 Y-8.638 E0.0249
G1 X-40.143 Y-16.074 E0.4022
G1 X-40.143 Y-15.423 E0.0249
G1 X-33.359 Y-8.638 E0.3670
G1 X-34.009 Y-8.638 E0.0249
G1 X-40.143 Y-14.772 E0.3318
G1 X-40.143 Y-14.122 E0.0249
G1 X-34.660 Y-8.638 E0.2966
G1 X-35.310 Y-8.638 E0.0249
G1 X-40.143 Y-13.471 E0.2614
G1 X-40.143 Y-12.821 E0.0249
G1 X-35.961 Y-8.638 E0.2262
G1 X-36.611 Y-8.638 E0.0249
G1 X-40.143 Y-12.170 E0.1911
G1 X-40.143 Y-11.520 E0.0249
G1 X-37.262 Y-8.638 E0.1559
G1 X-37.913 Y-8.638 E0.0249
G1 X-40.143 Y-10.869 E0.1207
G1 X-40.143 Y-10.219 E0.0249
G1 X-38.563 Y-8.638 E0.0855
G1 X-39.214 Y-8.638 E0.0249
G1 X-40.143 Y-9.568 E0.0503
G1 X-40.143 Y-8.918 E0.0249
G1 X-39.864 Y-8.638 E0.0151
G1 E-1.9000 F1200
; feature inner perimeter
G1 Z0.700 F1200
G1 X39.134 Y30.440 F9000
G1 Z0.200 F1200
G1 E1.9000 F1200
G1 X-39.134 Y30.440 E2.9937 F1800
G1 X-39.134 Y3.190 E1.0423
G1 X39.134 Y3.190 E2.9937
G1 X39.134 Y30.440 E1.0423
; feature outer perimeter
G1 X39.594 Y30.900 F9000
G1 X-39.594 Y30.900 E3.0288 F1200
G1 X-39.594 Y2.730 E1.0775
G1 X39.594 Y2.730 E3.0288
G1 X39.594 Y30.900 E1.0775
G1 E-1.9000 F1200
; feature solid layer
G1 Z0.700 F1200
G1 X38.664 Y3.535 F9000
G1 Z0.200 F1200
G1 E1.9000 F1200
G1 X38.789 Y3.660 E0.0067 F2400
G1 X38.789 Y4.310 E0.0249
G1 X38.014 Y3.535 E0.0419
G1 X37.363 Y3.535 E0.0249
G1 X38.789 Y4.961 E0.0771
G1 X38.789 Y5.611 E0.0249
G1 X36.712 Y3.535 E0.1123
G1 X36.062 Y3.535 E0.0249
G1 X38.789 Y6.262 E0.1475
G1 X38.789 Y6.912 E0.0249
G1 X35.411 Y3.535 E0.1827
G1 X34.761 Y3.535 E0.0249
G1 X38.789 Y7.563 E0.2179
G1 X38.789 Y8.213 E0.0249
G1 X34.110 Y3.535 E0.2531
G1 X33.460 Y3.535 E0.0249
G1 X38.789 Y8.864 E0.2883
G1 X38.789 Y9.514 E0.0249
G1 X32.809 Y3.535 E0.3234
G1 X32.159 Y3.535 E0.0249
G1 X38.789 Y10.165 E0.3586
G1 X38.789 Y10.815 E0.0249
G1 X31.508 Y3.535 E0.3938
G1 X30.858 Y3.535 E0.0249
G1 X38.789 Y11.466 E0.4290
G1 X38.789 Y12.117 E0.0249
G1 X30.207 Y3.535 E0.4642
G1 X29.557 Y3.535 E0.0249
G1 X38.789 Y12.767 E0.4994
G1 X38.789 Y13.418 E0.0249
G1 X28.906 Y3.535 E0.5346
G1 X28.255 Y3.535 E0.0249
G1 X38.789 Y14.068 E0.5698
G1 X38.789 Y14.719 E0.0249
G1 X27.605 Y3.535 E0.6050
G1 X26.954 Y3.535 E0.0249
G1 X38.789 Y15.369 E0.6401
