; G-Code generated by Simplify3D(R) Version 4.1.2
; Apr 2, 2020 at 12:46:12 PM
; Settings Summary
;   processName,Process1
;   applyToModels,bracket,Steering,wheelL,wheelR
;   profileName,MakerBot Replicator 2 HBP (modified)
;   profileVersion,2020-03-12 10:48:50
;   baseProfile,MakerBot Replicator 2(2)
;   printMaterial,PLA
;   printQuality,Medium
;   printExtruders,
;   extruderName,Primary Extruder
;   extruderToolheadNumber,0
;   extruderDiameter,0.4
;   extruderAutoWidth,0
;   extruderWidth,0.4
;   extrusionMultiplier,1
;   extruderUseRetract,1
;   extruderRetractionDistance,1.9
;   extruderExtraRestartDistance,0
;   extruderRetractionZLift,0.5
;   extruderRetractionSpeed,1200
;   extruderUseCoasting,0
;   extruderCoastingDistance,0.2
;   extruderUseWipe,0
;   extruderWipeDistance,5
;   primaryExtruder,0
;   layerHeight,0.2
;   topSolidLayers,3
;   bottomSolidLayers,3
;   perimeterOutlines,2
;   printPerimetersInsideOut,1
;   startPointOption,3
;   startPointOriginX,0
;   startPointOriginY,150
;   sequentialIslands,0
;   spiralVaseMode,0
;   firstLayerHeightPercentage,100
;   firstLayerWidthPercentage,115
;   firstLayerUnderspeed,0.5
;   useRaft,0
;   raftExtruder,0
;   raftTopLayers,2
;   raftBaseLayers,1
;   raftOffset,1
;   raftSeparationDistance,0.14
;   raftTopInfill,90
;   aboveRaftSpeedMultiplier,0.3
;   useSkirt,0
;   skirtExtruder,0
;   skirtLayers,1
;   skirtOutlines,5
;   skirtOffset,0
;   usePrimePillar,0
;   primePillarExtruder,999
;   primePillarWidth,12
;   primePillarLocation,7
;   primePillarSpeedMultiplier,1
;   useOozeShield,0
;   oozeShieldExtruder,999
;   oozeShieldOffset,2
;   oozeShieldOutlines,1
;   oozeShieldSidewallShape,1
;   oozeShieldSidewallAngle,30
;   oozeShieldSpeedMultiplier,1
;   infillExtruder,0
;   internalInfillPattern,Rectilinear
;   externalInfillPattern,Rectilinear
;   infillPercentage,15
;   outlineOverlapPercentage,25
;   infillExtrusionWidthPercentage,100
;   minInfillLength,5
;   infillLayerInterval,1
;   internalInfillAngles,45,-45
;   overlapInternalInfillAngles,0
;   externalInfillAngles,45,-45
;   generateSupport,1
;   supportExtruder,0
;   supportInfillPercentage,20
;   supportExtraInflation,0.5
;   supportBaseLayers,0
;   denseSupportExtruder,0
;   denseSupportLayers,2
;   denseSupportInfillPercentage,90
;   supportLayerInterval,1
;   supportHorizontalPartOffset,0.3
;   supportUpperSeparationLayers,1
;   supportLowerSeparationLayers,1
;   supportType,1
;   supportGridSpacing,2
;   maxOverhangAngle,45
;   supportAngles,45,-45
;   temperatureName,Primary Extruder,Heated Build Platform
;   temperatureNumber,0,0
;   temperatureSetpointCount,1,1
;   temperatureSetpointLayers,1,1
;   temperatureSetpointTemperatures,230,60
;   temperatureStabilizeAtStartup,1,1
;   temperatureHeatedBed,0,1
;   fanLayers,1,2
;   fanSpeeds,0,100
;   blipFanToFullPower,1
;   adjustSpeedForCooling,1
;   minSpeedLayerTime,15
;   minCoolingSpeedSlowdown,20
;   increaseFanForCooling,1
;   minFanLayerTime,45
;   maxCoolingFanSpeed,100
;   increaseFanForBridging,1
;   bridgingFanSpeed,100
;   use5D,1
;   relativeEdistances,1
;   allowEaxisZeroing,0
;   independentExtruderAxes,1
;   includeM10123,0
;   stickySupport,1
;   applyToolheadOffsets,0
;   gcodeXoffset,0
;   gcodeYoffset,0
;   gcodeZoffset,0
;   overrideMachineDefinition,1
;   machineTypeOverride,0
;   strokeXoverride,280
;   strokeYoverride,150
;   strokeZoverride,150
;   originOffsetXoverride,140
;   originOffsetYoverride,75
;   originOffsetZoverride,0
;   homeXdirOverride,1
;   homeYdirOverride,1
;   homeZdirOverride,-1
;   flipXoverride,1
;   flipYoverride,-1
;   flipZoverride,1
;   toolheadOffsets,0,0|0,0|0,0|0,0|0,0|0,0
;   overrideFirmwareConfiguration,1
;   firmwareTypeOverride,MakerBot/Sailfish Firmware
;   GPXconfigOverride,r2h
;   baudRateOverride,115200
;   overridePrinterModels,1
;   printerModelsOverride,MakerBot_Replicator2.stl
;   startingGcode,; **** Replicator 2 start.gcode ****,M73 P0 ; enable build progress,G162 X Y F3000 ; home XY maximum,G161 Z F1200 ; home Z minimum,G92 Z-5 ; set Z to -5,G1 Z0 ; move Z to 0,G161 Z F100 ; home Z slowly,M132 X Y Z A B ; recall home offsets,G1 X-145 Y-75 Z30 F9000 ; move to wait position off table,G130 X20 Y20 Z20 A20 B20 ; lower stepper Vrefs while heating,M126 S[fan_speed_pwm],M140 S[bed0_temperature] T0,M134 T0 ; stabilize bed temperature,M104 S[extruder0_temperature] T0,M133 T0 ; stabilize extruder temperature,G130 X127 Y127 Z40 A127 B127 ; default stepper Vrefs,G92 A0 ; zero extruder,G1 Z0.4 ; position nozzle,G1 E25 F300 ; purge nozzle,G1 X-140 Y-70 Z0.15 F1200 ; slow wipe,G1 X-135 Y-65 Z0.5 F1200 ; lift,G92 A0 ; zero extruder,M73 P1 ;@body (notify GPX body has started),; **** end of start.gcode ****
;   layerChangeGcode,
;   retractionGcode,
;   toolChangeGcode,
;   endingGcode,; **** Replicator 2 end.gcode ****,M73 P100 ; end build progress,G1 Z155 F1000 ; send Z axis to bottom of machine,M104 S0 T0 ; cool down extruder,M140 S0 T0 ; cool down HBP,M127 ; stop blower fan,G162 X Y F3000 ; home XY maximum,M18 ; disable stepper,M0 ; stop codes,M72 P1 ; play Ta-Da song,; **** end of end.gcode ****
;   exportFileFormat,gcode
;   celebration,0
;   celebrationSong,Random Song
;   postProcessing,
;   defaultSpeed,4800
;   outlineUnderspeed,0.5
;   solidInfillUnderspeed,1
;   supportUnderspeed,1
;   rapidXYspeed,9000
;   rapidZspeed,1200
;   minBridgingArea,50
;   bridgingExtraInflation,0
;   bridgingExtrusionMultiplier,1
;   bridgingSpeedMultiplier,0.8
;   useFixedBridgingAngle,0
;   fixedBridgingAngle,0
;   applyBridgingToPerimeters,0
;   filamentDiameters,1.75|1.75|1.75|1.75|1.75|1.75
;   filamentPricesPerKg,46|46|46|46|46|46
;   filamentDensities,1.25|1.25|1.25|1.25|1.25|1.25
;   useMinPrintHeight,0
;   minPrintHeight,0
;   useMaxPrintHeight,0
;   maxPrintHeight,4.84
;   useDiaphragm,0
;   diaphragmLayerInterval,20
;   robustSlicing,1
;   mergeAllIntoSolid,0
;   onlyRetractWhenCrossingOutline,0
;   retractBetweenLayers,0
;   useRetractionMinTravel,1
;   retractionMinTravel,7
;   retractWhileWiping,1
;   onlyWipeOutlines,1
;   avoidCrossingOutline,0
;   maxMovementDetourFactor,3
;   toolChangeRetractionDistance,12
;   toolChangeExtraRestartDistance,-0.5
;   toolChangeRetractionSpeed,600
;   externalThinWallType,0
;   internalThinWallType,0
;   thinWallAllowedOverlapPercentage,10
;   singleExtrusionMinLength,1
;   singleExtrusionMinPrintingWidthPercentage,50
;   singleExtrusionMaxPrintingWidthPercentage,200
;   singleExtrusionEndpointExtension,0.2
;   horizontalSizeCompensation,0
G90
M83
; **** Replicator 2 start.gcode ****
M73 P0 ; enable build progress
G162 X Y F3000 ; home XY maximum
G161 Z F1200 ; home Z minimum
G92 Z-5 ; set Z to -5
G1 Z0 ; move Z to 0
G161 Z F100 ; home Z slowly
M132 X Y Z A B ; recall home offsets
G1 X-145 Y-75 Z30 F9000 ; move to wait position off table
G130 X20 Y20 Z20 A20 B20 ; lower stepper Vrefs while heating
M127
M140 S60 T0
M134 T0 ; stabilize bed temperature
M104 S230 T0
M133 T0 ; stabilize extruder temperature
G130 X127 Y127 Z40 A127 B127 ; default stepper Vrefs
G92 A0 ; zero extruder
G1 Z0.4 ; position nozzle
G1 E25 F300 ; purge nozzle
G1 X-140 Y-70 Z0.15 F1200 ; slow wipe
G1 X-135 Y-65 Z0.5 F1200 ; lift
G92 A0 ; zero extruder
M73 P1 ;@body (notify GPX body has started)
; **** end of start.gcode ****
; process Process1
; layer 1, Z = 0.200
M135 T0
G1 E-1.9000 F1200
; feature inner perimeter
; tool H0.200 W0.460
G1 Z0.500 F1200
G1 X-3.770 Y19.516 F9000
G1 Z0.200 F1200
G1 E1.9000 F1200
G1 X-4.318 Y19.462 E0.0211 F1800
G1 X-4.846 Y19.302 E0.0211
G1 X-5.333 Y19.042 E0.0211
G1 X-5.759 Y18.692 E0.0211
G1 X-6.109 Y18.266 E0.0211
G1 X-6.369 Y17.780 E0.0211
G1 X-6.529 Y17.252 E0.0211
G1 X-6.651 Y16.013 E0.0476
G1 X-8.428 Y16.013 E0.0680
G1 X-8.550 Y17.252 E0.0476
G1 X-8.710 Y17.780 E0.0211
G1 X-8.970 Y18.266 E0.0211
G1 X-9.320 Y18.692 E0.0211
G1 X-9.746 Y19.042 E0.0211
G1 X-10.232 Y19.302 E0.0211
G1 X-10.760 Y19.462 E0.0211
G1 X-11.309 Y19.516 E0.0211
G1 X-11.858 Y19.462 E0.0211
G1 X-12.386 Y19.302 E0.0211
G1 X-12.872 Y19.042 E0.0211
G1 X-13.298 Y18.692 E0.0211
G1 X-13.648 Y18.266 E0.0211
G1 X-13.908 Y17.780 E0.0211
G1 X-14.068 Y17.252 E0.0211
G1 X-14.190 Y16.013 E0.0476
G1 X-15.967 Y16.013 E0.0680
G1 X-16.089 Y17.252 E0.0476
G1 X-16.249 Y17.780 E0.0211
G1 X-16.509 Y18.266 E0.0211
G1 X-16.859 Y18.692 E0.0211
G1 X-17.285 Y19.042 E0.0211
G1 X-17.772 Y19.302 E0.0211
G1 X-18.299 Y19.462 E0.0211
G1 X-18.848 Y19.516 E0.0211
G1 X-19.397 Y19.462 E0.0211
G1 X-19.925 Y19.302 E0.0211
G1 X-20.411 Y19.042 E0.0211
G1 X-20.837 Y18.692 E0.0211
G1 X-21.187 Y18.266 E0.0211
G1 X-21.447 Y17.780 E0.0211
G1 X-21.607 Y17.252 E0.0211
G1 X-21.729 Y16.013 E0.0476
G1 X-23.506 Y16.013 E0.0680
G1 X-23.628 Y17.252 E0.0476
G1 X-23.788 Y17.780 E0.0211
G1 X-24.048 Y18.266 E0.0211
G1 X-24.398 Y18.692 E0.0211
G1 X-24.824 Y19.042 E0.0211
G1 X-25.311 Y19.302 E0.0211
G1 X-25.839 Y19.462 E0.0211
G1 X-26.387 Y19.516 E0.0211
G1 X-26.936 Y19.462 E0.0211
G1 X-27.464 Y19.302 E0.0211
G1 X-27.950 Y19.042 E0.0211
G1 X-28.377 Y18.692 E0.0211
G1 X-28.727 Y18.266 E0.0211
G1 X-28.987 Y17.780 E0.0211
G1 X-29.147 Y17.252 E0.0211
G1 X-29.269 Y16.013 E0.0476
G1 X-31.045 Y16.013 E0.0680
G1 X-31.167 Y17.252 E0.0476
G1 X-31.328 Y17.780 E0.0211
G1 X-31.587 Y18.266 E0.0211
G1 X-31.937 Y18.692 E0.0211
G1 X-32.364 Y19.042 E0.0211
G1 X-32.850 Y19.302 E0.0211
G1 X-33.378 Y19.462 E0.0211
G1 X-33.927 Y19.516 E0.0211
G1 X-34.475 Y19.462 E0.0211
G1 X-35.003 Y19.302 E0.0211
G1 X-35.490 Y19.042 E0.0211
G1 X-35.916 Y18.692 E0.0211
G1 X-36.266 Y18.266 E0.0211
G1 X-36.526 Y17.780 E0.0211
G1 X-36.686 Y17.252 E0.0211
G1 X-36.740 Y16.703 E0.0211
G1 X-36.686 Y16.154 E0.0211
G1 X-36.526 Y15.626 E0.0211
G1 X-36.266 Y15.140 E0.0211
G1 X-35.916 Y14.714 E0.0211
G1 X-35.490 Y14.364 E0.0211
G1 X-35.003 Y14.104 E0.0211
G1 X-34.475 Y13.944 E0.0211
G1 X-33.927 Y13.890 E0.0211
G1 X-33.378 Y13.944 E0.0211
G1 X-32.850 Y14.104 E0.0211
G1 X-32.364 Y14.364 E0.0211
G1 X-31.937 Y14.714 E0.0211
G1 X-31.514 Y15.230 E0.0255
G1 X-28.800 Y15.230 E0.1038
G1 X-28.377 Y14.714 E0.0255
G1 X-27.950 Y14.364 E0.0211
G1 X-27.464 Y14.104 E0.0211
G1 X-26.936 Y13.944 E0.0211
G1 X-26.387 Y13.890 E0.0211
G1 X-25.839 Y13.944 E0.0211
G1 X-25.311 Y14.104 E0.0211
G1 X-24.824 Y14.364 E0.0211
G1 X-24.398 Y14.714 E0.0211
G1 X-23.975 Y15.230 E0.0255
G1 X-21.261 Y15.230 E0.1038
G1 X-20.837 Y14.714 E0.0255
G1 X-20.411 Y14.364 E0.0211
G1 X-19.925 Y14.104 E0.0211
G1 X-19.397 Y13.944 E0.0211
G1 X-18.848 Y13.890 E0.0211
G1 X-18.299 Y13.944 E0.0211
G1 X-17.772 Y14.104 E0.0211
G1 X-17.285 Y14.364 E0.0211
G1 X-16.859 Y14.714 E0.0211
G1 X-16.435 Y15.230 E0.0255
G1 X-13.722 Y15.230 E0.1038
G1 X-13.298 Y14.714 E0.0255
G1 X-12.872 Y14.364 E0.0211
G1 X-12.386 Y14.104 E0.0211
G1 X-11.858 Y13.944 E0.0211
G1 X-11.309 Y13.890 E0.0211
G1 X-10.760 Y13.944 E0.0211
G1 X-10.232 Y14.104 E0.0211
G1 X-9.746 Y14.364 E0.0211
G1 X-9.320 Y14.714 E0.0211
G1 X-8.896 Y15.230 E0.0255
G1 X-6.183 Y15.230 E0.1038
G1 X-5.759 Y14.714 E0.0255
G1 X-5.333 Y14.364 E0.0211
G1 X-4.846 Y14.104 E0.0211
G1 X-4.318 Y13.944 E0.0211
G1 X-3.770 Y13.890 E0.0211
G1 X-3.221 Y13.944 E0.0211
G1 X-2.693 Y14.104 E0.0211
G1 X-2.207 Y14.364 E0.0211
G1 X-1.780 Y14.714 E0.0211
G1 X-1.357 Y15.230 E0.0255
G1 X1.357 Y15.230 E0.1038
G1 X1.780 Y14.714 E0.0255
G1 X2.207 Y14.364 E0.0211
G1 X2.693 Y14.104 E0.0211
G1 X3.221 Y13.944 E0.0211
G1 X3.770 Y13.890 E0.0211
G1 X4.318 Y13.944 E0.0211
G1 X4.846 Y14.104 E0.0211
G1 X5.333 Y14.364 E0.0211
G1 X5.759 Y14.714 E0.0211
G1 X6.183 Y15.230 E0.0255
G1 X8.896 Y15.230 E0.1038
G1 X9.320 Y14.714 E0.0255
G1 X9.746 Y14.364 E0.0211
G1 X10.232 Y14.104 E0.0211
G1 X10.760 Y13.944 E0.0211
G1 X11.309 Y13.890 E0.0211
G1 X11.858 Y13.944 E0.0211
G1 X12.385 Y14.104 E0.0211
G1 X12.872 Y14.364 E0.0211
G1 X13.298 Y14.714 E0.0211
G1 X13.722 Y15.230 E0.0255
G1 X16.435 Y15.230 E0.1038
G1 X16.859 Y14.714 E0.0255
G1 X17.285 Y14.364 E0.0211
G1 X17.772 Y14.104 E0.0211
G1 X18.299 Y13.944 E0.0211
G1 X18.848 Y13.890 E0.0211
G1 X19.397 Y13.944 E0.0211
G1 X19.925 Y14.104 E0.0211
G1 X20.411 Y14.364 E0.0211
G1 X20.837 Y14.714 E0.0211
G1 X21.261 Y15.230 E0.0255
G1 X23.974 Y15.230 E0.1038
G1 X24.398 Y14.714 E0.0255
G1 X24.824 Y14.364 E0.0211
G1 X25.311 Y14.104 E0.0211
G1 X25.839 Y13.944 E0.0211
G1 X26.387 Y13.890 E0.0211
G1 X26.936 Y13.944 E0.0211
G1 X27.464 Y14.104 E0.0211
G1 X27.950 Y14.364 E0.0211
G1 X28.377 Y14.714 E0.0211
G1 X28.800 Y15.230 E0.0255
G1 X31.514 Y15.230 E0.1038
G1 X31.937 Y14.714 E0.0255
G1 X32.364 Y14.364 E0.0211
G1 X32.850 Y14.104 E0.0211
G1 X33.378 Y13.944 E0.0211
G1 X33.927 Y13.890 E0.0211
G1 X34.475 Y13.944 E0.0211
G1 X35.003 Y14.104 E0.0211
G1 X35.490 Y14.364 E0.0211
G1 X35.916 Y14.714 E0.0211
G1 X36.266 Y15.140 E0.0211
G1 X36.526 Y15.626 E0.0211
G1 X36.686 Y16.154 E0.0211
G1 X36.740 Y16.703 E0.0211
G1 X36.686 Y17.252 E0.0211
G1 X36.526 Y17.780 E0.0211
G1 X36.266 Y18.266 E0.0211
G1 X35.916 Y18.692 E0.0211
G1 X35.490 Y19.042 E0.0211
G1 X35.003 Y19.302 E0.0211
G1 X34.475 Y19.462 E0.0211
G1 X33.927 Y19.516 E0.0211
G1 X33.378 Y19.462 E0.0211
G1 X32.850 Y19.302 E0.0211
G1 X32.364 Y19.042 E0.0211
G1 X31.937 Y18.692 E0.0211
G1 X31.587 Y18.266 E0.0211
G1 X31.328 Y17.780 E0.0211
G1 X31.167 Y17.252 E0.0211
G1 X31.045 Y16.013 E0.0476
G1 X29.269 Y16.013 E0.0680
G1 X29.147 Y17.252 E0.0476
G1 X28.987 Y17.780 E0.0211
G1 X28.727 Y18.266 E0.0211
G1 X28.377 Y18.692 E0.0211
G1 X27.950 Y19.042 E0.0211
G1 X27.464 Y19.302 E0.0211
G1 X26.936 Y19.462 E0.0211
G1 X26.387 Y19.516 E0.0211
G1 X25.839 Y19.462 E0.0211
G1 X25.311 Y19.302 E0.0211
G1 X24.824 Y19.042 E0.0211
G1 X24.398 Y18.692 E0.0211
G1 X24.048 Y18.266 E0.0211
G1 X23.788 Y17.780 E0.0211
G1 X23.628 Y17.252 E0.0211
G1 X23.506 Y16.013 E0.0476
G1 X21.729 Y16.013 E0.0680
G1 X21.607 Y17.252 E0.0476
G1 X21.447 Y17.780 E0.0211
G1 X21.187 Y18.266 E0.0211
G1 X20.837 Y18.692 E0.0211
G1 X20.411 Y19.042 E0.0211
G1 X19.925 Y19.302 E0.0211
G1 X19.397 Y19.462 E0.0211
G1 X18.848 Y19.516 E0.0211
G1 X18.299 Y19.462 E0.0211
G1 X17.771 Y19.302 E0.0211
G1 X17.285 Y19.042 E0.0211
G1 X16.859 Y18.692 E0.0211
G1 X16.509 Y18.266 E0.0211
G1 X16.249 Y17.780 E0.0211
G1 X16.089 Y17.252 E0.0211
G1 X15.967 Y16.013 E0.0476
G1 X14.190 Y16.013 E0.0680
G1 X14.068 Y17.252 E0.0476
G1 X13.908 Y17.780 E0.0211
G1 X13.648 Y18.266 E0.0211
G1 X13.298 Y18.692 E0.0211
G1 X12.872 Y19.042 E0.0211
G1 X12.386 Y19.302 E0.0211
G1 X11.858 Y19.462 E0.0211
G1 X11.309 Y19.516 E0.0211
G1 X10.760 Y19.462 E0.0211
G1 X10.232 Y19.302 E0.0211
G1 X9.746 Y19.042 E0.0211
G1 X9.320 Y18.692 E0.0211
G1 X8.970 Y18.266 E0.0211
G1 X8.710 Y17.780 E0.0211
G1 X8.550 Y17.252 E0.0211
G1 X8.428 Y16.013 E0.0476
G1 X6.651 Y16.013 E0.0680
G1 X6.529 Y17.252 E0.0476
G1 X6.369 Y17.780 E0.0211
G1 X6.109 Y18.266 E0.0211
G1 X5.759 Y18.692 E0.0211
G1 X5.333 Y19.042 E0.0211
G1 X4.846 Y19.302 E0.0211
G1 X4.318 Y19.462 E0.0211
G1 X3.770 Y19.516 E0.0211
G1 X3.221 Y19.462 E0.0211
G1 X2.693 Y19.302 E0.0211
G1 X2.207 Y19.042 E0.0211
G1 X1.780 Y18.692 E0.0211
G1 X1.430 Y18.266 E0.0211
G1 X1.170 Y17.780 E0.0211
G1 X1.010 Y17.252 E0.0211
G1 X0.888 Y16.013 E0.0476
G1 X-0.888 Y16.013 E0.0680
G1 X-1.010 Y17.252 E0.0476
G1 X-1.170 Y17.780 E0.0211
G1 X-1.430 Y18.266 E0.0211
G1 X-1.780 Y18.692 E0.0211
G1 X-2.207 Y19.042 E0.0211
G1 X-2.693 Y19.302 E0.0211
G1 X-3.221 Y19.462 E0.0211
G1 X-3.770 Y19.516 E0.0211
; feature outer perimeter
G1 X-3.770 Y19.979 F9000
G1 X-4.409 Y19.916 E0.0246 F1200
G1 X-5.023 Y19.729 E0.0246
G1 X-5.589 Y19.427 E0.0246
G1 X-6.086 Y19.019 E0.0246
G1 X-6.493 Y18.523 E0.0246
G1 X-6.796 Y17.957 E0.0246
G1 X-6.982 Y17.342 E0.0246
G1 X-7.068 Y16.473 E0.0334
G1 X-8.011 Y16.473 E0.0361
G1 X-8.096 Y17.342 E0.0334
G1 X-8.283 Y17.957 E0.0246
G1 X-8.585 Y18.523 E0.0246
G1 X-8.993 Y19.019 E0.0246
G1 X-9.489 Y19.427 E0.0246
G1 X-10.055 Y19.729 E0.0246
G1 X-10.670 Y19.916 E0.0246
G1 X-11.309 Y19.979 E0.0246
G1 X-11.948 Y19.916 E0.0246
G1 X-12.562 Y19.729 E0.0246
G1 X-13.129 Y19.427 E0.0246
G1 X-13.625 Y19.019 E0.0246
G1 X-14.032 Y18.523 E0.0246
G1 X-14.335 Y17.957 E0.0246
G1 X-14.521 Y17.342 E0.0246
G1 X-14.607 Y16.473 E0.0334
