; G-Code generated by Simplify3D(R) Version 4.1.2
; Apr 2, 2020 at 12:47:15 PM
; Settings Summary
;   processName,Process1
;   applyToModels,VUK Cover RoofV1R2
;   profileName,MakerBot Replicator 2 HBP (modified)
;   profileVersion,2020-03-12 10:48:50
;   baseProfile,MakerBot Replicator 2(2)
;   printMaterial,PLA
;   printQuality,Medium
;   printExtruders,
;   extruderName,Primary Extruder
;   extruderToolheadNumber,0
;   extruderDiameter,0.4
;   extruderAutoWidth,0
;   extruderWidth,0.4
;   extrusionMultiplier,1
;   extruderUseRetract,1
;   extruderRetractionDistance,1.9
;   extruderExtraRestartDistance,0
;   extruderRetractionZLift,0.5
;   extruderRetractionSpeed,1200
;   extruderUseCoasting,0
;   extruderCoastingDistance,0.2
;   extruderUseWipe,0
;   extruderWipeDistance,5
;   primaryExtruder,0
;   layerHeight,0.2
;   topSolidLayers,3
;   bottomSolidLayers,3
;   perimeterOutlines,2
;   printPerimetersInsideOut,1
;   startPointOption,3
;   startPointOriginX,0
;   startPointOriginY,150
;   sequentialIslands,0
;   spiralVaseMode,0
;   firstLayerHeightPercentage,100
;   firstLayerWidthPercentage,115
;   firstLayerUnderspeed,0.5
;   useRaft,0
;   raftExtruder,0
;   raftTopLayers,2
;   raftBaseLayers,1
;   raftOffset,1
;   raftSeparationDistance,0.14
;   raftTopInfill,90
;   aboveRaftSpeedMultiplier,0.3
;   useSkirt,0
;   skirtExtruder,0
;   skirtLayers,1
;   skirtOutlines,5
;   skirtOffset,0
;   usePrimePillar,0
;   primePillarExtruder,999
;   primePillarWidth,12
;   primePillarLocation,7
;   primePillarSpeedMultiplier,1
;   useOozeShield,0
;   oozeShieldExtruder,999
;   oozeShieldOffset,2
;   oozeShieldOutlines,1
;   oozeShieldSidewallShape,1
;   oozeShieldSidewallAngle,30
;   oozeShieldSpeedMultiplier,1
;   infillExtruder,0
;   internalInfillPattern,Rectilinear
;   externalInfillPattern,Rectilinear
;   infillPercentage,15
;   outlineOverlapPercentage,25
;   infillExtrusionWidthPercentage,100
;   minInfillLength,5
;   infillLayerInterval,1
;   internalInfillAngles,45,-45
;   overlapInternalInfillAngles,0
;   externalInfillAngles,45,-45
;   generateSupport,0
;   supportExtruder,0
;   supportInfillPercentage,20
;   supportExtraInflation,0.5
;   supportBaseLayers,0
;   denseSupportExtruder,0
;   denseSupportLayers,2
;   denseSupportInfillPercentage,90
;   supportLayerInterval,1
;   supportHorizontalPartOffset,0.3
;   supportUpperSeparationLayers,1
;   supportLowerSeparationLayers,1
;   supportType,1
;   supportGridSpacing,2
;   maxOverhangAngle,45
;   supportAngles,45,-45
;   temperatureName,Primary Extruder,Heated Build Platform
;   temperatureNumber,0,0
;   temperatureSetpointCount,1,1
;   temperatureSetpointLayers,1,1
;   temperatureSetpointTemperatures,230,60
;   temperatureStabilizeAtStartup,1,1
;   temperatureHeatedBed,0,1
;   fanLayers,1,2
;   fanSpeeds,0,100
;   blipFanToFullPower,1
;   adjustSpeedForCooling,1
;   minSpeedLayerTime,15
;   minCoolingSpeedSlowdown,20
;   increaseFanForCooling,1
;   minFanLayerTime,45
;   maxCoolingFanSpeed,100
;   increaseFanForBridging,1
;   bridgingFanSpeed,100
;   use5D,1
;   relativeEdistances,1
;   allowEaxisZeroing,0
;   independentExtruderAxes,1
;   includeM10123,0
;   stickySupport,1
;   applyToolheadOffsets,0
;   gcodeXoffset,0
;   gcodeYoffset,0
;   gcodeZoffset,0
;   overrideMachineDefinition,1
;   machineTypeOverride,0
;   strokeXoverride,280
;   strokeYoverride,150
;   strokeZoverride,150
;   originOffsetXoverride,140
;   originOffsetYoverride,75
;   originOffsetZoverride,0
;   homeXdirOverride,1
;   homeYdirOverride,1
;   homeZdirOverride,-1
;   flipXoverride,1
;   flipYoverride,-1
;   flipZoverride,1
;   toolheadOffsets,0,0|0,0|0,0|0,0|0,0|0,0
;   overrideFirmwareConfiguration,1
;   firmwareTypeOverride,MakerBot/Sailfish Firmware
;   GPXconfigOverride,r2h
;   baudRateOverride,115200
;   overridePrinterModels,1
;   printerModelsOverride,MakerBot_Replicator2.stl
;   startingGcode,; **** Replicator 2 start.gcode ****,M73 P0 ; enable build progress,G162 X Y F3000 ; home XY maximum,G161 Z F1200 ; home Z minimum,G92 Z-5 ; set Z to -5,G1 Z0 ; move Z to 0,G161 Z F100 ; home Z slowly,M132 X Y Z A B ; recall home offsets,G1 X-145 Y-75 Z30 F9000 ; move to wait position off table,G130 X20 Y20 Z20 A20 B20 ; lower stepper Vrefs while heating,M126 S[fan_speed_pwm],M140 S[bed0_temperature] T0,M134 T0 ; stabilize bed temperature,M104 S[extruder0_temperature] T0,M133 T0 ; stabilize extruder temperature,G130 X127 Y127 Z40 A127 B127 ; default stepper Vrefs,G92 A0 ; zero extruder,G1 Z0.4 ; position nozzle,G1 E25 F300 ; purge nozzle,G1 X-140 Y-70 Z0.15 F1200 ; slow wipe,G1 X-135 Y-65 Z0.5 F1200 ; lift,G92 A0 ; zero extruder,M73 P1 ;@body (notify GPX body has started),; **** end of start.gcode ****
;   layerChangeGcode,
;   retractionGcode,
;   toolChangeGcode,
;   endingGcode,; **** Replicator 2 end.gcode ****,M73 P100 ; end build progress,G1 Z155 F1000 ; send Z axis to bottom of machine,M104 S0 T0 ; cool down extruder,M140 S0 T0 ; cool down HBP,M127 ; stop blower fan,G162 X Y F3000 ; home XY maximum,M18 ; disable stepper,M0 ; stop codes,M72 P1 ; play Ta-Da song,; **** end of end.gcode ****
;   exportFileFormat,gcode
;   celebration,0
;   celebrationSong,Random Song
;   postProcessing,
;   defaultSpeed,4800
;   outlineUnderspeed,0.5
;   solidInfillUnderspeed,1
;   supportUnderspeed,1
;   rapidXYspeed,9000
;   rapidZspeed,1200
;   minBridgingArea,50
;   bridgingExtraInflation,0
;   bridgingExtrusionMultiplier,1
;   bridgingSpeedMultiplier,0.8
;   useFixedBridgingAngle,0
;   fixedBridgingAngle,0
;   applyBridgingToPerimeters,0
;   filamentDiameters,1.75|1.75|1.75|1.75|1.75|1.75
;   filamentPricesPerKg,46|46|46|46|46|46
;   filamentDensities,1.25|1.25|1.25|1.25|1.25|1.25
;   useMinPrintHeight,0
;   minPrintHeight,0
;   useMaxPrintHeight,0
;   maxPrintHeight,4.84
;   useDiaphragm,0
;   diaphragmLayerInterval,20
;   robustSlicing,1
;   mergeAllIntoSolid,0
;   onlyRetractWhenCrossingOutline,0
;   retractBetweenLayers,0
;   useRetractionMinTravel,1
;   retractionMinTravel,7
;   retractWhileWiping,1
;   onlyWipeOutlines,1
;   avoidCrossingOutline,0
;   maxMovementDetourFactor,3
;   toolChangeRetractionDistance,12
;   toolChangeExtraRestartDistance,-0.5
;   toolChangeRetractionSpeed,600
;   externalThinWallType,0
;   internalThinWallType,0
;   thinWallAllowedOverlapPercentage,10
;   singleExtrusionMinLength,1
;   singleExtrusionMinPrintingWidthPercentage,50
;   singleExtrusionMaxPrintingWidthPercentage,200
;   singleExtrusionEndpointExtension,0.2
;   horizontalSizeCompensation,0
G90
M83
; **** Replicator 2 start.gcode ****
M73 P0 ; enable build progress
G162 X Y F3000 ; home XY maximum
G161 Z F1200 ; home Z minimum
G92 Z-5 ; set Z to -5
G1 Z0 ; move Z to 0
G161 Z F100 ; home Z slowly
M132 X Y Z A B ; recall home offsets
G1 X-145 Y-75 Z30 F9000 ; move to wait position off table
G130 X20 Y20 Z20 A20 B20 ; lower stepper Vrefs while heating
M127
M140 S60 T0
M134 T0 ; stabilize bed temperature
M104 S230 T0
M133 T0 ; stabilize extruder temperature
G130 X127 Y127 Z40 A127 B127 ; default stepper Vrefs
G92 A0 ; zero extruder
G1 Z0.4 ; position nozzle
G1 E25 F300 ; purge nozzle
G1 X-140 Y-70 Z0.15 F1200 ; slow wipe
G1 X-135 Y-65 Z0.5 F1200 ; lift
G92 A0 ; zero extruder
M73 P1 ;@body (notify GPX body has started)
; **** end of start.gcode ****
; process Process1
; layer 1, Z = 0.200
M135 T0
G1 E-1.9000 F1200
; feature inner perimeter
; tool H0.200 W0.460
G1 Z0.500 F1200
G1 X-43.516 Y9.817 F9000
G1 Z0.200 F1200
G1 E1.9000 F1200
G1 X-43.516 Y-9.817 E0.7510 F1800
G1 X43.516 Y-9.817 E3.3289
G1 X43.516 Y9.817 E0.7510
G1 X-43.516 Y9.817 E3.3289
; feature outer perimeter
G1 X-43.976 Y10.277 F9000
G1 X-43.976 Y-10.277 E0.7862 F1200
G1 X43.976 Y-10.277 E3.3641
G1 X43.976 Y10.277 E0.7862
G1 X-43.976 Y10.277 E3.3641
; feature solid layer
G1 X-42.571 Y9.472 F9000
G1 X-43.171 Y8.872 E0.0325 F2400
G1 X-43.171 Y8.221 E0.0249
G1 X-41.920 Y9.472 E0.0677
G1 X-41.270 Y9.472 E0.0249
G1 X-43.171 Y7.571 E0.1029
G1 X-43.171 Y6.920 E0.0249
G1 X-40.619 Y9.472 E0.1380
G1 X-39.969 Y9.472 E0.0249
G1 X-43.171 Y6.270 E0.1732
G1 X-43.171 Y5.619 E0.0249
G1 X-39.318 Y9.472 E0.2084
G1 X-38.667 Y9.472 E0.0249
G1 X-43.171 Y4.969 E0.2436
G1 X-43.171 Y4.318 E0.0249
G1 X-38.017 Y9.472 E0.2788
G1 X-37.366 Y9.472 E0.0249
G1 X-43.171 Y3.668 E0.3140
G1 X-43.171 Y3.017 E0.0249
G1 X-36.716 Y9.472 E0.3492
G1 X-36.065 Y9.472 E0.0249
G1 X-43.171 Y2.367 E0.3844
G1 X-43.171 Y1.716 E0.0249
G1 X-35.415 Y9.472 E0.4196
G1 X-34.764 Y9.472 E0.0249
G1 X-43.171 Y1.065 E0.4547
G1 X-43.171 Y0.415 E0.0249
G1 X-34.114 Y9.472 E0.4899
G1 X-33.463 Y9.472 E0.0249
G1 X-43.171 Y-0.236 E0.5251
G1 X-43.171 Y-0.886 E0.0249
G1 X-32.813 Y9.472 E0.5603
G1 X-32.162 Y9.472 E0.0249
G1 X-43.171 Y-1.537 E0.5955
G1 X-43.171 Y-2.187 E0.0249
G1 X-31.512 Y9.472 E0.6307
G1 X-30.861 Y9.472 E0.0249
G1 X-43.171 Y-2.838 E0.6659
G1 X-43.171 Y-3.488 E0.0249
G1 X-30.210 Y9.472 E0.7011
G1 X-29.560 Y9.472 E0.0249
G1 X-43.171 Y-4.139 E0.7363
G1 X-43.171 Y-4.789 E0.0249
G1 X-28.909 Y9.472 E0.7715
G1 X-28.259 Y9.472 E0.0249
G1 X-43.171 Y-5.440 E0.8066
G1 X-43.171 Y-6.090 E0.0249
G1 X-27.608 Y9.472 E0.8418
G1 X-26.958 Y9.472 E0.0249
G1 X-43.171 Y-6.741 E0.8770
G1 X-43.171 Y-7.392 E0.0249
G1 X-26.307 Y9.472 E0.9122
G1 X-25.657 Y9.472 E0.0249
G1 X-43.171 Y-8.042 E0.9474
G1 X-43.171 Y-8.693 E0.0249
G1 X-25.006 Y9.472 E0.9826
G1 X-24.356 Y9.472 E0.0249
G1 X-43.171 Y-9.343 E1.0178
G1 X-43.171 Y-9.472 E0.0049
G1 X-42.650 Y-9.472 E0.0199
G1 X-23.705 Y9.472 E1.0248
G1 X-23.055 Y9.472 E0.0249
G1 X-41.999 Y-9.472 E1.0248
G1 X-41.349 Y-9.472 E0.0249
G1 X-22.404 Y9.472 E1.0248
G1 X-21.753 Y9.472 E0.0249
G1 X-40.698 Y-9.472 E1.0248
G1 X-40.048 Y-9.472 E0.0249
G1 X-21.103 Y9.472 E1.0248
G1 X-20.452 Y9.472 E0.0249
G1 X-39.397 Y-9.472 E1.0248
G1 X-38.747 Y-9.472 E0.0249
G1 X-19.802 Y9.472 E1.0248
G1 X-19.151 Y9.472 E0.0249
G1 X-38.096 Y-9.472 E1.0248
G1 X-37.445 Y-9.472 E0.0249
G1 X-18.501 Y9.472 E1.0248
G1 X-17.850 Y9.472 E0.0249
G1 X-36.795 Y-9.472 E1.0248
G1 X-36.144 Y-9.472 E0.0249
G1 X-17.200 Y9.472 E1.0248
G1 X-16.549 Y9.472 E0.0249
G1 X-35.494 Y-9.472 E1.0248
G1 X-34.843 Y-9.472 E0.0249
G1 X-15.899 Y9.472 E1.0248
G1 X-15.248 Y9.472 E0.0249
G1 X-34.193 Y-9.472 E1.0248
G1 X-33.542 Y-9.472 E0.0249
G1 X-14.598 Y9.472 E1.0248
G1 X-13.947 Y9.472 E0.0249
G1 X-32.892 Y-9.472 E1.0248
G1 X-32.241 Y-9.472 E0.0249
G1 X-13.296 Y9.472 E1.0248
G1 X-12.646 Y9.472 E0.0249
G1 X-31.591 Y-9.472 E1.0248
G1 X-30.940 Y-9.472 E0.0249
G1 X-11.995 Y9.472 E1.0248
G1 X-11.345 Y9.472 E0.0249
G1 X-30.290 Y-9.472 E1.0248
G1 X-29.639 Y-9.472 E0.0249
G1 X-10.694 Y9.472 E1.0248
G1 X-10.044 Y9.472 E0.0249
G1 X-28.989 Y-9.472 E1.0248
G1 X-28.338 Y-9.472 E0.0249
G1 X-9.393 Y9.472 E1.0248
G1 X-8.743 Y9.472 E0.0249
G1 X-27.687 Y-9.472 E1.0248
G1 X-27.037 Y-9.472 E0.0249
G1 X-8.092 Y9.472 E1.0248
G1 X-7.442 Y9.472 E0.0249
G1 X-26.386 Y-9.472 E1.0248
G1 X-25.736 Y-9.472 E0.0249
G1 X-6.791 Y9.472 E1.0248
G1 X-6.141 Y9.472 E0.0249
G1 X-25.085 Y-9.472 E1.0248
G1 X-24.435 Y-9.472 E0.0249
G1 X-5.490 Y9.472 E1.0248
G1 X-4.839 Y9.472 E0.0249
G1 X-23.784 Y-9.472 E1.0248
G1 X-23.134 Y-9.472 E0.0249
G1 X-4.189 Y9.472 E1.0248
G1 X-3.538 Y9.472 E0.0249
G1 X-22.483 Y-9.472 E1.0248
G1 X-21.833 Y-9.472 E0.0249
G1 X-2.888 Y9.472 E1.0248
G1 X-2.237 Y9.472 E0.0249
G1 X-21.182 Y-9.472 E1.0248
G1 X-20.532 Y-9.472 E0.0249
G1 X-1.587 Y9.472 E1.0248
G1 X-0.936 Y9.472 E0.0249
G1 X-19.881 Y-9.472 E1.0248
G1 X-19.230 Y-9.472 E0.0249
G1 X-0.286 Y9.472 E1.0248
G1 X0.365 Y9.472 E0.0249
G1 X-18.580 Y-9.472 E1.0248
G1 X-17.929 Y-9.472 E0.0249
G1 X1.015 Y9.472 E1.0248
G1 X1.666 Y9.472 E0.0249
G1 X-17.279 Y-9.472 E1.0248
G1 X-16.628 Y-9.472 E0.0249
G1 X2.316 Y9.472 E1.0248
G1 X2.967 Y9.472 E0.0249
G1 X-15.978 Y-9.472 E1.0248
G1 X-15.327 Y-9.472 E0.0249
G1 X3.618 Y9.472 E1.0248
G1 X4.268 Y9.472 E0.0249
G1 X-14.677 Y-9.472 E1.0248
G1 X-14.026 Y-9.472 E0.0249
G1 X4.919 Y9.472 E1.0248
G1 X5.569 Y9.472 E0.0249
G1 X-13.376 Y-9.472 E1.0248
G1 X-12.725 Y-9.472 E0.0249
G1 X6.220 Y9.472 E1.0248
G1 X6.870 Y9.472 E0.0249
G1 X-12.075 Y-9.472 E1.0248
G1 X-11.424 Y-9.472 E0.0249
G1 X7.521 Y9.472 E1.0248
G1 X8.171 Y9.472 E0.0249
G1 X-10.773 Y-9.472 E1.0248
G1 X-10.123 Y-9.472 E0.0249
G1 X8.822 Y9.472 E1.0248
G1 X9.472 Y9.472 E0.0249
G1 X-9.472 Y-9.472 E1.0248
G1 X-8.822 Y-9.472 E0.0249
G1 X10.123 Y9.472 E1.0248
G1 X10.773 Y9.472 E0.0249
G1 X-8.171 Y-9.472 E1.0248
G1 X-7.521 Y-9.472 E0.0249
G1 X11.424 Y9.472 E1.0248
G1 X12.075 Y9.472 E0.0249
G1 X-6.870 Y-9.472 E1.0248
G1 X-6.220 Y-9.472 E0.0249
G1 X12.725 Y9.472 E1.0248
G1 X13.376 Y9.472 E0.0249
G1 X-5.569 Y-9.472 E1.0248
G1 X-4.919 Y-9.472 E0.0249
G1 X14.026 Y9.472 E1.0248
G1 X14.677 Y9.472 E0.0249
G1 X-4.268 Y-9.472 E1.0248
G1 X-3.618 Y-9.472 E0.0249
G1 X15.327 Y9.472 E1.0248
G1 X15.978 Y9.472 E0.0249
G1 X-2.967 Y-9.472 E1.0248
G1 X-2.316 Y-9.472 E0.0249
G1 X16.628 Y9.472 E1.0248
G1 X17.279 Y9.472 E0.0249
G1 X-1.666 Y-9.472 E1.0248
G1 X-1.015 Y-9.472 E0.0249
G1 X17.929 Y9.472 E1.0248
G1 X18.580 Y9.472 E0.0249
G1 X-0.365 Y-9.472 E1.0248
G1 X0.286 Y-9.472 E0.0249
G1 X19.230 Y9.472 E1.0248
G1 X19.881 Y9.472 E0.0249
G1 X0.936 Y-9.472 E1.0248
G1 X1.587 Y-9.472 E0.0249
G1 X20.532 Y9.472 E1.0248
G1 X21.182 Y9.472 E0.0249
G1 X2.237 Y-9.472 E1.0248
G1 X2.888 Y-9.472 E0.0249
G1 X21.833 Y9.472 E1.0248
G1 X22.483 Y9.472 E0.0249
G1 X3.538 Y-9.472 E1.0248
G1 X4.189 Y-9.472 E0.0249
G1 X23.134 Y9.472 E1.0248
G1 X23.784 Y9.472 E0.0249
G1 X4.839 Y-9.472 E1.0248
G1 X5.490 Y-9.472 E0.0249
G1 X24.435 Y9.472 E1.0248
G1 X25.085 Y9.472 E0.0249
G1 X6.141 Y-9.472 E1.0248
G1 X6.791 Y-9.472 E0.0249
G1 X25.736 Y9.472 E1.0248
G1 X26.386 Y9.472 E0.0249
G1 X7.442 Y-9.472 E1.0248
G1 X8.092 Y-9.472 E0.0249
G1 X27.037 Y9.472 E1.0248
G1 X27.687 Y9.472 E0.0249
G1 X8.743 Y-9.472 E1.0248
G1 X9.393 Y-9.472 E0.0249
G1 X28.338 Y9.472 E1.0248
G1 X28.989 Y9.472 E0.0249
G1 X10.044 Y-9.472 E1.0248
G1 X10.694 Y-9.472 E0.0249
G1 X29.639 Y9.472 E1.0248
G1 X30.290 Y9.472 E0.0249
G1 X11.345 Y-9.472 E1.0248
G1 X11.995 Y-9.472 E0.0249
G1 X30.940 Y9.472 E1.0248
G1 X31.591 Y9.472 E0.0249
G1 X12.646 Y-9.472 E1.0248
G1 X13.296 Y-9.472 E0.0249
G1 X32.241 Y9.472 E1.0248
G1 X32.892 Y9.472 E0.0249
G1 X13.947 Y-9.472 E1.0248
G1 X14.598 Y-9.472 E0.0249
G1 X33.542 Y9.472 E1.0248
G1 X34.193 Y9.472 E0.0249
G1 X15.248 Y-9.472 E1.0248
G1 X15.899 Y-9.472 E0.0249
G1 X34.843 Y9.472 E1.0248
G1 X35.494 Y9.472 E0.0249
G1 X16.549 Y-9.472 E1.0248
G1 X17.200 Y-9.472 E0.0249
G1 X36.144 Y9.472 E1.0248
G1 X36.795 Y9.472 E0.0249
G1 X17.850 Y-9.472 E1.0248
G1 X18.501 Y-9.472 E0.0249
G1 X37.446 Y9.472 E1.0248
G1 X38.096 Y9.472 E0.0249
G1 X19.151 Y-9.472 E1.0248
G1 X19.802 Y-9.472 E0.0249
G1 X38.747 Y9.472 E1.0248
G1 X39.397 Y9.472 E0.0249
G1 X20.452 Y-9.472 E1.0248
G1 X21.103 Y-9.472 E0.0249
G1 X40.048 Y9.472 E1.0248
G1 X40.698 Y9.472 E0.0249
G1 X21.753 Y-9.472 E1.0248
G1 X22.404 Y-9.472 E0.0249
G1 X41.349 Y9.472 E1.0248
G1 X41.999 Y9.472 E0.0249
G1 X23.055 Y-9.472 E1.0248
G1 X23.705 Y-9.472 E0.0249
G1 X42.650 Y9.472 E1.0248
G1 X43.171 Y9.472 E0.0199
G1 X43.171 Y9.343 E0.0049
G1 X24.356 Y-9.472 E1.0178
G1 X25.006 Y-9.472 E0.0249
G1 X43.171 Y8.693 E0.9826
G1 X43.171 Y8.042 E0.0249
G1 X25.657 Y-9.472 E0.9474
G1 X26.307 Y-9.472 E0.0249
G1 X43.171 Y7.392 E0.9122
G1 X43.171 Y6.741 E0.0249
G1 X26.958 Y-9.472 E0.8770
G1 X27.608 Y-9.472 E0.0249
G1 X43.171 Y6.090 E0.8418
G1 X43.171 Y5.440 E0.0249
G1 X28.259 Y-9.472 E0.8066
G1 X28.909 Y-9.472 E0.0249
G1 X43.171 Y4.789 E0.7715
G1 X43.171 Y4.139 E0.0249
G1 X29.560 Y-9.472 E0.7363
G1 X30.210 Y-9.472 E0.0249
G1 X43.171 Y3.488 E0.7011
G1 X43.171 Y2.838 E0.0249
G1 X30.861 Y-9.472 E0.6659
G1 X31.512 Y-9.472 E0.0249
G1 X43.171 Y2.187 E0.6307
G1 X43.171 Y1.537 E0.0249
G1 X32.162 Y-9.472 E0.5955
G1 X32.813 Y-9.472 E0.0249
G1 X43.171 Y0.886 E0.5603
G1 X43.171 Y0.236 E0.0249
G1 X33.463 Y-9.472 E0.5251
G1 X34.114 Y-9.472 E0.0249
G1 X43.171 Y-0.415 E0.4899
G1 X43.171 Y-1.065 E0.0249
G1 X34.764 Y-9.472 E0.4547
G1 X35.415 Y-9.472 E0.0249
G1 X43.171 Y-1.716 E0.4196
G1 X43.171 Y-2.367 E0.0249
G1 X36.065 Y-9.472 E0.3844
G1 X36.716 Y-9.472 E0.0249
G1 X43.171 Y-3.017 E0.3492
