; G-Code generated by Simplify3D(R) Version 4.1.2
; Apr 2, 2020 at 12:48:48 PM
; Settings Summary
;   processName,Process1
;   applyToModels,VUK diffuser
;   profileName,MakerBot Replicator 2 HBP (modified)
;   profileVersion,2020-03-12 10:48:50
;   baseProfile,MakerBot Replicator 2(2)
;   printMaterial,PLA
;   printQuality,Medium
;   printExtruders,
;   extruderName,Primary Extruder
;   extruderToolheadNumber,0
;   extruderDiameter,0.4
;   extruderAutoWidth,0
;   extruderWidth,0.4
;   extrusionMultiplier,1
;   extruderUseRetract,1
;   extruderRetractionDistance,1.9
;   extruderExtraRestartDistance,0
;   extruderRetractionZLift,0.5
;   extruderRetractionSpeed,1200
;   extruderUseCoasting,0
;   extruderCoastingDistance,0.2
;   extruderUseWipe,0
;   extruderWipeDistance,5
;   primaryExtruder,0
;   layerHeight,0.2
;   topSolidLayers,3
;   bottomSolidLayers,3
;   perimeterOutlines,2
;   printPerimetersInsideOut,1
;   startPointOption,3
;   startPointOriginX,0
;   startPointOriginY,150
;   sequentialIslands,0
;   spiralVaseMode,0
;   firstLayerHeightPercentage,100
;   firstLayerWidthPercentage,115
;   firstLayerUnderspeed,0.5
;   useRaft,0
;   raftExtruder,0
;   raftTopLayers,2
;   raftBaseLayers,1
;   raftOffset,1
;   raftSeparationDistance,0.14
;   raftTopInfill,90
;   aboveRaftSpeedMultiplier,0.3
;   useSkirt,0
;   skirtExtruder,0
;   skirtLayers,1
;   skirtOutlines,5
;   skirtOffset,0
;   usePrimePillar,0
;   primePillarExtruder,999
;   primePillarWidth,12
;   primePillarLocation,7
;   primePillarSpeedMultiplier,1
;   useOozeShield,0
;   oozeShieldExtruder,999
;   oozeShieldOffset,2
;   oozeShieldOutlines,1
;   oozeShieldSidewallShape,1
;   oozeShieldSidewallAngle,30
;   oozeShieldSpeedMultiplier,1
;   infillExtruder,0
;   internalInfillPattern,Rectilinear
;   externalInfillPattern,Rectilinear
;   infillPercentage,15
;   outlineOverlapPercentage,25
;   infillExtrusionWidthPercentage,100
;   minInfillLength,5
;   infillLayerInterval,1
;   internalInfillAngles,45,-45
;   overlapInternalInfillAngles,0
;   externalInfillAngles,45,-45
;   generateSupport,0
;   supportExtruder,0
;   supportInfillPercentage,20
;   supportExtraInflation,0.5
;   supportBaseLayers,0
;   denseSupportExtruder,0
;   denseSupportLayers,2
;   denseSupportInfillPercentage,90
;   supportLayerInterval,1
;   supportHorizontalPartOffset,0.3
;   supportUpperSeparationLayers,1
;   supportLowerSeparationLayers,1
;   supportType,1
;   supportGridSpacing,2
;   maxOverhangAngle,45
;   supportAngles,45,-45
;   temperatureName,Primary Extruder,Heated Build Platform
;   temperatureNumber,0,0
;   temperatureSetpointCount,1,1
;   temperatureSetpointLayers,1,1
;   temperatureSetpointTemperatures,230,60
;   temperatureStabilizeAtStartup,1,1
;   temperatureHeatedBed,0,1
;   fanLayers,1,2
;   fanSpeeds,0,100
;   blipFanToFullPower,1
;   adjustSpeedForCooling,1
;   minSpeedLayerTime,15
;   minCoolingSpeedSlowdown,20
;   increaseFanForCooling,1
;   minFanLayerTime,45
;   maxCoolingFanSpeed,100
;   increaseFanForBridging,1
;   bridgingFanSpeed,100
;   use5D,1
;   relativeEdistances,1
;   allowEaxisZeroing,0
;   independentExtruderAxes,1
;   includeM10123,0
;   stickySupport,1
;   applyToolheadOffsets,0
;   gcodeXoffset,0
;   gcodeYoffset,0
;   gcodeZoffset,0
;   overrideMachineDefinition,1
;   machineTypeOverride,0
;   strokeXoverride,280
;   strokeYoverride,150
;   strokeZoverride,150
;   originOffsetXoverride,140
;   originOffsetYoverride,75
;   originOffsetZoverride,0
;   homeXdirOverride,1
;   homeYdirOverride,1
;   homeZdirOverride,-1
;   flipXoverride,1
;   flipYoverride,-1
;   flipZoverride,1
;   toolheadOffsets,0,0|0,0|0,0|0,0|0,0|0,0
;   overrideFirmwareConfiguration,1
;   firmwareTypeOverride,MakerBot/Sailfish Firmware
;   GPXconfigOverride,r2h
;   baudRateOverride,115200
;   overridePrinterModels,1
;   printerModelsOverride,MakerBot_Replicator2.stl
;   startingGcode,; **** Replicator 2 start.gcode ****,M73 P0 ; enable build progress,G162 X Y F3000 ; home XY maximum,G161 Z F1200 ; home Z minimum,G92 Z-5 ; set Z to -5,G1 Z0 ; move Z to 0,G161 Z F100 ; home Z slowly,M132 X Y Z A B ; recall home offsets,G1 X-145 Y-75 Z30 F9000 ; move to wait position off table,G130 X20 Y20 Z20 A20 B20 ; lower stepper Vrefs while heating,M126 S[fan_speed_pwm],M140 S[bed0_temperature] T0,M134 T0 ; stabilize bed temperature,M104 S[extruder0_temperature] T0,M133 T0 ; stabilize extruder temperature,G130 X127 Y127 Z40 A127 B127 ; default stepper Vrefs,G92 A0 ; zero extruder,G1 Z0.4 ; position nozzle,G1 E25 F300 ; purge nozzle,G1 X-140 Y-70 Z0.15 F1200 ; slow wipe,G1 X-135 Y-65 Z0.5 F1200 ; lift,G92 A0 ; zero extruder,M73 P1 ;@body (notify GPX body has started),; **** end of start.gcode ****
;   layerChangeGcode,
;   retractionGcode,
;   toolChangeGcode,
;   endingGcode,; **** Replicator 2 end.gcode ****,M73 P100 ; end build progress,G1 Z155 F1000 ; send Z axis to bottom of machine,M104 S0 T0 ; cool down extruder,M140 S0 T0 ; cool down HBP,M127 ; stop blower fan,G162 X Y F3000 ; home XY maximum,M18 ; disable stepper,M0 ; stop codes,M72 P1 ; play Ta-Da song,; **** end of end.gcode ****
;   exportFileFormat,gcode
;   celebration,0
;   celebrationSong,Random Song
;   postProcessing,
;   defaultSpeed,4800
;   outlineUnderspeed,0.5
;   solidInfillUnderspeed,1
;   supportUnderspeed,1
;   rapidXYspeed,9000
;   rapidZspeed,1200
;   minBridgingArea,50
;   bridgingExtraInflation,0
;   bridgingExtrusionMultiplier,1
;   bridgingSpeedMultiplier,0.8
;   useFixedBridgingAngle,0
;   fixedBridgingAngle,0
;   applyBridgingToPerimeters,0
;   filamentDiameters,1.75|1.75|1.75|1.75|1.75|1.75
;   filamentPricesPerKg,46|46|46|46|46|46
;   filamentDensities,1.25|1.25|1.25|1.25|1.25|1.25
;   useMinPrintHeight,0
;   minPrintHeight,0
;   useMaxPrintHeight,0
;   maxPrintHeight,4.84
;   useDiaphragm,0
;   diaphragmLayerInterval,20
;   robustSlicing,1
;   mergeAllIntoSolid,0
;   onlyRetractWhenCrossingOutline,0
;   retractBetweenLayers,0
;   useRetractionMinTravel,1
;   retractionMinTravel,7
;   retractWhileWiping,1
;   onlyWipeOutlines,1
;   avoidCrossingOutline,0
;   maxMovementDetourFactor,3
;   toolChangeRetractionDistance,12
;   toolChangeExtraRestartDistance,-0.5
;   toolChangeRetractionSpeed,600
;   externalThinWallType,0
;   internalThinWallType,0
;   thinWallAllowedOverlapPercentage,10
;   singleExtrusionMinLength,1
;   singleExtrusionMinPrintingWidthPercentage,50
;   singleExtrusionMaxPrintingWidthPercentage,200
;   singleExtrusionEndpointExtension,0.2
;   horizontalSizeCompensation,0
G90
M83
; **** Replicator 2 start.gcode ****
M73 P0 ; enable build progress
G162 X Y F3000 ; home XY maximum
G161 Z F1200 ; home Z minimum
G92 Z-5 ; set Z to -5
G1 Z0 ; move Z to 0
G161 Z F100 ; home Z slowly
M132 X Y Z A B ; recall home offsets
G1 X-145 Y-75 Z30 F9000 ; move to wait position off table
G130 X20 Y20 Z20 A20 B20 ; lower stepper Vrefs while heating
M127
M140 S60 T0
M134 T0 ; stabilize bed temperature
M104 S230 T0
M133 T0 ; stabilize extruder temperature
G130 X127 Y127 Z40 A127 B127 ; default stepper Vrefs
G92 A0 ; zero extruder
G1 Z0.4 ; position nozzle
G1 E25 F300 ; purge nozzle
G1 X-140 Y-70 Z0.15 F1200 ; slow wipe
G1 X-135 Y-65 Z0.5 F1200 ; lift
G92 A0 ; zero extruder
M73 P1 ;@body (notify GPX body has started)
; **** end of start.gcode ****
; process Process1
; layer 1, Z = 0.200
M135 T0
G1 E-1.9000 F1200
; feature inner perimeter
; tool H0.200 W0.460
G1 Z0.500 F1200
G1 X9.566 Y51.028 F9000
G1 Z0.200 F1200
G1 E1.9000 F1200
G1 X9.566 Y-25.198 E2.9156 F1800
G1 X-46.426 Y-25.198 E2.1417
G1 X-46.426 Y-51.028 E0.9880
G1 X46.426 Y-51.028 E3.5515
G1 X46.426 Y51.028 E3.9036
G1 X9.566 Y51.028 E1.4099
; feature outer perimeter
G1 X9.106 Y51.488 F9000
G1 X9.106 Y-24.738 E2.9156 F1200
G1 X-46.886 Y-24.738 E2.1417
G1 X-46.886 Y-51.488 E1.0232
G1 X46.886 Y-51.488 E3.5867
G1 X46.886 Y51.488 E3.9388
G1 X9.106 Y51.488 E1.4451
; feature solid layer
G1 X10.350 Y50.683 F9000
G1 X9.911 Y50.244 E0.0237 F2400
G1 X9.911 Y49.594 E0.0249
G1 X11.001 Y50.683 E0.0589
G1 X11.651 Y50.683 E0.0249
G1 X9.911 Y48.943 E0.0941
G1 X9.911 Y48.293 E0.0249
G1 X12.302 Y50.683 E0.1293
G1 X12.952 Y50.683 E0.0249
G1 X9.911 Y47.642 E0.1645
G1 X9.911 Y46.992 E0.0249
G1 X13.603 Y50.683 E0.1997
G1 X14.253 Y50.683 E0.0249
G1 X9.911 Y46.341 E0.2349
G1 X9.911 Y45.691 E0.0249
G1 X14.904 Y50.683 E0.2701
G1 X15.554 Y50.683 E0.0249
G1 X9.911 Y45.040 E0.3053
G1 X9.911 Y44.390 E0.0249
G1 X16.205 Y50.683 E0.3405
G1 X16.855 Y50.683 E0.0249
G1 X9.911 Y43.739 E0.3756
G1 X9.911 Y43.088 E0.0249
G1 X17.506 Y50.683 E0.4108
G1 X18.157 Y50.683 E0.0249
G1 X9.911 Y42.438 E0.4460
G1 X9.911 Y41.787 E0.0249
G1 X18.807 Y50.683 E0.4812
G1 X19.458 Y50.683 E0.0249
G1 X9.911 Y41.137 E0.5164
G1 X9.911 Y40.486 E0.0249
G1 X20.108 Y50.683 E0.5516
G1 X20.759 Y50.683 E0.0249
G1 X9.911 Y39.836 E0.5868
G1 X9.911 Y39.185 E0.0249
G1 X21.409 Y50.683 E0.6220
G1 X22.060 Y50.683 E0.0249
G1 X9.911 Y38.535 E0.6572
G1 X9.911 Y37.884 E0.0249
G1 X22.710 Y50.683 E0.6923
G1 X23.361 Y50.683 E0.0249
G1 X9.911 Y37.234 E0.7275
G1 X9.911 Y36.583 E0.0249
G1 X24.011 Y50.683 E0.7627
G1 X24.662 Y50.683 E0.0249
G1 X9.911 Y35.933 E0.7979
G1 X9.911 Y35.282 E0.0249
G1 X25.312 Y50.683 E0.8331
G1 X25.963 Y50.683 E0.0249
G1 X9.911 Y34.631 E0.8683
G1 X9.911 Y33.981 E0.0249
G1 X26.613 Y50.683 E0.9035
G1 X27.264 Y50.683 E0.0249
G1 X9.911 Y33.330 E0.9387
G1 X9.911 Y32.680 E0.0249
G1 X27.915 Y50.683 E0.9739
G1 X28.565 Y50.683 E0.0249
G1 X9.911 Y32.029 E1.0090
G1 X9.911 Y31.379 E0.0249
G1 X29.216 Y50.683 E1.0442
G1 X29.866 Y50.683 E0.0249
G1 X9.911 Y30.728 E1.0794
G1 X9.911 Y30.078 E0.0249
G1 X30.517 Y50.683 E1.1146
G1 X31.167 Y50.683 E0.0249
G1 X9.911 Y29.427 E1.1498
G1 X9.911 Y28.777 E0.0249
G1 X31.818 Y50.683 E1.1850
G1 X32.468 Y50.683 E0.0249
G1 X9.911 Y28.126 E1.2202
G1 X9.911 Y27.476 E0.0249
G1 X33.119 Y50.683 E1.2554
G1 X33.769 Y50.683 E0.0249
G1 X9.911 Y26.825 E1.2906
G1 X9.911 Y26.174 E0.0249
G1 X34.420 Y50.683 E1.3258
G1 X35.070 Y50.683 E0.0249
G1 X9.911 Y25.524 E1.3609
G1 X9.911 Y24.873 E0.0249
G1 X35.721 Y50.683 E1.3961
G1 X36.372 Y50.683 E0.0249
G1 X9.911 Y24.223 E1.4313
G1 X9.911 Y23.572 E0.0249
G1 X37.022 Y50.683 E1.4665
G1 X37.673 Y50.683 E0.0249
G1 X9.911 Y22.922 E1.5017
G1 X9.911 Y22.271 E0.0249
G1 X38.323 Y50.683 E1.5369
G1 X38.974 Y50.683 E0.0249
G1 X9.911 Y21.621 E1.5721
G1 X9.911 Y20.970 E0.0249
G1 X39.624 Y50.683 E1.6073
G1 X40.275 Y50.683 E0.0249
G1 X9.911 Y20.320 E1.6425
G1 X9.911 Y19.669 E0.0249
G1 X40.925 Y50.683 E1.6776
G1 X41.576 Y50.683 E0.0249
G1 X9.911 Y19.019 E1.7128
G1 X9.911 Y18.368 E0.0249
G1 X42.226 Y50.683 E1.7480
G1 X42.877 Y50.683 E0.0249
G1 X9.911 Y17.717 E1.7832
G1 X9.911 Y17.067 E0.0249
G1 X43.527 Y50.683 E1.8184
G1 X44.178 Y50.683 E0.0249
G1 X9.911 Y16.416 E1.8536
G1 X9.911 Y15.766 E0.0249
G1 X44.829 Y50.683 E1.8888
G1 X45.479 Y50.683 E0.0249
G1 X9.911 Y15.115 E1.9240
G1 X9.911 Y14.465 E0.0249
G1 X46.081 Y50.635 E1.9565
G1 X46.081 Y49.985 E0.0249
G1 X9.911 Y13.814 E1.9565
G1 X9.911 Y13.164 E0.0249
G1 X46.081 Y49.334 E1.9565
G1 X46.081 Y48.684 E0.0249
G1 X9.911 Y12.513 E1.9565
G1 X9.911 Y11.863 E0.0249
G1 X46.081 Y48.033 E1.9565
G1 X46.081 Y47.382 E0.0249
G1 X9.911 Y11.212 E1.9565
G1 X9.911 Y10.562 E0.0249
G1 X46.081 Y46.732 E1.9565
G1 X46.081 Y46.081 E0.0249
G1 X9.911 Y9.911 E1.9565
G1 X9.911 Y9.260 E0.0249
G1 X46.081 Y45.431 E1.9565
G1 X46.081 Y44.780 E0.0249
G1 X9.911 Y8.610 E1.9565
G1 X9.911 Y7.959 E0.0249
G1 X46.081 Y44.130 E1.9565
G1 X46.081 Y43.479 E0.0249
G1 X9.911 Y7.309 E1.9565
G1 X9.911 Y6.658 E0.0249
G1 X46.081 Y42.829 E1.9565
G1 X46.081 Y42.178 E0.0249
G1 X9.911 Y6.008 E1.9565
G1 X9.911 Y5.357 E0.0249
G1 X46.081 Y41.528 E1.9565
G1 X46.081 Y40.877 E0.0249
G1 X9.911 Y4.707 E1.9565
G1 X9.911 Y4.056 E0.0249
G1 X46.081 Y40.227 E1.9565
G1 X46.081 Y39.576 E0.0249
G1 X9.911 Y3.406 E1.9565
G1 X9.911 Y2.755 E0.0249
G1 X46.081 Y38.925 E1.9565
G1 X46.081 Y38.275 E0.0249
G1 X9.911 Y2.105 E1.9565
G1 X9.911 Y1.454 E0.0249
G1 X46.081 Y37.624 E1.9565
G1 X46.081 Y36.974 E0.0249
G1 X9.911 Y0.803 E1.9565
G1 X9.911 Y0.153 E0.0249
G1 X46.081 Y36.323 E1.9565
G1 X46.081 Y35.673 E0.0249
G1 X9.911 Y-0.498 E1.9565
G1 X9.911 Y-1.148 E0.0249
G1 X46.081 Y35.022 E1.9565
G1 X46.081 Y34.372 E0.0249
G1 X9.911 Y-1.799 E1.9565
G1 X9.911 Y-2.449 E0.0249
G1 X46.081 Y33.721 E1.9565
G1 X46.081 Y33.071 E0.0249
G1 X9.911 Y-3.100 E1.9565
G1 X9.911 Y-3.750 E0.0249
G1 X46.081 Y32.420 E1.9565
G1 X46.081 Y31.770 E0.0249
G1 X9.911 Y-4.401 E1.9565
G1 X9.911 Y-5.051 E0.0249
G1 X46.081 Y31.119 E1.9565
G1 X46.081 Y30.468 E0.0249
G1 X9.911 Y-5.702 E1.9565
G1 X9.911 Y-6.352 E0.0249
G1 X46.081 Y29.818 E1.9565
G1 X46.081 Y29.167 E0.0249
G1 X9.911 Y-7.003 E1.9565
G1 X9.911 Y-7.654 E0.0249
G1 X46.081 Y28.517 E1.9565
G1 X46.081 Y27.866 E0.0249
G1 X9.911 Y-8.304 E1.9565
G1 X9.911 Y-8.955 E0.0249
G1 X46.081 Y27.216 E1.9565
G1 X46.081 Y26.565 E0.0249
G1 X9.911 Y-9.605 E1.9565
G1 X9.911 Y-10.256 E0.0249
G1 X46.081 Y25.915 E1.9565
G1 X46.081 Y25.264 E0.0249
G1 X9.911 Y-10.906 E1.9565
G1 X9.911 Y-11.557 E0.0249
G1 X46.081 Y24.614 E1.9565
G1 X46.081 Y23.963 E0.0249
G1 X9.911 Y-12.207 E1.9565
G1 X9.911 Y-12.858 E0.0249
G1 X46.081 Y23.313 E1.9565
G1 X46.081 Y22.662 E0.0249
G1 X9.911 Y-13.508 E1.9565
G1 X9.911 Y-14.159 E0.0249
G1 X46.081 Y22.011 E1.9565
G1 X46.081 Y21.361 E0.0249
G1 X9.911 Y-14.809 E1.9565
G1 X9.911 Y-15.460 E0.0249
G1 X46.081 Y20.710 E1.9565
G1 X46.081 Y20.060 E0.0249
G1 X9.911 Y-16.111 E1.9565
G1 X9.911 Y-16.761 E0.0249
G1 X46.081 Y19.409 E1.9565
G1 X46.081 Y18.759 E0.0249
G1 X9.911 Y-17.412 E1.9565
G1 X9.911 Y-18.062 E0.0249
G1 X46.081 Y18.108 E1.9565
G1 X46.081 Y17.458 E0.0249
G1 X9.911 Y-18.713 E1.9565
G1 X9.911 Y-19.363 E0.0249
G1 X46.081 Y16.807 E1.9565
G1 X46.081 Y16.157 E0.0249
G1 X9.911 Y-20.014 E1.9565
G1 X9.911 Y-20.664 E0.0249
G1 X46.081 Y15.506 E1.9565
G1 X46.081 Y14.856 E0.0249
G1 X9.911 Y-21.315 E1.9565
G1 X9.911 Y-21.965 E0.0249
G1 X46.081 Y14.205 E1.9565
G1 X46.081 Y13.554 E0.0249
G1 X9.911 Y-22.616 E1.9565
G1 X9.911 Y-23.266 E0.0249
G1 X46.081 Y12.904 E1.9565
G1 X46.081 Y12.253 E0.0249
G1 X9.911 Y-23.917 E1.9565
G1 X9.911 Y-24.568 E0.0249
G1 X46.081 Y11.603 E1.9565
G1 X46.081 Y10.952 E0.0249
G1 X9.911 Y-25.218 E1.9565
G1 E-1.9000 F1200
G1 Z0.700 F1200
G1 X45.596 Y-50.683 F9000
G1 Z0.200 F1200
G1 E1.9000 F1200
G1 X46.081 Y-50.198 E0.0262 F2400
G1 X46.081 Y-49.548 E0.0249
G1 X44.946 Y-50.683 E0.0614
G1 X44.295 Y-50.683 E0.0249
G1 X46.081 Y-48.897 E0.0966
G1 X46.081 Y-48.247 E0.0249
G1 X43.645 Y-50.683 E0.1318
G1 X42.994 Y-50.683 E0.0249
G1 X46.081 Y-47.596 E0.1670
G1 X46.081 Y-46.946 E0.0249
G1 X42.344 Y-50.683 E0.2022
G1 X41.693 Y-50.683 E0.0249
G1 X46.081 Y-46.295 E0.2374
G1 X46.081 Y-45.645 E0.0249
G1 X41.043 Y-50.683 E0.2726
G1 X40.392 Y-50.683 E0.0249
G1 X46.081 Y-44.994 E0.3078
G1 X46.081 Y-44.343 E0.0249
G1 X39.741 Y-50.683 E0.3429
G1 X39.091 Y-50.683 E0.0249
G1 X46.081 Y-43.693 E0.3781
G1 X46.081 Y-43.042 E0.0249
G1 X38.440 Y-50.683 E0.4133
G1 X37.790 Y-50.683 E0.0249
G1 X46.081 Y-42.392 E0.4485
G1 X46.081 Y-41.741 E0.0249
G1 X37.139 Y-50.683 E0.4837
G1 X36.489 Y-50.683 E0.0249
G1 X46.081 Y-41.091 E0.5189
G1 X46.081 Y-40.440 E0.0249
G1 X35.838 Y-50.683 E0.5541
G1 X35.188 Y-50.683 E0.0249
G1 X46.081 Y-39.790 E0.5893
G1 X46.081 Y-39.139 E0.0249
G1 X34.537 Y-50.683 E0.6245
G1 X33.887 Y-50.683 E0.0249
G1 X46.081 Y-38.489 E0.6596
G1 X46.081 Y-37.838 E0.0249
G1 X33.236 Y-50.683 E0.6948
G1 X32.586 Y-50.683 E0.0249
G1 X46.081 Y-37.188 E0.7300
G1 X46.081 Y-36.537 E0.0249
G1 X31.935 Y-50.683 E0.7652
G1 X31.284 Y-50.683 E0.0249
G1 X46.081 Y-35.886 E0.8004
G1 X46.081 Y-35.236 E0.0249
G1 X30.634 Y-50.683 E0.8356
G1 X29.983 Y-50.683 E0.0249
G1 X46.081 Y-34.585 E0.8708
G1 X46.081 Y-33.935 E0.0249
G1 X29.333 Y-50.683 E0.9060
G1 X28.682 Y-50.683 E0.0249
G1 X46.081 Y-33.284 E0.9412
G1 X46.081 Y-32.634 E0.0249
G1 X28.032 Y-50.683 E0.9764
G1 X27.381 Y-50.683 E0.0249
G1 X46.081 Y-31.983 E1.0115
G1 X46.081 Y-31.333 E0.0249
G1 X26.731 Y-50.683 E1.0467
G1 X26.080 Y-50.683 E0.0249
G1 X46.081 Y-30.682 E1.0819
G1 X46.081 Y-30.032 E0.0249
G1 X25.430 Y-50.683 E1.1171
G1 X24.779 Y-50.683 E0.0249
