; G-Code generated by Simplify3D(R) Version 4.1.2
; Apr 2, 2020 at 12:50:07 PM
; Settings Summary
;   processName,Process1
;   applyToModels,VUK sign
;   profileName,MakerBot Replicator 2 HBP (modified)
;   profileVersion,2020-03-12 10:48:50
;   baseProfile,MakerBot Replicator 2(2)
;   printMaterial,PLA
;   printQuality,Medium
;   printExtruders,
;   extruderName,Primary Extruder
;   extruderToolheadNumber,0
;   extruderDiameter,0.4
;   extruderAutoWidth,0
;   extruderWidth,0.4
;   extrusionMultiplier,1
;   extruderUseRetract,1
;   extruderRetractionDistance,1.9
;   extruderExtraRestartDistance,0
;   extruderRetractionZLift,0.5
;   extruderRetractionSpeed,1200
;   extruderUseCoasting,0
;   extruderCoastingDistance,0.2
;   extruderUseWipe,0
;   extruderWipeDistance,5
;   primaryExtruder,0
;   layerHeight,0.2
;   topSolidLayers,3
;   bottomSolidLayers,3
;   perimeterOutlines,2
;   printPerimetersInsideOut,1
;   startPointOption,3
;   startPointOriginX,0
;   startPointOriginY,150
;   sequentialIslands,0
;   spiralVaseMode,0
;   firstLayerHeightPercentage,100
;   firstLayerWidthPercentage,115
;   firstLayerUnderspeed,0.5
;   useRaft,0
;   raftExtruder,0
;   raftTopLayers,2
;   raftBaseLayers,1
;   raftOffset,1
;   raftSeparationDistance,0.14
;   raftTopInfill,90
;   aboveRaftSpeedMultiplier,0.3
;   useSkirt,0
;   skirtExtruder,0
;   skirtLayers,1
;   skirtOutlines,5
;   skirtOffset,0
;   usePrimePillar,0
;   primePillarExtruder,999
;   primePillarWidth,12
;   primePillarLocation,7
;   primePillarSpeedMultiplier,1
;   useOozeShield,0
;   oozeShieldExtruder,999
;   oozeShieldOffset,2
;   oozeShieldOutlines,1
;   oozeShieldSidewallShape,1
;   oozeShieldSidewallAngle,30
;   oozeShieldSpeedMultiplier,1
;   infillExtruder,0
;   internalInfillPattern,Rectilinear
;   externalInfillPattern,Rectilinear
;   infillPercentage,15
;   outlineOverlapPercentage,25
;   infillExtrusionWidthPercentage,100
;   minInfillLength,5
;   infillLayerInterval,1
;   internalInfillAngles,45,-45
;   overlapInternalInfillAngles,0
;   externalInfillAngles,45,-45
;   generateSupport,1
;   supportExtruder,0
;   supportInfillPercentage,20
;   supportExtraInflation,0.5
;   supportBaseLayers,0
;   denseSupportExtruder,0
;   denseSupportLayers,2
;   denseSupportInfillPercentage,90
;   supportLayerInterval,1
;   supportHorizontalPartOffset,0.3
;   supportUpperSeparationLayers,1
;   supportLowerSeparationLayers,1
;   supportType,1
;   supportGridSpacing,2
;   maxOverhangAngle,45
;   supportAngles,45,-45
;   temperatureName,Primary Extruder,Heated Build Platform
;   temperatureNumber,0,0
;   temperatureSetpointCount,1,1
;   temperatureSetpointLayers,1,1
;   temperatureSetpointTemperatures,230,60
;   temperatureStabilizeAtStartup,1,1
;   temperatureHeatedBed,0,1
;   fanLayers,1,2
;   fanSpeeds,0,100
;   blipFanToFullPower,1
;   adjustSpeedForCooling,1
;   minSpeedLayerTime,15
;   minCoolingSpeedSlowdown,20
;   increaseFanForCooling,1
;   minFanLayerTime,45
;   maxCoolingFanSpeed,100
;   increaseFanForBridging,1
;   bridgingFanSpeed,100
;   use5D,1
;   relativeEdistances,1
;   allowEaxisZeroing,0
;   independentExtruderAxes,1
;   includeM10123,0
;   stickySupport,1
;   applyToolheadOffsets,0
;   gcodeXoffset,0
;   gcodeYoffset,0
;   gcodeZoffset,0
;   overrideMachineDefinition,1
;   machineTypeOverride,0
;   strokeXoverride,280
;   strokeYoverride,150
;   strokeZoverride,150
;   originOffsetXoverride,140
;   originOffsetYoverride,75
;   originOffsetZoverride,0
;   homeXdirOverride,1
;   homeYdirOverride,1
;   homeZdirOverride,-1
;   flipXoverride,1
;   flipYoverride,-1
;   flipZoverride,1
;   toolheadOffsets,0,0|0,0|0,0|0,0|0,0|0,0
;   overrideFirmwareConfiguration,1
;   firmwareTypeOverride,MakerBot/Sailfish Firmware
;   GPXconfigOverride,r2h
;   baudRateOverride,115200
;   overridePrinterModels,1
;   printerModelsOverride,MakerBot_Replicator2.stl
;   startingGcode,; **** Replicator 2 start.gcode ****,M73 P0 ; enable build progress,G162 X Y F3000 ; home XY maximum,G161 Z F1200 ; home Z minimum,G92 Z-5 ; set Z to -5,G1 Z0 ; move Z to 0,G161 Z F100 ; home Z slowly,M132 X Y Z A B ; recall home offsets,G1 X-145 Y-75 Z30 F9000 ; move to wait position off table,G130 X20 Y20 Z20 A20 B20 ; lower stepper Vrefs while heating,M126 S[fan_speed_pwm],M140 S[bed0_temperature] T0,M134 T0 ; stabilize bed temperature,M104 S[extruder0_temperature] T0,M133 T0 ; stabilize extruder temperature,G130 X127 Y127 Z40 A127 B127 ; default stepper Vrefs,G92 A0 ; zero extruder,G1 Z0.4 ; position nozzle,G1 E25 F300 ; purge nozzle,G1 X-140 Y-70 Z0.15 F1200 ; slow wipe,G1 X-135 Y-65 Z0.5 F1200 ; lift,G92 A0 ; zero extruder,M73 P1 ;@body (notify GPX body has started),; **** end of start.gcode ****
;   layerChangeGcode,
;   retractionGcode,
;   toolChangeGcode,
;   endingGcode,; **** Replicator 2 end.gcode ****,M73 P100 ; end build progress,G1 Z155 F1000 ; send Z axis to bottom of machine,M104 S0 T0 ; cool down extruder,M140 S0 T0 ; cool down HBP,M127 ; stop blower fan,G162 X Y F3000 ; home XY maximum,M18 ; disable stepper,M0 ; stop codes,M72 P1 ; play Ta-Da song,; **** end of end.gcode ****
;   exportFileFormat,gcode
;   celebration,0
;   celebrationSong,Random Song
;   postProcessing,
;   defaultSpeed,4800
;   outlineUnderspeed,0.5
;   solidInfillUnderspeed,1
;   supportUnderspeed,1
;   rapidXYspeed,9000
;   rapidZspeed,1200
;   minBridgingArea,50
;   bridgingExtraInflation,0
;   bridgingExtrusionMultiplier,1
;   bridgingSpeedMultiplier,0.8
;   useFixedBridgingAngle,0
;   fixedBridgingAngle,0
;   applyBridgingToPerimeters,0
;   filamentDiameters,1.75|1.75|1.75|1.75|1.75|1.75
;   filamentPricesPerKg,46|46|46|46|46|46
;   filamentDensities,1.25|1.25|1.25|1.25|1.25|1.25
;   useMinPrintHeight,0
;   minPrintHeight,0
;   useMaxPrintHeight,0
;   maxPrintHeight,4.84
;   useDiaphragm,0
;   diaphragmLayerInterval,20
;   robustSlicing,1
;   mergeAllIntoSolid,0
;   onlyRetractWhenCrossingOutline,0
;   retractBetweenLayers,0
;   useRetractionMinTravel,1
;   retractionMinTravel,7
;   retractWhileWiping,1
;   onlyWipeOutlines,1
;   avoidCrossingOutline,0
;   maxMovementDetourFactor,3
;   toolChangeRetractionDistance,12
;   toolChangeExtraRestartDistance,-0.5
;   toolChangeRetractionSpeed,600
;   externalThinWallType,0
;   internalThinWallType,0
;   thinWallAllowedOverlapPercentage,10
;   singleExtrusionMinLength,1
;   singleExtrusionMinPrintingWidthPercentage,50
;   singleExtrusionMaxPrintingWidthPercentage,200
;   singleExtrusionEndpointExtension,0.2
;   horizontalSizeCompensation,0
G90
M83
; **** Replicator 2 start.gcode ****
M73 P0 ; enable build progress
G162 X Y F3000 ; home XY maximum
G161 Z F1200 ; home Z minimum
G92 Z-5 ; set Z to -5
G1 Z0 ; move Z to 0
G161 Z F100 ; home Z slowly
M132 X Y Z A B ; recall home offsets
G1 X-145 Y-75 Z30 F9000 ; move to wait position off table
G130 X20 Y20 Z20 A20 B20 ; lower stepper Vrefs while heating
M127
M140 S60 T0
M134 T0 ; stabilize bed temperature
M104 S230 T0
M133 T0 ; stabilize extruder temperature
G130 X127 Y127 Z40 A127 B127 ; default stepper Vrefs
G92 A0 ; zero extruder
G1 Z0.4 ; position nozzle
G1 E25 F300 ; purge nozzle
G1 X-140 Y-70 Z0.15 F1200 ; slow wipe
G1 X-135 Y-65 Z0.5 F1200 ; lift
G92 A0 ; zero extruder
M73 P1 ;@body (notify GPX body has started)
; **** end of start.gcode ****
; process Process1
; layer 1, Z = 0.200
M135 T0
G1 E-1.9000 F1200
; feature inner perimeter
; tool H0.200 W0.460
G1 Z0.500 F1200
G1 X-29.410 Y-5.576 F9000
G1 Z0.200 F1200
G1 E1.9000 F1200
G1 X-29.540 Y-5.674 E0.0062 F1800
G1 X-29.606 Y-5.766 E0.0043
G1 X-29.685 Y-5.832 E0.0039
G1 X-30.031 Y-6.639 E0.0336
G1 X-30.782 Y-6.981 E0.0315
G1 X-31.220 Y-7.466 E0.0250
G1 X-31.690 Y-7.865 E0.0236
G1 X-32.044 Y-8.101 E0.0163
G1 X-32.624 Y-8.449 E0.0259
G1 X-33.418 Y-8.678 E0.0316
G1 X-33.865 Y-9.214 E0.0267
G1 X-33.865 Y-17.528 E0.3180
G1 X32.087 Y-17.528 E2.5226
G1 X32.087 Y-5.576 E0.4571
G1 X-29.410 Y-5.576 E2.3522
; feature outer perimeter
G1 X-29.563 Y-5.116 F9000
G1 X-29.873 Y-5.349 E0.0148 F1200
G1 X-29.945 Y-5.450 E0.0048
G1 X-30.064 Y-5.548 E0.0059
G1 X-30.384 Y-6.294 E0.0311
G1 X-31.059 Y-6.601 E0.0284
G1 X-31.541 Y-7.136 E0.0275
G1 X-31.967 Y-7.497 E0.0214
G1 X-32.290 Y-7.712 E0.0148
G1 X-32.809 Y-8.024 E0.0232
G1 X-33.674 Y-8.273 E0.0344
G1 X-33.685 Y-8.279 E0.0005
G1 X-34.238 Y-8.943 E0.0331
G1 X-34.325 Y-9.025 E0.0046
G1 X-34.325 Y-17.988 E0.3428
G1 X32.547 Y-17.988 E2.5578
G1 X32.547 Y-5.116 E0.4923
G1 X-29.563 Y-5.116 E2.3756
; feature solid layer
G1 X-28.889 Y-5.921 F9000
G1 X-29.692 Y-6.725 E0.0435 F2400
G1 X-33.520 Y-9.902 F9000
G1 X-32.237 Y-8.619 E0.0694 F2400
G1 X-31.859 Y-8.393 E0.0169
G1 X-31.482 Y-8.141 E0.0173
G1 X-30.979 Y-7.715 E0.0252
G1 X-30.574 Y-7.265 E0.0232
G1 X-29.948 Y-6.981 E0.0263
G1 X-33.520 Y-10.553 E0.1932
G1 X-33.520 Y-11.203 E0.0249
G1 X-28.238 Y-5.921 E0.2857
G1 X-27.588 Y-5.921 E0.0249
G1 X-33.520 Y-11.854 E0.3209
G1 X-33.520 Y-12.504 E0.0249
G1 X-26.937 Y-5.921 E0.3561
G1 X-26.287 Y-5.921 E0.0249
G1 X-33.520 Y-13.155 E0.3913
G1 X-33.520 Y-13.806 E0.0249
G1 X-25.636 Y-5.921 E0.4265
G1 X-24.986 Y-5.921 E0.0249
G1 X-33.520 Y-14.456 E0.4617
G1 X-33.520 Y-15.107 E0.0249
G1 X-24.335 Y-5.921 E0.4969
G1 X-23.685 Y-5.921 E0.0249
G1 X-33.520 Y-15.757 E0.5320
G1 X-33.520 Y-16.408 E0.0249
G1 X-23.034 Y-5.921 E0.5672
G1 X-22.383 Y-5.921 E0.0249
G1 X-33.520 Y-17.058 E0.6024
G1 X-33.520 Y-17.183 E0.0048
G1 X-32.994 Y-17.183 E0.0201
G1 X-21.733 Y-5.921 E0.6091
G1 X-21.082 Y-5.921 E0.0249
G1 X-32.343 Y-17.183 E0.6091
G1 X-31.693 Y-17.183 E0.0249
G1 X-20.432 Y-5.921 E0.6091
G1 X-19.781 Y-5.921 E0.0249
G1 X-31.042 Y-17.183 E0.6091
G1 X-30.392 Y-17.183 E0.0249
G1 X-19.131 Y-5.921 E0.6091
G1 X-18.480 Y-5.921 E0.0249
G1 X-29.741 Y-17.183 E0.6091
G1 X-29.091 Y-17.183 E0.0249
G1 X-17.830 Y-5.921 E0.6091
G1 X-17.179 Y-5.921 E0.0249
G1 X-28.440 Y-17.183 E0.6091
G1 X-27.790 Y-17.183 E0.0249
G1 X-16.529 Y-5.921 E0.6091
G1 X-15.878 Y-5.921 E0.0249
G1 X-27.139 Y-17.183 E0.6091
G1 X-26.489 Y-17.183 E0.0249
G1 X-15.228 Y-5.921 E0.6091
G1 X-14.577 Y-5.921 E0.0249
G1 X-25.838 Y-17.183 E0.6091
G1 X-25.188 Y-17.183 E0.0249
G1 X-13.926 Y-5.921 E0.6091
G1 X-13.276 Y-5.921 E0.0249
G1 X-24.537 Y-17.183 E0.6091
G1 X-23.887 Y-17.183 E0.0249
G1 X-12.625 Y-5.921 E0.6091
G1 X-11.975 Y-5.921 E0.0249
G1 X-23.236 Y-17.183 E0.6091
G1 X-22.585 Y-17.183 E0.0249
G1 X-11.324 Y-5.921 E0.6091
G1 X-10.674 Y-5.921 E0.0249
G1 X-21.935 Y-17.183 E0.6091
G1 X-21.284 Y-17.183 E0.0249
G1 X-10.023 Y-5.921 E0.6091
G1 X-9.373 Y-5.921 E0.0249
G1 X-20.634 Y-17.183 E0.6091
G1 X-19.983 Y-17.183 E0.0249
G1 X-8.722 Y-5.921 E0.6091
G1 X-8.072 Y-5.921 E0.0249
G1 X-19.333 Y-17.183 E0.6091
G1 X-18.682 Y-17.183 E0.0249
G1 X-7.421 Y-5.921 E0.6091
G1 X-6.771 Y-5.921 E0.0249
G1 X-18.032 Y-17.183 E0.6091
G1 X-17.381 Y-17.183 E0.0249
G1 X-6.120 Y-5.921 E0.6091
G1 X-5.469 Y-5.921 E0.0249
G1 X-16.731 Y-17.183 E0.6091
G1 X-16.080 Y-17.183 E0.0249
G1 X-4.819 Y-5.921 E0.6091
G1 X-4.168 Y-5.921 E0.0249
G1 X-15.430 Y-17.183 E0.6091
G1 X-14.779 Y-17.183 E0.0249
G1 X-3.518 Y-5.921 E0.6091
G1 X-2.867 Y-5.921 E0.0249
G1 X-14.128 Y-17.183 E0.6091
G1 X-13.478 Y-17.183 E0.0249
G1 X-2.217 Y-5.921 E0.6091
G1 X-1.566 Y-5.921 E0.0249
G1 X-12.827 Y-17.183 E0.6091
G1 X-12.177 Y-17.183 E0.0249
G1 X-0.916 Y-5.921 E0.6091
G1 X-0.265 Y-5.921 E0.0249
G1 X-11.526 Y-17.183 E0.6091
G1 X-10.876 Y-17.183 E0.0249
G1 X0.385 Y-5.921 E0.6091
G1 X1.036 Y-5.921 E0.0249
G1 X-10.225 Y-17.183 E0.6091
G1 X-9.575 Y-17.183 E0.0249
G1 X1.686 Y-5.921 E0.6091
G1 X2.337 Y-5.921 E0.0249
G1 X-8.924 Y-17.183 E0.6091
G1 X-8.274 Y-17.183 E0.0249
G1 X2.988 Y-5.921 E0.6091
G1 X3.638 Y-5.921 E0.0249
G1 X-7.623 Y-17.183 E0.6091
G1 X-6.973 Y-17.183 E0.0249
G1 X4.289 Y-5.921 E0.6091
G1 X4.939 Y-5.921 E0.0249
G1 X-6.322 Y-17.183 E0.6091
G1 X-5.671 Y-17.183 E0.0249
G1 X5.590 Y-5.921 E0.6091
G1 X6.240 Y-5.921 E0.0249
G1 X-5.021 Y-17.183 E0.6091
G1 X-4.370 Y-17.183 E0.0249
G1 X6.891 Y-5.921 E0.6091
G1 X7.541 Y-5.921 E0.0249
G1 X-3.720 Y-17.183 E0.6091
G1 X-3.069 Y-17.183 E0.0249
G1 X8.192 Y-5.921 E0.6091
G1 X8.842 Y-5.921 E0.0249
G1 X-2.419 Y-17.183 E0.6091
G1 X-1.768 Y-17.183 E0.0249
G1 X9.493 Y-5.921 E0.6091
G1 X10.143 Y-5.921 E0.0249
G1 X-1.118 Y-17.183 E0.6091
G1 X-0.467 Y-17.183 E0.0249
G1 X10.794 Y-5.921 E0.6091
G1 X11.445 Y-5.921 E0.0249
G1 X0.183 Y-17.183 E0.6091
G1 X0.834 Y-17.183 E0.0249
G1 X12.095 Y-5.921 E0.6091
G1 X12.746 Y-5.921 E0.0249
G1 X1.484 Y-17.183 E0.6091
G1 X2.135 Y-17.183 E0.0249
G1 X13.396 Y-5.921 E0.6091
G1 X14.047 Y-5.921 E0.0249
G1 X2.786 Y-17.183 E0.6091
G1 X3.436 Y-17.183 E0.0249
G1 X14.697 Y-5.921 E0.6091
G1 X15.348 Y-5.921 E0.0249
G1 X4.087 Y-17.183 E0.6091
G1 X4.737 Y-17.183 E0.0249
G1 X15.998 Y-5.921 E0.6091
G1 X16.649 Y-5.921 E0.0249
G1 X5.388 Y-17.183 E0.6091
G1 X6.038 Y-17.183 E0.0249
G1 X17.299 Y-5.921 E0.6091
G1 X17.950 Y-5.921 E0.0249
G1 X6.689 Y-17.183 E0.6091
G1 X7.339 Y-17.183 E0.0249
G1 X18.600 Y-5.921 E0.6091
G1 X19.251 Y-5.921 E0.0249
G1 X7.990 Y-17.183 E0.6091
G1 X8.640 Y-17.183 E0.0249
G1 X19.902 Y-5.921 E0.6091
G1 X20.552 Y-5.921 E0.0249
G1 X9.291 Y-17.183 E0.6091
G1 X9.941 Y-17.183 E0.0249
G1 X21.203 Y-5.921 E0.6091
G1 X21.853 Y-5.921 E0.0249
G1 X10.592 Y-17.183 E0.6091
G1 X11.243 Y-17.183 E0.0249
G1 X22.504 Y-5.921 E0.6091
G1 X23.154 Y-5.921 E0.0249
G1 X11.893 Y-17.183 E0.6091
G1 X12.544 Y-17.183 E0.0249
G1 X23.805 Y-5.921 E0.6091
G1 X24.455 Y-5.921 E0.0249
G1 X13.194 Y-17.183 E0.6091
G1 X13.845 Y-17.183 E0.0249
G1 X25.106 Y-5.921 E0.6091
G1 X25.756 Y-5.921 E0.0249
G1 X14.495 Y-17.183 E0.6091
G1 X15.146 Y-17.183 E0.0249
G1 X26.407 Y-5.921 E0.6091
G1 X27.057 Y-5.921 E0.0249
G1 X15.796 Y-17.183 E0.6091
G1 X16.447 Y-17.183 E0.0249
G1 X27.708 Y-5.921 E0.6091
G1 X28.359 Y-5.921 E0.0249
G1 X17.097 Y-17.183 E0.6091
G1 X17.748 Y-17.183 E0.0249
G1 X29.009 Y-5.921 E0.6091
G1 X29.660 Y-5.921 E0.0249
G1 X18.398 Y-17.183 E0.6091
G1 X19.049 Y-17.183 E0.0249
G1 X30.310 Y-5.921 E0.6091
G1 X30.961 Y-5.921 E0.0249
G1 X19.700 Y-17.183 E0.6091
G1 X20.350 Y-17.183 E0.0249
G1 X31.611 Y-5.921 E0.6091
G1 X31.742 Y-5.921 E0.0050
G1 X31.742 Y-6.441 E0.0199
G1 X21.001 Y-17.183 E0.5810
G1 X21.651 Y-17.183 E0.0249
G1 X31.742 Y-7.092 E0.5458
G1 X31.742 Y-7.742 E0.0249
G1 X22.302 Y-17.183 E0.5106
G1 X22.952 Y-17.183 E0.0249
G1 X31.742 Y-8.393 E0.4754
G1 X31.742 Y-9.043 E0.0249
G1 X23.603 Y-17.183 E0.4403
G1 X24.253 Y-17.183 E0.0249
G1 X31.742 Y-9.694 E0.4051
G1 X31.742 Y-10.345 E0.0249
G1 X24.904 Y-17.183 E0.3699
G1 X25.554 Y-17.183 E0.0249
G1 X31.742 Y-10.995 E0.3347
G1 X31.742 Y-11.646 E0.0249
G1 X26.205 Y-17.183 E0.2995
G1 X26.855 Y-17.183 E0.0249
G1 X31.742 Y-12.296 E0.2643
G1 X31.742 Y-12.947 E0.0249
G1 X27.506 Y-17.183 E0.2291
G1 X28.157 Y-17.183 E0.0249
G1 X31.742 Y-13.597 E0.1939
G1 X31.742 Y-14.248 E0.0249
G1 X28.807 Y-17.183 E0.1587
G1 X29.458 Y-17.183 E0.0249
G1 X31.742 Y-14.898 E0.1236
G1 X31.742 Y-15.549 E0.0249
G1 X30.108 Y-17.183 E0.0884
G1 X30.759 Y-17.183 E0.0249
G1 X31.742 Y-16.199 E0.0532
G1 X31.742 Y-16.850 E0.0249
G1 X31.409 Y-17.183 E0.0180
G1 E-1.9000 F1200
; feature support
G1 Z0.700 F1200
G1 X24.390 Y4.935 F9000
G1 Z0.200 F1200
G1 E1.9000 F1200
G1 X21.631 Y2.176 E0.1492 F2400
G1 X21.631 Y-0.653 E0.1082
G1 X26.591 Y4.307 E0.2683
G1 X26.591 Y1.479 E0.1082
G1 X21.631 Y-3.481 E0.2683
G1 X21.631 Y-4.346 E0.0331
G1 X23.594 Y-4.346 E0.0751
G1 X26.591 Y-1.350 E0.1621
G1 X26.591 Y-4.178 E0.1082
G1 X26.423 Y-4.346 E0.0091
G1 E-1.9000 F1200
G1 Z0.700 F1200
G1 X-24.489 Y-4.346 F9000
G1 Z0.200 F1200
G1 E1.9000 F1200
G1 X-23.409 Y-3.267 E0.0584 F2400
G1 X-23.409 Y-3.065 E0.0077
G1 X-26.037 Y-3.065 E0.1005
G1 X-27.318 Y-4.346 E0.0693
; layer 2, Z = 0.400
M126 S255
; feature inner perimeter
; tool H0.200 W0.400
G1 Z0.400 F1200
G1 X-29.271 Y-5.486 F9000
G1 X-29.505 Y-5.662 E0.0097 F3600
G1 X-29.503 Y-5.674 E0.0004
G1 X-29.946 Y-6.709 E0.0374
G1 X-31.090 Y-7.224 E0.0417
G1 X-31.768 Y-7.798 E0.0296
G1 X-32.657 Y-8.374 E0.0352
G1 X-33.078 Y-8.495 E0.0146
G1 X-33.358 Y-8.731 E0.0122
G1 X-33.803 Y-8.997 E0.0172
G1 X-33.955 Y-9.170 E0.0077
G1 X-33.955 Y-17.618 E0.2810
G1 X32.177 Y-17.618 E2.1996
G1 X32.177 Y-5.486 E0.4035
