; G-Code generated by Simplify3D(R) Version 4.1.2
; Apr 2, 2020 at 1:53:10 PM
; Settings Summary
;   processName,Process1
;   applyToModels,Milano Spotlight V1R2,Milano Spotlight V1R2(2),Milano Spotlight V1R2(3),Milano Spotlight V1R2(4)
;   profileName,MakerBot Replicator 2 HBP (modified)
;   profileVersion,2020-03-12 10:48:50
;   baseProfile,MakerBot Replicator 2(2)
;   printMaterial,PLA
;   printQuality,Medium
;   printExtruders,
;   extruderName,Primary Extruder
;   extruderToolheadNumber,0
;   extruderDiameter,0.4
;   extruderAutoWidth,0
;   extruderWidth,0.4
;   extrusionMultiplier,1
;   extruderUseRetract,1
;   extruderRetractionDistance,1.9
;   extruderExtraRestartDistance,0
;   extruderRetractionZLift,0.5
;   extruderRetractionSpeed,1200
;   extruderUseCoasting,0
;   extruderCoastingDistance,0.2
;   extruderUseWipe,0
;   extruderWipeDistance,5
;   primaryExtruder,0
;   layerHeight,0.2
;   topSolidLayers,3
;   bottomSolidLayers,3
;   perimeterOutlines,2
;   printPerimetersInsideOut,1
;   startPointOption,3
;   startPointOriginX,0
;   startPointOriginY,150
;   sequentialIslands,0
;   spiralVaseMode,0
;   firstLayerHeightPercentage,100
;   firstLayerWidthPercentage,115
;   firstLayerUnderspeed,0.5
;   useRaft,0
;   raftExtruder,0
;   raftTopLayers,2
;   raftBaseLayers,1
;   raftOffset,1
;   raftSeparationDistance,0.14
;   raftTopInfill,90
;   aboveRaftSpeedMultiplier,0.3
;   useSkirt,0
;   skirtExtruder,0
;   skirtLayers,1
;   skirtOutlines,5
;   skirtOffset,0
;   usePrimePillar,0
;   primePillarExtruder,999
;   primePillarWidth,12
;   primePillarLocation,7
;   primePillarSpeedMultiplier,1
;   useOozeShield,0
;   oozeShieldExtruder,999
;   oozeShieldOffset,2
;   oozeShieldOutlines,1
;   oozeShieldSidewallShape,1
;   oozeShieldSidewallAngle,30
;   oozeShieldSpeedMultiplier,1
;   infillExtruder,0
;   internalInfillPattern,Rectilinear
;   externalInfillPattern,Rectilinear
;   infillPercentage,15
;   outlineOverlapPercentage,25
;   infillExtrusionWidthPercentage,100
;   minInfillLength,5
;   infillLayerInterval,1
;   internalInfillAngles,45,-45
;   overlapInternalInfillAngles,0
;   externalInfillAngles,45,-45
;   generateSupport,1
;   supportExtruder,0
;   supportInfillPercentage,30
;   supportExtraInflation,0.5
;   supportBaseLayers,0
;   denseSupportExtruder,0
;   denseSupportLayers,2
;   denseSupportInfillPercentage,90
;   supportLayerInterval,1
;   supportHorizontalPartOffset,0.3
;   supportUpperSeparationLayers,1
;   supportLowerSeparationLayers,1
;   supportType,1
;   supportGridSpacing,2
;   maxOverhangAngle,45
;   supportAngles,45,-45
;   temperatureName,Primary Extruder,Heated Build Platform
;   temperatureNumber,0,0
;   temperatureSetpointCount,1,1
;   temperatureSetpointLayers,1,1
;   temperatureSetpointTemperatures,230,60
;   temperatureStabilizeAtStartup,1,1
;   temperatureHeatedBed,0,1
;   fanLayers,1,2
;   fanSpeeds,0,100
;   blipFanToFullPower,1
;   adjustSpeedForCooling,1
;   minSpeedLayerTime,15
;   minCoolingSpeedSlowdown,20
;   increaseFanForCooling,1
;   minFanLayerTime,45
;   maxCoolingFanSpeed,100
;   increaseFanForBridging,1
;   bridgingFanSpeed,100
;   use5D,1
;   relativeEdistances,1
;   allowEaxisZeroing,0
;   independentExtruderAxes,1
;   includeM10123,0
;   stickySupport,1
;   applyToolheadOffsets,0
;   gcodeXoffset,0
;   gcodeYoffset,0
;   gcodeZoffset,0
;   overrideMachineDefinition,1
;   machineTypeOverride,0
;   strokeXoverride,280
;   strokeYoverride,150
;   strokeZoverride,150
;   originOffsetXoverride,140
;   originOffsetYoverride,75
;   originOffsetZoverride,0
;   homeXdirOverride,1
;   homeYdirOverride,1
;   homeZdirOverride,-1
;   flipXoverride,1
;   flipYoverride,-1
;   flipZoverride,1
;   toolheadOffsets,0,0|0,0|0,0|0,0|0,0|0,0
;   overrideFirmwareConfiguration,1
;   firmwareTypeOverride,MakerBot/Sailfish Firmware
;   GPXconfigOverride,r2h
;   baudRateOverride,115200
;   overridePrinterModels,1
;   printerModelsOverride,MakerBot_Replicator2.stl
;   startingGcode,; **** Replicator 2 start.gcode ****,M73 P0 ; enable build progress,G162 X Y F3000 ; home XY maximum,G161 Z F1200 ; home Z minimum,G92 Z-5 ; set Z to -5,G1 Z0 ; move Z to 0,G161 Z F100 ; home Z slowly,M132 X Y Z A B ; recall home offsets,G1 X-145 Y-75 Z30 F9000 ; move to wait position off table,G130 X20 Y20 Z20 A20 B20 ; lower stepper Vrefs while heating,M126 S[fan_speed_pwm],M140 S[bed0_temperature] T0,M134 T0 ; stabilize bed temperature,M104 S[extruder0_temperature] T0,M133 T0 ; stabilize extruder temperature,G130 X127 Y127 Z40 A127 B127 ; default stepper Vrefs,G92 A0 ; zero extruder,G1 Z0.4 ; position nozzle,G1 E25 F300 ; purge nozzle,G1 X-140 Y-70 Z0.15 F1200 ; slow wipe,G1 X-135 Y-65 Z0.5 F1200 ; lift,G92 A0 ; zero extruder,M73 P1 ;@body (notify GPX body has started),; **** end of start.gcode ****
;   layerChangeGcode,
;   retractionGcode,
;   toolChangeGcode,
;   endingGcode,; **** Replicator 2 end.gcode ****,M73 P100 ; end build progress,G1 Z155 F1000 ; send Z axis to bottom of machine,M104 S0 T0 ; cool down extruder,M140 S0 T0 ; cool down HBP,M127 ; stop blower fan,G162 X Y F3000 ; home XY maximum,M18 ; disable stepper,M0 ; stop codes,M72 P1 ; play Ta-Da song,; **** end of end.gcode ****
;   exportFileFormat,gcode
;   celebration,0
;   celebrationSong,Random Song
;   postProcessing,
;   defaultSpeed,4800
;   outlineUnderspeed,0.5
;   solidInfillUnderspeed,1
;   supportUnderspeed,1
;   rapidXYspeed,9000
;   rapidZspeed,1200
;   minBridgingArea,50
;   bridgingExtraInflation,0
;   bridgingExtrusionMultiplier,1
;   bridgingSpeedMultiplier,0.8
;   useFixedBridgingAngle,0
;   fixedBridgingAngle,0
;   applyBridgingToPerimeters,0
;   filamentDiameters,1.75|1.75|1.75|1.75|1.75|1.75
;   filamentPricesPerKg,46|46|46|46|46|46
;   filamentDensities,1.25|1.25|1.25|1.25|1.25|1.25
;   useMinPrintHeight,0
;   minPrintHeight,0
;   useMaxPrintHeight,0
;   maxPrintHeight,4.84
;   useDiaphragm,0
;   diaphragmLayerInterval,20
;   robustSlicing,1
;   mergeAllIntoSolid,0
;   onlyRetractWhenCrossingOutline,0
;   retractBetweenLayers,0
;   useRetractionMinTravel,1
;   retractionMinTravel,7
;   retractWhileWiping,1
;   onlyWipeOutlines,1
;   avoidCrossingOutline,0
;   maxMovementDetourFactor,3
;   toolChangeRetractionDistance,12
;   toolChangeExtraRestartDistance,-0.5
;   toolChangeRetractionSpeed,600
;   externalThinWallType,0
;   internalThinWallType,0
;   thinWallAllowedOverlapPercentage,10
;   singleExtrusionMinLength,1
;   singleExtrusionMinPrintingWidthPercentage,50
;   singleExtrusionMaxPrintingWidthPercentage,200
;   singleExtrusionEndpointExtension,0.2
;   horizontalSizeCompensation,0
G90
M83
; **** Replicator 2 start.gcode ****
M73 P0 ; enable build progress
G162 X Y F3000 ; home XY maximum
G161 Z F1200 ; home Z minimum
G92 Z-5 ; set Z to -5
G1 Z0 ; move Z to 0
G161 Z F100 ; home Z slowly
M132 X Y Z A B ; recall home offsets
G1 X-145 Y-75 Z30 F9000 ; move to wait position off table
G130 X20 Y20 Z20 A20 B20 ; lower stepper Vrefs while heating
M126 S23
M140 S60 T0
M134 T0 ; stabilize bed temperature
M104 S230 T0
M133 T0 ; stabilize extruder temperature
G130 X127 Y127 Z40 A127 B127 ; default stepper Vrefs
G92 A0 ; zero extruder
G1 Z0.4 ; position nozzle
G1 E25 F300 ; purge nozzle
G1 X-140 Y-70 Z0.15 F1200 ; slow wipe
G1 X-135 Y-65 Z0.5 F1200 ; lift
G92 A0 ; zero extruder
M73 P1 ;@body (notify GPX body has started)
; **** end of start.gcode ****
; process Process1
; layer 1, Z = 0.200
M135 T0
G1 E-1.9000 F1200
; feature inner perimeter
; tool H0.200 W0.460
G1 Z0.500 F1200
G1 X6.235 Y-14.194 F9000
G1 Z0.200 F1200
G1 E1.9000 F1200
G1 X-6.245 Y-14.194 E0.4773 F1800
G1 X-6.245 Y-16.113 E0.0734
G1 X-7.409 Y-19.397 E0.1333
G1 X-8.216 Y-20.783 E0.0613
G1 X-8.677 Y-22.155 E0.0554
G1 X-8.832 Y-23.576 E0.0547
G1 X-8.677 Y-24.997 E0.0547
G1 X-8.216 Y-26.367 E0.0553
G1 X-7.630 Y-27.357 E0.0440
G1 X-6.867 Y-27.357 E0.0292
G1 X-6.337 Y-27.003 E0.0244
G1 X-6.682 Y-26.358 E0.0280
G1 X-7.096 Y-24.994 E0.0545
G1 X-7.235 Y-23.576 E0.0545
G1 X-7.096 Y-22.158 E0.0545
G1 X-6.682 Y-20.795 E0.0545
G1 X-6.010 Y-19.538 E0.0545
G1 X-5.106 Y-18.437 E0.0545
G1 X-4.005 Y-17.533 E0.0545
G1 X-2.748 Y-16.861 E0.0545
G1 X-1.385 Y-16.447 E0.0545
G1 X0.033 Y-16.308 E0.0545
G1 X1.451 Y-16.447 E0.0545
G1 X2.815 Y-16.861 E0.0545
G1 X4.071 Y-17.533 E0.0545
G1 X5.173 Y-18.437 E0.0545
G1 X6.077 Y-19.538 E0.0545
G1 X6.748 Y-20.795 E0.0545
G1 X7.162 Y-22.158 E0.0545
G1 X7.302 Y-23.576 E0.0545
G1 X7.162 Y-24.994 E0.0545
G1 X6.748 Y-26.358 E0.0545
G1 X6.403 Y-27.003 E0.0280
G1 X6.933 Y-27.357 E0.0244
G1 X7.630 Y-27.357 E0.0267
G1 X8.216 Y-26.367 E0.0440
G1 X8.677 Y-24.997 E0.0553
G1 X8.832 Y-23.576 E0.0547
G1 X8.677 Y-22.155 E0.0547
G1 X8.216 Y-20.785 E0.0553
G1 X7.398 Y-19.399 E0.0616
G1 X6.231 Y-16.112 E0.1334
G1 X6.235 Y-14.194 E0.0734
; feature outer perimeter
G1 X6.695 Y-13.734 F9000
G1 X-6.705 Y-13.734 E0.5125 F1200
G1 X-6.705 Y-16.034 E0.0880
G1 X-7.828 Y-19.203 E0.1286
G1 X-8.637 Y-20.592 E0.0615
G1 X-9.129 Y-22.056 E0.0591
G1 X-9.295 Y-23.576 E0.0585
G1 X-9.129 Y-25.096 E0.0585
G1 X-8.637 Y-26.559 E0.0590
G1 X-7.892 Y-27.817 E0.0559
G1 X-6.727 Y-27.817 E0.0446
G1 X-5.735 Y-27.154 E0.0456
G1 X-6.255 Y-26.181 E0.0422
G1 X-6.642 Y-24.904 E0.0510
G1 X-6.773 Y-23.576 E0.0510
G1 X-6.642 Y-22.248 E0.0510
G1 X-6.255 Y-20.972 E0.0510
G1 X-5.626 Y-19.795 E0.0510
G1 X-4.780 Y-18.763 E0.0510
G1 X-3.748 Y-17.917 E0.0510
G1 X-2.571 Y-17.288 E0.0510
G1 X-1.295 Y-16.901 E0.0510
G1 X0.033 Y-16.770 E0.0510
G1 X1.361 Y-16.901 E0.0510
G1 X2.638 Y-17.288 E0.0510
G1 X3.814 Y-17.917 E0.0510
G1 X4.846 Y-18.763 E0.0510
G1 X5.692 Y-19.795 E0.0510
G1 X6.321 Y-20.972 E0.0510
G1 X6.709 Y-22.248 E0.0510
G1 X6.839 Y-23.576 E0.0510
G1 X6.709 Y-24.904 E0.0510
G1 X6.321 Y-26.181 E0.0510
G1 X5.801 Y-27.154 E0.0422
G1 X6.794 Y-27.817 E0.0456
G1 X7.892 Y-27.817 E0.0420
G1 X8.637 Y-26.559 E0.0559
G1 X9.129 Y-25.096 E0.0590
G1 X9.295 Y-23.576 E0.0585
G1 X9.129 Y-22.056 E0.0585
G1 X8.637 Y-20.593 E0.0590
G1 X7.816 Y-19.203 E0.0617
G1 X6.691 Y-16.034 E0.1287
G1 X6.695 Y-13.734 E0.0880
G1 E-1.9000 F1200
; feature solid layer
G1 Z0.700 F1200
G1 X-5.431 Y-14.539 F9000
G1 Z0.200 F1200
G1 E1.9000 F1200
G1 X-5.900 Y-15.007 E0.0253 F2400
G1 X-5.900 Y-15.658 E0.0249
G1 X-4.781 Y-14.539 E0.0605
G1 X-4.130 Y-14.539 E0.0249
G1 X-5.974 Y-16.383 E0.0997
G1 X-6.332 Y-17.391 E0.0409
G1 X-3.480 Y-14.539 E0.1543
G1 X-2.829 Y-14.539 E0.0249
G1 X-6.689 Y-18.399 E0.2088
G1 E-1.9000 F1200
G1 Z0.700 F1200
G1 X-6.992 Y-26.509 F9000
G1 Z0.200 F1200
G1 E1.9000 F1200
G1 X-7.457 Y-26.973 E0.0251 F2400
G1 X-7.699 Y-26.564 E0.0182
G1 X-7.147 Y-26.013 E0.0298
G1 X-7.299 Y-25.514 E0.0200
G1 X-7.928 Y-26.143 E0.0340
G1 X-8.091 Y-25.656 E0.0196
G1 X-7.441 Y-25.006 E0.0352
G1 X-7.499 Y-24.413 E0.0228
G1 X-8.255 Y-25.169 E0.0409
G1 X-8.338 Y-24.922 E0.0100
G1 X-8.369 Y-24.633 E0.0111
G1 X-7.558 Y-23.821 E0.0439
G1 X-7.582 Y-23.576 E0.0094
G1 X-7.540 Y-23.153 E0.0163
G1 X-8.433 Y-24.046 E0.0483
G1 X-8.485 Y-23.576 E0.0181
G1 X-8.469 Y-23.431 E0.0056
G1 X-7.469 Y-22.432 E0.0541
G1 X-7.436 Y-22.090 E0.0131
G1 X-7.286 Y-21.598 E0.0197
G1 X-8.389 Y-22.701 E0.0597
G1 X-8.338 Y-22.230 E0.0181
G1 X-8.221 Y-21.882 E0.0140
G1 X-7.003 Y-20.664 E0.0659
G1 X-6.299 Y-19.345 E0.0572
G1 X-6.133 Y-19.144 E0.0100
G1 X-7.878 Y-20.889 E0.0944
G1 X-7.095 Y-19.543 E0.0596
G1 X-7.047 Y-19.407 E0.0055
G1 X-2.179 Y-14.539 E0.2633
G1 X-1.528 Y-14.539 E0.0249
G1 X-4.399 Y-17.410 E0.1553
G1 X-4.198 Y-17.244 E0.0100
G1 X-2.881 Y-16.541 E0.0571
G1 X-0.878 Y-14.539 E0.1083
G1 X-0.227 Y-14.539 E0.0249
G1 X-1.945 Y-16.257 E0.0929
G1 X-1.452 Y-16.107 E0.0197
G1 X-1.111 Y-16.074 E0.0131
G1 X0.424 Y-14.539 E0.0830
G1 X1.074 Y-14.539 E0.0249
G1 X-0.390 Y-16.003 E0.0792
G1 X0.033 Y-15.961 E0.0163
G1 X0.278 Y-15.985 E0.0094
G1 X1.725 Y-14.539 E0.0782
G1 X2.375 Y-14.539 E0.0249
G1 X0.870 Y-16.044 E0.0814
G1 X1.463 Y-16.102 E0.0228
G1 X3.026 Y-14.539 E0.0845
G1 X3.676 Y-14.539 E0.0249
G1 X1.971 Y-16.244 E0.0923
G1 X2.470 Y-16.396 E0.0200
G1 X4.327 Y-14.539 E0.1004
G1 X4.977 Y-14.539 E0.0249
G1 X2.966 Y-16.551 E0.1088
G1 X3.390 Y-16.777 E0.0184
G1 X5.628 Y-14.539 E0.1211
G1 X5.889 Y-14.539 E0.0100
G1 X5.888 Y-14.929 E0.0149
G1 X3.814 Y-17.004 E0.1122
G1 X4.237 Y-17.230 E0.0184
G1 X5.887 Y-15.581 E0.0892
G1 X5.886 Y-16.172 E0.0226
G1 X5.902 Y-16.216 E0.0018
G1 X4.599 Y-17.519 E0.0705
G1 X4.956 Y-17.813 E0.0177
G1 X6.072 Y-16.696 E0.0604
G1 X6.243 Y-17.177 E0.0195
G1 X5.314 Y-18.106 E0.0503
G1 X5.418 Y-18.191 E0.0052
G1 X5.625 Y-18.444 E0.0125
G1 X6.413 Y-17.657 E0.0426
G1 X6.584 Y-18.137 E0.0195
G1 X5.919 Y-18.802 E0.0360
G1 X6.212 Y-19.159 E0.0177
G1 X6.754 Y-18.617 E0.0293
G1 X6.925 Y-19.097 E0.0195
G1 X6.473 Y-19.548 E0.0244
G1 X6.700 Y-19.972 E0.0184
G1 X7.100 Y-19.573 E0.0216
G1 X7.341 Y-19.982 E0.0182
G1 X6.926 Y-20.396 E0.0224
G1 X7.069 Y-20.662 E0.0115
G1 X7.125 Y-20.848 E0.0074
G1 X7.583 Y-20.391 E0.0247
G1 X7.824 Y-20.800 E0.0182
G1 X7.276 Y-21.347 E0.0296
G1 X7.428 Y-21.846 E0.0200
G1 X8.013 Y-21.262 E0.0316
G1 X8.176 Y-21.749 E0.0196
G1 X7.532 Y-22.393 E0.0349
G1 X7.590 Y-22.985 E0.0228
G1 X8.339 Y-22.237 E0.0405
G1 X8.403 Y-22.823 E0.0226
G1 X7.648 Y-23.578 E0.0408
G1 X7.577 Y-24.299 E0.0277
G1 X8.467 Y-23.410 E0.0481
G1 X8.485 Y-23.576 E0.0064
G1 X8.428 Y-24.099 E0.0201
G1 X7.506 Y-25.021 E0.0499
G1 X7.502 Y-25.062 E0.0016
G1 X7.235 Y-25.943 E0.0352
G1 X8.348 Y-24.829 E0.0602
G1 X8.338 Y-24.922 E0.0036
G1 X8.051 Y-25.777 E0.0345
G1 X6.905 Y-26.923 E0.0620
G1 E-1.9000 F1200
; feature inner perimeter
G1 Z0.700 F1200
G1 X17.807 Y-14.194 F9000
G1 Z0.200 F1200
G1 E1.9000 F1200
G1 X17.807 Y-16.113 E0.0734 F1800
G1 X16.643 Y-19.397 E0.1333
G1 X15.836 Y-20.783 E0.0613
G1 X15.375 Y-22.155 E0.0554
G1 X15.220 Y-23.576 E0.0547
G1 X15.375 Y-24.997 E0.0547
G1 X15.835 Y-26.367 E0.0553
G1 X16.422 Y-27.357 E0.0440
G1 X17.185 Y-27.357 E0.0292
G1 X17.715 Y-27.003 E0.0244
G1 X17.370 Y-26.358 E0.0280
G1 X16.956 Y-24.994 E0.0545
G1 X16.817 Y-23.576 E0.0545
G1 X16.956 Y-22.158 E0.0545
G1 X17.370 Y-20.795 E0.0545
G1 X18.042 Y-19.538 E0.0545
G1 X18.946 Y-18.437 E0.0545
G1 X20.047 Y-17.533 E0.0545
G1 X21.304 Y-16.861 E0.0545
G1 X22.667 Y-16.447 E0.0545
G1 X24.085 Y-16.308 E0.0545
G1 X25.503 Y-16.447 E0.0545
G1 X26.867 Y-16.861 E0.0545
G1 X28.123 Y-17.533 E0.0545
G1 X29.225 Y-18.437 E0.0545
G1 X30.129 Y-19.538 E0.0545
G1 X30.800 Y-20.795 E0.0545
G1 X31.214 Y-22.158 E0.0545
G1 X31.353 Y-23.576 E0.0545
G1 X31.214 Y-24.994 E0.0545
G1 X30.800 Y-26.358 E0.0545
G1 X30.455 Y-27.003 E0.0280
G1 X30.985 Y-27.357 E0.0244
G1 X31.682 Y-27.357 E0.0267
G1 X32.268 Y-26.367 E0.0440
G1 X32.729 Y-24.997 E0.0553
G1 X32.884 Y-23.576 E0.0547
G1 X32.729 Y-22.155 E0.0547
G1 X32.268 Y-20.785 E0.0553
G1 X31.450 Y-19.399 E0.0616
G1 X30.283 Y-16.112 E0.1334
G1 X30.287 Y-14.194 E0.0734
G1 X17.807 Y-14.194 E0.4773
; feature outer perimeter
G1 X17.347 Y-13.734 F9000
G1 X17.347 Y-16.034 E0.0880 F1200
G1 X16.224 Y-19.203 E0.1286
G1 X15.415 Y-20.592 E0.0615
G1 X14.923 Y-22.056 E0.0591
G1 X14.757 Y-23.576 E0.0585
G1 X14.923 Y-25.096 E0.0585
G1 X15.415 Y-26.559 E0.0590
G1 X16.160 Y-27.817 E0.0559
G1 X17.325 Y-27.817 E0.0446
G1 X18.317 Y-27.154 E0.0456
G1 X17.797 Y-26.181 E0.0422
G1 X17.410 Y-24.904 E0.0510
G1 X17.279 Y-23.576 E0.0510
G1 X17.410 Y-22.248 E0.0510
G1 X17.797 Y-20.972 E0.0510
G1 X18.426 Y-19.795 E0.0510
G1 X19.272 Y-18.763 E0.0510
G1 X20.304 Y-17.917 E0.0510
G1 X21.480 Y-17.288 E0.0510
G1 X22.757 Y-16.901 E0.0510
G1 X24.085 Y-16.770 E0.0510
G1 X25.413 Y-16.901 E0.0510
G1 X26.690 Y-17.288 E0.0510
G1 X27.866 Y-17.917 E0.0510
G1 X28.898 Y-18.763 E0.0510
G1 X29.744 Y-19.795 E0.0510
G1 X30.373 Y-20.972 E0.0510
G1 X30.760 Y-22.248 E0.0510
G1 X30.891 Y-23.576 E0.0510
G1 X30.760 Y-24.904 E0.0510
G1 X30.373 Y-26.181 E0.0510
G1 X29.853 Y-27.154 E0.0422
G1 X30.845 Y-27.817 E0.0456
G1 X31.944 Y-27.817 E0.0420
G1 X32.689 Y-26.559 E0.0559
G1 X33.181 Y-25.096 E0.0590
G1 X33.346 Y-23.576 E0.0585
G1 X33.181 Y-22.056 E0.0585
G1 X32.689 Y-20.593 E0.0590
G1 X31.868 Y-19.203 E0.0617
G1 X30.743 Y-16.034 E0.1287
G1 X30.747 Y-13.734 E0.0880
G1 X17.347 Y-13.734 E0.5125
; feature solid layer
G1 X18.639 Y-14.539 F9000
