; G-Code generated by Simplify3D(R) Version 4.1.2
; Apr 2, 2020 at 12:45:20 PM
; Settings Summary
;   processName,Process1
;   applyToModels,toyboxV2R2
;   profileName,MakerBot Replicator 2 HBP (modified)
;   profileVersion,2020-03-12 10:48:50
;   baseProfile,MakerBot Replicator 2(2)
;   printMaterial,PLA
;   printQuality,Medium
;   printExtruders,
;   extruderName,Primary Extruder
;   extruderToolheadNumber,0
;   extruderDiameter,0.4
;   extruderAutoWidth,0
;   extruderWidth,0.4
;   extrusionMultiplier,1
;   extruderUseRetract,1
;   extruderRetractionDistance,1.9
;   extruderExtraRestartDistance,0
;   extruderRetractionZLift,0.5
;   extruderRetractionSpeed,1200
;   extruderUseCoasting,0
;   extruderCoastingDistance,0.2
;   extruderUseWipe,0
;   extruderWipeDistance,5
;   primaryExtruder,0
;   layerHeight,0.2
;   topSolidLayers,3
;   bottomSolidLayers,3
;   perimeterOutlines,2
;   printPerimetersInsideOut,1
;   startPointOption,3
;   startPointOriginX,0
;   startPointOriginY,150
;   sequentialIslands,0
;   spiralVaseMode,0
;   firstLayerHeightPercentage,100
;   firstLayerWidthPercentage,115
;   firstLayerUnderspeed,0.5
;   useRaft,0
;   raftExtruder,0
;   raftTopLayers,2
;   raftBaseLayers,1
;   raftOffset,1
;   raftSeparationDistance,0.14
;   raftTopInfill,90
;   aboveRaftSpeedMultiplier,0.3
;   useSkirt,0
;   skirtExtruder,0
;   skirtLayers,1
;   skirtOutlines,5
;   skirtOffset,0
;   usePrimePillar,0
;   primePillarExtruder,999
;   primePillarWidth,12
;   primePillarLocation,7
;   primePillarSpeedMultiplier,1
;   useOozeShield,0
;   oozeShieldExtruder,999
;   oozeShieldOffset,2
;   oozeShieldOutlines,1
;   oozeShieldSidewallShape,1
;   oozeShieldSidewallAngle,30
;   oozeShieldSpeedMultiplier,1
;   infillExtruder,0
;   internalInfillPattern,Rectilinear
;   externalInfillPattern,Rectilinear
;   infillPercentage,15
;   outlineOverlapPercentage,25
;   infillExtrusionWidthPercentage,100
;   minInfillLength,5
;   infillLayerInterval,1
;   internalInfillAngles,45,-45
;   overlapInternalInfillAngles,0
;   externalInfillAngles,45,-45
;   generateSupport,1
;   supportExtruder,0
;   supportInfillPercentage,20
;   supportExtraInflation,0.5
;   supportBaseLayers,0
;   denseSupportExtruder,0
;   denseSupportLayers,2
;   denseSupportInfillPercentage,90
;   supportLayerInterval,1
;   supportHorizontalPartOffset,0.3
;   supportUpperSeparationLayers,1
;   supportLowerSeparationLayers,1
;   supportType,1
;   supportGridSpacing,2
;   maxOverhangAngle,45
;   supportAngles,45,-45
;   temperatureName,Primary Extruder,Heated Build Platform
;   temperatureNumber,0,0
;   temperatureSetpointCount,1,1
;   temperatureSetpointLayers,1,1
;   temperatureSetpointTemperatures,230,60
;   temperatureStabilizeAtStartup,1,1
;   temperatureHeatedBed,0,1
;   fanLayers,1,2
;   fanSpeeds,0,100
;   blipFanToFullPower,1
;   adjustSpeedForCooling,1
;   minSpeedLayerTime,15
;   minCoolingSpeedSlowdown,20
;   increaseFanForCooling,1
;   minFanLayerTime,45
;   maxCoolingFanSpeed,100
;   increaseFanForBridging,1
;   bridgingFanSpeed,100
;   use5D,1
;   relativeEdistances,1
;   allowEaxisZeroing,0
;   independentExtruderAxes,1
;   includeM10123,0
;   stickySupport,1
;   applyToolheadOffsets,0
;   gcodeXoffset,0
;   gcodeYoffset,0
;   gcodeZoffset,0
;   overrideMachineDefinition,1
;   machineTypeOverride,0
;   strokeXoverride,280
;   strokeYoverride,150
;   strokeZoverride,150
;   originOffsetXoverride,140
;   originOffsetYoverride,75
;   originOffsetZoverride,0
;   homeXdirOverride,1
;   homeYdirOverride,1
;   homeZdirOverride,-1
;   flipXoverride,1
;   flipYoverride,-1
;   flipZoverride,1
;   toolheadOffsets,0,0|0,0|0,0|0,0|0,0|0,0
;   overrideFirmwareConfiguration,1
;   firmwareTypeOverride,MakerBot/Sailfish Firmware
;   GPXconfigOverride,r2h
;   baudRateOverride,115200
;   overridePrinterModels,1
;   printerModelsOverride,MakerBot_Replicator2.stl
;   startingGcode,; **** Replicator 2 start.gcode ****,M73 P0 ; enable build progress,G162 X Y F3000 ; home XY maximum,G161 Z F1200 ; home Z minimum,G92 Z-5 ; set Z to -5,G1 Z0 ; move Z to 0,G161 Z F100 ; home Z slowly,M132 X Y Z A B ; recall home offsets,G1 X-145 Y-75 Z30 F9000 ; move to wait position off table,G130 X20 Y20 Z20 A20 B20 ; lower stepper Vrefs while heating,M126 S[fan_speed_pwm],M140 S[bed0_temperature] T0,M134 T0 ; stabilize bed temperature,M104 S[extruder0_temperature] T0,M133 T0 ; stabilize extruder temperature,G130 X127 Y127 Z40 A127 B127 ; default stepper Vrefs,G92 A0 ; zero extruder,G1 Z0.4 ; position nozzle,G1 E25 F300 ; purge nozzle,G1 X-140 Y-70 Z0.15 F1200 ; slow wipe,G1 X-135 Y-65 Z0.5 F1200 ; lift,G92 A0 ; zero extruder,M73 P1 ;@body (notify GPX body has started),; **** end of start.gcode ****
;   layerChangeGcode,
;   retractionGcode,
;   toolChangeGcode,
;   endingGcode,; **** Replicator 2 end.gcode ****,M73 P100 ; end build progress,G1 Z155 F1000 ; send Z axis to bottom of machine,M104 S0 T0 ; cool down extruder,M140 S0 T0 ; cool down HBP,M127 ; stop blower fan,G162 X Y F3000 ; home XY maximum,M18 ; disable stepper,M0 ; stop codes,M72 P1 ; play Ta-Da song,; **** end of end.gcode ****
;   exportFileFormat,gcode
;   celebration,0
;   celebrationSong,Random Song
;   postProcessing,
;   defaultSpeed,4800
;   outlineUnderspeed,0.5
;   solidInfillUnderspeed,1
;   supportUnderspeed,1
;   rapidXYspeed,9000
;   rapidZspeed,1200
;   minBridgingArea,50
;   bridgingExtraInflation,0
;   bridgingExtrusionMultiplier,1
;   bridgingSpeedMultiplier,0.8
;   useFixedBridgingAngle,0
;   fixedBridgingAngle,0
;   applyBridgingToPerimeters,0
;   filamentDiameters,1.75|1.75|1.75|1.75|1.75|1.75
;   filamentPricesPerKg,46|46|46|46|46|46
;   filamentDensities,1.25|1.25|1.25|1.25|1.25|1.25
;   useMinPrintHeight,0
;   minPrintHeight,0
;   useMaxPrintHeight,0
;   maxPrintHeight,4.84
;   useDiaphragm,0
;   diaphragmLayerInterval,20
;   robustSlicing,1
;   mergeAllIntoSolid,0
;   onlyRetractWhenCrossingOutline,0
;   retractBetweenLayers,0
;   useRetractionMinTravel,1
;   retractionMinTravel,7
;   retractWhileWiping,1
;   onlyWipeOutlines,1
;   avoidCrossingOutline,0
;   maxMovementDetourFactor,3
;   toolChangeRetractionDistance,12
;   toolChangeExtraRestartDistance,-0.5
;   toolChangeRetractionSpeed,600
;   externalThinWallType,0
;   internalThinWallType,0
;   thinWallAllowedOverlapPercentage,10
;   singleExtrusionMinLength,1
;   singleExtrusionMinPrintingWidthPercentage,50
;   singleExtrusionMaxPrintingWidthPercentage,200
;   singleExtrusionEndpointExtension,0.2
;   horizontalSizeCompensation,0
G90
M83
; **** Replicator 2 start.gcode ****
M73 P0 ; enable build progress
G162 X Y F3000 ; home XY maximum
G161 Z F1200 ; home Z minimum
G92 Z-5 ; set Z to -5
G1 Z0 ; move Z to 0
G161 Z F100 ; home Z slowly
M132 X Y Z A B ; recall home offsets
G1 X-145 Y-75 Z30 F9000 ; move to wait position off table
G130 X20 Y20 Z20 A20 B20 ; lower stepper Vrefs while heating
M127
M140 S60 T0
M134 T0 ; stabilize bed temperature
M104 S230 T0
M133 T0 ; stabilize extruder temperature
G130 X127 Y127 Z40 A127 B127 ; default stepper Vrefs
G92 A0 ; zero extruder
G1 Z0.4 ; position nozzle
G1 E25 F300 ; purge nozzle
G1 X-140 Y-70 Z0.15 F1200 ; slow wipe
G1 X-135 Y-65 Z0.5 F1200 ; lift
G92 A0 ; zero extruder
M73 P1 ;@body (notify GPX body has started)
; **** end of start.gcode ****
; process Process1
; layer 1, Z = 0.200
M135 T0
G1 E-1.9000 F1200
; feature inner perimeter
; tool H0.200 W0.460
G1 Z0.500 F1200
G1 X51.310 Y8.345 F9000
G1 Z0.200 F1200
G1 E1.9000 F1200
G1 X-51.310 Y8.345 E3.9251 F1800
G1 X-51.310 Y-29.062 E1.4308
G1 X46.219 Y-29.062 E3.7304
G1 X46.219 Y-23.951 E0.1955
G1 X51.310 Y-23.951 E0.1947
G1 X51.310 Y8.345 E1.2353
; feature outer perimeter
G1 X51.770 Y8.805 F9000
G1 X-51.770 Y8.805 E3.9603 F1200
G1 X-51.770 Y-29.522 E1.4660
G1 X46.679 Y-29.522 E3.7656
G1 X46.679 Y-24.411 E0.1955
G1 X51.770 Y-24.411 E0.1947
G1 X51.770 Y8.805 E1.2705
G1 E-1.9000 F1200
; feature solid layer
G1 Z0.700 F1200
G1 X50.556 Y-23.606 F9000
G1 Z0.200 F1200
G1 E1.9000 F1200
G1 X50.965 Y-23.196 E0.0221 F2400
G1 X50.965 Y-22.546 E0.0249
G1 X49.905 Y-23.606 E0.0573
G1 X49.255 Y-23.606 E0.0249
G1 X50.965 Y-21.895 E0.0925
G1 X50.965 Y-21.245 E0.0249
G1 X48.604 Y-23.606 E0.1277
G1 X47.954 Y-23.606 E0.0249
G1 X50.965 Y-20.594 E0.1629
G1 X50.965 Y-19.944 E0.0249
G1 X47.303 Y-23.606 E0.1981
G1 X46.653 Y-23.606 E0.0249
G1 X50.965 Y-19.293 E0.2333
G1 X50.965 Y-18.643 E0.0249
G1 X46.002 Y-23.606 E0.2685
G1 X45.445 Y-28.717 F9000
G1 X45.874 Y-28.288 E0.0232 F2400
G1 X45.874 Y-27.637 E0.0249
G1 X44.794 Y-28.717 E0.0584
G1 X44.144 Y-28.717 E0.0249
G1 X45.874 Y-26.987 E0.0936
G1 X45.874 Y-26.336 E0.0249
G1 X43.493 Y-28.717 E0.1288
G1 X42.843 Y-28.717 E0.0249
G1 X45.874 Y-25.685 E0.1640
G1 X45.874 Y-25.035 E0.0249
G1 X42.192 Y-28.717 E0.1991
G1 X41.542 Y-28.717 E0.0249
G1 X45.874 Y-24.384 E0.2343
G1 X45.874 Y-23.734 E0.0249
G1 X40.891 Y-28.717 E0.2695
G1 X40.241 Y-28.717 E0.0249
G1 X50.965 Y-17.992 E0.5801
G1 X50.965 Y-17.342 E0.0249
G1 X39.590 Y-28.717 E0.6153
G1 X38.939 Y-28.717 E0.0249
G1 X50.965 Y-16.691 E0.6505
G1 X50.965 Y-16.040 E0.0249
G1 X38.289 Y-28.717 E0.6857
G1 X37.638 Y-28.717 E0.0249
G1 X50.965 Y-15.390 E0.7209
G1 X50.965 Y-14.739 E0.0249
G1 X36.988 Y-28.717 E0.7561
G1 X36.337 Y-28.717 E0.0249
G1 X50.965 Y-14.089 E0.7912
G1 X50.965 Y-13.438 E0.0249
G1 X35.687 Y-28.717 E0.8264
G1 X35.036 Y-28.717 E0.0249
G1 X50.965 Y-12.788 E0.8616
G1 X50.965 Y-12.137 E0.0249
G1 X34.386 Y-28.717 E0.8968
G1 X33.735 Y-28.717 E0.0249
G1 X50.965 Y-11.487 E0.9320
G1 X50.965 Y-10.836 E0.0249
G1 X33.085 Y-28.717 E0.9672
G1 X32.434 Y-28.717 E0.0249
G1 X50.965 Y-10.186 E1.0024
G1 X50.965 Y-9.535 E0.0249
G1 X31.784 Y-28.717 E1.0376
G1 X31.133 Y-28.717 E0.0249
G1 X50.965 Y-8.885 E1.0728
G1 X50.965 Y-8.234 E0.0249
G1 X30.482 Y-28.717 E1.1080
G1 X29.832 Y-28.717 E0.0249
G1 X50.965 Y-7.583 E1.1431
G1 X50.965 Y-6.933 E0.0249
G1 X29.181 Y-28.717 E1.1783
G1 X28.531 Y-28.717 E0.0249
G1 X50.965 Y-6.282 E1.2135
G1 X50.965 Y-5.632 E0.0249
G1 X27.880 Y-28.717 E1.2487
G1 X27.230 Y-28.717 E0.0249
G1 X50.965 Y-4.981 E1.2839
G1 X50.965 Y-4.331 E0.0249
G1 X26.579 Y-28.717 E1.3191
G1 X25.929 Y-28.717 E0.0249
G1 X50.965 Y-3.680 E1.3543
G1 X50.965 Y-3.030 E0.0249
G1 X25.278 Y-28.717 E1.3895
G1 X24.628 Y-28.717 E0.0249
G1 X50.965 Y-2.379 E1.4247
G1 X50.965 Y-1.729 E0.0249
G1 X23.977 Y-28.717 E1.4598
G1 X23.327 Y-28.717 E0.0249
G1 X50.965 Y-1.078 E1.4950
G1 X50.965 Y-0.428 E0.0249
G1 X22.676 Y-28.717 E1.5302
G1 X22.025 Y-28.717 E0.0249
G1 X50.965 Y0.223 E1.5654
G1 X50.965 Y0.874 E0.0249
G1 X21.375 Y-28.717 E1.6006
G1 X20.724 Y-28.717 E0.0249
G1 X50.965 Y1.524 E1.6358
G1 X50.965 Y2.175 E0.0249
G1 X20.074 Y-28.717 E1.6710
G1 X19.423 Y-28.717 E0.0249
G1 X50.965 Y2.825 E1.7062
G1 X50.965 Y3.476 E0.0249
G1 X18.773 Y-28.717 E1.7414
G1 X18.122 Y-28.717 E0.0249
G1 X50.965 Y4.126 E1.7765
G1 X50.965 Y4.777 E0.0249
G1 X17.472 Y-28.717 E1.8117
G1 X16.821 Y-28.717 E0.0249
G1 X50.965 Y5.427 E1.8469
G1 X50.965 Y6.078 E0.0249
G1 X16.171 Y-28.717 E1.8821
G1 X15.520 Y-28.717 E0.0249
G1 X50.965 Y6.728 E1.9173
G1 X50.965 Y7.379 E0.0249
G1 X14.870 Y-28.717 E1.9525
G1 X14.219 Y-28.717 E0.0249
G1 X50.935 Y8.000 E1.9861
G1 X50.285 Y8.000 E0.0249
G1 X13.568 Y-28.717 E1.9861
G1 X12.918 Y-28.717 E0.0249
G1 X49.634 Y8.000 E1.9861
G1 X48.984 Y8.000 E0.0249
G1 X12.267 Y-28.717 E1.9861
G1 X11.617 Y-28.717 E0.0249
G1 X48.333 Y8.000 E1.9861
G1 X47.683 Y8.000 E0.0249
G1 X10.966 Y-28.717 E1.9861
G1 X10.316 Y-28.717 E0.0249
G1 X47.032 Y8.000 E1.9861
G1 X46.382 Y8.000 E0.0249
G1 X9.665 Y-28.717 E1.9861
G1 X9.015 Y-28.717 E0.0249
G1 X45.731 Y8.000 E1.9861
G1 X45.081 Y8.000 E0.0249
G1 X8.364 Y-28.717 E1.9861
G1 X7.714 Y-28.717 E0.0249
G1 X44.430 Y8.000 E1.9861
G1 X43.779 Y8.000 E0.0249
G1 X7.063 Y-28.717 E1.9861
G1 X6.413 Y-28.717 E0.0249
G1 X43.129 Y8.000 E1.9861
G1 X42.478 Y8.000 E0.0249
G1 X5.762 Y-28.717 E1.9861
G1 X5.111 Y-28.717 E0.0249
G1 X41.828 Y8.000 E1.9861
G1 X41.177 Y8.000 E0.0249
G1 X4.461 Y-28.717 E1.9861
G1 X3.810 Y-28.717 E0.0249
G1 X40.527 Y8.000 E1.9861
G1 X39.876 Y8.000 E0.0249
G1 X3.160 Y-28.717 E1.9861
G1 X2.509 Y-28.717 E0.0249
G1 X39.226 Y8.000 E1.9861
G1 X38.575 Y8.000 E0.0249
G1 X1.859 Y-28.717 E1.9861
G1 X1.208 Y-28.717 E0.0249
G1 X37.925 Y8.000 E1.9861
G1 X37.274 Y8.000 E0.0249
G1 X0.558 Y-28.717 E1.9861
G1 X-0.093 Y-28.717 E0.0249
G1 X36.624 Y8.000 E1.9861
G1 X35.973 Y8.000 E0.0249
G1 X-0.743 Y-28.717 E1.9861
G1 X-1.394 Y-28.717 E0.0249
G1 X35.322 Y8.000 E1.9861
G1 X34.672 Y8.000 E0.0249
G1 X-2.044 Y-28.717 E1.9861
G1 X-2.695 Y-28.717 E0.0249
G1 X34.021 Y8.000 E1.9861
G1 X33.371 Y8.000 E0.0249
G1 X-3.346 Y-28.717 E1.9861
G1 X-3.996 Y-28.717 E0.0249
G1 X32.720 Y8.000 E1.9861
G1 X32.070 Y8.000 E0.0249
G1 X-4.647 Y-28.717 E1.9861
G1 X-5.297 Y-28.717 E0.0249
G1 X31.419 Y8.000 E1.9861
G1 X30.769 Y8.000 E0.0249
G1 X-5.948 Y-28.717 E1.9861
G1 X-6.598 Y-28.717 E0.0249
G1 X30.118 Y8.000 E1.9861
G1 X29.468 Y8.000 E0.0249
G1 X-7.249 Y-28.717 E1.9861
G1 X-7.899 Y-28.717 E0.0249
G1 X28.817 Y8.000 E1.9861
G1 X28.167 Y8.000 E0.0249
G1 X-8.550 Y-28.717 E1.9861
G1 X-9.200 Y-28.717 E0.0249
G1 X27.516 Y8.000 E1.9861
G1 X26.865 Y8.000 E0.0249
G1 X-9.851 Y-28.717 E1.9861
G1 X-10.501 Y-28.717 E0.0249
G1 X26.215 Y8.000 E1.9861
G1 X25.564 Y8.000 E0.0249
G1 X-11.152 Y-28.717 E1.9861
G1 X-11.803 Y-28.717 E0.0249
G1 X24.914 Y8.000 E1.9861
G1 X24.263 Y8.000 E0.0249
G1 X-12.453 Y-28.717 E1.9861
G1 X-13.104 Y-28.717 E0.0249
G1 X23.613 Y8.000 E1.9861
G1 X22.962 Y8.000 E0.0249
G1 X-13.754 Y-28.717 E1.9861
G1 X-14.405 Y-28.717 E0.0249
G1 X22.312 Y8.000 E1.9861
G1 X21.661 Y8.000 E0.0249
G1 X-15.055 Y-28.717 E1.9861
G1 X-15.706 Y-28.717 E0.0249
G1 X21.011 Y8.000 E1.9861
G1 X20.360 Y8.000 E0.0249
G1 X-16.356 Y-28.717 E1.9861
G1 X-17.007 Y-28.717 E0.0249
G1 X19.710 Y8.000 E1.9861
G1 X19.059 Y8.000 E0.0249
G1 X-17.657 Y-28.717 E1.9861
G1 X-18.308 Y-28.717 E0.0249
G1 X18.408 Y8.000 E1.9861
G1 X17.758 Y8.000 E0.0249
G1 X-18.958 Y-28.717 E1.9861
G1 X-19.609 Y-28.717 E0.0249
G1 X17.107 Y8.000 E1.9861
G1 X16.457 Y8.000 E0.0249
G1 X-20.260 Y-28.717 E1.9861
G1 X-20.910 Y-28.717 E0.0249
G1 X15.806 Y8.000 E1.9861
G1 X15.156 Y8.000 E0.0249
G1 X-21.561 Y-28.717 E1.9861
G1 X-22.211 Y-28.717 E0.0249
G1 X14.505 Y8.000 E1.9861
G1 X13.855 Y8.000 E0.0249
G1 X-22.862 Y-28.717 E1.9861
G1 X-23.512 Y-28.717 E0.0249
G1 X13.204 Y8.000 E1.9861
G1 X12.554 Y8.000 E0.0249
G1 X-24.163 Y-28.717 E1.9861
G1 X-24.813 Y-28.717 E0.0249
G1 X11.903 Y8.000 E1.9861
G1 X11.253 Y8.000 E0.0249
G1 X-25.464 Y-28.717 E1.9861
G1 X-26.114 Y-28.717 E0.0249
G1 X10.602 Y8.000 E1.9861
G1 X9.951 Y8.000 E0.0249
G1 X-26.765 Y-28.717 E1.9861
G1 X-27.415 Y-28.717 E0.0249
G1 X9.301 Y8.000 E1.9861
G1 X8.650 Y8.000 E0.0249
G1 X-28.066 Y-28.717 E1.9861
G1 X-28.716 Y-28.717 E0.0249
G1 X8.000 Y8.000 E1.9861
G1 X7.349 Y8.000 E0.0249
G1 X-29.367 Y-28.717 E1.9861
G1 X-30.018 Y-28.717 E0.0249
G1 X6.699 Y8.000 E1.9861
G1 X6.048 Y8.000 E0.0249
G1 X-30.668 Y-28.717 E1.9861
G1 X-31.319 Y-28.717 E0.0249
G1 X5.398 Y8.000 E1.9861
G1 X4.747 Y8.000 E0.0249
G1 X-31.969 Y-28.717 E1.9861
G1 X-32.620 Y-28.717 E0.0249
G1 X4.097 Y8.000 E1.9861
G1 X3.446 Y8.000 E0.0249
G1 X-33.270 Y-28.717 E1.9861
G1 X-33.921 Y-28.717 E0.0249
G1 X2.796 Y8.000 E1.9861
G1 X2.145 Y8.000 E0.0249
G1 X-34.571 Y-28.717 E1.9861
G1 X-35.222 Y-28.717 E0.0249
G1 X1.494 Y8.000 E1.9861
G1 X0.844 Y8.000 E0.0249
G1 X-35.872 Y-28.717 E1.9861
G1 X-36.523 Y-28.717 E0.0249
G1 X0.193 Y8.000 E1.9861
G1 X-0.457 Y8.000 E0.0249
G1 X-37.173 Y-28.717 E1.9861
G1 X-37.824 Y-28.717 E0.0249
G1 X-1.108 Y8.000 E1.9861
G1 X-1.758 Y8.000 E0.0249
G1 X-38.475 Y-28.717 E1.9861
G1 X-39.125 Y-28.717 E0.0249
G1 X-2.409 Y8.000 E1.9861
G1 X-3.059 Y8.000 E0.0249
G1 X-39.776 Y-28.717 E1.9861
G1 X-40.426 Y-28.717 E0.0249
G1 X-3.710 Y8.000 E1.9861
G1 X-4.360 Y8.000 E0.0249
G1 X-41.077 Y-28.717 E1.9861
G1 X-41.727 Y-28.717 E0.0249
G1 X-5.011 Y8.000 E1.9861
G1 X-5.661 Y8.000 E0.0249
G1 X-42.378 Y-28.717 E1.9861
G1 X-43.028 Y-28.717 E0.0249
G1 X-6.312 Y8.000 E1.9861
G1 X-6.963 Y8.000 E0.0249
G1 X-43.679 Y-28.717 E1.9861
G1 X-44.329 Y-28.717 E0.0249
G1 X-7.613 Y8.000 E1.9861
