; G-Code generated by Simplify3D(R) Version 4.1.2
; Apr 2, 2020 at 2:21:02 PM
; Settings Summary
;   processName,Process1
;   applyToModels,barbasol neck,barbasol neck(2)
;   profileName,MakerBot Replicator 2 HBP (modified)
;   profileVersion,2020-03-12 10:48:50
;   baseProfile,MakerBot Replicator 2(2)
;   printMaterial,PLA
;   printQuality,Medium
;   printExtruders,
;   extruderName,Primary Extruder
;   extruderToolheadNumber,0
;   extruderDiameter,0.4
;   extruderAutoWidth,0
;   extruderWidth,0.4
;   extrusionMultiplier,1
;   extruderUseRetract,1
;   extruderRetractionDistance,1.9
;   extruderExtraRestartDistance,0
;   extruderRetractionZLift,0.5
;   extruderRetractionSpeed,1200
;   extruderUseCoasting,0
;   extruderCoastingDistance,0.2
;   extruderUseWipe,0
;   extruderWipeDistance,5
;   primaryExtruder,0
;   layerHeight,0.2
;   topSolidLayers,3
;   bottomSolidLayers,3
;   perimeterOutlines,2
;   printPerimetersInsideOut,1
;   startPointOption,3
;   startPointOriginX,0
;   startPointOriginY,150
;   sequentialIslands,0
;   spiralVaseMode,0
;   firstLayerHeightPercentage,100
;   firstLayerWidthPercentage,115
;   firstLayerUnderspeed,0.5
;   useRaft,0
;   raftExtruder,0
;   raftTopLayers,2
;   raftBaseLayers,1
;   raftOffset,1
;   raftSeparationDistance,0.14
;   raftTopInfill,90
;   aboveRaftSpeedMultiplier,0.3
;   useSkirt,0
;   skirtExtruder,0
;   skirtLayers,1
;   skirtOutlines,5
;   skirtOffset,0
;   usePrimePillar,0
;   primePillarExtruder,999
;   primePillarWidth,12
;   primePillarLocation,7
;   primePillarSpeedMultiplier,1
;   useOozeShield,0
;   oozeShieldExtruder,999
;   oozeShieldOffset,2
;   oozeShieldOutlines,1
;   oozeShieldSidewallShape,1
;   oozeShieldSidewallAngle,30
;   oozeShieldSpeedMultiplier,1
;   infillExtruder,0
;   internalInfillPattern,Rectilinear
;   externalInfillPattern,Rectilinear
;   infillPercentage,15
;   outlineOverlapPercentage,25
;   infillExtrusionWidthPercentage,100
;   minInfillLength,5
;   infillLayerInterval,1
;   internalInfillAngles,45,-45
;   overlapInternalInfillAngles,0
;   externalInfillAngles,45,-45
;   generateSupport,0
;   supportExtruder,0
;   supportInfillPercentage,30
;   supportExtraInflation,0.5
;   supportBaseLayers,0
;   denseSupportExtruder,0
;   denseSupportLayers,2
;   denseSupportInfillPercentage,90
;   supportLayerInterval,1
;   supportHorizontalPartOffset,0.3
;   supportUpperSeparationLayers,1
;   supportLowerSeparationLayers,1
;   supportType,1
;   supportGridSpacing,2
;   maxOverhangAngle,45
;   supportAngles,45,-45
;   temperatureName,Primary Extruder,Heated Build Platform
;   temperatureNumber,0,0
;   temperatureSetpointCount,1,1
;   temperatureSetpointLayers,1,1
;   temperatureSetpointTemperatures,230,60
;   temperatureStabilizeAtStartup,1,1
;   temperatureHeatedBed,0,1
;   fanLayers,1,2
;   fanSpeeds,0,100
;   blipFanToFullPower,1
;   adjustSpeedForCooling,1
;   minSpeedLayerTime,15
;   minCoolingSpeedSlowdown,20
;   increaseFanForCooling,1
;   minFanLayerTime,45
;   maxCoolingFanSpeed,100
;   increaseFanForBridging,1
;   bridgingFanSpeed,100
;   use5D,1
;   relativeEdistances,1
;   allowEaxisZeroing,0
;   independentExtruderAxes,1
;   includeM10123,0
;   stickySupport,1
;   applyToolheadOffsets,0
;   gcodeXoffset,0
;   gcodeYoffset,0
;   gcodeZoffset,0
;   overrideMachineDefinition,1
;   machineTypeOverride,0
;   strokeXoverride,280
;   strokeYoverride,150
;   strokeZoverride,150
;   originOffsetXoverride,140
;   originOffsetYoverride,75
;   originOffsetZoverride,0
;   homeXdirOverride,1
;   homeYdirOverride,1
;   homeZdirOverride,-1
;   flipXoverride,1
;   flipYoverride,-1
;   flipZoverride,1
;   toolheadOffsets,0,0|0,0|0,0|0,0|0,0|0,0
;   overrideFirmwareConfiguration,1
;   firmwareTypeOverride,MakerBot/Sailfish Firmware
;   GPXconfigOverride,r2h
;   baudRateOverride,115200
;   overridePrinterModels,1
;   printerModelsOverride,MakerBot_Replicator2.stl
;   startingGcode,; **** Replicator 2 start.gcode ****,M73 P0 ; enable build progress,G162 X Y F3000 ; home XY maximum,G161 Z F1200 ; home Z minimum,G92 Z-5 ; set Z to -5,G1 Z0 ; move Z to 0,G161 Z F100 ; home Z slowly,M132 X Y Z A B ; recall home offsets,G1 X-145 Y-75 Z30 F9000 ; move to wait position off table,G130 X20 Y20 Z20 A20 B20 ; lower stepper Vrefs while heating,M126 S[fan_speed_pwm],M140 S[bed0_temperature] T0,M134 T0 ; stabilize bed temperature,M104 S[extruder0_temperature] T0,M133 T0 ; stabilize extruder temperature,G130 X127 Y127 Z40 A127 B127 ; default stepper Vrefs,G92 A0 ; zero extruder,G1 Z0.4 ; position nozzle,G1 E25 F300 ; purge nozzle,G1 X-140 Y-70 Z0.15 F1200 ; slow wipe,G1 X-135 Y-65 Z0.5 F1200 ; lift,G92 A0 ; zero extruder,M73 P1 ;@body (notify GPX body has started),; **** end of start.gcode ****
;   layerChangeGcode,
;   retractionGcode,
;   toolChangeGcode,
;   endingGcode,; **** Replicator 2 end.gcode ****,M73 P100 ; end build progress,G1 Z155 F1000 ; send Z axis to bottom of machine,M104 S0 T0 ; cool down extruder,M140 S0 T0 ; cool down HBP,M127 ; stop blower fan,G162 X Y F3000 ; home XY maximum,M18 ; disable stepper,M0 ; stop codes,M72 P1 ; play Ta-Da song,; **** end of end.gcode ****
;   exportFileFormat,gcode
;   celebration,0
;   celebrationSong,Random Song
;   postProcessing,
;   defaultSpeed,4800
;   outlineUnderspeed,0.5
;   solidInfillUnderspeed,1
;   supportUnderspeed,1
;   rapidXYspeed,9000
;   rapidZspeed,1200
;   minBridgingArea,50
;   bridgingExtraInflation,0
;   bridgingExtrusionMultiplier,1
;   bridgingSpeedMultiplier,0.8
;   useFixedBridgingAngle,0
;   fixedBridgingAngle,0
;   applyBridgingToPerimeters,0
;   filamentDiameters,1.75|1.75|1.75|1.75|1.75|1.75
;   filamentPricesPerKg,46|46|46|46|46|46
;   filamentDensities,1.25|1.25|1.25|1.25|1.25|1.25
;   useMinPrintHeight,0
;   minPrintHeight,0
;   useMaxPrintHeight,0
;   maxPrintHeight,4.84
;   useDiaphragm,0
;   diaphragmLayerInterval,20
;   robustSlicing,1
;   mergeAllIntoSolid,0
;   onlyRetractWhenCrossingOutline,0
;   retractBetweenLayers,0
;   useRetractionMinTravel,1
;   retractionMinTravel,7
;   retractWhileWiping,1
;   onlyWipeOutlines,1
;   avoidCrossingOutline,0
;   maxMovementDetourFactor,3
;   toolChangeRetractionDistance,12
;   toolChangeExtraRestartDistance,-0.5
;   toolChangeRetractionSpeed,600
;   externalThinWallType,0
;   internalThinWallType,0
;   thinWallAllowedOverlapPercentage,10
;   singleExtrusionMinLength,1
;   singleExtrusionMinPrintingWidthPercentage,50
;   singleExtrusionMaxPrintingWidthPercentage,200
;   singleExtrusionEndpointExtension,0.2
;   horizontalSizeCompensation,0
G90
M83
; **** Replicator 2 start.gcode ****
M73 P0 ; enable build progress
G162 X Y F3000 ; home XY maximum
G161 Z F1200 ; home Z minimum
G92 Z-5 ; set Z to -5
G1 Z0 ; move Z to 0
G161 Z F100 ; home Z slowly
M132 X Y Z A B ; recall home offsets
G1 X-145 Y-75 Z30 F9000 ; move to wait position off table
G130 X20 Y20 Z20 A20 B20 ; lower stepper Vrefs while heating
M127
M140 S60 T0
M134 T0 ; stabilize bed temperature
M104 S230 T0
M133 T0 ; stabilize extruder temperature
G130 X127 Y127 Z40 A127 B127 ; default stepper Vrefs
G92 A0 ; zero extruder
G1 Z0.4 ; position nozzle
G1 E25 F300 ; purge nozzle
G1 X-140 Y-70 Z0.15 F1200 ; slow wipe
G1 X-135 Y-65 Z0.5 F1200 ; lift
G92 A0 ; zero extruder
M73 P1 ;@body (notify GPX body has started)
; **** end of start.gcode ****
; process Process1
; layer 1, Z = 0.200
M135 T0
G1 E-1.9000 F1200
; feature inner perimeter
; tool H0.200 W0.460
G1 Z0.500 F1200
G1 X-17.393 Y15.687 F9000
G1 Z0.200 F1200
G1 E1.9000 F1200
G1 X-17.942 Y15.755 E0.0212 F1800
G1 X-18.488 Y15.802 E0.0210
G1 X-19.325 Y15.836 E0.0320
G1 X-20.154 Y15.832 E0.0317
G1 X-20.702 Y15.803 E0.0210
G1 X-21.253 Y15.755 E0.0211
G1 X-21.802 Y15.687 E0.0212
G1 X-22.348 Y15.601 E0.0212
G1 X-22.891 Y15.495 E0.0211
G1 X-23.426 Y15.372 E0.0210
G1 X-24.232 Y15.146 E0.0320
G1 X-25.019 Y14.885 E0.0317
G1 X-25.531 Y14.688 E0.0210
G1 X-26.037 Y14.473 E0.0210
G1 X-26.791 Y14.111 E0.0320
G1 X-27.521 Y13.717 E0.0317
G1 X-27.992 Y13.434 E0.0210
G1 X-28.456 Y13.133 E0.0211
G1 X-28.909 Y12.816 E0.0212
G1 X-29.347 Y12.486 E0.0210
G1 X-29.991 Y11.951 E0.0320
G1 X-30.605 Y11.392 E0.0317
G1 X-30.993 Y11.004 E0.0210
G1 X-31.370 Y10.600 E0.0212
G1 X-31.732 Y10.183 E0.0211
G1 X-32.080 Y9.753 E0.0212
G1 X-32.413 Y9.311 E0.0212
G1 X-32.730 Y8.859 E0.0211
G1 X-33.032 Y8.394 E0.0212
G1 X-33.314 Y7.924 E0.0210
G1 X-33.711 Y7.187 E0.0320
G1 X-34.071 Y6.440 E0.0317
G1 X-34.283 Y5.938 E0.0208
G1 X-34.574 Y5.153 E0.0320
G1 X-34.826 Y4.363 E0.0317
G1 X-34.968 Y3.832 E0.0210
G1 X-35.092 Y3.293 E0.0212
G1 X-35.198 Y2.751 E0.0211
G1 X-35.284 Y2.205 E0.0212
G1 X-35.352 Y1.656 E0.0212
G1 X-35.400 Y1.105 E0.0211
G1 X-35.429 Y0.553 E0.0211
G1 X-35.439 Y-0.000 E0.0212
G1 X-35.429 Y-0.553 E0.0211
G1 X-35.400 Y-1.105 E0.0212
G1 X-35.352 Y-1.656 E0.0211
G1 X-35.284 Y-2.205 E0.0212
G1 X-35.198 Y-2.751 E0.0212
G1 X-35.092 Y-3.293 E0.0211
G1 X-34.968 Y-3.833 E0.0212
G1 X-34.825 Y-4.366 E0.0211
G1 X-34.663 Y-4.895 E0.0212
G1 X-34.483 Y-5.418 E0.0212
G1 X-34.285 Y-5.934 E0.0211
G1 X-34.069 Y-6.443 E0.0212
G1 X-33.838 Y-6.939 E0.0209
G1 X-33.313 Y-7.926 E0.0427
G1 X-33.031 Y-8.395 E0.0209
G1 X-32.730 Y-8.859 E0.0212
G1 X-32.413 Y-9.311 E0.0211
G1 X-32.080 Y-9.753 E0.0212
G1 X-31.733 Y-10.182 E0.0211
G1 X-31.370 Y-10.600 E0.0212
G1 X-30.993 Y-11.004 E0.0212
G1 X-30.602 Y-11.395 E0.0211
G1 X-30.197 Y-11.773 E0.0212
G1 X-29.780 Y-12.135 E0.0211
G1 X-29.350 Y-12.483 E0.0212
G1 X-28.909 Y-12.816 E0.0211
G1 X-28.456 Y-13.133 E0.0211
G1 X-27.992 Y-13.434 E0.0212
G1 X-27.518 Y-13.719 E0.0212
G1 X-27.035 Y-13.987 E0.0211
G1 X-26.545 Y-14.236 E0.0210
G1 X-25.782 Y-14.581 E0.0320
G1 X-25.012 Y-14.887 E0.0317
G1 X-24.492 Y-15.066 E0.0210
G1 X-23.964 Y-15.228 E0.0212
G1 X-23.429 Y-15.371 E0.0212
G1 X-22.891 Y-15.495 E0.0211
G1 X-22.348 Y-15.601 E0.0211
G1 X-21.802 Y-15.687 E0.0212
G1 X-21.253 Y-15.755 E0.0212
G1 X-20.706 Y-15.802 E0.0210
G1 X-19.870 Y-15.836 E0.0320
G1 X-19.040 Y-15.832 E0.0317
G1 X-18.496 Y-15.803 E0.0208
G1 X-17.663 Y-15.720 E0.0320
G1 X-16.843 Y-15.600 E0.0317
G1 X-16.307 Y-15.496 E0.0209
G1 X-15.494 Y-15.298 E0.0320
G1 X-14.698 Y-15.065 E0.0317
G1 X-14.179 Y-14.886 E0.0210
G1 X-13.663 Y-14.688 E0.0212
G1 X-13.158 Y-14.473 E0.0210
G1 X-12.403 Y-14.111 E0.0320
G1 X-11.673 Y-13.717 E0.0317
G1 X-11.202 Y-13.434 E0.0210
G1 X-10.739 Y-13.133 E0.0211
G1 X-10.286 Y-12.816 E0.0211
G1 X-9.847 Y-12.486 E0.0210
G1 X-9.203 Y-11.951 E0.0320
G1 X-8.590 Y-11.392 E0.0317
G1 X-8.202 Y-11.004 E0.0210
G1 X-7.825 Y-10.600 E0.0212
G1 X-7.462 Y-10.183 E0.0211
G1 X-7.114 Y-9.753 E0.0212
G1 X-6.781 Y-9.311 E0.0211
G1 X-6.464 Y-8.859 E0.0211
G1 X-6.163 Y-8.395 E0.0212
G1 X-5.880 Y-7.924 E0.0210
G1 X-5.483 Y-7.187 E0.0320
G1 X-5.124 Y-6.439 E0.0317
G1 X-4.909 Y-5.934 E0.0210
G1 X-4.711 Y-5.418 E0.0212
G1 X-4.531 Y-4.895 E0.0211
G1 X-4.369 Y-4.366 E0.0212
G1 X-4.226 Y-3.833 E0.0211
G1 X-4.102 Y-3.293 E0.0212
G1 X-3.997 Y-2.751 E0.0211
G1 X-3.910 Y-2.205 E0.0212
G1 X-3.843 Y-1.656 E0.0212
G1 X-3.794 Y-1.105 E0.0211
G1 X-3.765 Y-0.553 E0.0212
G1 X-3.756 Y-0.000 E0.0211
G1 X-3.765 Y0.553 E0.0212
G1 X-3.794 Y1.105 E0.0211
G1 X-3.842 Y1.652 E0.0210
G1 X-3.954 Y2.481 E0.0320
G1 X-4.103 Y3.297 E0.0317
G1 X-4.226 Y3.833 E0.0210
G1 X-4.369 Y4.366 E0.0211
G1 X-4.531 Y4.895 E0.0211
G1 X-4.711 Y5.418 E0.0212
G1 X-4.909 Y5.934 E0.0211
G1 X-5.125 Y6.443 E0.0212
G1 X-5.359 Y6.944 E0.0211
G1 X-5.610 Y7.437 E0.0212
G1 X-5.878 Y7.921 E0.0211
G1 X-6.163 Y8.395 E0.0211
G1 X-6.464 Y8.858 E0.0212
G1 X-6.779 Y9.308 E0.0210
G1 X-7.291 Y9.971 E0.0320
G1 X-7.827 Y10.603 E0.0317
G1 X-8.199 Y11.001 E0.0208
G1 X-8.798 Y11.586 E0.0320
G1 X-9.418 Y12.138 E0.0317
G1 X-9.844 Y12.483 E0.0210
G1 X-10.286 Y12.816 E0.0212
G1 X-10.738 Y13.133 E0.0211
G1 X-11.203 Y13.434 E0.0212
G1 X-11.677 Y13.719 E0.0212
G1 X-12.160 Y13.987 E0.0211
G1 X-12.653 Y14.238 E0.0212
G1 X-13.150 Y14.470 E0.0210
G1 X-13.925 Y14.788 E0.0320
G1 X-14.706 Y15.067 E0.0317
G1 X-15.231 Y15.228 E0.0210
G1 X-15.765 Y15.371 E0.0211
G1 X-16.304 Y15.495 E0.0212
G1 X-16.846 Y15.601 E0.0211
G1 X-17.393 Y15.687 E0.0212
; feature outer perimeter
G1 X-17.328 Y16.143 F9000
G1 X-17.894 Y16.212 E0.0218 F1200
G1 X-18.459 Y16.262 E0.0217
G1 X-19.317 Y16.297 E0.0328
G1 X-20.168 Y16.291 E0.0326
G1 X-20.734 Y16.262 E0.0217
G1 X-21.301 Y16.212 E0.0218
G1 X-21.866 Y16.143 E0.0218
G1 X-22.428 Y16.054 E0.0218
G1 X-22.986 Y15.945 E0.0217
G1 X-23.540 Y15.818 E0.0217
G1 X-24.366 Y15.586 E0.0328
G1 X-25.174 Y15.318 E0.0325
G1 X-25.704 Y15.114 E0.0217
G1 X-26.227 Y14.893 E0.0217
G1 X-27.000 Y14.521 E0.0328
G1 X-27.749 Y14.117 E0.0325
G1 X-28.236 Y13.824 E0.0217
G1 X-28.713 Y13.515 E0.0218
G1 X-29.179 Y13.188 E0.0218
G1 X-29.632 Y12.846 E0.0217
G1 X-30.293 Y12.298 E0.0328
G1 X-30.922 Y11.725 E0.0325
G1 X-31.323 Y11.324 E0.0217
G1 X-31.712 Y10.908 E0.0218
G1 X-32.085 Y10.479 E0.0218
G1 X-32.443 Y10.036 E0.0218
G1 X-32.786 Y9.582 E0.0218
G1 X-33.112 Y9.116 E0.0217
G1 X-33.422 Y8.638 E0.0218
G1 X-33.714 Y8.152 E0.0217
G1 X-34.121 Y7.396 E0.0328
G1 X-34.490 Y6.629 E0.0325
G1 X-34.711 Y6.108 E0.0217
G1 X-35.009 Y5.303 E0.0328
G1 X-35.268 Y4.492 E0.0325
G1 X-35.414 Y3.944 E0.0217
G1 X-35.543 Y3.389 E0.0218
G1 X-35.651 Y2.831 E0.0217
G1 X-35.740 Y2.269 E0.0218
G1 X-35.809 Y1.704 E0.0218
G1 X-35.859 Y1.137 E0.0218
G1 X-35.889 Y0.569 E0.0218
G1 X-35.899 Y-0.000 E0.0218
G1 X-35.889 Y-0.569 E0.0218
G1 X-35.859 Y-1.137 E0.0218
G1 X-35.809 Y-1.704 E0.0218
G1 X-35.740 Y-2.269 E0.0218
G1 X-35.651 Y-2.831 E0.0218
G1 X-35.542 Y-3.389 E0.0218
G1 X-35.414 Y-3.944 E0.0218
G1 X-35.267 Y-4.493 E0.0218
G1 X-35.101 Y-5.037 E0.0218
G1 X-34.916 Y-5.576 E0.0218
G1 X-34.712 Y-6.106 E0.0217
G1 X-34.489 Y-6.631 E0.0218
G1 X-34.250 Y-7.144 E0.0217
G1 X-33.714 Y-8.152 E0.0437
G1 X-33.422 Y-8.638 E0.0217
G1 X-33.112 Y-9.116 E0.0218
G1 X-32.786 Y-9.582 E0.0217
G1 X-32.443 Y-10.036 E0.0218
G1 X-32.085 Y-10.478 E0.0218
G1 X-31.712 Y-10.908 E0.0218
G1 X-31.323 Y-11.324 E0.0218
G1 X-30.921 Y-11.726 E0.0218
G1 X-30.505 Y-12.114 E0.0218
G1 X-30.076 Y-12.488 E0.0218
G1 X-29.633 Y-12.846 E0.0218
G1 X-29.179 Y-13.188 E0.0218
G1 X-28.713 Y-13.514 E0.0218
G1 X-28.236 Y-13.825 E0.0218
G1 X-27.748 Y-14.118 E0.0218
G1 X-27.250 Y-14.393 E0.0218
G1 X-26.745 Y-14.651 E0.0217
G1 X-25.962 Y-15.005 E0.0329
G1 X-25.171 Y-15.319 E0.0325
G1 X-24.635 Y-15.504 E0.0217
G1 X-24.090 Y-15.670 E0.0218
G1 X-23.541 Y-15.817 E0.0218
G1 X-22.987 Y-15.945 E0.0218
G1 X-22.428 Y-16.054 E0.0218
G1 X-21.866 Y-16.143 E0.0218
G1 X-21.301 Y-16.212 E0.0218
G1 X-20.736 Y-16.262 E0.0217
G1 X-19.878 Y-16.297 E0.0328
G1 X-19.027 Y-16.291 E0.0326
G1 X-18.461 Y-16.262 E0.0217
G1 X-17.607 Y-16.177 E0.0328
G1 X-16.765 Y-16.054 E0.0325
G1 X-16.209 Y-15.945 E0.0217
G1 X-15.375 Y-15.743 E0.0328
G1 X-14.559 Y-15.503 E0.0325
G1 X-14.022 Y-15.318 E0.0217
G1 X-13.491 Y-15.115 E0.0218
G1 X-12.968 Y-14.893 E0.0217
G1 X-12.194 Y-14.521 E0.0328
G1 X-11.445 Y-14.117 E0.0325
G1 X-10.959 Y-13.824 E0.0217
G1 X-10.482 Y-13.515 E0.0218
G1 X-10.016 Y-13.188 E0.0218
G1 X-9.562 Y-12.846 E0.0217
G1 X-8.901 Y-12.298 E0.0328
G1 X-8.272 Y-11.725 E0.0325
G1 X-7.871 Y-11.324 E0.0217
G1 X-7.483 Y-10.908 E0.0218
G1 X-7.110 Y-10.479 E0.0218
G1 X-6.751 Y-10.036 E0.0218
G1 X-6.409 Y-9.582 E0.0217
G1 X-6.083 Y-9.116 E0.0218
G1 X-5.773 Y-8.638 E0.0218
G1 X-5.480 Y-8.152 E0.0217
G1 X-5.073 Y-7.396 E0.0328
G1 X-4.705 Y-6.629 E0.0325
G1 X-4.483 Y-6.106 E0.0217
G1 X-4.279 Y-5.575 E0.0218
G1 X-4.094 Y-5.037 E0.0218
G1 X-3.927 Y-4.493 E0.0218
G1 X-3.780 Y-3.944 E0.0218
G1 X-3.652 Y-3.389 E0.0218
G1 X-3.543 Y-2.831 E0.0217
G1 X-3.454 Y-2.269 E0.0218
G1 X-3.385 Y-1.704 E0.0218
G1 X-3.335 Y-1.137 E0.0218
G1 X-3.306 Y-0.569 E0.0218
G1 X-3.296 Y-0.000 E0.0218
G1 X-3.306 Y0.569 E0.0218
G1 X-3.335 Y1.137 E0.0218
G1 X-3.385 Y1.703 E0.0217
G1 X-3.500 Y2.554 E0.0328
G1 X-3.652 Y3.391 E0.0325
G1 X-3.780 Y3.944 E0.0217
G1 X-3.927 Y4.493 E0.0218
G1 X-4.094 Y5.037 E0.0218
G1 X-4.279 Y5.576 E0.0218
G1 X-4.483 Y6.106 E0.0217
G1 X-4.705 Y6.631 E0.0218
G1 X-4.946 Y7.146 E0.0218
G1 X-5.204 Y7.653 E0.0218
G1 X-5.480 Y8.151 E0.0218
G1 X-5.773 Y8.639 E0.0218
G1 X-6.083 Y9.116 E0.0218
G1 X-6.408 Y9.581 E0.0217
