; G-Code generated by Simplify3D(R) Version 4.1.2
; Apr 2, 2020 at 2:21:23 PM
; Settings Summary
;   processName,Process1
;   applyToModels,barbasol neck,barbasol neck(2),barbasol neck(3),barbasol neck(2)(2)
;   profileName,MakerBot Replicator 2 HBP (modified)
;   profileVersion,2020-03-12 10:48:50
;   baseProfile,MakerBot Replicator 2(2)
;   printMaterial,PLA
;   printQuality,Medium
;   printExtruders,
;   extruderName,Primary Extruder
;   extruderToolheadNumber,0
;   extruderDiameter,0.4
;   extruderAutoWidth,0
;   extruderWidth,0.4
;   extrusionMultiplier,1
;   extruderUseRetract,1
;   extruderRetractionDistance,1.9
;   extruderExtraRestartDistance,0
;   extruderRetractionZLift,0.5
;   extruderRetractionSpeed,1200
;   extruderUseCoasting,0
;   extruderCoastingDistance,0.2
;   extruderUseWipe,0
;   extruderWipeDistance,5
;   primaryExtruder,0
;   layerHeight,0.2
;   topSolidLayers,3
;   bottomSolidLayers,3
;   perimeterOutlines,2
;   printPerimetersInsideOut,1
;   startPointOption,3
;   startPointOriginX,0
;   startPointOriginY,150
;   sequentialIslands,0
;   spiralVaseMode,0
;   firstLayerHeightPercentage,100
;   firstLayerWidthPercentage,115
;   firstLayerUnderspeed,0.5
;   useRaft,0
;   raftExtruder,0
;   raftTopLayers,2
;   raftBaseLayers,1
;   raftOffset,1
;   raftSeparationDistance,0.14
;   raftTopInfill,90
;   aboveRaftSpeedMultiplier,0.3
;   useSkirt,0
;   skirtExtruder,0
;   skirtLayers,1
;   skirtOutlines,5
;   skirtOffset,0
;   usePrimePillar,0
;   primePillarExtruder,999
;   primePillarWidth,12
;   primePillarLocation,7
;   primePillarSpeedMultiplier,1
;   useOozeShield,0
;   oozeShieldExtruder,999
;   oozeShieldOffset,2
;   oozeShieldOutlines,1
;   oozeShieldSidewallShape,1
;   oozeShieldSidewallAngle,30
;   oozeShieldSpeedMultiplier,1
;   infillExtruder,0
;   internalInfillPattern,Rectilinear
;   externalInfillPattern,Rectilinear
;   infillPercentage,15
;   outlineOverlapPercentage,25
;   infillExtrusionWidthPercentage,100
;   minInfillLength,5
;   infillLayerInterval,1
;   internalInfillAngles,45,-45
;   overlapInternalInfillAngles,0
;   externalInfillAngles,45,-45
;   generateSupport,0
;   supportExtruder,0
;   supportInfillPercentage,30
;   supportExtraInflation,0.5
;   supportBaseLayers,0
;   denseSupportExtruder,0
;   denseSupportLayers,2
;   denseSupportInfillPercentage,90
;   supportLayerInterval,1
;   supportHorizontalPartOffset,0.3
;   supportUpperSeparationLayers,1
;   supportLowerSeparationLayers,1
;   supportType,1
;   supportGridSpacing,2
;   maxOverhangAngle,45
;   supportAngles,45,-45
;   temperatureName,Primary Extruder,Heated Build Platform
;   temperatureNumber,0,0
;   temperatureSetpointCount,1,1
;   temperatureSetpointLayers,1,1
;   temperatureSetpointTemperatures,230,60
;   temperatureStabilizeAtStartup,1,1
;   temperatureHeatedBed,0,1
;   fanLayers,1,2
;   fanSpeeds,0,100
;   blipFanToFullPower,1
;   adjustSpeedForCooling,1
;   minSpeedLayerTime,15
;   minCoolingSpeedSlowdown,20
;   increaseFanForCooling,1
;   minFanLayerTime,45
;   maxCoolingFanSpeed,100
;   increaseFanForBridging,1
;   bridgingFanSpeed,100
;   use5D,1
;   relativeEdistances,1
;   allowEaxisZeroing,0
;   independentExtruderAxes,1
;   includeM10123,0
;   stickySupport,1
;   applyToolheadOffsets,0
;   gcodeXoffset,0
;   gcodeYoffset,0
;   gcodeZoffset,0
;   overrideMachineDefinition,1
;   machineTypeOverride,0
;   strokeXoverride,280
;   strokeYoverride,150
;   strokeZoverride,150
;   originOffsetXoverride,140
;   originOffsetYoverride,75
;   originOffsetZoverride,0
;   homeXdirOverride,1
;   homeYdirOverride,1
;   homeZdirOverride,-1
;   flipXoverride,1
;   flipYoverride,-1
;   flipZoverride,1
;   toolheadOffsets,0,0|0,0|0,0|0,0|0,0|0,0
;   overrideFirmwareConfiguration,1
;   firmwareTypeOverride,MakerBot/Sailfish Firmware
;   GPXconfigOverride,r2h
;   baudRateOverride,115200
;   overridePrinterModels,1
;   printerModelsOverride,MakerBot_Replicator2.stl
;   startingGcode,; **** Replicator 2 start.gcode ****,M73 P0 ; enable build progress,G162 X Y F3000 ; home XY maximum,G161 Z F1200 ; home Z minimum,G92 Z-5 ; set Z to -5,G1 Z0 ; move Z to 0,G161 Z F100 ; home Z slowly,M132 X Y Z A B ; recall home offsets,G1 X-145 Y-75 Z30 F9000 ; move to wait position off table,G130 X20 Y20 Z20 A20 B20 ; lower stepper Vrefs while heating,M126 S[fan_speed_pwm],M140 S[bed0_temperature] T0,M134 T0 ; stabilize bed temperature,M104 S[extruder0_temperature] T0,M133 T0 ; stabilize extruder temperature,G130 X127 Y127 Z40 A127 B127 ; default stepper Vrefs,G92 A0 ; zero extruder,G1 Z0.4 ; position nozzle,G1 E25 F300 ; purge nozzle,G1 X-140 Y-70 Z0.15 F1200 ; slow wipe,G1 X-135 Y-65 Z0.5 F1200 ; lift,G92 A0 ; zero extruder,M73 P1 ;@body (notify GPX body has started),; **** end of start.gcode ****
;   layerChangeGcode,
;   retractionGcode,
;   toolChangeGcode,
;   endingGcode,; **** Replicator 2 end.gcode ****,M73 P100 ; end build progress,G1 Z155 F1000 ; send Z axis to bottom of machine,M104 S0 T0 ; cool down extruder,M140 S0 T0 ; cool down HBP,M127 ; stop blower fan,G162 X Y F3000 ; home XY maximum,M18 ; disable stepper,M0 ; stop codes,M72 P1 ; play Ta-Da song,; **** end of end.gcode ****
;   exportFileFormat,gcode
;   celebration,0
;   celebrationSong,Random Song
;   postProcessing,
;   defaultSpeed,4800
;   outlineUnderspeed,0.5
;   solidInfillUnderspeed,1
;   supportUnderspeed,1
;   rapidXYspeed,9000
;   rapidZspeed,1200
;   minBridgingArea,50
;   bridgingExtraInflation,0
;   bridgingExtrusionMultiplier,1
;   bridgingSpeedMultiplier,0.8
;   useFixedBridgingAngle,0
;   fixedBridgingAngle,0
;   applyBridgingToPerimeters,0
;   filamentDiameters,1.75|1.75|1.75|1.75|1.75|1.75
;   filamentPricesPerKg,46|46|46|46|46|46
;   filamentDensities,1.25|1.25|1.25|1.25|1.25|1.25
;   useMinPrintHeight,0
;   minPrintHeight,0
;   useMaxPrintHeight,0
;   maxPrintHeight,4.84
;   useDiaphragm,0
;   diaphragmLayerInterval,20
;   robustSlicing,1
;   mergeAllIntoSolid,0
;   onlyRetractWhenCrossingOutline,0
;   retractBetweenLayers,0
;   useRetractionMinTravel,1
;   retractionMinTravel,7
;   retractWhileWiping,1
;   onlyWipeOutlines,1
;   avoidCrossingOutline,0
;   maxMovementDetourFactor,3
;   toolChangeRetractionDistance,12
;   toolChangeExtraRestartDistance,-0.5
;   toolChangeRetractionSpeed,600
;   externalThinWallType,0
;   internalThinWallType,0
;   thinWallAllowedOverlapPercentage,10
;   singleExtrusionMinLength,1
;   singleExtrusionMinPrintingWidthPercentage,50
;   singleExtrusionMaxPrintingWidthPercentage,200
;   singleExtrusionEndpointExtension,0.2
;   horizontalSizeCompensation,0
G90
M83
; **** Replicator 2 start.gcode ****
M73 P0 ; enable build progress
G162 X Y F3000 ; home XY maximum
G161 Z F1200 ; home Z minimum
G92 Z-5 ; set Z to -5
G1 Z0 ; move Z to 0
G161 Z F100 ; home Z slowly
M132 X Y Z A B ; recall home offsets
G1 X-145 Y-75 Z30 F9000 ; move to wait position off table
G130 X20 Y20 Z20 A20 B20 ; lower stepper Vrefs while heating
M127
M140 S60 T0
M134 T0 ; stabilize bed temperature
M104 S230 T0
M133 T0 ; stabilize extruder temperature
G130 X127 Y127 Z40 A127 B127 ; default stepper Vrefs
G92 A0 ; zero extruder
G1 Z0.4 ; position nozzle
G1 E25 F300 ; purge nozzle
G1 X-140 Y-70 Z0.15 F1200 ; slow wipe
G1 X-135 Y-65 Z0.5 F1200 ; lift
G92 A0 ; zero extruder
M73 P1 ;@body (notify GPX body has started)
; **** end of start.gcode ****
; process Process1
; layer 1, Z = 0.200
M135 T0
G1 E-1.9000 F1200
; feature inner perimeter
; tool H0.200 W0.460
G1 Z0.500 F1200
G1 X0.273 Y-3.761 F9000
G1 Z0.200 F1200
G1 E1.9000 F1200
G1 X-0.557 Y-3.766 E0.0317 F1800
G1 X-1.105 Y-3.794 E0.0210
G1 X-1.656 Y-3.843 E0.0211
G1 X-2.205 Y-3.910 E0.0212
G1 X-2.751 Y-3.997 E0.0212
G1 X-3.294 Y-4.102 E0.0211
G1 X-3.832 Y-4.226 E0.0211
G1 X-4.366 Y-4.370 E0.0212
G1 X-4.895 Y-4.531 E0.0212
G1 X-5.418 Y-4.711 E0.0212
G1 X-5.934 Y-4.909 E0.0211
G1 X-6.440 Y-5.124 E0.0210
G1 X-7.194 Y-5.486 E0.0320
G1 X-7.924 Y-5.880 E0.0317
G1 X-8.395 Y-6.163 E0.0210
G1 X-8.859 Y-6.464 E0.0212
G1 X-9.308 Y-6.779 E0.0210
G1 X-9.971 Y-7.291 E0.0320
G1 X-10.603 Y-7.828 E0.0317
G1 X-11.001 Y-8.199 E0.0208
G1 X-11.586 Y-8.798 E0.0320
G1 X-12.138 Y-9.418 E0.0317
G1 X-12.483 Y-9.844 E0.0210
G1 X-12.816 Y-10.286 E0.0212
G1 X-13.133 Y-10.739 E0.0211
G1 X-13.434 Y-11.203 E0.0212
G1 X-13.717 Y-11.673 E0.0210
G1 X-14.114 Y-12.410 E0.0320
G1 X-14.473 Y-13.158 E0.0317
G1 X-14.686 Y-13.659 E0.0208
G1 X-14.977 Y-14.445 E0.0320
G1 X-15.229 Y-15.235 E0.0317
G1 X-15.371 Y-15.765 E0.0210
G1 X-15.495 Y-16.304 E0.0212
G1 X-15.601 Y-16.846 E0.0211
G1 X-15.687 Y-17.393 E0.0212
G1 X-15.755 Y-17.942 E0.0212
G1 X-15.803 Y-18.492 E0.0211
G1 X-15.832 Y-19.044 E0.0211
G1 X-15.841 Y-19.597 E0.0211
G1 X-15.832 Y-20.150 E0.0211
G1 X-15.803 Y-20.702 E0.0212
G1 X-15.755 Y-21.253 E0.0211
G1 X-15.687 Y-21.802 E0.0212
G1 X-15.601 Y-22.348 E0.0212
G1 X-15.495 Y-22.891 E0.0211
G1 X-15.371 Y-23.430 E0.0212
G1 X-15.228 Y-23.964 E0.0211
G1 X-15.066 Y-24.492 E0.0211
G1 X-14.886 Y-25.015 E0.0212
G1 X-14.688 Y-25.532 E0.0211
G1 X-14.472 Y-26.041 E0.0212
G1 X-14.241 Y-26.536 E0.0209
G1 X-13.716 Y-27.523 E0.0428
G1 X-13.434 Y-27.992 E0.0209
G1 X-13.133 Y-28.456 E0.0212
G1 X-12.816 Y-28.908 E0.0211
G1 X-12.485 Y-29.347 E0.0210
G1 X-11.951 Y-29.991 E0.0320
G1 X-11.393 Y-30.604 E0.0317
G1 X-11.004 Y-30.993 E0.0210
G1 X-10.600 Y-31.370 E0.0212
G1 X-10.183 Y-31.732 E0.0211
G1 X-9.753 Y-32.080 E0.0211
G1 X-9.311 Y-32.413 E0.0212
G1 X-8.858 Y-32.730 E0.0211
G1 X-8.394 Y-33.032 E0.0212
G1 X-7.921 Y-33.316 E0.0211
G1 X-7.437 Y-33.584 E0.0211
G1 X-6.944 Y-33.835 E0.0212
G1 X-6.443 Y-34.069 E0.0211
G1 X-5.934 Y-34.285 E0.0212
G1 X-5.418 Y-34.483 E0.0212
G1 X-4.895 Y-34.663 E0.0212
G1 X-4.366 Y-34.825 E0.0211
G1 X-3.832 Y-34.968 E0.0211
G1 X-3.294 Y-35.092 E0.0211
G1 X-2.751 Y-35.198 E0.0211
G1 X-2.205 Y-35.284 E0.0212
G1 X-1.656 Y-35.352 E0.0211
G1 X-1.105 Y-35.400 E0.0212
G1 X-0.553 Y-35.429 E0.0211
G1 X0.000 Y-35.439 E0.0212
G1 X0.553 Y-35.429 E0.0212
G1 X1.105 Y-35.400 E0.0211
G1 X1.656 Y-35.352 E0.0212
G1 X2.201 Y-35.285 E0.0210
G1 X3.026 Y-35.144 E0.0320
G1 X3.836 Y-34.967 E0.0317
G1 X4.366 Y-34.825 E0.0210
G1 X4.895 Y-34.663 E0.0212
G1 X5.418 Y-34.483 E0.0212
G1 X5.934 Y-34.285 E0.0212
G1 X6.440 Y-34.071 E0.0210
G1 X7.194 Y-33.708 E0.0320
G1 X7.924 Y-33.314 E0.0317
G1 X8.395 Y-33.031 E0.0210
G1 X8.859 Y-32.730 E0.0212
G1 X9.311 Y-32.413 E0.0211
G1 X9.753 Y-32.080 E0.0211
G1 X10.183 Y-31.732 E0.0212
G1 X10.600 Y-31.370 E0.0212
G1 X11.004 Y-30.993 E0.0212
G1 X11.395 Y-30.602 E0.0211
G1 X11.772 Y-30.197 E0.0212
G1 X12.135 Y-29.780 E0.0212
G1 X12.483 Y-29.350 E0.0211
G1 X12.816 Y-28.909 E0.0212
G1 X13.133 Y-28.456 E0.0211
G1 X13.432 Y-27.995 E0.0210
G1 X13.855 Y-27.273 E0.0320
G1 X14.240 Y-26.538 E0.0317
G1 X14.472 Y-26.041 E0.0210
G1 X14.688 Y-25.531 E0.0212
G1 X14.886 Y-25.015 E0.0211
G1 X15.065 Y-24.496 E0.0210
G1 X15.300 Y-23.693 E0.0320
G1 X15.496 Y-22.887 E0.0317
G1 X15.601 Y-22.348 E0.0210
G1 X15.687 Y-21.802 E0.0212
G1 X15.755 Y-21.253 E0.0212
G1 X15.803 Y-20.702 E0.0211
G1 X15.832 Y-20.150 E0.0211
G1 X15.841 Y-19.598 E0.0211
G1 X15.832 Y-19.048 E0.0210
G1 X15.778 Y-18.213 E0.0320
G1 X15.687 Y-17.393 E0.0316
G1 X15.547 Y-16.571 E0.0319
G1 X15.370 Y-15.761 E0.0317
G1 X15.229 Y-15.235 E0.0208
G1 X14.975 Y-14.437 E0.0320
G1 X14.686 Y-13.659 E0.0317
G1 X14.472 Y-13.154 E0.0210
G1 X14.238 Y-12.653 E0.0211
G1 X13.987 Y-12.160 E0.0212
G1 X13.719 Y-11.677 E0.0211
G1 X13.434 Y-11.203 E0.0212
G1 X13.133 Y-10.739 E0.0212
G1 X12.818 Y-10.289 E0.0210
G1 X12.307 Y-9.626 E0.0320
G1 X11.770 Y-8.994 E0.0317
G1 X11.395 Y-8.593 E0.0210
G1 X11.004 Y-8.202 E0.0212
G1 X10.600 Y-7.825 E0.0211
G1 X10.183 Y-7.462 E0.0212
G1 X9.756 Y-7.117 E0.0210
G1 X9.082 Y-6.621 E0.0320
G1 X8.395 Y-6.163 E0.0316
G1 X7.675 Y-5.742 E0.0319
G1 X6.941 Y-5.357 E0.0317
G1 X6.443 Y-5.125 E0.0210
G1 X5.934 Y-4.909 E0.0211
G1 X5.418 Y-4.711 E0.0212
G1 X4.899 Y-4.532 E0.0210
G1 X4.096 Y-4.297 E0.0320
G1 X3.290 Y-4.101 E0.0317
G1 X2.751 Y-3.997 E0.0210
G1 X2.205 Y-3.910 E0.0212
G1 X1.656 Y-3.843 E0.0212
G1 X1.109 Y-3.795 E0.0210
G1 X0.273 Y-3.761 E0.0320
; feature outer perimeter
G1 X0.281 Y-3.301 F9000
G1 X-0.570 Y-3.306 E0.0325 F1200
G1 X-1.137 Y-3.335 E0.0217
G1 X-1.704 Y-3.385 E0.0218
G1 X-2.269 Y-3.454 E0.0218
G1 X-2.831 Y-3.543 E0.0218
G1 X-3.389 Y-3.652 E0.0218
G1 X-3.944 Y-3.780 E0.0218
G1 X-4.493 Y-3.927 E0.0218
G1 X-5.037 Y-4.094 E0.0218
G1 X-5.576 Y-4.279 E0.0218
G1 X-6.106 Y-4.483 E0.0217
G1 X-6.629 Y-4.705 E0.0217
G1 X-7.403 Y-5.077 E0.0328
G1 X-8.152 Y-5.480 E0.0325
G1 X-8.638 Y-5.773 E0.0217
G1 X-9.116 Y-6.083 E0.0218
G1 X-9.580 Y-6.408 E0.0217
G1 X-10.260 Y-6.933 E0.0329
G1 X-10.909 Y-7.484 E0.0325
G1 X-11.323 Y-7.870 E0.0217
G1 X-11.923 Y-8.484 E0.0328
G1 X-12.488 Y-9.120 E0.0325
G1 X-12.846 Y-9.561 E0.0217
G1 X-13.188 Y-10.016 E0.0218
G1 X-13.515 Y-10.482 E0.0218
G1 X-13.824 Y-10.959 E0.0218
G1 X-14.117 Y-11.445 E0.0217
G1 X-14.524 Y-12.201 E0.0328
G1 X-14.893 Y-12.968 E0.0325
G1 X-15.114 Y-13.489 E0.0217
G1 X-15.412 Y-14.295 E0.0328
G1 X-15.670 Y-15.105 E0.0325
G1 X-15.817 Y-15.653 E0.0217
G1 X-15.945 Y-16.208 E0.0218
G1 X-16.054 Y-16.766 E0.0217
G1 X-16.143 Y-17.328 E0.0218
G1 X-16.212 Y-17.894 E0.0218
G1 X-16.262 Y-18.460 E0.0218
G1 X-16.292 Y-19.028 E0.0218
G1 X-16.301 Y-19.597 E0.0218
G1 X-16.292 Y-20.166 E0.0218
G1 X-16.262 Y-20.734 E0.0218
G1 X-16.212 Y-21.301 E0.0218
G1 X-16.143 Y-21.866 E0.0218
G1 X-16.054 Y-22.428 E0.0218
G1 X-15.945 Y-22.986 E0.0217
G1 X-15.817 Y-23.541 E0.0218
G1 X-15.670 Y-24.090 E0.0218
G1 X-15.504 Y-24.635 E0.0218
G1 X-15.318 Y-25.173 E0.0218
G1 X-15.115 Y-25.704 E0.0217
G1 X-14.892 Y-26.228 E0.0218
G1 X-14.653 Y-26.741 E0.0217
G1 X-14.116 Y-27.750 E0.0437
G1 X-13.824 Y-28.236 E0.0217
G1 X-13.515 Y-28.713 E0.0218
G1 X-13.188 Y-29.179 E0.0218
G1 X-12.846 Y-29.632 E0.0217
G1 X-12.298 Y-30.293 E0.0328
G1 X-11.725 Y-30.922 E0.0325
G1 X-11.324 Y-31.323 E0.0217
G1 X-10.908 Y-31.712 E0.0218
G1 X-10.478 Y-32.085 E0.0218
G1 X-10.036 Y-32.443 E0.0218
G1 X-9.582 Y-32.785 E0.0218
G1 X-9.116 Y-33.112 E0.0218
G1 X-8.638 Y-33.422 E0.0218
G1 X-8.151 Y-33.715 E0.0218
G1 X-7.653 Y-33.991 E0.0218
G1 X-7.146 Y-34.249 E0.0218
G1 X-6.631 Y-34.489 E0.0218
G1 X-6.106 Y-34.712 E0.0218
G1 X-5.575 Y-34.916 E0.0218
G1 X-5.037 Y-35.101 E0.0218
G1 X-4.493 Y-35.267 E0.0218
G1 X-3.944 Y-35.415 E0.0218
G1 X-3.389 Y-35.542 E0.0218
G1 X-2.831 Y-35.651 E0.0218
G1 X-2.269 Y-35.740 E0.0218
G1 X-1.704 Y-35.809 E0.0218
G1 X-1.137 Y-35.859 E0.0218
G1 X-0.569 Y-35.889 E0.0217
G1 X0.000 Y-35.899 E0.0218
G1 X0.569 Y-35.889 E0.0218
G1 X1.137 Y-35.859 E0.0217
G1 X1.704 Y-35.809 E0.0218
G1 X2.267 Y-35.740 E0.0217
G1 X3.114 Y-35.596 E0.0328
G1 X3.945 Y-35.414 E0.0325
G1 X4.493 Y-35.267 E0.0217
G1 X5.037 Y-35.101 E0.0218
G1 X5.575 Y-34.916 E0.0218
G1 X6.106 Y-34.712 E0.0218
G1 X6.629 Y-34.490 E0.0217
G1 X7.403 Y-34.118 E0.0328
G1 X8.152 Y-33.714 E0.0325
G1 X8.639 Y-33.422 E0.0217
G1 X9.116 Y-33.112 E0.0218
G1 X9.582 Y-32.785 E0.0218
G1 X10.036 Y-32.443 E0.0218
G1 X10.479 Y-32.085 E0.0218
G1 X10.908 Y-31.712 E0.0218
G1 X11.324 Y-31.323 E0.0218
G1 X11.726 Y-30.921 E0.0218
G1 X12.114 Y-30.505 E0.0218
G1 X12.488 Y-30.076 E0.0218
G1 X12.846 Y-29.634 E0.0218
G1 X13.188 Y-29.179 E0.0218
G1 X13.514 Y-28.713 E0.0217
G1 X13.824 Y-28.237 E0.0217
G1 X14.257 Y-27.496 E0.0328
G1 X14.652 Y-26.742 E0.0325
G1 X14.892 Y-26.228 E0.0217
G1 X15.115 Y-25.704 E0.0218
G1 X15.318 Y-25.173 E0.0218
G1 X15.503 Y-24.636 E0.0217
G1 X15.745 Y-23.812 E0.0328
G1 X15.945 Y-22.985 E0.0325
G1 X16.054 Y-22.428 E0.0217
G1 X16.143 Y-21.866 E0.0218
G1 X16.212 Y-21.301 E0.0218
G1 X16.262 Y-20.734 E0.0218
G1 X16.292 Y-20.166 E0.0218
G1 X16.301 Y-19.598 E0.0218
G1 X16.292 Y-19.030 E0.0217
G1 X16.237 Y-18.173 E0.0328
G1 X16.143 Y-17.329 E0.0325
G1 X15.999 Y-16.483 E0.0328
G1 X15.817 Y-15.652 E0.0326
G1 X15.670 Y-15.105 E0.0217
G1 X15.410 Y-14.287 E0.0329
G1 X15.114 Y-13.489 E0.0325
G1 X14.892 Y-12.967 E0.0217
G1 X14.652 Y-12.451 E0.0218
G1 X14.393 Y-11.944 E0.0218
G1 X14.118 Y-11.447 E0.0218
G1 X13.825 Y-10.959 E0.0218
G1 X13.514 Y-10.481 E0.0218
G1 X13.189 Y-10.017 E0.0217
G1 X12.664 Y-9.337 E0.0329
