; G-Code generated by Simplify3D(R) Version 4.1.2
; Apr 2, 2020 at 2:22:33 PM
; Settings Summary
;   processName,Process1
;   applyToModels,barbasol top,barbasol top(2),barbasol top(3),barbasol top(2)(2)
;   profileName,MakerBot Replicator 2 HBP (modified)
;   profileVersion,2020-03-12 10:48:50
;   baseProfile,MakerBot Replicator 2(2)
;   printMaterial,PLA
;   printQuality,Medium
;   printExtruders,
;   extruderName,Primary Extruder
;   extruderToolheadNumber,0
;   extruderDiameter,0.4
;   extruderAutoWidth,0
;   extruderWidth,0.4
;   extrusionMultiplier,1
;   extruderUseRetract,1
;   extruderRetractionDistance,1.9
;   extruderExtraRestartDistance,0
;   extruderRetractionZLift,0.5
;   extruderRetractionSpeed,1200
;   extruderUseCoasting,0
;   extruderCoastingDistance,0.2
;   extruderUseWipe,0
;   extruderWipeDistance,5
;   primaryExtruder,0
;   layerHeight,0.2
;   topSolidLayers,3
;   bottomSolidLayers,3
;   perimeterOutlines,2
;   printPerimetersInsideOut,1
;   startPointOption,3
;   startPointOriginX,0
;   startPointOriginY,150
;   sequentialIslands,0
;   spiralVaseMode,0
;   firstLayerHeightPercentage,100
;   firstLayerWidthPercentage,115
;   firstLayerUnderspeed,0.5
;   useRaft,0
;   raftExtruder,0
;   raftTopLayers,2
;   raftBaseLayers,1
;   raftOffset,1
;   raftSeparationDistance,0.14
;   raftTopInfill,90
;   aboveRaftSpeedMultiplier,0.3
;   useSkirt,0
;   skirtExtruder,0
;   skirtLayers,1
;   skirtOutlines,5
;   skirtOffset,0
;   usePrimePillar,0
;   primePillarExtruder,999
;   primePillarWidth,12
;   primePillarLocation,7
;   primePillarSpeedMultiplier,1
;   useOozeShield,0
;   oozeShieldExtruder,999
;   oozeShieldOffset,2
;   oozeShieldOutlines,1
;   oozeShieldSidewallShape,1
;   oozeShieldSidewallAngle,30
;   oozeShieldSpeedMultiplier,1
;   infillExtruder,0
;   internalInfillPattern,Rectilinear
;   externalInfillPattern,Rectilinear
;   infillPercentage,15
;   outlineOverlapPercentage,25
;   infillExtrusionWidthPercentage,100
;   minInfillLength,5
;   infillLayerInterval,1
;   internalInfillAngles,45,-45
;   overlapInternalInfillAngles,0
;   externalInfillAngles,45,-45
;   generateSupport,1
;   supportExtruder,0
;   supportInfillPercentage,30
;   supportExtraInflation,0.5
;   supportBaseLayers,0
;   denseSupportExtruder,0
;   denseSupportLayers,2
;   denseSupportInfillPercentage,90
;   supportLayerInterval,1
;   supportHorizontalPartOffset,0.3
;   supportUpperSeparationLayers,1
;   supportLowerSeparationLayers,1
;   supportType,1
;   supportGridSpacing,2
;   maxOverhangAngle,45
;   supportAngles,45,-45
;   temperatureName,Primary Extruder,Heated Build Platform
;   temperatureNumber,0,0
;   temperatureSetpointCount,1,1
;   temperatureSetpointLayers,1,1
;   temperatureSetpointTemperatures,230,60
;   temperatureStabilizeAtStartup,1,1
;   temperatureHeatedBed,0,1
;   fanLayers,1,2
;   fanSpeeds,0,100
;   blipFanToFullPower,1
;   adjustSpeedForCooling,1
;   minSpeedLayerTime,15
;   minCoolingSpeedSlowdown,20
;   increaseFanForCooling,1
;   minFanLayerTime,45
;   maxCoolingFanSpeed,100
;   increaseFanForBridging,1
;   bridgingFanSpeed,100
;   use5D,1
;   relativeEdistances,1
;   allowEaxisZeroing,0
;   independentExtruderAxes,1
;   includeM10123,0
;   stickySupport,1
;   applyToolheadOffsets,0
;   gcodeXoffset,0
;   gcodeYoffset,0
;   gcodeZoffset,0
;   overrideMachineDefinition,1
;   machineTypeOverride,0
;   strokeXoverride,280
;   strokeYoverride,150
;   strokeZoverride,150
;   originOffsetXoverride,140
;   originOffsetYoverride,75
;   originOffsetZoverride,0
;   homeXdirOverride,1
;   homeYdirOverride,1
;   homeZdirOverride,-1
;   flipXoverride,1
;   flipYoverride,-1
;   flipZoverride,1
;   toolheadOffsets,0,0|0,0|0,0|0,0|0,0|0,0
;   overrideFirmwareConfiguration,1
;   firmwareTypeOverride,MakerBot/Sailfish Firmware
;   GPXconfigOverride,r2h
;   baudRateOverride,115200
;   overridePrinterModels,1
;   printerModelsOverride,MakerBot_Replicator2.stl
;   startingGcode,; **** Replicator 2 start.gcode ****,M73 P0 ; enable build progress,G162 X Y F3000 ; home XY maximum,G161 Z F1200 ; home Z minimum,G92 Z-5 ; set Z to -5,G1 Z0 ; move Z to 0,G161 Z F100 ; home Z slowly,M132 X Y Z A B ; recall home offsets,G1 X-145 Y-75 Z30 F9000 ; move to wait position off table,G130 X20 Y20 Z20 A20 B20 ; lower stepper Vrefs while heating,M126 S[fan_speed_pwm],M140 S[bed0_temperature] T0,M134 T0 ; stabilize bed temperature,M104 S[extruder0_temperature] T0,M133 T0 ; stabilize extruder temperature,G130 X127 Y127 Z40 A127 B127 ; default stepper Vrefs,G92 A0 ; zero extruder,G1 Z0.4 ; position nozzle,G1 E25 F300 ; purge nozzle,G1 X-140 Y-70 Z0.15 F1200 ; slow wipe,G1 X-135 Y-65 Z0.5 F1200 ; lift,G92 A0 ; zero extruder,M73 P1 ;@body (notify GPX body has started),; **** end of start.gcode ****
;   layerChangeGcode,
;   retractionGcode,
;   toolChangeGcode,
;   endingGcode,; **** Replicator 2 end.gcode ****,M73 P100 ; end build progress,G1 Z155 F1000 ; send Z axis to bottom of machine,M104 S0 T0 ; cool down extruder,M140 S0 T0 ; cool down HBP,M127 ; stop blower fan,G162 X Y F3000 ; home XY maximum,M18 ; disable stepper,M0 ; stop codes,M72 P1 ; play Ta-Da song,; **** end of end.gcode ****
;   exportFileFormat,gcode
;   celebration,0
;   celebrationSong,Random Song
;   postProcessing,
;   defaultSpeed,4800
;   outlineUnderspeed,0.5
;   solidInfillUnderspeed,1
;   supportUnderspeed,1
;   rapidXYspeed,9000
;   rapidZspeed,1200
;   minBridgingArea,50
;   bridgingExtraInflation,0
;   bridgingExtrusionMultiplier,1
;   bridgingSpeedMultiplier,0.8
;   useFixedBridgingAngle,0
;   fixedBridgingAngle,0
;   applyBridgingToPerimeters,0
;   filamentDiameters,1.75|1.75|1.75|1.75|1.75|1.75
;   filamentPricesPerKg,46|46|46|46|46|46
;   filamentDensities,1.25|1.25|1.25|1.25|1.25|1.25
;   useMinPrintHeight,0
;   minPrintHeight,0
;   useMaxPrintHeight,0
;   maxPrintHeight,4.84
;   useDiaphragm,0
;   diaphragmLayerInterval,20
;   robustSlicing,1
;   mergeAllIntoSolid,0
;   onlyRetractWhenCrossingOutline,0
;   retractBetweenLayers,0
;   useRetractionMinTravel,1
;   retractionMinTravel,7
;   retractWhileWiping,1
;   onlyWipeOutlines,1
;   avoidCrossingOutline,0
;   maxMovementDetourFactor,3
;   toolChangeRetractionDistance,12
;   toolChangeExtraRestartDistance,-0.5
;   toolChangeRetractionSpeed,600
;   externalThinWallType,0
;   internalThinWallType,0
;   thinWallAllowedOverlapPercentage,10
;   singleExtrusionMinLength,1
;   singleExtrusionMinPrintingWidthPercentage,50
;   singleExtrusionMaxPrintingWidthPercentage,200
;   singleExtrusionEndpointExtension,0.2
;   horizontalSizeCompensation,0
G90
M83
; **** Replicator 2 start.gcode ****
M73 P0 ; enable build progress
G162 X Y F3000 ; home XY maximum
G161 Z F1200 ; home Z minimum
G92 Z-5 ; set Z to -5
G1 Z0 ; move Z to 0
G161 Z F100 ; home Z slowly
M132 X Y Z A B ; recall home offsets
G1 X-145 Y-75 Z30 F9000 ; move to wait position off table
G130 X20 Y20 Z20 A20 B20 ; lower stepper Vrefs while heating
M126 S25
M140 S60 T0
M134 T0 ; stabilize bed temperature
M104 S230 T0
M133 T0 ; stabilize extruder temperature
G130 X127 Y127 Z40 A127 B127 ; default stepper Vrefs
G92 A0 ; zero extruder
G1 Z0.4 ; position nozzle
G1 E25 F300 ; purge nozzle
G1 X-140 Y-70 Z0.15 F1200 ; slow wipe
G1 X-135 Y-65 Z0.5 F1200 ; lift
G92 A0 ; zero extruder
M73 P1 ;@body (notify GPX body has started)
; **** end of start.gcode ****
; process Process1
; layer 1, Z = 0.200
M135 T0
G1 E-1.9000 F1200
; feature inner perimeter
; tool H0.200 W0.460
G1 Z0.500 F1200
G1 X0.212 Y-6.944 F9000
G1 Z0.200 F1200
G1 E1.9000 F1200
G1 X-0.424 Y-6.955 E0.0243 F1800
G1 X-1.061 Y-7.033 E0.0246
G1 X-1.464 Y-7.119 E0.0158
G1 X-2.078 Y-7.307 E0.0246
G1 X-2.669 Y-7.558 E0.0246
G1 X-3.033 Y-7.751 E0.0158
G1 X-3.572 Y-8.101 E0.0246
G1 X-4.068 Y-8.503 E0.0244
G1 X-4.447 Y-8.877 E0.0204
G1 X-4.787 Y-9.274 E0.0200
G1 X-5.157 Y-9.802 E0.0247
G1 X-5.363 Y-10.159 E0.0158
G1 X-5.634 Y-10.741 E0.0246
G1 X-5.841 Y-11.342 E0.0243
G1 X-5.984 Y-11.962 E0.0243
G1 X-6.062 Y-12.593 E0.0243
G1 X-6.073 Y-13.229 E0.0243
G1 X-6.018 Y-13.863 E0.0243
G1 X-5.896 Y-14.487 E0.0243
G1 X-5.710 Y-15.098 E0.0244
G1 X-5.505 Y-15.590 E0.0204
G1 X-5.264 Y-16.053 E0.0200
G1 X-4.916 Y-16.589 E0.0244
G1 X-4.514 Y-17.085 E0.0244
G1 X-4.140 Y-17.464 E0.0204
G1 X-3.743 Y-17.804 E0.0200
G1 X-3.220 Y-18.170 E0.0244
G1 X-2.664 Y-18.479 E0.0243
G1 X-2.078 Y-18.727 E0.0243
G1 X-1.470 Y-18.913 E0.0243
G1 X-0.846 Y-19.035 E0.0243
G1 X-0.212 Y-19.090 E0.0243
G1 X0.426 Y-19.079 E0.0244
G1 X0.956 Y-19.017 E0.0204
G1 X1.468 Y-18.914 E0.0200
G1 X2.078 Y-18.727 E0.0244
G1 X2.664 Y-18.479 E0.0243
G1 X3.220 Y-18.170 E0.0243
G1 X3.741 Y-17.806 E0.0243
G1 X4.221 Y-17.388 E0.0243
G1 X4.659 Y-16.919 E0.0246
G1 X4.913 Y-16.594 E0.0158
G1 X5.266 Y-16.050 E0.0248
G1 X5.459 Y-15.686 E0.0158
G1 X5.710 Y-15.095 E0.0246
G1 X5.896 Y-14.487 E0.0243
G1 X6.018 Y-13.863 E0.0243
G1 X6.074 Y-13.223 E0.0246
G1 X6.073 Y-12.811 E0.0158
G1 X6.018 Y-12.171 E0.0246
G1 X5.896 Y-11.547 E0.0243
G1 X5.710 Y-10.939 E0.0243
G1 X5.462 Y-10.353 E0.0243
G1 X5.152 Y-9.795 E0.0244
G1 X4.849 Y-9.356 E0.0204
G1 X4.518 Y-8.953 E0.0200
G1 X4.066 Y-8.501 E0.0244
G1 X3.572 Y-8.101 E0.0243
G1 X3.038 Y-7.755 E0.0243
G1 X2.472 Y-7.466 E0.0243
G1 X1.878 Y-7.238 E0.0243
G1 X1.258 Y-7.072 E0.0246
G1 X0.852 Y-7.000 E0.0158
G1 X0.212 Y-6.944 E0.0246
; feature outer perimeter
G1 X0.228 Y-6.484 F9000
G1 X-0.456 Y-6.496 E0.0262 F1200
G1 X-1.137 Y-6.579 E0.0263
G1 X-1.580 Y-6.673 E0.0173
G1 X-2.236 Y-6.874 E0.0263
G1 X-2.868 Y-7.142 E0.0262
G1 X-3.267 Y-7.355 E0.0173
G1 X-3.843 Y-7.728 E0.0262
G1 X-4.375 Y-8.159 E0.0262
G1 X-4.784 Y-8.563 E0.0220
G1 X-5.151 Y-8.992 E0.0216
G1 X-5.545 Y-9.554 E0.0263
G1 X-5.771 Y-9.946 E0.0173
G1 X-6.061 Y-10.568 E0.0262
G1 X-6.284 Y-11.215 E0.0262
G1 X-6.438 Y-11.882 E0.0262
G1 X-6.521 Y-12.561 E0.0262
G1 X-6.533 Y-13.245 E0.0262
G1 X-6.474 Y-13.927 E0.0262
G1 X-6.343 Y-14.599 E0.0262
G1 X-6.143 Y-15.254 E0.0262
G1 X-5.922 Y-15.784 E0.0220
G1 X-5.662 Y-16.285 E0.0216
G1 X-5.289 Y-16.860 E0.0262
G1 X-4.858 Y-17.392 E0.0262
G1 X-4.454 Y-17.801 E0.0220
G1 X-4.025 Y-18.168 E0.0216
G1 X-3.464 Y-18.561 E0.0262
G1 X-2.866 Y-18.893 E0.0262
G1 X-2.236 Y-19.160 E0.0262
G1 X-1.581 Y-19.360 E0.0262
G1 X-0.910 Y-19.491 E0.0262
G1 X-0.228 Y-19.550 E0.0262
G1 X0.457 Y-19.538 E0.0262
G1 X1.028 Y-19.472 E0.0220
G1 X1.581 Y-19.360 E0.0216
G1 X2.236 Y-19.160 E0.0262
G1 X2.866 Y-18.893 E0.0262
G1 X3.464 Y-18.561 E0.0262
G1 X4.025 Y-18.169 E0.0262
G1 X4.541 Y-17.720 E0.0262
G1 X5.009 Y-17.218 E0.0262
G1 X5.288 Y-16.861 E0.0173
G1 X5.663 Y-16.284 E0.0263
G1 X5.875 Y-15.885 E0.0173
G1 X6.143 Y-15.253 E0.0263
G1 X6.343 Y-14.599 E0.0262
G1 X6.474 Y-13.927 E0.0262
G1 X6.534 Y-13.243 E0.0262
G1 X6.533 Y-12.791 E0.0173
G1 X6.474 Y-12.107 E0.0262
G1 X6.343 Y-11.436 E0.0262
G1 X6.143 Y-10.781 E0.0262
G1 X5.876 Y-10.151 E0.0262
G1 X5.544 Y-9.552 E0.0262
G1 X5.217 Y-9.079 E0.0220
G1 X4.859 Y-8.643 E0.0216
G1 X4.374 Y-8.159 E0.0262
G1 X3.843 Y-7.728 E0.0262
G1 X3.269 Y-7.356 E0.0262
G1 X2.659 Y-7.045 E0.0262
G1 X2.020 Y-6.800 E0.0262
G1 X1.357 Y-6.622 E0.0262
G1 X0.912 Y-6.544 E0.0173
G1 X0.228 Y-6.484 E0.0262
; feature solid layer
G1 X-2.829 Y-8.033 F9000
G1 X-4.978 Y-10.182 E0.1162 F2400
G1 X-5.057 Y-10.318 E0.0060
G1 X-5.314 Y-10.870 E0.0233
G1 X-5.471 Y-11.326 E0.0184
G1 X-1.696 Y-7.551 E0.2042
G1 X-1.378 Y-7.453 E0.0127
G1 X-1.004 Y-7.374 E0.0146
G1 X-0.850 Y-7.355 E0.0060
G1 X-5.662 Y-12.167 E0.2603
G1 X-5.717 Y-12.617 E0.0173
G1 X-5.722 Y-12.878 E0.0100
G1 X-0.139 Y-7.295 E0.3020
G1 X0.200 Y-7.289 E0.0130
G1 X0.492 Y-7.315 E0.0112
G1 X-5.702 Y-13.509 E0.3350
G1 X-5.675 Y-13.815 E0.0118
G1 X-5.624 Y-14.081 E0.0104
G1 X1.068 Y-7.389 E0.3620
G1 X1.183 Y-7.409 E0.0044
G1 X1.590 Y-7.518 E0.0161
G1 X-5.499 Y-14.606 E0.3834
G1 X-5.385 Y-14.980 E0.0150
G1 X-5.337 Y-15.095 E0.0047
G1 X2.075 Y-7.683 E0.4009
G1 X2.331 Y-7.781 E0.0105
G1 X2.527 Y-7.881 E0.0084
G1 X-5.138 Y-15.547 E0.4146
G1 X-4.965 Y-15.879 E0.0143
G1 X-4.908 Y-15.967 E0.0040
G1 X2.950 Y-8.109 E0.4251
G1 X3.345 Y-8.365 E0.0180
G1 X-4.652 Y-16.362 E0.4326
G1 X-4.637 Y-16.386 E0.0011
G1 X-4.363 Y-16.723 E0.0166
G1 X3.706 Y-8.654 E0.4365
G1 X3.835 Y-8.758 E0.0063
G1 X4.044 Y-8.967 E0.0113
G1 X-4.052 Y-17.063 E0.4379
G1 X-3.905 Y-17.212 E0.0080
G1 X-3.714 Y-17.375 E0.0096
G1 X4.359 Y-9.303 E0.4367
G1 X4.574 Y-9.564 E0.0130
G1 X4.645 Y-9.667 E0.0048
G1 X-3.348 Y-17.660 E0.4323
G1 X-3.037 Y-17.877 E0.0145
G1 X-2.959 Y-17.921 E0.0034
G1 X4.904 Y-10.059 E0.4253
G1 X5.136 Y-10.477 E0.0183
G1 X-2.540 Y-18.153 E0.4152
G1 X-2.512 Y-18.168 E0.0012
G1 X-2.086 Y-18.349 E0.0177
G1 X5.332 Y-10.931 E0.4013
G1 X5.386 Y-11.057 E0.0052
G1 X5.496 Y-11.418 E0.0144
G1 X-1.599 Y-18.513 E0.3838
G1 X-1.387 Y-18.578 E0.0085
G1 X-1.074 Y-18.639 E0.0122
G1 X5.622 Y-11.943 E0.3622
G1 X5.675 Y-12.219 E0.0108
G1 X5.701 Y-12.514 E0.0113
G1 X-0.503 Y-18.718 E0.3356
G1 X-0.200 Y-18.745 E0.0116
G1 X0.127 Y-18.739 E0.0125
G1 X5.729 Y-13.137 E0.3030
G1 X5.729 Y-13.208 E0.0027
G1 X5.675 Y-13.815 E0.0233
G1 X5.669 Y-13.847 E0.0013
G1 X0.832 Y-18.684 E0.2617
G1 X0.901 Y-18.676 E0.0027
G1 X1.383 Y-18.579 E0.0188
G1 X1.678 Y-18.489 E0.0118
G1 X5.472 Y-14.695 E0.2052
G1 X5.386 Y-14.977 E0.0113
G1 X5.148 Y-15.538 E0.0233
G1 X4.998 Y-15.819 E0.0122
G1 X2.819 Y-17.998 E0.1179
G1 E-1.9000 F1200
; feature inner perimeter
G1 Z0.700 F1200
G1 X20.701 Y-7.000 F9000
G1 Z0.200 F1200
G1 E1.9000 F1200
G1 X20.076 Y-7.121 E0.0243 F1800
G1 X19.468 Y-7.307 E0.0243
G1 X18.877 Y-7.558 E0.0246
G1 X18.513 Y-7.751 E0.0158
G1 X17.974 Y-8.101 E0.0246
G1 X17.478 Y-8.503 E0.0244
G1 X17.099 Y-8.877 E0.0204
G1 X16.759 Y-9.274 E0.0200
G1 X16.389 Y-9.802 E0.0247
G1 X16.183 Y-10.159 E0.0158
G1 X15.912 Y-10.741 E0.0246
G1 X15.705 Y-11.342 E0.0243
G1 X15.562 Y-11.962 E0.0243
G1 X15.484 Y-12.593 E0.0243
G1 X15.473 Y-13.229 E0.0243
G1 X15.529 Y-13.863 E0.0243
G1 X15.650 Y-14.487 E0.0243
G1 X15.837 Y-15.098 E0.0244
G1 X16.042 Y-15.590 E0.0204
G1 X16.282 Y-16.053 E0.0200
G1 X16.630 Y-16.589 E0.0244
G1 X17.032 Y-17.085 E0.0244
G1 X17.406 Y-17.464 E0.0204
G1 X17.803 Y-17.804 E0.0200
G1 X18.326 Y-18.170 E0.0244
G1 X18.882 Y-18.479 E0.0243
G1 X19.468 Y-18.727 E0.0243
G1 X20.076 Y-18.913 E0.0243
G1 X20.700 Y-19.035 E0.0243
G1 X21.334 Y-19.090 E0.0243
G1 X21.972 Y-19.079 E0.0244
G1 X22.502 Y-19.017 E0.0204
G1 X23.014 Y-18.914 E0.0200
G1 X23.625 Y-18.727 E0.0244
G1 X24.212 Y-18.478 E0.0244
G1 X24.680 Y-18.222 E0.0204
G1 X25.116 Y-17.935 E0.0200
G1 X25.612 Y-17.533 E0.0244
G1 X26.066 Y-17.079 E0.0246
G1 X26.331 Y-16.763 E0.0158
G1 X26.699 Y-16.237 E0.0246
G1 X27.008 Y-15.681 E0.0243
G1 X27.256 Y-15.095 E0.0243
G1 X27.442 Y-14.487 E0.0243
G1 X27.564 Y-13.863 E0.0243
G1 X27.619 Y-13.229 E0.0243
G1 X27.608 Y-12.587 E0.0246
G1 X27.565 Y-12.177 E0.0158
G1 X27.442 Y-11.545 E0.0246
G1 X27.289 Y-11.034 E0.0204
G1 X27.099 Y-10.548 E0.0200
G1 X26.809 Y-9.979 E0.0244
G1 X26.462 Y-9.445 E0.0243
G1 X26.062 Y-8.951 E0.0243
G1 X25.611 Y-8.500 E0.0244
G1 X25.199 Y-8.162 E0.0204
G1 X24.769 Y-7.865 E0.0200
G1 X24.208 Y-7.554 E0.0245
G1 X23.719 Y-7.343 E0.0204
G1 X23.224 Y-7.176 E0.0200
G1 X22.601 Y-7.033 E0.0244
G1 X21.970 Y-6.955 E0.0243
G1 X21.334 Y-6.944 E0.0243
G1 X20.701 Y-7.000 E0.0243
; feature outer perimeter
G1 X20.636 Y-6.543 F9000
G1 X19.965 Y-6.674 E0.0262 F1200
G1 X19.310 Y-6.874 E0.0262
G1 X18.679 Y-7.142 E0.0263
G1 X18.279 Y-7.355 E0.0173
G1 X17.704 Y-7.728 E0.0262
G1 X17.171 Y-8.159 E0.0262
G1 X16.762 Y-8.563 E0.0220
G1 X16.395 Y-8.992 E0.0216
G1 X16.001 Y-9.554 E0.0263
G1 X15.775 Y-9.946 E0.0173
G1 X15.485 Y-10.568 E0.0262
G1 X15.262 Y-11.215 E0.0262
G1 X15.108 Y-11.882 E0.0262
G1 X15.025 Y-12.561 E0.0262
G1 X15.013 Y-13.245 E0.0262
G1 X15.072 Y-13.927 E0.0262
G1 X15.203 Y-14.598 E0.0262
G1 X15.403 Y-15.254 E0.0262
G1 X15.624 Y-15.784 E0.0220
G1 X15.884 Y-16.285 E0.0216
G1 X16.257 Y-16.860 E0.0262
G1 X16.689 Y-17.392 E0.0262
G1 X17.092 Y-17.801 E0.0220
G1 X17.521 Y-18.168 E0.0216
G1 X18.082 Y-18.561 E0.0262
G1 X18.680 Y-18.893 E0.0262
G1 X19.310 Y-19.160 E0.0262
G1 X19.965 Y-19.360 E0.0262
G1 X20.636 Y-19.491 E0.0262
G1 X21.318 Y-19.550 E0.0262
G1 X22.003 Y-19.538 E0.0262
