; G-Code generated by Simplify3D(R) Version 4.1.2
; Apr 2, 2020 at 2:22:15 PM
; Settings Summary
;   processName,Process1
;   applyToModels,barbasol top,barbasol top(2)
;   profileName,MakerBot Replicator 2 HBP (modified)
;   profileVersion,2020-03-12 10:48:50
;   baseProfile,MakerBot Replicator 2(2)
;   printMaterial,PLA
;   printQuality,Medium
;   printExtruders,
;   extruderName,Primary Extruder
;   extruderToolheadNumber,0
;   extruderDiameter,0.4
;   extruderAutoWidth,0
;   extruderWidth,0.4
;   extrusionMultiplier,1
;   extruderUseRetract,1
;   extruderRetractionDistance,1.9
;   extruderExtraRestartDistance,0
;   extruderRetractionZLift,0.5
;   extruderRetractionSpeed,1200
;   extruderUseCoasting,0
;   extruderCoastingDistance,0.2
;   extruderUseWipe,0
;   extruderWipeDistance,5
;   primaryExtruder,0
;   layerHeight,0.2
;   topSolidLayers,3
;   bottomSolidLayers,3
;   perimeterOutlines,2
;   printPerimetersInsideOut,1
;   startPointOption,3
;   startPointOriginX,0
;   startPointOriginY,150
;   sequentialIslands,0
;   spiralVaseMode,0
;   firstLayerHeightPercentage,100
;   firstLayerWidthPercentage,115
;   firstLayerUnderspeed,0.5
;   useRaft,0
;   raftExtruder,0
;   raftTopLayers,2
;   raftBaseLayers,1
;   raftOffset,1
;   raftSeparationDistance,0.14
;   raftTopInfill,90
;   aboveRaftSpeedMultiplier,0.3
;   useSkirt,0
;   skirtExtruder,0
;   skirtLayers,1
;   skirtOutlines,5
;   skirtOffset,0
;   usePrimePillar,0
;   primePillarExtruder,999
;   primePillarWidth,12
;   primePillarLocation,7
;   primePillarSpeedMultiplier,1
;   useOozeShield,0
;   oozeShieldExtruder,999
;   oozeShieldOffset,2
;   oozeShieldOutlines,1
;   oozeShieldSidewallShape,1
;   oozeShieldSidewallAngle,30
;   oozeShieldSpeedMultiplier,1
;   infillExtruder,0
;   internalInfillPattern,Rectilinear
;   externalInfillPattern,Rectilinear
;   infillPercentage,15
;   outlineOverlapPercentage,25
;   infillExtrusionWidthPercentage,100
;   minInfillLength,5
;   infillLayerInterval,1
;   internalInfillAngles,45,-45
;   overlapInternalInfillAngles,0
;   externalInfillAngles,45,-45
;   generateSupport,1
;   supportExtruder,0
;   supportInfillPercentage,30
;   supportExtraInflation,0.5
;   supportBaseLayers,0
;   denseSupportExtruder,0
;   denseSupportLayers,2
;   denseSupportInfillPercentage,90
;   supportLayerInterval,1
;   supportHorizontalPartOffset,0.3
;   supportUpperSeparationLayers,1
;   supportLowerSeparationLayers,1
;   supportType,1
;   supportGridSpacing,2
;   maxOverhangAngle,45
;   supportAngles,45,-45
;   temperatureName,Primary Extruder,Heated Build Platform
;   temperatureNumber,0,0
;   temperatureSetpointCount,1,1
;   temperatureSetpointLayers,1,1
;   temperatureSetpointTemperatures,230,60
;   temperatureStabilizeAtStartup,1,1
;   temperatureHeatedBed,0,1
;   fanLayers,1,2
;   fanSpeeds,0,100
;   blipFanToFullPower,1
;   adjustSpeedForCooling,1
;   minSpeedLayerTime,15
;   minCoolingSpeedSlowdown,20
;   increaseFanForCooling,1
;   minFanLayerTime,45
;   maxCoolingFanSpeed,100
;   increaseFanForBridging,1
;   bridgingFanSpeed,100
;   use5D,1
;   relativeEdistances,1
;   allowEaxisZeroing,0
;   independentExtruderAxes,1
;   includeM10123,0
;   stickySupport,1
;   applyToolheadOffsets,0
;   gcodeXoffset,0
;   gcodeYoffset,0
;   gcodeZoffset,0
;   overrideMachineDefinition,1
;   machineTypeOverride,0
;   strokeXoverride,280
;   strokeYoverride,150
;   strokeZoverride,150
;   originOffsetXoverride,140
;   originOffsetYoverride,75
;   originOffsetZoverride,0
;   homeXdirOverride,1
;   homeYdirOverride,1
;   homeZdirOverride,-1
;   flipXoverride,1
;   flipYoverride,-1
;   flipZoverride,1
;   toolheadOffsets,0,0|0,0|0,0|0,0|0,0|0,0
;   overrideFirmwareConfiguration,1
;   firmwareTypeOverride,MakerBot/Sailfish Firmware
;   GPXconfigOverride,r2h
;   baudRateOverride,115200
;   overridePrinterModels,1
;   printerModelsOverride,MakerBot_Replicator2.stl
;   startingGcode,; **** Replicator 2 start.gcode ****,M73 P0 ; enable build progress,G162 X Y F3000 ; home XY maximum,G161 Z F1200 ; home Z minimum,G92 Z-5 ; set Z to -5,G1 Z0 ; move Z to 0,G161 Z F100 ; home Z slowly,M132 X Y Z A B ; recall home offsets,G1 X-145 Y-75 Z30 F9000 ; move to wait position off table,G130 X20 Y20 Z20 A20 B20 ; lower stepper Vrefs while heating,M126 S[fan_speed_pwm],M140 S[bed0_temperature] T0,M134 T0 ; stabilize bed temperature,M104 S[extruder0_temperature] T0,M133 T0 ; stabilize extruder temperature,G130 X127 Y127 Z40 A127 B127 ; default stepper Vrefs,G92 A0 ; zero extruder,G1 Z0.4 ; position nozzle,G1 E25 F300 ; purge nozzle,G1 X-140 Y-70 Z0.15 F1200 ; slow wipe,G1 X-135 Y-65 Z0.5 F1200 ; lift,G92 A0 ; zero extruder,M73 P1 ;@body (notify GPX body has started),; **** end of start.gcode ****
;   layerChangeGcode,
;   retractionGcode,
;   toolChangeGcode,
;   endingGcode,; **** Replicator 2 end.gcode ****,M73 P100 ; end build progress,G1 Z155 F1000 ; send Z axis to bottom of machine,M104 S0 T0 ; cool down extruder,M140 S0 T0 ; cool down HBP,M127 ; stop blower fan,G162 X Y F3000 ; home XY maximum,M18 ; disable stepper,M0 ; stop codes,M72 P1 ; play Ta-Da song,; **** end of end.gcode ****
;   exportFileFormat,gcode
;   celebration,0
;   celebrationSong,Random Song
;   postProcessing,
;   defaultSpeed,4800
;   outlineUnderspeed,0.5
;   solidInfillUnderspeed,1
;   supportUnderspeed,1
;   rapidXYspeed,9000
;   rapidZspeed,1200
;   minBridgingArea,50
;   bridgingExtraInflation,0
;   bridgingExtrusionMultiplier,1
;   bridgingSpeedMultiplier,0.8
;   useFixedBridgingAngle,0
;   fixedBridgingAngle,0
;   applyBridgingToPerimeters,0
;   filamentDiameters,1.75|1.75|1.75|1.75|1.75|1.75
;   filamentPricesPerKg,46|46|46|46|46|46
;   filamentDensities,1.25|1.25|1.25|1.25|1.25|1.25
;   useMinPrintHeight,0
;   minPrintHeight,0
;   useMaxPrintHeight,0
;   maxPrintHeight,4.84
;   useDiaphragm,0
;   diaphragmLayerInterval,20
;   robustSlicing,1
;   mergeAllIntoSolid,0
;   onlyRetractWhenCrossingOutline,0
;   retractBetweenLayers,0
;   useRetractionMinTravel,1
;   retractionMinTravel,7
;   retractWhileWiping,1
;   onlyWipeOutlines,1
;   avoidCrossingOutline,0
;   maxMovementDetourFactor,3
;   toolChangeRetractionDistance,12
;   toolChangeExtraRestartDistance,-0.5
;   toolChangeRetractionSpeed,600
;   externalThinWallType,0
;   internalThinWallType,0
;   thinWallAllowedOverlapPercentage,10
;   singleExtrusionMinLength,1
;   singleExtrusionMinPrintingWidthPercentage,50
;   singleExtrusionMaxPrintingWidthPercentage,200
;   singleExtrusionEndpointExtension,0.2
;   horizontalSizeCompensation,0
G90
M83
; **** Replicator 2 start.gcode ****
M73 P0 ; enable build progress
G162 X Y F3000 ; home XY maximum
G161 Z F1200 ; home Z minimum
G92 Z-5 ; set Z to -5
G1 Z0 ; move Z to 0
G161 Z F100 ; home Z slowly
M132 X Y Z A B ; recall home offsets
G1 X-145 Y-75 Z30 F9000 ; move to wait position off table
G130 X20 Y20 Z20 A20 B20 ; lower stepper Vrefs while heating
M126 S140
M140 S60 T0
M134 T0 ; stabilize bed temperature
M104 S230 T0
M133 T0 ; stabilize extruder temperature
G130 X127 Y127 Z40 A127 B127 ; default stepper Vrefs
G92 A0 ; zero extruder
G1 Z0.4 ; position nozzle
G1 E25 F300 ; purge nozzle
G1 X-140 Y-70 Z0.15 F1200 ; slow wipe
G1 X-135 Y-65 Z0.5 F1200 ; lift
G92 A0 ; zero extruder
M73 P1 ;@body (notify GPX body has started)
; **** end of start.gcode ****
; process Process1
; layer 1, Z = 0.200
M135 T0
G1 E-1.9000 F1200
; feature inner perimeter
; tool H0.200 W0.460
G1 Z0.500 F1200
G1 X-10.349 Y4.940 F9000
G1 Z0.200 F1200
G1 E1.9000 F1200
G1 X-10.985 Y4.951 E0.0243 F1800
G1 X-11.619 Y4.896 E0.0243
G1 X-12.243 Y4.774 E0.0243
G1 X-12.851 Y4.588 E0.0243
G1 X-13.437 Y4.340 E0.0243
G1 X-13.999 Y4.028 E0.0246
G1 X-14.342 Y3.797 E0.0158
G1 X-14.763 Y3.460 E0.0206
G1 X-15.143 Y3.101 E0.0200
G1 X-15.562 Y2.619 E0.0244
G1 X-15.930 Y2.093 E0.0246
G1 X-16.136 Y1.736 E0.0158
G1 X-16.407 Y1.154 E0.0246
G1 X-16.614 Y0.553 E0.0243
G1 X-16.757 Y-0.067 E0.0243
G1 X-16.835 Y-0.698 E0.0243
G1 X-16.846 Y-1.334 E0.0243
G1 X-16.791 Y-1.968 E0.0243
G1 X-16.669 Y-2.592 E0.0243
G1 X-16.483 Y-3.203 E0.0244
G1 X-16.278 Y-3.694 E0.0204
G1 X-16.037 Y-4.158 E0.0200
G1 X-15.689 Y-4.694 E0.0244
G1 X-15.289 Y-5.188 E0.0243
G1 X-14.839 Y-5.638 E0.0243
G1 X-14.343 Y-6.040 E0.0244
G1 X-13.898 Y-6.333 E0.0204
G1 X-13.439 Y-6.583 E0.0200
G1 X-12.851 Y-6.832 E0.0244
G1 X-12.243 Y-7.018 E0.0243
G1 X-11.617 Y-7.140 E0.0244
G1 X-11.086 Y-7.190 E0.0204
G1 X-10.563 Y-7.195 E0.0200
G1 X-9.927 Y-7.140 E0.0244
G1 X-9.303 Y-7.018 E0.0243
G1 X-8.695 Y-6.832 E0.0243
G1 X-8.107 Y-6.583 E0.0244
G1 X-7.639 Y-6.327 E0.0204
G1 X-7.198 Y-6.036 E0.0202
G1 X-6.871 Y-5.781 E0.0159
G1 X-6.402 Y-5.343 E0.0246
G1 X-5.985 Y-4.863 E0.0243
G1 X-5.620 Y-4.342 E0.0243
G1 X-5.311 Y-3.786 E0.0243
G1 X-5.063 Y-3.200 E0.0243
G1 X-4.877 Y-2.592 E0.0243
G1 X-4.756 Y-1.968 E0.0243
G1 X-4.700 Y-1.334 E0.0243
G1 X-4.711 Y-0.698 E0.0243
G1 X-4.789 Y-0.061 E0.0246
G1 X-4.875 Y0.342 E0.0158
G1 X-5.063 Y0.956 E0.0246
G1 X-5.314 Y1.548 E0.0246
G1 X-5.507 Y1.911 E0.0158
G1 X-5.857 Y2.450 E0.0246
G1 X-6.257 Y2.944 E0.0243
G1 X-6.711 Y3.398 E0.0246
G1 X-7.027 Y3.663 E0.0158
G1 X-7.553 Y4.031 E0.0246
G1 X-8.111 Y4.341 E0.0244
G1 X-8.600 Y4.552 E0.0204
G1 X-9.096 Y4.719 E0.0200
G1 X-9.718 Y4.862 E0.0244
G1 X-10.349 Y4.940 E0.0243
; feature outer perimeter
G1 X-10.317 Y5.399 F9000
G1 X-11.001 Y5.411 E0.0262 F1200
G1 X-11.683 Y5.352 E0.0262
G1 X-12.355 Y5.221 E0.0262
G1 X-13.009 Y5.021 E0.0262
G1 X-13.639 Y4.754 E0.0262
G1 X-14.239 Y4.421 E0.0262
G1 X-14.615 Y4.168 E0.0173
G1 X-15.065 Y3.808 E0.0221
G1 X-15.475 Y3.420 E0.0216
G1 X-15.924 Y2.903 E0.0262
G1 X-16.318 Y2.341 E0.0263
G1 X-16.544 Y1.949 E0.0173
G1 X-16.834 Y1.327 E0.0263
G1 X-17.057 Y0.680 E0.0262
G1 X-17.211 Y0.013 E0.0262
G1 X-17.294 Y-0.666 E0.0262
G1 X-17.306 Y-1.350 E0.0262
G1 X-17.247 Y-2.032 E0.0262
G1 X-17.116 Y-2.703 E0.0262
G1 X-16.916 Y-3.359 E0.0262
G1 X-16.695 Y-3.889 E0.0220
G1 X-16.435 Y-4.390 E0.0216
G1 X-16.062 Y-4.965 E0.0262
G1 X-15.631 Y-5.496 E0.0262
G1 X-15.147 Y-5.980 E0.0262
G1 X-14.615 Y-6.411 E0.0262
G1 X-14.135 Y-6.727 E0.0220
G1 X-13.640 Y-6.997 E0.0216
G1 X-13.009 Y-7.265 E0.0262
G1 X-12.355 Y-7.465 E0.0262
G1 X-11.682 Y-7.596 E0.0262
G1 X-11.110 Y-7.650 E0.0220
G1 X-10.546 Y-7.655 E0.0216
G1 X-9.863 Y-7.596 E0.0262
G1 X-9.192 Y-7.465 E0.0262
G1 X-8.537 Y-7.265 E0.0262
G1 X-7.907 Y-6.997 E0.0262
G1 X-7.402 Y-6.722 E0.0220
G1 X-6.929 Y-6.410 E0.0217
G1 X-6.572 Y-6.131 E0.0173
G1 X-6.071 Y-5.663 E0.0263
G1 X-5.622 Y-5.147 E0.0262
G1 X-5.229 Y-4.586 E0.0262
G1 X-4.897 Y-3.988 E0.0262
G1 X-4.630 Y-3.358 E0.0262
G1 X-4.430 Y-2.703 E0.0262
G1 X-4.299 Y-2.032 E0.0262
G1 X-4.240 Y-1.350 E0.0262
G1 X-4.252 Y-0.666 E0.0262
G1 X-4.335 Y0.015 E0.0263
G1 X-4.429 Y0.458 E0.0173
G1 X-4.630 Y1.114 E0.0262
G1 X-4.898 Y1.746 E0.0263
G1 X-5.111 Y2.145 E0.0173
G1 X-5.484 Y2.721 E0.0263
G1 X-5.915 Y3.252 E0.0262
G1 X-6.400 Y3.738 E0.0262
G1 X-6.747 Y4.028 E0.0173
G1 X-7.309 Y4.422 E0.0263
G1 X-7.908 Y4.754 E0.0262
G1 X-8.436 Y4.982 E0.0220
G1 X-8.970 Y5.162 E0.0216
G1 X-9.638 Y5.316 E0.0262
G1 X-10.317 Y5.399 E0.0262
; feature solid layer
G1 X-13.856 Y3.708 F9000
G1 X-15.596 Y1.969 E0.0941 F2400
G1 X-15.639 Y1.908 E0.0029
G1 X-15.830 Y1.577 E0.0146
G1 X-16.087 Y1.025 E0.0233
G1 X-16.191 Y0.723 E0.0122
G1 X-12.614 Y4.300 E0.1935
G1 X-12.160 Y4.439 E0.0182
G1 X-11.744 Y4.520 E0.0162
G1 X-16.421 Y-0.158 E0.2530
G1 X-16.490 Y-0.722 E0.0218
G1 X-16.493 Y-0.880 E0.0060
G1 X-11.010 Y4.602 E0.2966
G1 X-10.973 Y4.606 E0.0014
G1 X-10.373 Y4.595 E0.0229
G1 X-10.368 Y4.595 E0.0002
G1 X-16.483 Y-1.521 E0.3308
G1 X-16.448 Y-1.920 E0.0153
G1 X-16.413 Y-2.101 E0.0071
G1 X-9.788 Y4.523 E0.3584
G1 X-9.778 Y4.522 E0.0004
G1 X-9.259 Y4.402 E0.0204
G1 X-16.296 Y-2.634 E0.3806
G1 X-16.158 Y-3.085 E0.0180
G1 X-16.140 Y-3.129 E0.0018
G1 X-8.767 Y4.244 E0.3988
G1 X-8.724 Y4.230 E0.0017
G1 X-8.310 Y4.051 E0.0173
G1 X-15.946 Y-3.585 E0.4131
G1 X-15.739 Y-3.984 E0.0172
G1 X-15.721 Y-4.011 E0.0012
G1 X-7.887 Y3.822 E0.4237
G1 X-7.736 Y3.738 E0.0066
G1 X-7.492 Y3.567 E0.0114
G1 X-15.465 Y-4.406 E0.4313
G1 X-15.410 Y-4.491 E0.0039
G1 X-15.181 Y-4.773 E0.0139
G1 X-7.119 Y3.290 E0.4361
G1 X-6.944 Y3.143 E0.0087
G1 X-6.780 Y2.979 E0.0089
G1 X-14.874 Y-5.116 E0.4378
G1 X-14.608 Y-5.381 E0.0144
G1 X-14.542 Y-5.434 E0.0033
G1 X-6.461 Y2.647 E0.4371
G1 X-6.169 Y2.288 E0.0177
G1 X-14.183 Y-5.726 E0.4334
G1 X-14.139 Y-5.761 E0.0021
G1 X-13.794 Y-5.988 E0.0158
G1 X-5.909 Y1.897 E0.4265
G1 X-5.805 Y1.736 E0.0073
G1 X-5.671 Y1.485 E0.0109
G1 X-13.379 Y-6.223 E0.4169
G1 X-13.289 Y-6.272 E0.0039
G1 X-12.930 Y-6.424 E0.0149
G1 X-5.471 Y1.035 E0.4035
G1 X-5.388 Y0.838 E0.0082
G1 X-5.301 Y0.554 E0.0114
G1 X-12.449 Y-6.594 E0.3867
G1 X-12.160 Y-6.683 E0.0116
G1 X-11.932 Y-6.727 E0.0089
G1 X-5.164 Y0.041 E0.3661
G1 X-5.130 Y-0.118 E0.0062
G1 X-5.080 Y-0.526 E0.0157
G1 X-11.370 Y-6.817 E0.3403
G1 X-11.068 Y-6.845 E0.0116
G1 X-10.751 Y-6.848 E0.0121
G1 X-5.048 Y-1.145 E0.3085
G1 X-5.045 Y-1.322 E0.0068
G1 X-5.090 Y-1.838 E0.0198
G1 X-10.057 Y-6.805 E0.2687
G1 X-9.975 Y-6.797 E0.0031
G1 X-9.387 Y-6.683 E0.0229
G1 X-9.240 Y-6.638 E0.0059
G1 X-5.257 Y-2.655 E0.2155
G1 X-5.387 Y-3.082 E0.0171
G1 X-5.622 Y-3.634 E0.0230
G1 X-5.667 Y-3.715 E0.0035
G1 X-8.182 Y-6.231 E0.1361
G1 E-1.9000 F1200
; feature inner perimeter
G1 Z0.700 F1200
G1 X10.561 Y4.951 F9000
G1 Z0.200 F1200
G1 E1.9000 F1200
G1 X9.927 Y4.896 E0.0243 F1800
G1 X9.301 Y4.774 E0.0244
G1 X8.790 Y4.621 E0.0204
G1 X8.304 Y4.431 E0.0200
G1 X7.735 Y4.141 E0.0244
G1 X7.199 Y3.793 E0.0244
G1 X6.783 Y3.460 E0.0204
G1 X6.404 Y3.101 E0.0200
G1 X5.985 Y2.619 E0.0244
G1 X5.620 Y2.098 E0.0243
G1 X5.310 Y1.540 E0.0244
G1 X5.099 Y1.051 E0.0204
G1 X4.932 Y0.555 E0.0200
G1 X4.789 Y-0.067 E0.0244
G1 X4.711 Y-0.698 E0.0243
G1 X4.700 Y-1.334 E0.0243
G1 X4.756 Y-1.968 E0.0243
G1 X4.878 Y-2.598 E0.0246
G1 X4.992 Y-2.994 E0.0158
G1 X5.222 Y-3.594 E0.0246
G1 X5.511 Y-4.160 E0.0243
G1 X5.857 Y-4.694 E0.0243
G1 X6.257 Y-5.188 E0.0243
G1 X6.707 Y-5.638 E0.0243
G1 X7.203 Y-6.040 E0.0244
G1 X7.648 Y-6.333 E0.0204
G1 X8.107 Y-6.583 E0.0200
G1 X8.695 Y-6.832 E0.0244
G1 X9.303 Y-7.018 E0.0243
G1 X9.930 Y-7.140 E0.0244
G1 X10.460 Y-7.190 E0.0204
G1 X10.983 Y-7.195 E0.0200
G1 X11.619 Y-7.140 E0.0244
G1 X12.243 Y-7.018 E0.0243
G1 X12.851 Y-6.832 E0.0243
G1 X13.442 Y-6.581 E0.0246
G1 X13.806 Y-6.388 E0.0158
G1 X14.347 Y-6.037 E0.0246
G1 X14.763 Y-5.704 E0.0204
G1 X15.143 Y-5.345 E0.0200
G1 X15.562 Y-4.863 E0.0244
G1 X15.926 Y-4.342 E0.0243
G1 X16.235 Y-3.786 E0.0243
G1 X16.483 Y-3.200 E0.0243
G1 X16.670 Y-2.590 E0.0244
G1 X16.775 Y-2.067 E0.0204
G1 X16.835 Y-1.548 E0.0200
G1 X16.846 Y-0.910 E0.0244
G1 X16.791 Y-0.276 E0.0243
G1 X16.669 Y0.348 E0.0243
G1 X16.483 Y0.956 E0.0243
G1 X16.235 Y1.542 E0.0243
G1 X15.923 Y2.103 E0.0246
G1 X15.693 Y2.445 E0.0158
G1 X15.288 Y2.946 E0.0246
G1 X14.913 Y3.325 E0.0204
G1 X14.516 Y3.665 E0.0200
G1 X13.993 Y4.031 E0.0244
G1 X13.435 Y4.341 E0.0244
G1 X12.946 Y4.552 E0.0204
G1 X12.451 Y4.719 E0.0200
G1 X11.828 Y4.862 E0.0244
G1 X11.197 Y4.940 E0.0243
G1 X10.561 Y4.951 E0.0243
; feature outer perimeter
G1 X10.545 Y5.411 F9000
G1 X9.863 Y5.352 E0.0262 F1200
G1 X9.191 Y5.221 E0.0262
G1 X8.640 Y5.057 E0.0220
G1 X8.115 Y4.851 E0.0216
G1 X7.504 Y4.539 E0.0262
G1 X6.930 Y4.166 E0.0262
G1 X6.481 Y3.808 E0.0220
G1 X6.071 Y3.420 E0.0216
G1 X5.622 Y2.903 E0.0262
G1 X5.229 Y2.342 E0.0262
G1 X4.897 Y1.743 E0.0262
G1 X4.669 Y1.216 E0.0220
G1 X4.489 Y0.681 E0.0216
G1 X4.335 Y0.013 E0.0262
G1 X4.252 Y-0.666 E0.0262
G1 X4.240 Y-1.350 E0.0262
G1 X4.299 Y-2.032 E0.0262
G1 X4.430 Y-2.705 E0.0262
G1 X4.555 Y-3.140 E0.0173
G1 X4.801 Y-3.781 E0.0262
G1 X5.112 Y-4.391 E0.0262
G1 X5.484 Y-4.965 E0.0262
G1 X5.915 Y-5.496 E0.0262
G1 X6.399 Y-5.980 E0.0262
G1 X6.931 Y-6.411 E0.0262
G1 X7.411 Y-6.727 E0.0220
G1 X7.907 Y-6.997 E0.0216
G1 X8.537 Y-7.265 E0.0262
G1 X9.192 Y-7.465 E0.0262
G1 X9.864 Y-7.596 E0.0262
G1 X10.436 Y-7.650 E0.0220
G1 X11.000 Y-7.655 E0.0216
G1 X11.683 Y-7.596 E0.0262
G1 X12.355 Y-7.465 E0.0262
G1 X13.009 Y-7.265 E0.0262
G1 X13.641 Y-6.997 E0.0263
G1 X14.040 Y-6.785 E0.0173
G1 X14.616 Y-6.410 E0.0263
