; G-Code generated by Simplify3D(R) Version 4.1.2
; Apr 2, 2020 at 1:15:41 PM
; Settings Summary
;   processName,Process1
;   applyToModels,BM66_CraneLightBase,BM66_CraneLightBase(2),BM66_CraneLightBase(3),BM66_CraneLightBase(2)(2)
;   profileName,MakerBot Replicator 2 HBP (modified)
;   profileVersion,2020-03-12 10:48:50
;   baseProfile,MakerBot Replicator 2(2)
;   printMaterial,PLA
;   printQuality,Medium
;   printExtruders,
;   extruderName,Primary Extruder
;   extruderToolheadNumber,0
;   extruderDiameter,0.4
;   extruderAutoWidth,0
;   extruderWidth,0.4
;   extrusionMultiplier,1
;   extruderUseRetract,1
;   extruderRetractionDistance,1.9
;   extruderExtraRestartDistance,0
;   extruderRetractionZLift,0.5
;   extruderRetractionSpeed,1200
;   extruderUseCoasting,0
;   extruderCoastingDistance,0.2
;   extruderUseWipe,0
;   extruderWipeDistance,5
;   primaryExtruder,0
;   layerHeight,0.2
;   topSolidLayers,3
;   bottomSolidLayers,3
;   perimeterOutlines,2
;   printPerimetersInsideOut,1
;   startPointOption,3
;   startPointOriginX,0
;   startPointOriginY,150
;   sequentialIslands,0
;   spiralVaseMode,0
;   firstLayerHeightPercentage,100
;   firstLayerWidthPercentage,115
;   firstLayerUnderspeed,0.5
;   useRaft,0
;   raftExtruder,0
;   raftTopLayers,2
;   raftBaseLayers,1
;   raftOffset,1
;   raftSeparationDistance,0.14
;   raftTopInfill,90
;   aboveRaftSpeedMultiplier,0.3
;   useSkirt,0
;   skirtExtruder,0
;   skirtLayers,1
;   skirtOutlines,5
;   skirtOffset,0
;   usePrimePillar,0
;   primePillarExtruder,999
;   primePillarWidth,12
;   primePillarLocation,7
;   primePillarSpeedMultiplier,1
;   useOozeShield,0
;   oozeShieldExtruder,999
;   oozeShieldOffset,2
;   oozeShieldOutlines,1
;   oozeShieldSidewallShape,1
;   oozeShieldSidewallAngle,30
;   oozeShieldSpeedMultiplier,1
;   infillExtruder,0
;   internalInfillPattern,Rectilinear
;   externalInfillPattern,Rectilinear
;   infillPercentage,15
;   outlineOverlapPercentage,25
;   infillExtrusionWidthPercentage,100
;   minInfillLength,5
;   infillLayerInterval,1
;   internalInfillAngles,45,-45
;   overlapInternalInfillAngles,0
;   externalInfillAngles,45,-45
;   generateSupport,0
;   supportExtruder,0
;   supportInfillPercentage,30
;   supportExtraInflation,0.5
;   supportBaseLayers,0
;   denseSupportExtruder,0
;   denseSupportLayers,2
;   denseSupportInfillPercentage,90
;   supportLayerInterval,1
;   supportHorizontalPartOffset,0.3
;   supportUpperSeparationLayers,1
;   supportLowerSeparationLayers,1
;   supportType,1
;   supportGridSpacing,2
;   maxOverhangAngle,45
;   supportAngles,45,-45
;   temperatureName,Primary Extruder,Heated Build Platform
;   temperatureNumber,0,0
;   temperatureSetpointCount,1,1
;   temperatureSetpointLayers,1,1
;   temperatureSetpointTemperatures,230,60
;   temperatureStabilizeAtStartup,1,1
;   temperatureHeatedBed,0,1
;   fanLayers,1,2
;   fanSpeeds,0,100
;   blipFanToFullPower,1
;   adjustSpeedForCooling,1
;   minSpeedLayerTime,15
;   minCoolingSpeedSlowdown,20
;   increaseFanForCooling,1
;   minFanLayerTime,45
;   maxCoolingFanSpeed,100
;   increaseFanForBridging,1
;   bridgingFanSpeed,100
;   use5D,1
;   relativeEdistances,1
;   allowEaxisZeroing,0
;   independentExtruderAxes,1
;   includeM10123,0
;   stickySupport,1
;   applyToolheadOffsets,0
;   gcodeXoffset,0
;   gcodeYoffset,0
;   gcodeZoffset,0
;   overrideMachineDefinition,1
;   machineTypeOverride,0
;   strokeXoverride,280
;   strokeYoverride,150
;   strokeZoverride,150
;   originOffsetXoverride,140
;   originOffsetYoverride,75
;   originOffsetZoverride,0
;   homeXdirOverride,1
;   homeYdirOverride,1
;   homeZdirOverride,-1
;   flipXoverride,1
;   flipYoverride,-1
;   flipZoverride,1
;   toolheadOffsets,0,0|0,0|0,0|0,0|0,0|0,0
;   overrideFirmwareConfiguration,1
;   firmwareTypeOverride,MakerBot/Sailfish Firmware
;   GPXconfigOverride,r2h
;   baudRateOverride,115200
;   overridePrinterModels,1
;   printerModelsOverride,MakerBot_Replicator2.stl
;   startingGcode,; **** Replicator 2 start.gcode ****,M73 P0 ; enable build progress,G162 X Y F3000 ; home XY maximum,G161 Z F1200 ; home Z minimum,G92 Z-5 ; set Z to -5,G1 Z0 ; move Z to 0,G161 Z F100 ; home Z slowly,M132 X Y Z A B ; recall home offsets,G1 X-145 Y-75 Z30 F9000 ; move to wait position off table,G130 X20 Y20 Z20 A20 B20 ; lower stepper Vrefs while heating,M126 S[fan_speed_pwm],M140 S[bed0_temperature] T0,M134 T0 ; stabilize bed temperature,M104 S[extruder0_temperature] T0,M133 T0 ; stabilize extruder temperature,G130 X127 Y127 Z40 A127 B127 ; default stepper Vrefs,G92 A0 ; zero extruder,G1 Z0.4 ; position nozzle,G1 E25 F300 ; purge nozzle,G1 X-140 Y-70 Z0.15 F1200 ; slow wipe,G1 X-135 Y-65 Z0.5 F1200 ; lift,G92 A0 ; zero extruder,M73 P1 ;@body (notify GPX body has started),; **** end of start.gcode ****
;   layerChangeGcode,
;   retractionGcode,
;   toolChangeGcode,
;   endingGcode,; **** Replicator 2 end.gcode ****,M73 P100 ; end build progress,G1 Z155 F1000 ; send Z axis to bottom of machine,M104 S0 T0 ; cool down extruder,M140 S0 T0 ; cool down HBP,M127 ; stop blower fan,G162 X Y F3000 ; home XY maximum,M18 ; disable stepper,M0 ; stop codes,M72 P1 ; play Ta-Da song,; **** end of end.gcode ****
;   exportFileFormat,gcode
;   celebration,0
;   celebrationSong,Random Song
;   postProcessing,
;   defaultSpeed,4800
;   outlineUnderspeed,0.5
;   solidInfillUnderspeed,1
;   supportUnderspeed,1
;   rapidXYspeed,9000
;   rapidZspeed,1200
;   minBridgingArea,50
;   bridgingExtraInflation,0
;   bridgingExtrusionMultiplier,1
;   bridgingSpeedMultiplier,0.8
;   useFixedBridgingAngle,0
;   fixedBridgingAngle,0
;   applyBridgingToPerimeters,0
;   filamentDiameters,1.75|1.75|1.75|1.75|1.75|1.75
;   filamentPricesPerKg,46|46|46|46|46|46
;   filamentDensities,1.25|1.25|1.25|1.25|1.25|1.25
;   useMinPrintHeight,0
;   minPrintHeight,0
;   useMaxPrintHeight,0
;   maxPrintHeight,4.84
;   useDiaphragm,0
;   diaphragmLayerInterval,20
;   robustSlicing,1
;   mergeAllIntoSolid,0
;   onlyRetractWhenCrossingOutline,0
;   retractBetweenLayers,0
;   useRetractionMinTravel,1
;   retractionMinTravel,7
;   retractWhileWiping,1
;   onlyWipeOutlines,1
;   avoidCrossingOutline,0
;   maxMovementDetourFactor,3
;   toolChangeRetractionDistance,12
;   toolChangeExtraRestartDistance,-0.5
;   toolChangeRetractionSpeed,600
;   externalThinWallType,0
;   internalThinWallType,0
;   thinWallAllowedOverlapPercentage,10
;   singleExtrusionMinLength,1
;   singleExtrusionMinPrintingWidthPercentage,50
;   singleExtrusionMaxPrintingWidthPercentage,200
;   singleExtrusionEndpointExtension,0.2
;   horizontalSizeCompensation,0
G90
M83
; **** Replicator 2 start.gcode ****
M73 P0 ; enable build progress
G162 X Y F3000 ; home XY maximum
G161 Z F1200 ; home Z minimum
G92 Z-5 ; set Z to -5
G1 Z0 ; move Z to 0
G161 Z F100 ; home Z slowly
M132 X Y Z A B ; recall home offsets
G1 X-145 Y-75 Z30 F9000 ; move to wait position off table
G130 X20 Y20 Z20 A20 B20 ; lower stepper Vrefs while heating
M127
M140 S60 T0
M134 T0 ; stabilize bed temperature
M104 S230 T0
M133 T0 ; stabilize extruder temperature
G130 X127 Y127 Z40 A127 B127 ; default stepper Vrefs
G92 A0 ; zero extruder
G1 Z0.4 ; position nozzle
G1 E25 F300 ; purge nozzle
G1 X-140 Y-70 Z0.15 F1200 ; slow wipe
G1 X-135 Y-65 Z0.5 F1200 ; lift
G92 A0 ; zero extruder
M73 P1 ;@body (notify GPX body has started)
; **** end of start.gcode ****
; process Process1
; layer 1, Z = 0.200
M135 T0
G1 E-1.9000 F1200
; feature inner perimeter
; tool H0.200 W0.460
G1 Z0.500 F1200
G1 X-4.443 Y-10.435 F9000
G1 Z0.200 F1200
G1 E1.9000 F1200
G1 X-5.081 Y-10.774 E0.0276 F1800
G1 X-5.673 Y-10.943 E0.0235
G1 X-6.587 Y-11.245 E0.0368
G1 X-7.483 Y-11.590 E0.0367
G1 X-8.360 Y-11.979 E0.0367
G1 X-9.218 Y-12.411 E0.0367
G1 X-10.052 Y-12.884 E0.0367
G1 X-10.863 Y-13.397 E0.0367
G1 X-11.648 Y-13.950 E0.0367
G1 X-12.405 Y-14.540 E0.0367
G1 X-13.131 Y-15.167 E0.0367
G1 X-13.826 Y-15.829 E0.0367
G1 X-14.488 Y-16.524 E0.0367
G1 X-15.115 Y-17.251 E0.0367
G1 X-15.705 Y-18.007 E0.0367
G1 X-16.258 Y-18.792 E0.0367
G1 X-16.772 Y-19.603 E0.0367
G1 X-17.245 Y-20.438 E0.0367
G1 X-17.676 Y-21.295 E0.0367
G1 X-18.065 Y-22.173 E0.0367
G1 X-18.411 Y-23.068 E0.0367
G1 X-18.711 Y-23.979 E0.0367
G1 X-18.968 Y-24.905 E0.0367
G1 X-19.178 Y-25.841 E0.0367
G1 X-19.342 Y-26.786 E0.0367
G1 X-19.459 Y-27.739 E0.0367
G1 X-19.530 Y-28.696 E0.0367
G1 X-19.553 Y-29.655 E0.0367
G1 X-19.530 Y-30.615 E0.0367
G1 X-19.459 Y-31.572 E0.0367
G1 X-19.342 Y-32.525 E0.0367
G1 X-19.178 Y-33.470 E0.0367
G1 X-18.968 Y-34.406 E0.0367
G1 X-18.711 Y-35.332 E0.0367
G1 X-18.411 Y-36.243 E0.0367
G1 X-18.065 Y-37.138 E0.0367
G1 X-17.676 Y-38.016 E0.0367
G1 X-17.245 Y-38.873 E0.0367
G1 X-16.772 Y-39.708 E0.0367
G1 X-16.258 Y-40.519 E0.0367
G1 X-15.706 Y-41.303 E0.0367
G1 X-15.115 Y-42.060 E0.0367
G1 X-14.488 Y-42.787 E0.0367
G1 X-13.826 Y-43.482 E0.0367
G1 X-13.131 Y-44.144 E0.0367
G1 X-12.405 Y-44.771 E0.0367
G1 X-11.648 Y-45.361 E0.0367
G1 X-10.863 Y-45.914 E0.0367
G1 X-10.052 Y-46.427 E0.0367
G1 X-9.217 Y-46.900 E0.0367
G1 X-8.360 Y-47.332 E0.0367
G1 X-7.483 Y-47.721 E0.0367
G1 X-6.587 Y-48.066 E0.0367
G1 X-5.673 Y-48.368 E0.0368
G1 X-5.081 Y-48.537 E0.0235
G1 X-4.507 Y-48.842 E0.0249
G1 X-4.298 Y-48.451 E0.0170
G1 X-3.662 Y-47.675 E0.0384
G1 X-2.886 Y-47.038 E0.0384
G1 X-2.001 Y-46.565 E0.0384
G1 X-1.040 Y-46.273 E0.0384
G1 X-0.041 Y-46.175 E0.0384
G1 X0.958 Y-46.273 E0.0384
G1 X1.918 Y-46.565 E0.0384
G1 X2.804 Y-47.038 E0.0384
G1 X3.579 Y-47.675 E0.0384
G1 X4.216 Y-48.451 E0.0384
G1 X4.443 Y-48.875 E0.0184
G1 X5.081 Y-48.537 E0.0276
G1 X5.674 Y-48.368 E0.0236
G1 X6.587 Y-48.066 E0.0368
G1 X7.483 Y-47.721 E0.0367
G1 X8.360 Y-47.332 E0.0367
G1 X9.217 Y-46.900 E0.0367
G1 X10.052 Y-46.427 E0.0367
G1 X10.863 Y-45.914 E0.0367
G1 X11.648 Y-45.361 E0.0367
G1 X12.405 Y-44.771 E0.0367
G1 X13.131 Y-44.144 E0.0367
G1 X13.826 Y-43.482 E0.0367
G1 X14.488 Y-42.787 E0.0367
G1 X15.115 Y-42.060 E0.0367
G1 X15.705 Y-41.304 E0.0367
G1 X16.258 Y-40.519 E0.0367
G1 X16.772 Y-39.708 E0.0367
G1 X17.245 Y-38.873 E0.0367
G1 X17.676 Y-38.016 E0.0367
G1 X18.065 Y-37.138 E0.0367
G1 X18.411 Y-36.243 E0.0367
G1 X18.711 Y-35.332 E0.0367
G1 X18.968 Y-34.406 E0.0367
G1 X19.178 Y-33.470 E0.0367
G1 X19.342 Y-32.525 E0.0367
G1 X19.459 Y-31.572 E0.0367
G1 X19.530 Y-30.615 E0.0367
G1 X19.553 Y-29.655 E0.0367
G1 X19.530 Y-28.696 E0.0367
G1 X19.459 Y-27.739 E0.0367
G1 X19.342 Y-26.786 E0.0367
G1 X19.178 Y-25.841 E0.0367
G1 X18.968 Y-24.905 E0.0367
G1 X18.711 Y-23.979 E0.0367
G1 X18.411 Y-23.068 E0.0367
G1 X18.065 Y-22.173 E0.0367
G1 X17.676 Y-21.295 E0.0367
G1 X17.245 Y-20.438 E0.0367
G1 X16.772 Y-19.603 E0.0367
G1 X16.258 Y-18.792 E0.0367
G1 X15.706 Y-18.007 E0.0367
G1 X15.115 Y-17.251 E0.0367
G1 X14.488 Y-16.524 E0.0367
G1 X13.826 Y-15.829 E0.0367
G1 X13.131 Y-15.167 E0.0367
G1 X12.404 Y-14.540 E0.0367
G1 X11.648 Y-13.950 E0.0367
G1 X10.863 Y-13.397 E0.0367
G1 X10.052 Y-12.884 E0.0367
G1 X9.217 Y-12.411 E0.0367
G1 X8.360 Y-11.979 E0.0367
G1 X7.483 Y-11.590 E0.0367
G1 X6.587 Y-11.245 E0.0367
G1 X5.674 Y-10.943 E0.0368
G1 X5.081 Y-10.774 E0.0236
G1 X4.507 Y-10.469 E0.0249
G1 X4.298 Y-10.860 E0.0170
G1 X3.662 Y-11.636 E0.0384
G1 X2.886 Y-12.273 E0.0384
G1 X2.001 Y-12.746 E0.0384
G1 X1.040 Y-13.038 E0.0384
G1 X0.041 Y-13.136 E0.0384
G1 X-0.958 Y-13.038 E0.0384
G1 X-1.918 Y-12.746 E0.0384
G1 X-2.804 Y-12.273 E0.0384
G1 X-3.579 Y-11.636 E0.0384
G1 X-4.216 Y-10.860 E0.0384
G1 X-4.443 Y-10.435 E0.0184
; feature outer perimeter
G1 X-4.690 Y-10.046 F9000
G1 X-5.254 Y-10.345 E0.0244 F1200
G1 X-5.809 Y-10.503 E0.0221
G1 X-6.742 Y-10.812 E0.0376
G1 X-7.659 Y-11.165 E0.0376
G1 X-8.557 Y-11.563 E0.0376
G1 X-9.434 Y-12.005 E0.0376
G1 X-10.289 Y-12.489 E0.0376
G1 X-11.119 Y-13.015 E0.0376
G1 X-11.922 Y-13.580 E0.0376
G1 X-12.696 Y-14.185 E0.0376
G1 X-13.440 Y-14.826 E0.0376
G1 X-14.152 Y-15.504 E0.0376
G1 X-14.829 Y-16.215 E0.0376
G1 X-15.471 Y-16.959 E0.0376
G1 X-16.075 Y-17.733 E0.0376
G1 X-16.641 Y-18.536 E0.0376
G1 X-17.166 Y-19.366 E0.0376
G1 X-17.650 Y-20.221 E0.0376
G1 X-18.092 Y-21.099 E0.0376
G1 X-18.490 Y-21.997 E0.0376
G1 X-18.844 Y-22.913 E0.0376
G1 X-19.152 Y-23.846 E0.0376
G1 X-19.414 Y-24.793 E0.0376
G1 X-19.629 Y-25.751 E0.0376
G1 X-19.797 Y-26.719 E0.0376
G1 X-19.917 Y-27.694 E0.0376
G1 X-19.990 Y-28.674 E0.0376
G1 X-20.014 Y-29.655 E0.0376
G1 X-19.990 Y-30.637 E0.0376
G1 X-19.917 Y-31.617 E0.0376
G1 X-19.797 Y-32.592 E0.0376
G1 X-19.629 Y-33.560 E0.0376
G1 X-19.414 Y-34.518 E0.0376
G1 X-19.152 Y-35.465 E0.0376
G1 X-18.844 Y-36.398 E0.0376
G1 X-18.490 Y-37.314 E0.0376
G1 X-18.092 Y-38.212 E0.0376
G1 X-17.650 Y-39.090 E0.0376
G1 X-17.166 Y-39.944 E0.0376
G1 X-16.641 Y-40.775 E0.0376
G1 X-16.075 Y-41.578 E0.0376
G1 X-15.471 Y-42.352 E0.0376
G1 X-14.829 Y-43.096 E0.0376
G1 X-14.152 Y-43.807 E0.0376
G1 X-13.440 Y-44.485 E0.0376
G1 X-12.696 Y-45.126 E0.0376
G1 X-11.922 Y-45.731 E0.0376
G1 X-11.119 Y-46.296 E0.0376
G1 X-10.289 Y-46.822 E0.0376
G1 X-9.434 Y-47.306 E0.0376
G1 X-8.557 Y-47.748 E0.0376
G1 X-7.659 Y-48.146 E0.0376
G1 X-6.742 Y-48.499 E0.0376
G1 X-5.809 Y-48.808 E0.0376
G1 X-5.254 Y-48.966 E0.0221
G1 X-4.690 Y-49.265 E0.0244
G1 X-5.045 Y-50.433 E0.0467
G1 X-5.144 Y-51.436 E0.0386
G1 X-5.045 Y-52.440 E0.0386
G1 X-4.752 Y-53.405 E0.0386
G1 X-4.277 Y-54.294 E0.0386
G1 X-3.637 Y-55.073 E0.0386
G1 X-2.858 Y-55.713 E0.0386
G1 X-1.968 Y-56.188 E0.0386
G1 X-1.003 Y-56.481 E0.0386
G1 X0.000 Y-56.580 E0.0386
G1 X1.003 Y-56.481 E0.0386
G1 X1.968 Y-56.188 E0.0386
G1 X2.858 Y-55.713 E0.0386
G1 X3.637 Y-55.073 E0.0386
G1 X4.277 Y-54.294 E0.0386
G1 X4.752 Y-53.405 E0.0386
G1 X5.045 Y-52.440 E0.0386
G1 X5.144 Y-51.436 E0.0386
G1 X5.045 Y-50.433 E0.0386
G1 X4.690 Y-49.265 E0.0467
G1 X5.254 Y-48.966 E0.0244
G1 X5.809 Y-48.808 E0.0221
G1 X6.742 Y-48.499 E0.0376
G1 X7.659 Y-48.146 E0.0376
G1 X8.557 Y-47.748 E0.0376
G1 X9.434 Y-47.306 E0.0376
G1 X10.289 Y-46.822 E0.0376
G1 X11.119 Y-46.296 E0.0376
G1 X11.922 Y-45.731 E0.0376
G1 X12.696 Y-45.126 E0.0376
G1 X13.440 Y-44.485 E0.0376
G1 X14.152 Y-43.807 E0.0376
G1 X14.829 Y-43.096 E0.0376
G1 X15.471 Y-42.352 E0.0376
G1 X16.075 Y-41.578 E0.0376
G1 X16.641 Y-40.775 E0.0376
G1 X17.166 Y-39.944 E0.0376
G1 X17.650 Y-39.090 E0.0376
G1 X18.092 Y-38.212 E0.0376
G1 X18.490 Y-37.314 E0.0376
G1 X18.844 Y-36.398 E0.0376
G1 X19.152 Y-35.465 E0.0376
G1 X19.414 Y-34.518 E0.0376
G1 X19.629 Y-33.560 E0.0376
G1 X19.797 Y-32.592 E0.0376
G1 X19.917 Y-31.617 E0.0376
G1 X19.990 Y-30.637 E0.0376
G1 X20.014 Y-29.655 E0.0376
G1 X19.990 Y-28.674 E0.0376
G1 X19.917 Y-27.694 E0.0376
G1 X19.797 Y-26.719 E0.0376
G1 X19.629 Y-25.751 E0.0376
G1 X19.414 Y-24.793 E0.0376
G1 X19.152 Y-23.846 E0.0376
G1 X18.844 Y-22.913 E0.0376
G1 X18.490 Y-21.997 E0.0376
G1 X18.092 Y-21.099 E0.0376
G1 X17.650 Y-20.221 E0.0376
G1 X17.166 Y-19.366 E0.0376
G1 X16.641 Y-18.536 E0.0376
G1 X16.075 Y-17.733 E0.0376
G1 X15.471 Y-16.959 E0.0376
G1 X14.829 Y-16.215 E0.0376
G1 X14.152 Y-15.504 E0.0376
G1 X13.440 Y-14.826 E0.0376
G1 X12.696 Y-14.185 E0.0376
G1 X11.922 Y-13.580 E0.0376
G1 X11.119 Y-13.015 E0.0376
G1 X10.289 Y-12.489 E0.0376
G1 X9.434 Y-12.005 E0.0376
G1 X8.557 Y-11.563 E0.0376
G1 X7.659 Y-11.165 E0.0376
G1 X6.742 Y-10.812 E0.0376
G1 X5.809 Y-10.503 E0.0376
G1 X5.254 Y-10.345 E0.0221
G1 X4.690 Y-10.046 E0.0244
G1 X5.045 Y-8.878 E0.0467
G1 X5.144 Y-7.875 E0.0386
G1 X5.045 Y-6.871 E0.0386
G1 X4.752 Y-5.906 E0.0386
G1 X4.277 Y-5.017 E0.0386
G1 X3.637 Y-4.238 E0.0386
G1 X2.858 Y-3.598 E0.0386
G1 X1.968 Y-3.123 E0.0386
G1 X1.003 Y-2.830 E0.0386
G1 X0.000 Y-2.731 E0.0386
G1 X-1.003 Y-2.830 E0.0386
G1 X-1.968 Y-3.123 E0.0386
G1 X-2.858 Y-3.598 E0.0386
G1 X-3.637 Y-4.238 E0.0386
G1 X-4.277 Y-5.017 E0.0386
G1 X-4.752 Y-5.906 E0.0386
G1 X-5.045 Y-6.871 E0.0386
G1 X-5.144 Y-7.875 E0.0386
G1 X-5.045 Y-8.878 E0.0386
G1 X-4.690 Y-10.046 E0.0467
G1 X-4.262 Y-9.798 F9000
G1 X-4.527 Y-8.924 E0.0349 F1200
G1 X-4.617 Y-8.016 E0.0349
G1 X-4.530 Y-7.129 E0.0341
G1 X-4.263 Y-6.234 E0.0357
G1 X-3.832 Y-5.428 E0.0349
G1 X-3.253 Y-4.722 E0.0349
G1 X-2.547 Y-4.143 E0.0349
G1 X-1.741 Y-3.712 E0.0349
G1 X-0.868 Y-3.447 E0.0349
G1 X0.041 Y-3.358 E0.0349
