; G-Code generated by Simplify3D(R) Version 4.1.2
; Apr 2, 2020 at 1:15:23 PM
; Settings Summary
;   processName,Process1
;   applyToModels,BM66_CraneLightBase,BM66_CraneLightBase(2)
;   profileName,MakerBot Replicator 2 HBP (modified)
;   profileVersion,2020-03-12 10:48:50
;   baseProfile,MakerBot Replicator 2(2)
;   printMaterial,PLA
;   printQuality,Medium
;   printExtruders,
;   extruderName,Primary Extruder
;   extruderToolheadNumber,0
;   extruderDiameter,0.4
;   extruderAutoWidth,0
;   extruderWidth,0.4
;   extrusionMultiplier,1
;   extruderUseRetract,1
;   extruderRetractionDistance,1.9
;   extruderExtraRestartDistance,0
;   extruderRetractionZLift,0.5
;   extruderRetractionSpeed,1200
;   extruderUseCoasting,0
;   extruderCoastingDistance,0.2
;   extruderUseWipe,0
;   extruderWipeDistance,5
;   primaryExtruder,0
;   layerHeight,0.2
;   topSolidLayers,3
;   bottomSolidLayers,3
;   perimeterOutlines,2
;   printPerimetersInsideOut,1
;   startPointOption,3
;   startPointOriginX,0
;   startPointOriginY,150
;   sequentialIslands,0
;   spiralVaseMode,0
;   firstLayerHeightPercentage,100
;   firstLayerWidthPercentage,115
;   firstLayerUnderspeed,0.5
;   useRaft,0
;   raftExtruder,0
;   raftTopLayers,2
;   raftBaseLayers,1
;   raftOffset,1
;   raftSeparationDistance,0.14
;   raftTopInfill,90
;   aboveRaftSpeedMultiplier,0.3
;   useSkirt,0
;   skirtExtruder,0
;   skirtLayers,1
;   skirtOutlines,5
;   skirtOffset,0
;   usePrimePillar,0
;   primePillarExtruder,999
;   primePillarWidth,12
;   primePillarLocation,7
;   primePillarSpeedMultiplier,1
;   useOozeShield,0
;   oozeShieldExtruder,999
;   oozeShieldOffset,2
;   oozeShieldOutlines,1
;   oozeShieldSidewallShape,1
;   oozeShieldSidewallAngle,30
;   oozeShieldSpeedMultiplier,1
;   infillExtruder,0
;   internalInfillPattern,Rectilinear
;   externalInfillPattern,Rectilinear
;   infillPercentage,15
;   outlineOverlapPercentage,25
;   infillExtrusionWidthPercentage,100
;   minInfillLength,5
;   infillLayerInterval,1
;   internalInfillAngles,45,-45
;   overlapInternalInfillAngles,0
;   externalInfillAngles,45,-45
;   generateSupport,0
;   supportExtruder,0
;   supportInfillPercentage,30
;   supportExtraInflation,0.5
;   supportBaseLayers,0
;   denseSupportExtruder,0
;   denseSupportLayers,2
;   denseSupportInfillPercentage,90
;   supportLayerInterval,1
;   supportHorizontalPartOffset,0.3
;   supportUpperSeparationLayers,1
;   supportLowerSeparationLayers,1
;   supportType,1
;   supportGridSpacing,2
;   maxOverhangAngle,45
;   supportAngles,45,-45
;   temperatureName,Primary Extruder,Heated Build Platform
;   temperatureNumber,0,0
;   temperatureSetpointCount,1,1
;   temperatureSetpointLayers,1,1
;   temperatureSetpointTemperatures,230,60
;   temperatureStabilizeAtStartup,1,1
;   temperatureHeatedBed,0,1
;   fanLayers,1,2
;   fanSpeeds,0,100
;   blipFanToFullPower,1
;   adjustSpeedForCooling,1
;   minSpeedLayerTime,15
;   minCoolingSpeedSlowdown,20
;   increaseFanForCooling,1
;   minFanLayerTime,45
;   maxCoolingFanSpeed,100
;   increaseFanForBridging,1
;   bridgingFanSpeed,100
;   use5D,1
;   relativeEdistances,1
;   allowEaxisZeroing,0
;   independentExtruderAxes,1
;   includeM10123,0
;   stickySupport,1
;   applyToolheadOffsets,0
;   gcodeXoffset,0
;   gcodeYoffset,0
;   gcodeZoffset,0
;   overrideMachineDefinition,1
;   machineTypeOverride,0
;   strokeXoverride,280
;   strokeYoverride,150
;   strokeZoverride,150
;   originOffsetXoverride,140
;   originOffsetYoverride,75
;   originOffsetZoverride,0
;   homeXdirOverride,1
;   homeYdirOverride,1
;   homeZdirOverride,-1
;   flipXoverride,1
;   flipYoverride,-1
;   flipZoverride,1
;   toolheadOffsets,0,0|0,0|0,0|0,0|0,0|0,0
;   overrideFirmwareConfiguration,1
;   firmwareTypeOverride,MakerBot/Sailfish Firmware
;   GPXconfigOverride,r2h
;   baudRateOverride,115200
;   overridePrinterModels,1
;   printerModelsOverride,MakerBot_Replicator2.stl
;   startingGcode,; **** Replicator 2 start.gcode ****,M73 P0 ; enable build progress,G162 X Y F3000 ; home XY maximum,G161 Z F1200 ; home Z minimum,G92 Z-5 ; set Z to -5,G1 Z0 ; move Z to 0,G161 Z F100 ; home Z slowly,M132 X Y Z A B ; recall home offsets,G1 X-145 Y-75 Z30 F9000 ; move to wait position off table,G130 X20 Y20 Z20 A20 B20 ; lower stepper Vrefs while heating,M126 S[fan_speed_pwm],M140 S[bed0_temperature] T0,M134 T0 ; stabilize bed temperature,M104 S[extruder0_temperature] T0,M133 T0 ; stabilize extruder temperature,G130 X127 Y127 Z40 A127 B127 ; default stepper Vrefs,G92 A0 ; zero extruder,G1 Z0.4 ; position nozzle,G1 E25 F300 ; purge nozzle,G1 X-140 Y-70 Z0.15 F1200 ; slow wipe,G1 X-135 Y-65 Z0.5 F1200 ; lift,G92 A0 ; zero extruder,M73 P1 ;@body (notify GPX body has started),; **** end of start.gcode ****
;   layerChangeGcode,
;   retractionGcode,
;   toolChangeGcode,
;   endingGcode,; **** Replicator 2 end.gcode ****,M73 P100 ; end build progress,G1 Z155 F1000 ; send Z axis to bottom of machine,M104 S0 T0 ; cool down extruder,M140 S0 T0 ; cool down HBP,M127 ; stop blower fan,G162 X Y F3000 ; home XY maximum,M18 ; disable stepper,M0 ; stop codes,M72 P1 ; play Ta-Da song,; **** end of end.gcode ****
;   exportFileFormat,gcode
;   celebration,0
;   celebrationSong,Random Song
;   postProcessing,
;   defaultSpeed,4800
;   outlineUnderspeed,0.5
;   solidInfillUnderspeed,1
;   supportUnderspeed,1
;   rapidXYspeed,9000
;   rapidZspeed,1200
;   minBridgingArea,50
;   bridgingExtraInflation,0
;   bridgingExtrusionMultiplier,1
;   bridgingSpeedMultiplier,0.8
;   useFixedBridgingAngle,0
;   fixedBridgingAngle,0
;   applyBridgingToPerimeters,0
;   filamentDiameters,1.75|1.75|1.75|1.75|1.75|1.75
;   filamentPricesPerKg,46|46|46|46|46|46
;   filamentDensities,1.25|1.25|1.25|1.25|1.25|1.25
;   useMinPrintHeight,0
;   minPrintHeight,0
;   useMaxPrintHeight,0
;   maxPrintHeight,4.84
;   useDiaphragm,0
;   diaphragmLayerInterval,20
;   robustSlicing,1
;   mergeAllIntoSolid,0
;   onlyRetractWhenCrossingOutline,0
;   retractBetweenLayers,0
;   useRetractionMinTravel,1
;   retractionMinTravel,7
;   retractWhileWiping,1
;   onlyWipeOutlines,1
;   avoidCrossingOutline,0
;   maxMovementDetourFactor,3
;   toolChangeRetractionDistance,12
;   toolChangeExtraRestartDistance,-0.5
;   toolChangeRetractionSpeed,600
;   externalThinWallType,0
;   internalThinWallType,0
;   thinWallAllowedOverlapPercentage,10
;   singleExtrusionMinLength,1
;   singleExtrusionMinPrintingWidthPercentage,50
;   singleExtrusionMaxPrintingWidthPercentage,200
;   singleExtrusionEndpointExtension,0.2
;   horizontalSizeCompensation,0
G90
M83
; **** Replicator 2 start.gcode ****
M73 P0 ; enable build progress
G162 X Y F3000 ; home XY maximum
G161 Z F1200 ; home Z minimum
G92 Z-5 ; set Z to -5
G1 Z0 ; move Z to 0
G161 Z F100 ; home Z slowly
M132 X Y Z A B ; recall home offsets
G1 X-145 Y-75 Z30 F9000 ; move to wait position off table
G130 X20 Y20 Z20 A20 B20 ; lower stepper Vrefs while heating
M127
M140 S60 T0
M134 T0 ; stabilize bed temperature
M104 S230 T0
M133 T0 ; stabilize extruder temperature
G130 X127 Y127 Z40 A127 B127 ; default stepper Vrefs
G92 A0 ; zero extruder
G1 Z0.4 ; position nozzle
G1 E25 F300 ; purge nozzle
G1 X-140 Y-70 Z0.15 F1200 ; slow wipe
G1 X-135 Y-65 Z0.5 F1200 ; lift
G92 A0 ; zero extruder
M73 P1 ;@body (notify GPX body has started)
; **** end of start.gcode ****
; process Process1
; layer 1, Z = 0.200
M135 T0
G1 E-1.9000 F1200
; feature inner perimeter
; tool H0.200 W0.460
G1 Z0.500 F1200
G1 X18.300 Y19.220 F9000
G1 Z0.200 F1200
G1 E1.9000 F1200
G1 X17.662 Y18.881 E0.0276 F1800
G1 X17.070 Y18.712 E0.0235
G1 X16.156 Y18.411 E0.0368
G1 X15.261 Y18.065 E0.0367
G1 X14.383 Y17.676 E0.0367
G1 X13.526 Y17.245 E0.0367
G1 X12.691 Y16.772 E0.0367
G1 X11.880 Y16.258 E0.0367
G1 X11.095 Y15.705 E0.0367
G1 X10.339 Y15.115 E0.0367
G1 X9.612 Y14.488 E0.0367
G1 X8.917 Y13.826 E0.0367
G1 X8.256 Y13.131 E0.0367
G1 X7.629 Y12.405 E0.0367
G1 X7.038 Y11.648 E0.0367
G1 X6.486 Y10.863 E0.0367
G1 X5.972 Y10.052 E0.0367
G1 X5.499 Y9.217 E0.0367
G1 X5.068 Y8.360 E0.0367
G1 X4.679 Y7.483 E0.0367
G1 X4.333 Y6.587 E0.0367
G1 X4.032 Y5.676 E0.0367
G1 X3.776 Y4.751 E0.0367
G1 X3.566 Y3.815 E0.0367
G1 X3.402 Y2.869 E0.0367
G1 X3.284 Y1.917 E0.0367
G1 X3.214 Y0.959 E0.0367
G1 X3.190 Y-0.000 E0.0367
G1 X3.214 Y-0.959 E0.0367
G1 X3.284 Y-1.917 E0.0367
G1 X3.402 Y-2.869 E0.0367
G1 X3.566 Y-3.815 E0.0367
G1 X3.776 Y-4.751 E0.0367
G1 X4.032 Y-5.676 E0.0367
G1 X4.333 Y-6.587 E0.0367
G1 X4.679 Y-7.483 E0.0367
G1 X5.068 Y-8.360 E0.0367
G1 X5.499 Y-9.217 E0.0367
G1 X5.972 Y-10.052 E0.0367
G1 X6.486 Y-10.863 E0.0367
G1 X7.038 Y-11.648 E0.0367
G1 X7.629 Y-12.405 E0.0367
G1 X8.256 Y-13.131 E0.0367
G1 X8.917 Y-13.826 E0.0367
G1 X9.612 Y-14.488 E0.0367
G1 X10.339 Y-15.115 E0.0367
G1 X11.096 Y-15.705 E0.0367
G1 X11.880 Y-16.258 E0.0367
G1 X12.691 Y-16.772 E0.0367
G1 X13.526 Y-17.245 E0.0367
G1 X14.383 Y-17.676 E0.0367
G1 X15.261 Y-18.065 E0.0367
G1 X16.156 Y-18.411 E0.0367
G1 X17.070 Y-18.712 E0.0368
G1 X17.662 Y-18.881 E0.0236
G1 X18.236 Y-19.186 E0.0249
G1 X18.445 Y-18.795 E0.0170
G1 X19.082 Y-18.019 E0.0384
G1 X19.858 Y-17.382 E0.0384
G1 X20.743 Y-16.909 E0.0384
G1 X21.704 Y-16.618 E0.0384
G1 X22.703 Y-16.519 E0.0384
G1 X23.701 Y-16.618 E0.0384
G1 X24.662 Y-16.909 E0.0384
G1 X25.547 Y-17.382 E0.0384
G1 X26.323 Y-18.019 E0.0384
G1 X26.960 Y-18.795 E0.0384
G1 X27.187 Y-19.220 E0.0184
G1 X27.825 Y-18.881 E0.0276
G1 X28.417 Y-18.712 E0.0236
G1 X29.331 Y-18.411 E0.0368
G1 X30.227 Y-18.065 E0.0367
G1 X31.104 Y-17.676 E0.0367
G1 X31.961 Y-17.245 E0.0367
G1 X32.796 Y-16.772 E0.0367
G1 X33.607 Y-16.258 E0.0367
G1 X34.392 Y-15.706 E0.0367
G1 X35.148 Y-15.115 E0.0367
G1 X35.875 Y-14.488 E0.0367
G1 X36.570 Y-13.826 E0.0367
G1 X37.232 Y-13.131 E0.0367
G1 X37.859 Y-12.405 E0.0367
G1 X38.449 Y-11.648 E0.0367
G1 X39.002 Y-10.863 E0.0367
G1 X39.515 Y-10.052 E0.0367
G1 X39.988 Y-9.217 E0.0367
G1 X40.420 Y-8.360 E0.0367
G1 X40.809 Y-7.483 E0.0367
G1 X41.154 Y-6.587 E0.0367
G1 X41.455 Y-5.676 E0.0367
G1 X41.711 Y-4.751 E0.0367
G1 X41.921 Y-3.815 E0.0367
G1 X42.086 Y-2.869 E0.0367
G1 X42.203 Y-1.917 E0.0367
G1 X42.274 Y-0.959 E0.0367
G1 X42.297 Y-0.000 E0.0367
G1 X42.274 Y0.959 E0.0367
G1 X42.203 Y1.917 E0.0367
G1 X42.086 Y2.869 E0.0367
G1 X41.921 Y3.815 E0.0367
G1 X41.711 Y4.751 E0.0367
G1 X41.455 Y5.676 E0.0367
G1 X41.154 Y6.587 E0.0367
G1 X40.809 Y7.483 E0.0367
G1 X40.420 Y8.360 E0.0367
G1 X39.988 Y9.217 E0.0367
G1 X39.515 Y10.052 E0.0367
G1 X39.002 Y10.863 E0.0367
G1 X38.449 Y11.648 E0.0367
G1 X37.859 Y12.405 E0.0367
G1 X37.232 Y13.131 E0.0367
G1 X36.570 Y13.827 E0.0367
G1 X35.875 Y14.488 E0.0367
G1 X35.148 Y15.115 E0.0367
G1 X34.392 Y15.705 E0.0367
G1 X33.607 Y16.258 E0.0367
G1 X32.796 Y16.772 E0.0367
G1 X31.961 Y17.245 E0.0367
G1 X31.104 Y17.676 E0.0367
G1 X30.226 Y18.065 E0.0367
G1 X29.331 Y18.411 E0.0367
G1 X28.417 Y18.712 E0.0368
G1 X27.825 Y18.881 E0.0236
G1 X27.251 Y19.186 E0.0249
G1 X27.042 Y18.795 E0.0170
G1 X26.405 Y18.019 E0.0384
G1 X25.629 Y17.382 E0.0384
G1 X24.744 Y16.909 E0.0384
G1 X23.784 Y16.618 E0.0384
G1 X22.785 Y16.519 E0.0384
G1 X21.786 Y16.618 E0.0384
G1 X20.825 Y16.909 E0.0384
G1 X19.940 Y17.382 E0.0384
G1 X19.164 Y18.019 E0.0384
G1 X18.527 Y18.795 E0.0384
G1 X18.300 Y19.220 E0.0184
; feature outer perimeter
G1 X18.053 Y19.610 F9000
G1 X17.489 Y19.310 E0.0244 F1200
G1 X16.935 Y19.152 E0.0221
G1 X16.001 Y18.844 E0.0376
G1 X15.085 Y18.490 E0.0376
G1 X14.187 Y18.092 E0.0376
G1 X13.309 Y17.650 E0.0376
G1 X12.455 Y17.166 E0.0376
G1 X11.625 Y16.641 E0.0376
G1 X10.821 Y16.075 E0.0376
G1 X10.047 Y15.471 E0.0376
G1 X9.303 Y14.829 E0.0376
G1 X8.592 Y14.152 E0.0376
G1 X7.915 Y13.440 E0.0376
G1 X7.273 Y12.696 E0.0376
G1 X6.669 Y11.922 E0.0376
G1 X6.103 Y11.119 E0.0376
G1 X5.577 Y10.289 E0.0376
G1 X5.093 Y9.434 E0.0376
G1 X4.652 Y8.557 E0.0376
G1 X4.253 Y7.659 E0.0376
G1 X3.900 Y6.742 E0.0376
G1 X3.592 Y5.810 E0.0376
G1 X3.330 Y4.863 E0.0376
G1 X3.115 Y3.904 E0.0376
G1 X2.947 Y2.937 E0.0376
G1 X2.826 Y1.962 E0.0376
G1 X2.754 Y0.982 E0.0376
G1 X2.730 Y-0.000 E0.0376
G1 X2.754 Y-0.982 E0.0376
G1 X2.826 Y-1.962 E0.0376
G1 X2.947 Y-2.937 E0.0376
G1 X3.115 Y-3.904 E0.0376
G1 X3.330 Y-4.863 E0.0376
G1 X3.592 Y-5.810 E0.0376
G1 X3.900 Y-6.742 E0.0376
G1 X4.253 Y-7.659 E0.0376
G1 X4.652 Y-8.557 E0.0376
G1 X5.093 Y-9.434 E0.0376
G1 X5.577 Y-10.289 E0.0376
G1 X6.103 Y-11.119 E0.0376
G1 X6.669 Y-11.922 E0.0376
G1 X7.273 Y-12.696 E0.0376
G1 X7.915 Y-13.440 E0.0376
G1 X8.592 Y-14.152 E0.0376
G1 X9.303 Y-14.829 E0.0376
G1 X10.047 Y-15.471 E0.0376
G1 X10.822 Y-16.075 E0.0376
G1 X11.625 Y-16.641 E0.0376
G1 X12.455 Y-17.166 E0.0376
G1 X13.309 Y-17.650 E0.0376
G1 X14.187 Y-18.092 E0.0376
G1 X15.085 Y-18.490 E0.0376
G1 X16.001 Y-18.844 E0.0376
G1 X16.935 Y-19.152 E0.0376
G1 X17.489 Y-19.310 E0.0221
G1 X18.053 Y-19.610 E0.0244
G1 X17.699 Y-20.777 E0.0467
G1 X17.600 Y-21.781 E0.0386
G1 X17.699 Y-22.784 E0.0386
G1 X17.992 Y-23.749 E0.0386
G1 X18.467 Y-24.638 E0.0386
G1 X19.107 Y-25.418 E0.0386
G1 X19.886 Y-26.058 E0.0386
G1 X20.775 Y-26.533 E0.0386
G1 X21.740 Y-26.826 E0.0386
G1 X22.744 Y-26.924 E0.0386
G1 X23.747 Y-26.826 E0.0386
G1 X24.712 Y-26.533 E0.0386
G1 X25.601 Y-26.058 E0.0386
G1 X26.381 Y-25.418 E0.0386
G1 X27.020 Y-24.638 E0.0386
G1 X27.496 Y-23.749 E0.0386
G1 X27.788 Y-22.784 E0.0386
G1 X27.887 Y-21.781 E0.0386
G1 X27.788 Y-20.777 E0.0386
G1 X27.434 Y-19.610 E0.0467
G1 X27.998 Y-19.310 E0.0244
G1 X28.552 Y-19.152 E0.0221
G1 X29.486 Y-18.844 E0.0376
G1 X30.403 Y-18.490 E0.0376
G1 X31.301 Y-18.092 E0.0376
G1 X32.178 Y-17.650 E0.0376
G1 X33.033 Y-17.166 E0.0376
G1 X33.863 Y-16.641 E0.0376
G1 X34.666 Y-16.075 E0.0376
G1 X35.440 Y-15.471 E0.0376
G1 X36.184 Y-14.829 E0.0376
G1 X36.895 Y-14.152 E0.0376
G1 X37.573 Y-13.440 E0.0376
G1 X38.214 Y-12.696 E0.0376
G1 X38.819 Y-11.922 E0.0376
G1 X39.384 Y-11.119 E0.0376
G1 X39.910 Y-10.289 E0.0376
G1 X40.394 Y-9.434 E0.0376
G1 X40.836 Y-8.557 E0.0376
G1 X41.234 Y-7.659 E0.0376
G1 X41.587 Y-6.742 E0.0376
G1 X41.896 Y-5.810 E0.0376
G1 X42.158 Y-4.863 E0.0376
G1 X42.373 Y-3.904 E0.0376
G1 X42.541 Y-2.937 E0.0376
G1 X42.661 Y-1.962 E0.0376
G1 X42.733 Y-0.982 E0.0376
G1 X42.757 Y-0.000 E0.0376
G1 X42.733 Y0.982 E0.0376
G1 X42.661 Y1.962 E0.0376
G1 X42.541 Y2.937 E0.0376
G1 X42.373 Y3.904 E0.0376
G1 X42.158 Y4.863 E0.0376
G1 X41.896 Y5.810 E0.0376
G1 X41.587 Y6.742 E0.0376
G1 X41.234 Y7.659 E0.0376
G1 X40.836 Y8.557 E0.0376
G1 X40.394 Y9.434 E0.0376
G1 X39.910 Y10.289 E0.0376
G1 X39.384 Y11.119 E0.0376
G1 X38.819 Y11.922 E0.0376
G1 X38.214 Y12.696 E0.0376
G1 X37.573 Y13.440 E0.0376
G1 X36.895 Y14.152 E0.0376
G1 X36.184 Y14.829 E0.0376
G1 X35.440 Y15.471 E0.0376
G1 X34.666 Y16.075 E0.0376
G1 X33.863 Y16.641 E0.0376
G1 X33.033 Y17.166 E0.0376
G1 X32.178 Y17.650 E0.0376
G1 X31.301 Y18.092 E0.0376
G1 X30.403 Y18.490 E0.0376
G1 X29.486 Y18.844 E0.0376
G1 X28.552 Y19.152 E0.0376
G1 X27.998 Y19.310 E0.0221
G1 X27.434 Y19.610 E0.0244
G1 X27.788 Y20.777 E0.0467
G1 X27.887 Y21.781 E0.0386
G1 X27.788 Y22.784 E0.0386
G1 X27.496 Y23.749 E0.0386
G1 X27.020 Y24.638 E0.0386
G1 X26.381 Y25.418 E0.0386
G1 X25.601 Y26.058 E0.0386
G1 X24.712 Y26.533 E0.0386
G1 X23.747 Y26.826 E0.0386
G1 X22.744 Y26.924 E0.0386
G1 X21.740 Y26.826 E0.0386
G1 X20.775 Y26.533 E0.0386
G1 X19.886 Y26.058 E0.0386
G1 X19.107 Y25.418 E0.0386
G1 X18.467 Y24.638 E0.0386
G1 X17.992 Y23.749 E0.0386
G1 X17.699 Y22.784 E0.0386
G1 X17.600 Y21.781 E0.0386
G1 X17.699 Y20.777 E0.0386
G1 X18.053 Y19.610 E0.0467
G1 X18.481 Y19.857 F9000
G1 X18.216 Y20.731 E0.0349 F1200
G1 X18.127 Y21.640 E0.0349
G1 X18.214 Y22.527 E0.0341
G1 X18.481 Y23.422 E0.0357
G1 X18.912 Y24.228 E0.0349
G1 X19.491 Y24.933 E0.0349
G1 X20.197 Y25.513 E0.0349
G1 X21.002 Y25.943 E0.0349
G1 X21.876 Y26.208 E0.0349
G1 X22.785 Y26.298 E0.0349
G1 X23.694 Y26.208 E0.0349
G1 X24.567 Y25.943 E0.0349
G1 X25.373 Y25.513 E0.0349
G1 X26.078 Y24.933 E0.0349
G1 X26.658 Y24.228 E0.0349
G1 X27.088 Y23.422 E0.0349
G1 X27.353 Y22.548 E0.0349
G1 X27.443 Y21.640 E0.0349
G1 X27.353 Y20.731 E0.0349
G1 X27.088 Y19.857 E0.0349
G1 X26.658 Y19.052 E0.0349
G1 X26.079 Y18.346 E0.0349
G1 X25.373 Y17.767 E0.0349
