; G-Code generated by Simplify3D(R) Version 4.1.2
; Apr 2, 2020 at 1:19:44 PM
; Settings Summary
;   processName,Process1
;   applyToModels,BM66 Slingshot Dome Light,BM66 Slingshot Dome Light(2),BM66 Slingshot Dome Light(3),BM66 Slingshot Dome Light(2)(2),BM66 Slingshot Dome Light(4),BM66 Slingshot Dome Light(2)(3),BM66 Slingshot Dome Light(3)(2),BM66 Slingshot Dome Light(2)(2)(2)
;   profileName,MakerBot Replicator 2 HBP (modified)
;   profileVersion,2020-03-12 10:48:50
;   baseProfile,MakerBot Replicator 2(2)
;   printMaterial,PLA
;   printQuality,Medium
;   printExtruders,
;   extruderName,Primary Extruder
;   extruderToolheadNumber,0
;   extruderDiameter,0.4
;   extruderAutoWidth,0
;   extruderWidth,0.4
;   extrusionMultiplier,1
;   extruderUseRetract,1
;   extruderRetractionDistance,1.9
;   extruderExtraRestartDistance,0
;   extruderRetractionZLift,0.5
;   extruderRetractionSpeed,1200
;   extruderUseCoasting,0
;   extruderCoastingDistance,0.2
;   extruderUseWipe,0
;   extruderWipeDistance,5
;   primaryExtruder,0
;   layerHeight,0.2
;   topSolidLayers,3
;   bottomSolidLayers,3
;   perimeterOutlines,2
;   printPerimetersInsideOut,1
;   startPointOption,3
;   startPointOriginX,0
;   startPointOriginY,150
;   sequentialIslands,0
;   spiralVaseMode,0
;   firstLayerHeightPercentage,100
;   firstLayerWidthPercentage,115
;   firstLayerUnderspeed,0.5
;   useRaft,0
;   raftExtruder,0
;   raftTopLayers,2
;   raftBaseLayers,1
;   raftOffset,1
;   raftSeparationDistance,0.14
;   raftTopInfill,90
;   aboveRaftSpeedMultiplier,0.3
;   useSkirt,0
;   skirtExtruder,0
;   skirtLayers,1
;   skirtOutlines,5
;   skirtOffset,0
;   usePrimePillar,0
;   primePillarExtruder,999
;   primePillarWidth,12
;   primePillarLocation,7
;   primePillarSpeedMultiplier,1
;   useOozeShield,0
;   oozeShieldExtruder,999
;   oozeShieldOffset,2
;   oozeShieldOutlines,1
;   oozeShieldSidewallShape,1
;   oozeShieldSidewallAngle,30
;   oozeShieldSpeedMultiplier,1
;   infillExtruder,0
;   internalInfillPattern,Rectilinear
;   externalInfillPattern,Rectilinear
;   infillPercentage,15
;   outlineOverlapPercentage,25
;   infillExtrusionWidthPercentage,100
;   minInfillLength,5
;   infillLayerInterval,1
;   internalInfillAngles,45,-45
;   overlapInternalInfillAngles,0
;   externalInfillAngles,45,-45
;   generateSupport,0
;   supportExtruder,0
;   supportInfillPercentage,30
;   supportExtraInflation,0.5
;   supportBaseLayers,0
;   denseSupportExtruder,0
;   denseSupportLayers,2
;   denseSupportInfillPercentage,90
;   supportLayerInterval,1
;   supportHorizontalPartOffset,0.3
;   supportUpperSeparationLayers,1
;   supportLowerSeparationLayers,1
;   supportType,1
;   supportGridSpacing,2
;   maxOverhangAngle,45
;   supportAngles,45,-45
;   temperatureName,Primary Extruder,Heated Build Platform
;   temperatureNumber,0,0
;   temperatureSetpointCount,1,1
;   temperatureSetpointLayers,1,1
;   temperatureSetpointTemperatures,230,60
;   temperatureStabilizeAtStartup,1,1
;   temperatureHeatedBed,0,1
;   fanLayers,1,2
;   fanSpeeds,0,100
;   blipFanToFullPower,1
;   adjustSpeedForCooling,1
;   minSpeedLayerTime,15
;   minCoolingSpeedSlowdown,20
;   increaseFanForCooling,1
;   minFanLayerTime,45
;   maxCoolingFanSpeed,100
;   increaseFanForBridging,1
;   bridgingFanSpeed,100
;   use5D,1
;   relativeEdistances,1
;   allowEaxisZeroing,0
;   independentExtruderAxes,1
;   includeM10123,0
;   stickySupport,1
;   applyToolheadOffsets,0
;   gcodeXoffset,0
;   gcodeYoffset,0
;   gcodeZoffset,0
;   overrideMachineDefinition,1
;   machineTypeOverride,0
;   strokeXoverride,280
;   strokeYoverride,150
;   strokeZoverride,150
;   originOffsetXoverride,140
;   originOffsetYoverride,75
;   originOffsetZoverride,0
;   homeXdirOverride,1
;   homeYdirOverride,1
;   homeZdirOverride,-1
;   flipXoverride,1
;   flipYoverride,-1
;   flipZoverride,1
;   toolheadOffsets,0,0|0,0|0,0|0,0|0,0|0,0
;   overrideFirmwareConfiguration,1
;   firmwareTypeOverride,MakerBot/Sailfish Firmware
;   GPXconfigOverride,r2h
;   baudRateOverride,115200
;   overridePrinterModels,1
;   printerModelsOverride,MakerBot_Replicator2.stl
;   startingGcode,; **** Replicator 2 start.gcode ****,M73 P0 ; enable build progress,G162 X Y F3000 ; home XY maximum,G161 Z F1200 ; home Z minimum,G92 Z-5 ; set Z to -5,G1 Z0 ; move Z to 0,G161 Z F100 ; home Z slowly,M132 X Y Z A B ; recall home offsets,G1 X-145 Y-75 Z30 F9000 ; move to wait position off table,G130 X20 Y20 Z20 A20 B20 ; lower stepper Vrefs while heating,M126 S[fan_speed_pwm],M140 S[bed0_temperature] T0,M134 T0 ; stabilize bed temperature,M104 S[extruder0_temperature] T0,M133 T0 ; stabilize extruder temperature,G130 X127 Y127 Z40 A127 B127 ; default stepper Vrefs,G92 A0 ; zero extruder,G1 Z0.4 ; position nozzle,G1 E25 F300 ; purge nozzle,G1 X-140 Y-70 Z0.15 F1200 ; slow wipe,G1 X-135 Y-65 Z0.5 F1200 ; lift,G92 A0 ; zero extruder,M73 P1 ;@body (notify GPX body has started),; **** end of start.gcode ****
;   layerChangeGcode,
;   retractionGcode,
;   toolChangeGcode,
;   endingGcode,; **** Replicator 2 end.gcode ****,M73 P100 ; end build progress,G1 Z155 F1000 ; send Z axis to bottom of machine,M104 S0 T0 ; cool down extruder,M140 S0 T0 ; cool down HBP,M127 ; stop blower fan,G162 X Y F3000 ; home XY maximum,M18 ; disable stepper,M0 ; stop codes,M72 P1 ; play Ta-Da song,; **** end of end.gcode ****
;   exportFileFormat,gcode
;   celebration,0
;   celebrationSong,Random Song
;   postProcessing,
;   defaultSpeed,4800
;   outlineUnderspeed,0.5
;   solidInfillUnderspeed,1
;   supportUnderspeed,1
;   rapidXYspeed,9000
;   rapidZspeed,1200
;   minBridgingArea,50
;   bridgingExtraInflation,0
;   bridgingExtrusionMultiplier,1
;   bridgingSpeedMultiplier,0.8
;   useFixedBridgingAngle,0
;   fixedBridgingAngle,0
;   applyBridgingToPerimeters,0
;   filamentDiameters,1.75|1.75|1.75|1.75|1.75|1.75
;   filamentPricesPerKg,46|46|46|46|46|46
;   filamentDensities,1.25|1.25|1.25|1.25|1.25|1.25
;   useMinPrintHeight,0
;   minPrintHeight,0
;   useMaxPrintHeight,0
;   maxPrintHeight,4.84
;   useDiaphragm,0
;   diaphragmLayerInterval,20
;   robustSlicing,1
;   mergeAllIntoSolid,0
;   onlyRetractWhenCrossingOutline,0
;   retractBetweenLayers,0
;   useRetractionMinTravel,1
;   retractionMinTravel,7
;   retractWhileWiping,1
;   onlyWipeOutlines,1
;   avoidCrossingOutline,0
;   maxMovementDetourFactor,3
;   toolChangeRetractionDistance,12
;   toolChangeExtraRestartDistance,-0.5
;   toolChangeRetractionSpeed,600
;   externalThinWallType,0
;   internalThinWallType,0
;   thinWallAllowedOverlapPercentage,10
;   singleExtrusionMinLength,1
;   singleExtrusionMinPrintingWidthPercentage,50
;   singleExtrusionMaxPrintingWidthPercentage,200
;   singleExtrusionEndpointExtension,0.2
;   horizontalSizeCompensation,0
G90
M83
; **** Replicator 2 start.gcode ****
M73 P0 ; enable build progress
G162 X Y F3000 ; home XY maximum
G161 Z F1200 ; home Z minimum
G92 Z-5 ; set Z to -5
G1 Z0 ; move Z to 0
G161 Z F100 ; home Z slowly
M132 X Y Z A B ; recall home offsets
G1 X-145 Y-75 Z30 F9000 ; move to wait position off table
G130 X20 Y20 Z20 A20 B20 ; lower stepper Vrefs while heating
M127
M140 S60 T0
M134 T0 ; stabilize bed temperature
M104 S230 T0
M133 T0 ; stabilize extruder temperature
G130 X127 Y127 Z40 A127 B127 ; default stepper Vrefs
G92 A0 ; zero extruder
G1 Z0.4 ; position nozzle
G1 E25 F300 ; purge nozzle
G1 X-140 Y-70 Z0.15 F1200 ; slow wipe
G1 X-135 Y-65 Z0.5 F1200 ; lift
G92 A0 ; zero extruder
M73 P1 ;@body (notify GPX body has started)
; **** end of start.gcode ****
; process Process1
; layer 1, Z = 0.200
M135 T0
G1 E-1.9000 F1200
; feature inner perimeter
; tool H0.200 W0.460
G1 Z0.500 F1200
G1 X15.406 Y-3.209 F9000
G1 Z0.200 F1200
G1 E1.9000 F1200
G1 X13.018 Y-3.446 E0.0918 F1800
G1 X10.738 Y-4.138 E0.0911
G1 X8.630 Y-5.265 E0.0915
G1 X6.782 Y-6.782 E0.0915
G1 X5.265 Y-8.630 E0.0915
G1 X4.138 Y-10.738 E0.0915
G1 X3.444 Y-13.027 E0.0915
G1 X3.209 Y-15.406 E0.0915
G1 X3.444 Y-17.785 E0.0915
G1 X4.138 Y-20.073 E0.0915
G1 X5.265 Y-22.182 E0.0915
G1 X6.781 Y-24.030 E0.0915
G1 X8.630 Y-25.547 E0.0915
G1 X10.738 Y-26.674 E0.0914
G1 X13.027 Y-27.368 E0.0915
G1 X15.406 Y-27.603 E0.0915
G1 X17.785 Y-27.368 E0.0915
G1 X20.073 Y-26.674 E0.0915
G1 X22.182 Y-25.547 E0.0915
G1 X24.030 Y-24.030 E0.0915
G1 X25.547 Y-22.182 E0.0915
G1 X26.674 Y-20.073 E0.0915
G1 X27.368 Y-17.785 E0.0915
G1 X27.603 Y-15.406 E0.0915
G1 X27.368 Y-13.027 E0.0915
G1 X26.674 Y-10.738 E0.0915
G1 X25.547 Y-8.630 E0.0915
G1 X24.030 Y-6.782 E0.0915
G1 X22.182 Y-5.265 E0.0915
G1 X20.073 Y-4.138 E0.0914
G1 X17.785 Y-3.444 E0.0915
G1 X15.406 Y-3.209 E0.0914
; feature outer perimeter
G1 X15.406 Y-2.747 F9000
G1 X12.927 Y-2.993 E0.0953 F1200
G1 X10.562 Y-3.711 E0.0946
G1 X8.373 Y-4.880 E0.0949
G1 X6.455 Y-6.455 E0.0949
G1 X4.880 Y-8.373 E0.0949
G1 X3.711 Y-10.562 E0.0949
G1 X2.990 Y-12.936 E0.0949
G1 X2.747 Y-15.406 E0.0949
G1 X2.990 Y-17.876 E0.0949
G1 X3.711 Y-20.250 E0.0949
G1 X4.880 Y-22.439 E0.0949
G1 X6.455 Y-24.357 E0.0949
G1 X8.373 Y-25.931 E0.0949
G1 X10.561 Y-27.101 E0.0949
G1 X12.936 Y-27.822 E0.0949
G1 X15.406 Y-28.065 E0.0949
G1 X17.876 Y-27.822 E0.0949
G1 X20.250 Y-27.101 E0.0949
G1 X22.439 Y-25.931 E0.0949
G1 X24.357 Y-24.357 E0.0949
G1 X25.931 Y-22.439 E0.0949
G1 X27.101 Y-20.250 E0.0949
G1 X27.822 Y-17.876 E0.0949
G1 X28.065 Y-15.406 E0.0949
G1 X27.822 Y-12.936 E0.0949
G1 X27.101 Y-10.562 E0.0949
G1 X25.931 Y-8.373 E0.0949
G1 X24.357 Y-6.455 E0.0949
G1 X22.439 Y-4.880 E0.0949
G1 X20.250 Y-3.711 E0.0949
G1 X17.876 Y-2.990 E0.0949
G1 X15.406 Y-2.747 E0.0949
G1 E-1.9000 F1200
; feature solid layer
G1 Z0.700 F1200
G1 X5.843 Y-8.469 F9000
G1 Z0.200 F1200
G1 E1.9000 F1200
G1 X8.469 Y-5.843 E0.1420 F2400
G1 X8.822 Y-5.553 E0.0175
G1 X10.084 Y-4.879 E0.0547
G1 X4.879 Y-10.084 E0.2815
G1 X4.458 Y-10.871 E0.0342
G1 X4.334 Y-11.279 E0.0163
G1 X11.279 Y-4.334 E0.3756
G1 X12.213 Y-4.051 E0.0373
G1 X4.051 Y-12.212 E0.4415
G1 X3.784 Y-13.094 E0.0352
G1 X3.780 Y-13.134 E0.0015
G1 X13.133 Y-3.782 E0.5059
G1 X13.855 Y-3.710 E0.0278
G1 X3.708 Y-13.856 E0.5488
G1 X3.637 Y-14.578 E0.0277
G1 X14.577 Y-3.638 E0.5917
G1 X15.299 Y-3.567 E0.0278
G1 X3.566 Y-15.299 E0.6347
G1 X3.556 Y-15.406 E0.0041
G1 X3.606 Y-15.911 E0.0194
G1 X15.911 Y-3.606 E0.6656
G1 X16.503 Y-3.664 E0.0228
G1 X3.664 Y-16.503 E0.6945
G1 X3.722 Y-17.095 E0.0228
G1 X17.095 Y-3.722 E0.7234
G1 X17.687 Y-3.781 E0.0228
G1 X3.781 Y-17.687 E0.7522
G1 X3.784 Y-17.718 E0.0012
G1 X3.927 Y-18.191 E0.0189
G1 X18.191 Y-3.927 E0.7716
G1 X18.690 Y-4.079 E0.0200
G1 X4.079 Y-18.690 E0.7904
G1 X4.230 Y-19.189 E0.0200
G1 X19.189 Y-4.230 E0.8092
G1 X19.689 Y-4.381 E0.0200
G1 X4.381 Y-19.689 E0.8280
G1 X4.458 Y-19.941 E0.0101
G1 X4.570 Y-20.150 E0.0091
G1 X20.150 Y-4.570 E0.8428
G1 X20.574 Y-4.797 E0.0184
G1 X4.797 Y-20.574 E0.8535
G1 X5.023 Y-20.998 E0.0184
G1 X20.998 Y-5.023 E0.8641
G1 X21.422 Y-5.250 E0.0184
G1 X5.250 Y-21.422 E0.8748
G1 X5.476 Y-21.846 E0.0184
G1 X21.846 Y-5.476 E0.8855
G1 X21.989 Y-5.553 E0.0062
G1 X22.226 Y-5.747 E0.0117
G1 X5.747 Y-22.226 E0.8914
G1 X6.040 Y-22.583 E0.0177
G1 X22.583 Y-6.040 E0.8949
G1 X22.941 Y-6.334 E0.0177
G1 X6.334 Y-22.941 E0.8983
G1 X6.627 Y-23.298 E0.0177
G1 X23.298 Y-6.627 E0.9018
G1 X23.655 Y-6.920 E0.0177
G1 X6.920 Y-23.655 E0.9053
G1 X7.027 Y-23.785 E0.0064
G1 X7.254 Y-23.972 E0.0113
G1 X23.972 Y-7.254 E0.9043
G1 X24.265 Y-7.611 E0.0177
G1 X7.611 Y-24.265 E0.9008
G1 X7.969 Y-24.558 E0.0177
G1 X24.558 Y-7.969 E0.8974
G1 X24.852 Y-8.326 E0.0177
G1 X8.326 Y-24.852 E0.8939
G1 X8.683 Y-25.145 E0.0177
G1 X25.145 Y-8.683 E0.8904
G1 X25.259 Y-8.822 E0.0069
G1 X25.397 Y-9.081 E0.0112
G1 X9.081 Y-25.397 E0.8826
G1 X9.505 Y-25.624 E0.0184
G1 X25.624 Y-9.505 E0.8719
G1 X25.850 Y-9.929 E0.0184
G1 X9.929 Y-25.850 E0.8612
G1 X10.353 Y-26.077 E0.0184
G1 X26.077 Y-10.353 E0.8506
G1 X26.304 Y-10.777 E0.0184
G1 X10.777 Y-26.304 E0.8399
G1 X10.871 Y-26.354 E0.0041
G1 X11.259 Y-26.472 E0.0155
G1 X26.472 Y-11.259 E0.8229
G1 X26.623 Y-11.759 E0.0200
G1 X11.759 Y-26.623 E0.8041
G1 X12.258 Y-26.775 E0.0200
G1 X26.775 Y-12.258 E0.7853
G1 X26.926 Y-12.757 E0.0200
G1 X12.757 Y-26.926 E0.7664
G1 X13.094 Y-27.028 E0.0135
G1 X13.286 Y-27.047 E0.0074
G1 X27.047 Y-13.286 E0.7444
G1 X27.106 Y-13.878 E0.0228
G1 X13.878 Y-27.106 E0.7155
G1 X14.471 Y-27.164 E0.0228
G1 X27.164 Y-14.471 E0.6866
G1 X27.222 Y-15.063 E0.0228
G1 X15.063 Y-27.222 E0.6577
G1 X15.406 Y-27.256 E0.0132
G1 X15.709 Y-27.226 E0.0117
G1 X27.226 Y-15.709 E0.6230
G1 X27.155 Y-16.431 E0.0277
G1 X16.431 Y-27.155 E0.5801
G1 X17.153 Y-27.084 E0.0277
G1 X27.084 Y-17.153 E0.5372
G1 X27.028 Y-17.718 E0.0217
G1 X26.967 Y-17.920 E0.0081
G1 X17.920 Y-26.967 E0.4894
G1 X18.854 Y-26.684 E0.0373
G1 X26.684 Y-18.854 E0.4235
G1 X26.400 Y-19.788 E0.0373
G1 X19.788 Y-26.400 E0.3577
G1 X19.941 Y-26.354 E0.0061
G1 X21.109 Y-25.729 E0.0507
G1 X25.729 Y-21.109 E0.2499
G1 X25.259 Y-21.989 E0.0382
G1 X24.156 Y-23.333 E0.0665
G1 X23.333 Y-24.156 E0.0445
G1 E-1.9000 F1200
; feature inner perimeter
G1 Z0.700 F1200
G1 X43.830 Y-3.446 F9000
G1 Z0.200 F1200
G1 E1.9000 F1200
G1 X41.550 Y-4.138 E0.0911 F1800
G1 X39.442 Y-5.265 E0.0915
G1 X37.593 Y-6.782 E0.0915
G1 X36.077 Y-8.630 E0.0915
G1 X34.949 Y-10.738 E0.0915
G1 X34.255 Y-13.026 E0.0915
G1 X34.021 Y-15.406 E0.0915
G1 X34.255 Y-17.785 E0.0915
G1 X34.949 Y-20.073 E0.0915
G1 X36.077 Y-22.182 E0.0915
G1 X37.593 Y-24.030 E0.0915
G1 X39.442 Y-25.547 E0.0915
G1 X41.550 Y-26.674 E0.0915
G1 X43.838 Y-27.368 E0.0915
G1 X46.218 Y-27.603 E0.0915
G1 X48.597 Y-27.368 E0.0915
G1 X50.885 Y-26.674 E0.0915
G1 X52.994 Y-25.547 E0.0915
G1 X54.842 Y-24.030 E0.0915
G1 X56.359 Y-22.182 E0.0915
G1 X57.486 Y-20.073 E0.0915
G1 X58.180 Y-17.785 E0.0915
G1 X58.415 Y-15.406 E0.0915
G1 X58.180 Y-13.027 E0.0915
G1 X57.486 Y-10.738 E0.0915
G1 X56.359 Y-8.630 E0.0915
G1 X54.842 Y-6.781 E0.0915
G1 X52.994 Y-5.265 E0.0915
G1 X50.885 Y-4.138 E0.0915
G1 X48.597 Y-3.444 E0.0915
G1 X46.218 Y-3.209 E0.0914
G1 X43.830 Y-3.446 E0.0918
; feature outer perimeter
G1 X43.739 Y-2.993 F9000
G1 X41.373 Y-3.711 E0.0946 F1200
G1 X39.185 Y-4.880 E0.0949
G1 X37.267 Y-6.455 E0.0949
G1 X35.692 Y-8.373 E0.0949
G1 X34.522 Y-10.562 E0.0949
G1 X33.802 Y-12.936 E0.0949
G1 X33.559 Y-15.406 E0.0949
G1 X33.802 Y-17.876 E0.0949
G1 X34.522 Y-20.250 E0.0949
G1 X35.692 Y-22.439 E0.0949
G1 X37.267 Y-24.357 E0.0949
G1 X39.185 Y-25.931 E0.0949
G1 X41.373 Y-27.101 E0.0949
G1 X43.748 Y-27.822 E0.0949
G1 X46.218 Y-28.065 E0.0949
G1 X48.687 Y-27.822 E0.0949
G1 X51.062 Y-27.101 E0.0949
G1 X53.251 Y-25.931 E0.0949
G1 X55.169 Y-24.357 E0.0949
G1 X56.743 Y-22.439 E0.0949
G1 X57.913 Y-20.250 E0.0949
G1 X58.634 Y-17.876 E0.0949
G1 X58.877 Y-15.406 E0.0949
G1 X58.634 Y-12.936 E0.0949
G1 X57.913 Y-10.562 E0.0949
G1 X56.743 Y-8.373 E0.0949
G1 X55.169 Y-6.455 E0.0949
G1 X53.251 Y-4.880 E0.0949
G1 X51.062 Y-3.711 E0.0949
G1 X48.687 Y-2.990 E0.0949
G1 X46.218 Y-2.747 E0.0949
G1 X43.739 Y-2.993 E0.0953
G1 E-1.9000 F1200
; feature solid layer
G1 Z0.700 F1200
G1 X37.738 Y-7.149 F9000
G1 Z0.200 F1200
G1 E1.9000 F1200
G1 X37.961 Y-6.926 E0.0121 F2400
G1 X39.634 Y-5.553 E0.0828
G1 X40.387 Y-5.150 E0.0327
G1 X35.962 Y-9.575 E0.2394
G1 X35.270 Y-10.871 E0.0562
G1 X35.249 Y-10.939 E0.0027
G1 X41.751 Y-4.437 E0.3517
G1 X42.685 Y-4.154 E0.0373
G1 X34.966 Y-11.873 E0.4175
G1 X34.683 Y-12.807 E0.0373
G1 X43.619 Y-3.871 E0.4834
G1 X43.897 Y-3.786 E0.0111
G1 X44.404 Y-3.736 E0.0195
G1 X34.546 Y-13.594 E0.5332
G1 X34.475 Y-14.315 E0.0277
G1 X45.126 Y-3.664 E0.5761
G1 X45.848 Y-3.593 E0.0278
G1 X34.404 Y-15.037 E0.6191
G1 X34.368 Y-15.406 E0.0142
G1 X34.396 Y-15.695 E0.0111
G1 X46.507 Y-3.584 E0.6551
G1 X47.099 Y-3.643 E0.0228
G1 X34.455 Y-16.287 E0.6840
G1 X34.513 Y-16.880 E0.0228
G1 X47.692 Y-3.701 E0.7129
G1 X48.284 Y-3.759 E0.0228
G1 X34.571 Y-17.472 E0.7417
G1 X34.595 Y-17.718 E0.0094
G1 X34.684 Y-18.010 E0.0117
G1 X48.822 Y-3.872 E0.7647
G1 X49.321 Y-4.023 E0.0200
G1 X34.835 Y-18.509 E0.7835
G1 X34.987 Y-19.008 E0.0200
G1 X49.820 Y-4.175 E0.8024
G1 X50.319 Y-4.326 E0.0200
G1 X35.138 Y-19.507 E0.8212
G1 X35.270 Y-19.941 E0.0173
G1 X35.299 Y-19.996 E0.0024
