; G-Code generated by Simplify3D(R) Version 4.1.2
; Apr 2, 2020 at 1:19:23 PM
; Settings Summary
;   processName,Process1
;   applyToModels,BM66 Slingshot Dome Light,BM66 Slingshot Dome Light(2),BM66 Slingshot Dome Light(3),BM66 Slingshot Dome Light(2)(2)
;   profileName,MakerBot Replicator 2 HBP (modified)
;   profileVersion,2020-03-12 10:48:50
;   baseProfile,MakerBot Replicator 2(2)
;   printMaterial,PLA
;   printQuality,Medium
;   printExtruders,
;   extruderName,Primary Extruder
;   extruderToolheadNumber,0
;   extruderDiameter,0.4
;   extruderAutoWidth,0
;   extruderWidth,0.4
;   extrusionMultiplier,1
;   extruderUseRetract,1
;   extruderRetractionDistance,1.9
;   extruderExtraRestartDistance,0
;   extruderRetractionZLift,0.5
;   extruderRetractionSpeed,1200
;   extruderUseCoasting,0
;   extruderCoastingDistance,0.2
;   extruderUseWipe,0
;   extruderWipeDistance,5
;   primaryExtruder,0
;   layerHeight,0.2
;   topSolidLayers,3
;   bottomSolidLayers,3
;   perimeterOutlines,2
;   printPerimetersInsideOut,1
;   startPointOption,3
;   startPointOriginX,0
;   startPointOriginY,150
;   sequentialIslands,0
;   spiralVaseMode,0
;   firstLayerHeightPercentage,100
;   firstLayerWidthPercentage,115
;   firstLayerUnderspeed,0.5
;   useRaft,0
;   raftExtruder,0
;   raftTopLayers,2
;   raftBaseLayers,1
;   raftOffset,1
;   raftSeparationDistance,0.14
;   raftTopInfill,90
;   aboveRaftSpeedMultiplier,0.3
;   useSkirt,0
;   skirtExtruder,0
;   skirtLayers,1
;   skirtOutlines,5
;   skirtOffset,0
;   usePrimePillar,0
;   primePillarExtruder,999
;   primePillarWidth,12
;   primePillarLocation,7
;   primePillarSpeedMultiplier,1
;   useOozeShield,0
;   oozeShieldExtruder,999
;   oozeShieldOffset,2
;   oozeShieldOutlines,1
;   oozeShieldSidewallShape,1
;   oozeShieldSidewallAngle,30
;   oozeShieldSpeedMultiplier,1
;   infillExtruder,0
;   internalInfillPattern,Rectilinear
;   externalInfillPattern,Rectilinear
;   infillPercentage,15
;   outlineOverlapPercentage,25
;   infillExtrusionWidthPercentage,100
;   minInfillLength,5
;   infillLayerInterval,1
;   internalInfillAngles,45,-45
;   overlapInternalInfillAngles,0
;   externalInfillAngles,45,-45
;   generateSupport,0
;   supportExtruder,0
;   supportInfillPercentage,30
;   supportExtraInflation,0.5
;   supportBaseLayers,0
;   denseSupportExtruder,0
;   denseSupportLayers,2
;   denseSupportInfillPercentage,90
;   supportLayerInterval,1
;   supportHorizontalPartOffset,0.3
;   supportUpperSeparationLayers,1
;   supportLowerSeparationLayers,1
;   supportType,1
;   supportGridSpacing,2
;   maxOverhangAngle,45
;   supportAngles,45,-45
;   temperatureName,Primary Extruder,Heated Build Platform
;   temperatureNumber,0,0
;   temperatureSetpointCount,1,1
;   temperatureSetpointLayers,1,1
;   temperatureSetpointTemperatures,230,60
;   temperatureStabilizeAtStartup,1,1
;   temperatureHeatedBed,0,1
;   fanLayers,1,2
;   fanSpeeds,0,100
;   blipFanToFullPower,1
;   adjustSpeedForCooling,1
;   minSpeedLayerTime,15
;   minCoolingSpeedSlowdown,20
;   increaseFanForCooling,1
;   minFanLayerTime,45
;   maxCoolingFanSpeed,100
;   increaseFanForBridging,1
;   bridgingFanSpeed,100
;   use5D,1
;   relativeEdistances,1
;   allowEaxisZeroing,0
;   independentExtruderAxes,1
;   includeM10123,0
;   stickySupport,1
;   applyToolheadOffsets,0
;   gcodeXoffset,0
;   gcodeYoffset,0
;   gcodeZoffset,0
;   overrideMachineDefinition,1
;   machineTypeOverride,0
;   strokeXoverride,280
;   strokeYoverride,150
;   strokeZoverride,150
;   originOffsetXoverride,140
;   originOffsetYoverride,75
;   originOffsetZoverride,0
;   homeXdirOverride,1
;   homeYdirOverride,1
;   homeZdirOverride,-1
;   flipXoverride,1
;   flipYoverride,-1
;   flipZoverride,1
;   toolheadOffsets,0,0|0,0|0,0|0,0|0,0|0,0
;   overrideFirmwareConfiguration,1
;   firmwareTypeOverride,MakerBot/Sailfish Firmware
;   GPXconfigOverride,r2h
;   baudRateOverride,115200
;   overridePrinterModels,1
;   printerModelsOverride,MakerBot_Replicator2.stl
;   startingGcode,; **** Replicator 2 start.gcode ****,M73 P0 ; enable build progress,G162 X Y F3000 ; home XY maximum,G161 Z F1200 ; home Z minimum,G92 Z-5 ; set Z to -5,G1 Z0 ; move Z to 0,G161 Z F100 ; home Z slowly,M132 X Y Z A B ; recall home offsets,G1 X-145 Y-75 Z30 F9000 ; move to wait position off table,G130 X20 Y20 Z20 A20 B20 ; lower stepper Vrefs while heating,M126 S[fan_speed_pwm],M140 S[bed0_temperature] T0,M134 T0 ; stabilize bed temperature,M104 S[extruder0_temperature] T0,M133 T0 ; stabilize extruder temperature,G130 X127 Y127 Z40 A127 B127 ; default stepper Vrefs,G92 A0 ; zero extruder,G1 Z0.4 ; position nozzle,G1 E25 F300 ; purge nozzle,G1 X-140 Y-70 Z0.15 F1200 ; slow wipe,G1 X-135 Y-65 Z0.5 F1200 ; lift,G92 A0 ; zero extruder,M73 P1 ;@body (notify GPX body has started),; **** end of start.gcode ****
;   layerChangeGcode,
;   retractionGcode,
;   toolChangeGcode,
;   endingGcode,; **** Replicator 2 end.gcode ****,M73 P100 ; end build progress,G1 Z155 F1000 ; send Z axis to bottom of machine,M104 S0 T0 ; cool down extruder,M140 S0 T0 ; cool down HBP,M127 ; stop blower fan,G162 X Y F3000 ; home XY maximum,M18 ; disable stepper,M0 ; stop codes,M72 P1 ; play Ta-Da song,; **** end of end.gcode ****
;   exportFileFormat,gcode
;   celebration,0
;   celebrationSong,Random Song
;   postProcessing,
;   defaultSpeed,4800
;   outlineUnderspeed,0.5
;   solidInfillUnderspeed,1
;   supportUnderspeed,1
;   rapidXYspeed,9000
;   rapidZspeed,1200
;   minBridgingArea,50
;   bridgingExtraInflation,0
;   bridgingExtrusionMultiplier,1
;   bridgingSpeedMultiplier,0.8
;   useFixedBridgingAngle,0
;   fixedBridgingAngle,0
;   applyBridgingToPerimeters,0
;   filamentDiameters,1.75|1.75|1.75|1.75|1.75|1.75
;   filamentPricesPerKg,46|46|46|46|46|46
;   filamentDensities,1.25|1.25|1.25|1.25|1.25|1.25
;   useMinPrintHeight,0
;   minPrintHeight,0
;   useMaxPrintHeight,0
;   maxPrintHeight,4.84
;   useDiaphragm,0
;   diaphragmLayerInterval,20
;   robustSlicing,1
;   mergeAllIntoSolid,0
;   onlyRetractWhenCrossingOutline,0
;   retractBetweenLayers,0
;   useRetractionMinTravel,1
;   retractionMinTravel,7
;   retractWhileWiping,1
;   onlyWipeOutlines,1
;   avoidCrossingOutline,0
;   maxMovementDetourFactor,3
;   toolChangeRetractionDistance,12
;   toolChangeExtraRestartDistance,-0.5
;   toolChangeRetractionSpeed,600
;   externalThinWallType,0
;   internalThinWallType,0
;   thinWallAllowedOverlapPercentage,10
;   singleExtrusionMinLength,1
;   singleExtrusionMinPrintingWidthPercentage,50
;   singleExtrusionMaxPrintingWidthPercentage,200
;   singleExtrusionEndpointExtension,0.2
;   horizontalSizeCompensation,0
G90
M83
; **** Replicator 2 start.gcode ****
M73 P0 ; enable build progress
G162 X Y F3000 ; home XY maximum
G161 Z F1200 ; home Z minimum
G92 Z-5 ; set Z to -5
G1 Z0 ; move Z to 0
G161 Z F100 ; home Z slowly
M132 X Y Z A B ; recall home offsets
G1 X-145 Y-75 Z30 F9000 ; move to wait position off table
G130 X20 Y20 Z20 A20 B20 ; lower stepper Vrefs while heating
M127
M140 S60 T0
M134 T0 ; stabilize bed temperature
M104 S230 T0
M133 T0 ; stabilize extruder temperature
G130 X127 Y127 Z40 A127 B127 ; default stepper Vrefs
G92 A0 ; zero extruder
G1 Z0.4 ; position nozzle
G1 E25 F300 ; purge nozzle
G1 X-140 Y-70 Z0.15 F1200 ; slow wipe
G1 X-135 Y-65 Z0.5 F1200 ; lift
G92 A0 ; zero extruder
M73 P1 ;@body (notify GPX body has started)
; **** end of start.gcode ****
; process Process1
; layer 1, Z = 0.200
M135 T0
G1 E-1.9000 F1200
; feature inner perimeter
; tool H0.200 W0.460
G1 Z0.500 F1200
G1 X0.000 Y-3.209 F9000
G1 Z0.200 F1200
G1 E1.9000 F1200
G1 X-2.388 Y-3.446 E0.0918 F1800
G1 X-4.668 Y-4.138 E0.0911
G1 X-6.776 Y-5.265 E0.0915
G1 X-8.624 Y-6.782 E0.0915
G1 X-10.141 Y-8.630 E0.0915
G1 X-11.268 Y-10.738 E0.0915
G1 X-11.962 Y-13.027 E0.0915
G1 X-12.197 Y-15.406 E0.0915
G1 X-11.962 Y-17.785 E0.0915
G1 X-11.268 Y-20.073 E0.0915
G1 X-10.141 Y-22.182 E0.0915
G1 X-8.624 Y-24.030 E0.0915
G1 X-6.776 Y-25.547 E0.0915
G1 X-4.668 Y-26.674 E0.0915
G1 X-2.379 Y-27.368 E0.0915
G1 X0.000 Y-27.603 E0.0915
G1 X2.379 Y-27.368 E0.0915
G1 X4.668 Y-26.674 E0.0915
G1 X6.776 Y-25.547 E0.0915
G1 X8.624 Y-24.030 E0.0915
G1 X10.141 Y-22.182 E0.0915
G1 X11.268 Y-20.073 E0.0915
G1 X11.962 Y-17.785 E0.0915
G1 X12.197 Y-15.406 E0.0915
G1 X11.962 Y-13.027 E0.0915
G1 X11.268 Y-10.738 E0.0915
G1 X10.141 Y-8.630 E0.0915
G1 X8.624 Y-6.782 E0.0915
G1 X6.776 Y-5.265 E0.0915
G1 X4.668 Y-4.138 E0.0915
G1 X2.379 Y-3.444 E0.0915
G1 X0.000 Y-3.209 E0.0914
; feature outer perimeter
G1 X0.000 Y-2.747 F9000
G1 X-2.479 Y-2.993 E0.0953 F1200
G1 X-4.844 Y-3.711 E0.0946
G1 X-7.033 Y-4.880 E0.0949
G1 X-8.951 Y-6.455 E0.0949
G1 X-10.526 Y-8.373 E0.0949
G1 X-11.695 Y-10.562 E0.0949
G1 X-12.416 Y-12.936 E0.0949
G1 X-12.659 Y-15.406 E0.0949
G1 X-12.416 Y-17.876 E0.0949
G1 X-11.695 Y-20.250 E0.0949
G1 X-10.526 Y-22.439 E0.0949
G1 X-8.951 Y-24.357 E0.0949
G1 X-7.033 Y-25.931 E0.0949
G1 X-4.844 Y-27.101 E0.0949
G1 X-2.470 Y-27.822 E0.0949
G1 X0.000 Y-28.065 E0.0949
G1 X2.470 Y-27.822 E0.0949
G1 X4.844 Y-27.101 E0.0949
G1 X7.033 Y-25.931 E0.0949
G1 X8.951 Y-24.357 E0.0949
G1 X10.526 Y-22.439 E0.0949
G1 X11.695 Y-20.250 E0.0949
G1 X12.416 Y-17.876 E0.0949
G1 X12.659 Y-15.406 E0.0949
G1 X12.416 Y-12.936 E0.0949
G1 X11.695 Y-10.562 E0.0949
G1 X10.526 Y-8.373 E0.0949
G1 X8.951 Y-6.455 E0.0949
G1 X7.033 Y-4.880 E0.0949
G1 X4.844 Y-3.711 E0.0949
G1 X2.470 Y-2.990 E0.0949
G1 X0.000 Y-2.747 E0.0949
G1 E-1.9000 F1200
; feature solid layer
G1 Z0.700 F1200
G1 X-8.615 Y-7.314 F9000
G1 Z0.200 F1200
G1 E1.9000 F1200
G1 X-8.092 Y-6.791 E0.0283 F2400
G1 X-6.584 Y-5.553 E0.0746
G1 X-5.767 Y-5.116 E0.0354
G1 X-10.289 Y-9.639 E0.2446
G1 X-10.948 Y-10.871 E0.0534
G1 X-10.982 Y-10.982 E0.0044
G1 X-4.424 Y-4.424 E0.3547
G1 X-3.491 Y-4.141 E0.0373
G1 X-11.265 Y-11.915 E0.4205
G1 X-11.548 Y-12.849 E0.0373
G1 X-2.557 Y-3.858 E0.4864
G1 X-2.321 Y-3.786 E0.0094
G1 X-1.781 Y-3.733 E0.0207
G1 X-11.675 Y-13.626 E0.5352
G1 X-11.746 Y-14.348 E0.0277
G1 X-1.059 Y-3.661 E0.5781
G1 X-0.337 Y-3.589 E0.0278
G1 X-11.817 Y-15.070 E0.6210
G1 X-11.850 Y-15.406 E0.0129
G1 X-11.819 Y-15.722 E0.0122
G1 X0.316 Y-3.587 E0.6564
G1 X0.908 Y-3.645 E0.0228
G1 X-11.761 Y-16.314 E0.6853
G1 X-11.702 Y-16.907 E0.0228
G1 X1.501 Y-3.704 E0.7142
G1 X2.093 Y-3.762 E0.0228
G1 X-11.644 Y-17.499 E0.7431
G1 X-11.622 Y-17.718 E0.0084
G1 X-11.527 Y-18.032 E0.0126
G1 X2.626 Y-3.879 E0.7656
G1 X3.126 Y-4.030 E0.0200
G1 X-11.376 Y-18.531 E0.7844
G1 X-11.224 Y-19.031 E0.0200
G1 X3.625 Y-4.182 E0.8032
G1 X4.124 Y-4.333 E0.0200
G1 X-11.073 Y-19.530 E0.8220
G1 X-10.948 Y-19.941 E0.0164
G1 X-10.908 Y-20.016 E0.0032
G1 X4.610 Y-4.498 E0.8394
G1 X5.034 Y-4.724 E0.0184
G1 X-10.681 Y-20.440 E0.8501
G1 X-10.455 Y-20.863 E0.0184
G1 X5.458 Y-4.951 E0.8607
G1 X5.881 Y-5.178 E0.0184
G1 X-10.228 Y-21.287 E0.8714
G1 X-10.002 Y-21.711 E0.0184
G1 X6.305 Y-5.404 E0.8821
G1 X6.584 Y-5.553 E0.0121
G1 X6.706 Y-5.654 E0.0061
G1 X-9.752 Y-22.112 E0.8903
G1 X-9.459 Y-22.470 E0.0177
G1 X7.064 Y-5.947 E0.8938
G1 X7.421 Y-6.240 E0.0177
G1 X-9.166 Y-22.827 E0.8972
G1 X-8.872 Y-23.184 E0.0177
G1 X7.778 Y-6.533 E0.9007
G1 X8.136 Y-6.827 E0.0177
G1 X-8.579 Y-23.542 E0.9041
G1 X-8.379 Y-23.785 E0.0121
G1 X-8.266 Y-23.879 E0.0056
G1 X8.473 Y-7.140 E0.9054
G1 X8.766 Y-7.498 E0.0177
G1 X-7.908 Y-24.172 E0.9019
G1 X-7.551 Y-24.465 E0.0177
G1 X9.059 Y-7.855 E0.8985
G1 X9.352 Y-8.212 E0.0177
G1 X-7.194 Y-24.758 E0.8950
G1 X-6.836 Y-25.051 E0.0177
G1 X9.646 Y-8.570 E0.8915
G1 X9.853 Y-8.822 E0.0125
G1 X9.919 Y-8.946 E0.0054
G1 X-6.460 Y-25.325 E0.8860
G1 X-6.036 Y-25.552 E0.0184
G1 X10.146 Y-9.370 E0.8753
G1 X10.372 Y-9.794 E0.0184
G1 X-5.612 Y-25.778 E0.8646
G1 X-5.188 Y-26.005 E0.0184
G1 X10.599 Y-10.218 E0.8539
G1 X10.826 Y-10.642 E0.0184
G1 X-4.764 Y-26.232 E0.8433
G1 X-4.535 Y-26.354 E0.0099
G1 X-4.305 Y-26.424 E0.0092
G1 X11.018 Y-11.101 E0.8289
G1 X11.169 Y-11.600 E0.0200
G1 X-3.806 Y-26.575 E0.8100
G1 X-3.307 Y-26.726 E0.0200
G1 X11.320 Y-12.099 E0.7912
G1 X11.472 Y-12.598 E0.0200
G1 X-2.808 Y-26.878 E0.7724
G1 X-2.312 Y-27.028 E0.0198
G1 X11.623 Y-13.098 E0.7537
G1 X11.681 Y-13.690 E0.0228
G1 X-1.716 Y-27.087 E0.7247
G1 X-1.124 Y-27.145 E0.0228
G1 X11.739 Y-14.282 E0.6958
G1 X11.798 Y-14.874 E0.0228
G1 X-0.532 Y-27.204 E0.6669
G1 X0.000 Y-27.256 E0.0204
G1 X0.074 Y-27.249 E0.0028
G1 X11.843 Y-15.480 E0.6366
G1 X11.772 Y-16.201 E0.0277
G1 X0.795 Y-27.178 E0.5937
G1 X1.517 Y-27.107 E0.0277
G1 X11.701 Y-16.923 E0.5509
G1 X11.630 Y-17.645 E0.0277
G1 X2.239 Y-27.036 E0.5080
G1 X2.312 Y-27.028 E0.0028
G1 X3.151 Y-26.774 E0.0335
G1 X11.368 Y-18.557 E0.4445
G1 X11.085 Y-19.491 E0.0373
G1 X4.085 Y-26.490 E0.3786
G1 X4.535 Y-26.354 E0.0180
G1 X5.259 Y-25.967 E0.0314
G1 X10.561 Y-20.665 E0.2868
G1 X9.853 Y-21.989 E0.0575
G1 X9.698 Y-22.179 E0.0094
G1 X6.773 Y-25.104 E0.1582
G1 E-1.9000 F1200
; feature inner perimeter
G1 Z0.700 F1200
G1 X28.424 Y-3.446 F9000
G1 Z0.200 F1200
G1 E1.9000 F1200
G1 X26.144 Y-4.138 E0.0911 F1800
G1 X24.036 Y-5.265 E0.0915
G1 X22.187 Y-6.782 E0.0915
G1 X20.671 Y-8.630 E0.0915
G1 X19.544 Y-10.738 E0.0915
G1 X18.849 Y-13.027 E0.0915
G1 X18.615 Y-15.406 E0.0915
G1 X18.849 Y-17.785 E0.0915
G1 X19.544 Y-20.073 E0.0915
G1 X20.671 Y-22.182 E0.0915
G1 X22.187 Y-24.030 E0.0915
G1 X24.036 Y-25.547 E0.0915
G1 X26.144 Y-26.674 E0.0914
G1 X28.432 Y-27.368 E0.0915
G1 X30.812 Y-27.603 E0.0915
G1 X33.191 Y-27.368 E0.0915
G1 X35.479 Y-26.674 E0.0915
G1 X37.588 Y-25.547 E0.0915
G1 X39.436 Y-24.030 E0.0915
G1 X40.953 Y-22.182 E0.0915
G1 X42.080 Y-20.073 E0.0915
G1 X42.774 Y-17.785 E0.0915
G1 X43.009 Y-15.406 E0.0915
G1 X42.774 Y-13.027 E0.0915
G1 X42.080 Y-10.738 E0.0915
G1 X40.953 Y-8.630 E0.0914
G1 X39.436 Y-6.782 E0.0915
G1 X37.588 Y-5.265 E0.0915
G1 X35.479 Y-4.138 E0.0915
G1 X33.191 Y-3.444 E0.0915
G1 X30.812 Y-3.209 E0.0914
G1 X28.424 Y-3.446 E0.0918
; feature outer perimeter
G1 X28.333 Y-2.993 F9000
G1 X25.967 Y-3.711 E0.0946 F1200
G1 X23.779 Y-4.880 E0.0949
G1 X21.861 Y-6.455 E0.0949
G1 X20.286 Y-8.373 E0.0949
G1 X19.117 Y-10.562 E0.0949
G1 X18.396 Y-12.936 E0.0949
G1 X18.153 Y-15.406 E0.0949
G1 X18.396 Y-17.876 E0.0949
G1 X19.116 Y-20.250 E0.0949
G1 X20.286 Y-22.439 E0.0949
G1 X21.861 Y-24.357 E0.0949
G1 X23.779 Y-25.931 E0.0949
G1 X25.967 Y-27.101 E0.0949
G1 X28.342 Y-27.822 E0.0949
G1 X30.812 Y-28.065 E0.0949
G1 X33.281 Y-27.822 E0.0949
G1 X35.656 Y-27.101 E0.0949
G1 X37.845 Y-25.931 E0.0949
G1 X39.763 Y-24.357 E0.0949
G1 X41.337 Y-22.439 E0.0949
G1 X42.507 Y-20.250 E0.0949
G1 X43.228 Y-17.876 E0.0949
G1 X43.471 Y-15.406 E0.0949
G1 X43.228 Y-12.936 E0.0949
G1 X42.507 Y-10.562 E0.0949
G1 X41.337 Y-8.373 E0.0949
G1 X39.763 Y-6.455 E0.0949
G1 X37.845 Y-4.880 E0.0949
G1 X35.656 Y-3.711 E0.0949
G1 X33.281 Y-2.990 E0.0949
G1 X30.812 Y-2.747 E0.0949
G1 X28.333 Y-2.993 E0.0953
; feature solid layer
G1 X24.537 Y-5.388 F9000
G1 X20.794 Y-9.131 E0.2024 F2400
G1 X20.047 Y-10.528 E0.0606
G1 X25.934 Y-4.641 E0.3184
G1 X26.277 Y-4.458 E0.0149
G1 X26.982 Y-4.244 E0.0282
G1 X19.650 Y-11.576 E0.3966
G1 X19.367 Y-12.510 E0.0373
G1 X27.916 Y-3.961 E0.4624
G1 X28.491 Y-3.786 E0.0230
G1 X28.768 Y-3.759 E0.0106
G1 X19.163 Y-13.364 E0.5196
G1 X19.092 Y-14.086 E0.0277
G1 X29.490 Y-3.687 E0.5625
G1 X30.213 Y-3.615 E0.0278
G1 X19.021 Y-14.807 E0.6054
G1 X18.962 Y-15.406 E0.0230
G1 X18.972 Y-15.507 E0.0039
G1 X30.913 Y-3.566 E0.6459
G1 X31.505 Y-3.624 E0.0228
G1 X19.030 Y-16.099 E0.6748
G1 X19.088 Y-16.691 E0.0228
G1 X32.097 Y-3.682 E0.7037
G1 X32.689 Y-3.741 E0.0228
G1 X19.147 Y-17.283 E0.7326
G1 X19.189 Y-17.718 E0.0167
G1 X19.230 Y-17.851 E0.0053
G1 X33.257 Y-3.824 E0.7588
G1 X33.756 Y-3.975 E0.0200
G1 X19.381 Y-18.350 E0.7776
G1 X19.533 Y-18.849 E0.0200
G1 X34.255 Y-4.127 E0.7964
G1 X34.754 Y-4.278 E0.0200
G1 X19.684 Y-19.348 E0.8152
G1 X19.835 Y-19.847 E0.0200
G1 X35.253 Y-4.430 E0.8340
G1 X35.347 Y-4.458 E0.0037
G1 X35.691 Y-4.642 E0.0149
G1 X20.048 Y-20.285 E0.8462
G1 X20.275 Y-20.709 E0.0184
G1 X36.115 Y-4.869 E0.8569
G1 X36.539 Y-5.095 E0.0184
G1 X20.501 Y-21.133 E0.8675
G1 X20.728 Y-21.557 E0.0184
G1 X36.963 Y-5.322 E0.8782
G1 X37.387 Y-5.548 E0.0184
