; G-Code generated by Simplify3D(R) Version 4.1.2
; Apr 2, 2020 at 1:23:05 PM
; Settings Summary
;   processName,Process1
;   applyToModels,PenSignBracket,PenSignBracket(2)
;   profileName,MakerBot Replicator 2 HBP (modified)
;   profileVersion,2020-03-12 10:48:50
;   baseProfile,MakerBot Replicator 2(2)
;   printMaterial,PLA
;   printQuality,Medium
;   printExtruders,
;   extruderName,Primary Extruder
;   extruderToolheadNumber,0
;   extruderDiameter,0.4
;   extruderAutoWidth,0
;   extruderWidth,0.4
;   extrusionMultiplier,1
;   extruderUseRetract,1
;   extruderRetractionDistance,1.9
;   extruderExtraRestartDistance,0
;   extruderRetractionZLift,0.5
;   extruderRetractionSpeed,1200
;   extruderUseCoasting,0
;   extruderCoastingDistance,0.2
;   extruderUseWipe,0
;   extruderWipeDistance,5
;   primaryExtruder,0
;   layerHeight,0.2
;   topSolidLayers,3
;   bottomSolidLayers,3
;   perimeterOutlines,2
;   printPerimetersInsideOut,1
;   startPointOption,3
;   startPointOriginX,0
;   startPointOriginY,150
;   sequentialIslands,0
;   spiralVaseMode,0
;   firstLayerHeightPercentage,100
;   firstLayerWidthPercentage,115
;   firstLayerUnderspeed,0.5
;   useRaft,0
;   raftExtruder,0
;   raftTopLayers,2
;   raftBaseLayers,1
;   raftOffset,1
;   raftSeparationDistance,0.14
;   raftTopInfill,90
;   aboveRaftSpeedMultiplier,0.3
;   useSkirt,0
;   skirtExtruder,0
;   skirtLayers,1
;   skirtOutlines,5
;   skirtOffset,0
;   usePrimePillar,0
;   primePillarExtruder,999
;   primePillarWidth,12
;   primePillarLocation,7
;   primePillarSpeedMultiplier,1
;   useOozeShield,0
;   oozeShieldExtruder,999
;   oozeShieldOffset,2
;   oozeShieldOutlines,1
;   oozeShieldSidewallShape,1
;   oozeShieldSidewallAngle,30
;   oozeShieldSpeedMultiplier,1
;   infillExtruder,0
;   internalInfillPattern,Rectilinear
;   externalInfillPattern,Rectilinear
;   infillPercentage,15
;   outlineOverlapPercentage,25
;   infillExtrusionWidthPercentage,100
;   minInfillLength,5
;   infillLayerInterval,1
;   internalInfillAngles,45,-45
;   overlapInternalInfillAngles,0
;   externalInfillAngles,45,-45
;   generateSupport,0
;   supportExtruder,0
;   supportInfillPercentage,30
;   supportExtraInflation,0.5
;   supportBaseLayers,0
;   denseSupportExtruder,0
;   denseSupportLayers,2
;   denseSupportInfillPercentage,90
;   supportLayerInterval,1
;   supportHorizontalPartOffset,0.3
;   supportUpperSeparationLayers,1
;   supportLowerSeparationLayers,1
;   supportType,1
;   supportGridSpacing,2
;   maxOverhangAngle,45
;   supportAngles,45,-45
;   temperatureName,Primary Extruder,Heated Build Platform
;   temperatureNumber,0,0
;   temperatureSetpointCount,1,1
;   temperatureSetpointLayers,1,1
;   temperatureSetpointTemperatures,230,60
;   temperatureStabilizeAtStartup,1,1
;   temperatureHeatedBed,0,1
;   fanLayers,1,2
;   fanSpeeds,0,100
;   blipFanToFullPower,1
;   adjustSpeedForCooling,1
;   minSpeedLayerTime,15
;   minCoolingSpeedSlowdown,20
;   increaseFanForCooling,1
;   minFanLayerTime,45
;   maxCoolingFanSpeed,100
;   increaseFanForBridging,1
;   bridgingFanSpeed,100
;   use5D,1
;   relativeEdistances,1
;   allowEaxisZeroing,0
;   independentExtruderAxes,1
;   includeM10123,0
;   stickySupport,1
;   applyToolheadOffsets,0
;   gcodeXoffset,0
;   gcodeYoffset,0
;   gcodeZoffset,0
;   overrideMachineDefinition,1
;   machineTypeOverride,0
;   strokeXoverride,280
;   strokeYoverride,150
;   strokeZoverride,150
;   originOffsetXoverride,140
;   originOffsetYoverride,75
;   originOffsetZoverride,0
;   homeXdirOverride,1
;   homeYdirOverride,1
;   homeZdirOverride,-1
;   flipXoverride,1
;   flipYoverride,-1
;   flipZoverride,1
;   toolheadOffsets,0,0|0,0|0,0|0,0|0,0|0,0
;   overrideFirmwareConfiguration,1
;   firmwareTypeOverride,MakerBot/Sailfish Firmware
;   GPXconfigOverride,r2h
;   baudRateOverride,115200
;   overridePrinterModels,1
;   printerModelsOverride,MakerBot_Replicator2.stl
;   startingGcode,; **** Replicator 2 start.gcode ****,M73 P0 ; enable build progress,G162 X Y F3000 ; home XY maximum,G161 Z F1200 ; home Z minimum,G92 Z-5 ; set Z to -5,G1 Z0 ; move Z to 0,G161 Z F100 ; home Z slowly,M132 X Y Z A B ; recall home offsets,G1 X-145 Y-75 Z30 F9000 ; move to wait position off table,G130 X20 Y20 Z20 A20 B20 ; lower stepper Vrefs while heating,M126 S[fan_speed_pwm],M140 S[bed0_temperature] T0,M134 T0 ; stabilize bed temperature,M104 S[extruder0_temperature] T0,M133 T0 ; stabilize extruder temperature,G130 X127 Y127 Z40 A127 B127 ; default stepper Vrefs,G92 A0 ; zero extruder,G1 Z0.4 ; position nozzle,G1 E25 F300 ; purge nozzle,G1 X-140 Y-70 Z0.15 F1200 ; slow wipe,G1 X-135 Y-65 Z0.5 F1200 ; lift,G92 A0 ; zero extruder,M73 P1 ;@body (notify GPX body has started),; **** end of start.gcode ****
;   layerChangeGcode,
;   retractionGcode,
;   toolChangeGcode,
;   endingGcode,; **** Replicator 2 end.gcode ****,M73 P100 ; end build progress,G1 Z155 F1000 ; send Z axis to bottom of machine,M104 S0 T0 ; cool down extruder,M140 S0 T0 ; cool down HBP,M127 ; stop blower fan,G162 X Y F3000 ; home XY maximum,M18 ; disable stepper,M0 ; stop codes,M72 P1 ; play Ta-Da song,; **** end of end.gcode ****
;   exportFileFormat,gcode
;   celebration,0
;   celebrationSong,Random Song
;   postProcessing,
;   defaultSpeed,4800
;   outlineUnderspeed,0.5
;   solidInfillUnderspeed,1
;   supportUnderspeed,1
;   rapidXYspeed,9000
;   rapidZspeed,1200
;   minBridgingArea,50
;   bridgingExtraInflation,0
;   bridgingExtrusionMultiplier,1
;   bridgingSpeedMultiplier,0.8
;   useFixedBridgingAngle,0
;   fixedBridgingAngle,0
;   applyBridgingToPerimeters,0
;   filamentDiameters,1.75|1.75|1.75|1.75|1.75|1.75
;   filamentPricesPerKg,46|46|46|46|46|46
;   filamentDensities,1.25|1.25|1.25|1.25|1.25|1.25
;   useMinPrintHeight,0
;   minPrintHeight,0
;   useMaxPrintHeight,0
;   maxPrintHeight,4.84
;   useDiaphragm,0
;   diaphragmLayerInterval,20
;   robustSlicing,1
;   mergeAllIntoSolid,0
;   onlyRetractWhenCrossingOutline,0
;   retractBetweenLayers,0
;   useRetractionMinTravel,1
;   retractionMinTravel,7
;   retractWhileWiping,1
;   onlyWipeOutlines,1
;   avoidCrossingOutline,0
;   maxMovementDetourFactor,3
;   toolChangeRetractionDistance,12
;   toolChangeExtraRestartDistance,-0.5
;   toolChangeRetractionSpeed,600
;   externalThinWallType,0
;   internalThinWallType,0
;   thinWallAllowedOverlapPercentage,10
;   singleExtrusionMinLength,1
;   singleExtrusionMinPrintingWidthPercentage,50
;   singleExtrusionMaxPrintingWidthPercentage,200
;   singleExtrusionEndpointExtension,0.2
;   horizontalSizeCompensation,0
G90
M83
; **** Replicator 2 start.gcode ****
M73 P0 ; enable build progress
G162 X Y F3000 ; home XY maximum
G161 Z F1200 ; home Z minimum
G92 Z-5 ; set Z to -5
G1 Z0 ; move Z to 0
G161 Z F100 ; home Z slowly
M132 X Y Z A B ; recall home offsets
G1 X-145 Y-75 Z30 F9000 ; move to wait position off table
G130 X20 Y20 Z20 A20 B20 ; lower stepper Vrefs while heating
M127
M140 S60 T0
M134 T0 ; stabilize bed temperature
M104 S230 T0
M133 T0 ; stabilize extruder temperature
G130 X127 Y127 Z40 A127 B127 ; default stepper Vrefs
G92 A0 ; zero extruder
G1 Z0.4 ; position nozzle
G1 E25 F300 ; purge nozzle
G1 X-140 Y-70 Z0.15 F1200 ; slow wipe
G1 X-135 Y-65 Z0.5 F1200 ; lift
G92 A0 ; zero extruder
M73 P1 ;@body (notify GPX body has started)
; **** end of start.gcode ****
; process Process1
; layer 1, Z = 0.200
M135 T0
G1 E-1.9000 F1200
; feature inner perimeter
; tool H0.200 W0.460
G1 Z0.500 F1200
G1 X10.192 Y33.723 F9000
G1 Z0.200 F1200
G1 E1.9000 F1200
G1 X10.192 Y-21.297 E2.1045 F1800
G1 X15.814 Y-21.297 E0.2150
G1 X15.814 Y33.723 E2.1045
G1 X38.819 Y33.723 E0.8799
G1 X38.819 Y39.423 E0.2180
G1 X-45.549 Y39.423 E3.2270
G1 X-55.547 Y40.883 E0.3865
G1 X-57.811 Y40.883 E0.0866
G1 X-57.811 Y32.263 E0.3297
G1 X-55.547 Y32.263 E0.0866
G1 X-45.549 Y33.723 E0.3865
G1 X10.192 Y33.723 E2.1321
; feature outer perimeter
G1 X9.732 Y33.263 F9000
G1 X9.732 Y-21.757 E2.1045 F1200
G1 X16.274 Y-21.757 E0.2502
G1 X16.274 Y33.263 E2.1045
G1 X39.279 Y33.263 E0.8799
G1 X39.279 Y39.883 E0.2532
G1 X-45.516 Y39.883 E3.2433
G1 X-55.514 Y41.343 E0.3865
G1 X-58.271 Y41.343 E0.1054
G1 X-58.271 Y31.803 E0.3649
G1 X-55.514 Y31.803 E0.1054
G1 X-45.516 Y33.263 E0.3865
G1 X9.732 Y33.263 E2.1132
G1 E-1.9000 F1200
; feature solid layer
G1 Z0.700 F1200
G1 X21.085 Y39.078 F9000
G1 Z0.200 F1200
G1 E1.9000 F1200
G1 X16.075 Y34.068 E0.2710 F2400
G1 X16.725 Y34.068 E0.0249
G1 X21.736 Y39.078 E0.2710
G1 X22.386 Y39.078 E0.0249
G1 X17.376 Y34.068 E0.2710
G1 X18.026 Y34.068 E0.0249
G1 X23.037 Y39.078 E0.2710
G1 X23.687 Y39.078 E0.0249
G1 X18.677 Y34.068 E0.2710
G1 X19.327 Y34.068 E0.0249
G1 X24.338 Y39.078 E0.2710
G1 X24.988 Y39.078 E0.0249
G1 X19.978 Y34.068 E0.2710
G1 X20.628 Y34.068 E0.0249
G1 X25.639 Y39.078 E0.2710
G1 X26.289 Y39.078 E0.0249
G1 X21.279 Y34.068 E0.2710
G1 X21.930 Y34.068 E0.0249
G1 X26.940 Y39.078 E0.2710
G1 X27.590 Y39.078 E0.0249
G1 X22.580 Y34.068 E0.2710
G1 X23.231 Y34.068 E0.0249
G1 X28.241 Y39.078 E0.2710
G1 X28.891 Y39.078 E0.0249
G1 X23.881 Y34.068 E0.2710
G1 X24.532 Y34.068 E0.0249
G1 X29.542 Y39.078 E0.2710
G1 X30.193 Y39.078 E0.0249
G1 X25.182 Y34.068 E0.2710
G1 X25.833 Y34.068 E0.0249
G1 X30.843 Y39.078 E0.2710
G1 X31.494 Y39.078 E0.0249
G1 X26.483 Y34.068 E0.2710
G1 X27.134 Y34.068 E0.0249
G1 X32.144 Y39.078 E0.2710
G1 X32.795 Y39.078 E0.0249
G1 X27.784 Y34.068 E0.2710
G1 X28.435 Y34.068 E0.0249
G1 X33.445 Y39.078 E0.2710
G1 X34.096 Y39.078 E0.0249
G1 X29.085 Y34.068 E0.2710
G1 X29.736 Y34.068 E0.0249
G1 X34.746 Y39.078 E0.2710
G1 X35.397 Y39.078 E0.0249
G1 X30.387 Y34.068 E0.2710
G1 X31.037 Y34.068 E0.0249
G1 X36.047 Y39.078 E0.2710
G1 X36.698 Y39.078 E0.0249
G1 X31.688 Y34.068 E0.2710
G1 X32.338 Y34.068 E0.0249
G1 X37.348 Y39.078 E0.2710
G1 X37.999 Y39.078 E0.0249
G1 X32.989 Y34.068 E0.2710
G1 X33.639 Y34.068 E0.0249
G1 X38.474 Y38.903 E0.2615
G1 X38.474 Y38.252 E0.0249
G1 X34.290 Y34.068 E0.2263
G1 X34.940 Y34.068 E0.0249
G1 X38.474 Y37.602 E0.1912
G1 X38.474 Y36.951 E0.0249
G1 X35.591 Y34.068 E0.1560
G1 X36.241 Y34.068 E0.0249
G1 X38.474 Y36.301 E0.1208
G1 X38.474 Y35.650 E0.0249
G1 X36.892 Y34.068 E0.0856
G1 X37.542 Y34.068 E0.0249
G1 X38.474 Y35.000 E0.0504
G1 X38.474 Y34.349 E0.0249
G1 X38.193 Y34.068 E0.0152
G1 E-1.9000 F1200
G1 Z0.700 F1200
G1 X15.049 Y-20.952 F9000
G1 Z0.200 F1200
G1 E1.9000 F1200
G1 X15.469 Y-20.533 E0.0227 F2400
G1 X15.469 Y-19.882 E0.0249
G1 X14.399 Y-20.952 E0.0579
G1 X13.748 Y-20.952 E0.0249
G1 X15.469 Y-19.232 E0.0931
G1 X15.469 Y-18.581 E0.0249
G1 X13.098 Y-20.952 E0.1283
G1 X12.447 Y-20.952 E0.0249
G1 X15.469 Y-17.931 E0.1634
G1 X15.469 Y-17.280 E0.0249
G1 X11.796 Y-20.952 E0.1986
G1 X11.146 Y-20.952 E0.0249
G1 X15.469 Y-16.630 E0.2338
G1 X15.469 Y-15.979 E0.0249
G1 X10.537 Y-20.910 E0.2667
G1 X10.537 Y-20.260 E0.0249
G1 X15.469 Y-15.328 E0.2667
G1 X15.469 Y-14.678 E0.0249
G1 X10.537 Y-19.609 E0.2667
G1 X10.537 Y-18.959 E0.0249
G1 X15.469 Y-14.027 E0.2667
G1 X15.469 Y-13.377 E0.0249
G1 X10.537 Y-18.308 E0.2667
G1 X10.537 Y-17.658 E0.0249
G1 X15.469 Y-12.726 E0.2667
G1 X15.469 Y-12.076 E0.0249
G1 X10.537 Y-17.007 E0.2667
G1 X10.537 Y-16.357 E0.0249
G1 X15.469 Y-11.425 E0.2667
G1 X15.469 Y-10.775 E0.0249
G1 X10.537 Y-15.706 E0.2667
G1 X10.537 Y-15.055 E0.0249
G1 X15.469 Y-10.124 E0.2667
G1 X15.469 Y-9.474 E0.0249
G1 X10.537 Y-14.405 E0.2667
G1 X10.537 Y-13.754 E0.0249
G1 X15.469 Y-8.823 E0.2667
G1 X15.469 Y-8.173 E0.0249
G1 X10.537 Y-13.104 E0.2667
G1 X10.537 Y-12.453 E0.0249
G1 X15.469 Y-7.522 E0.2667
G1 X15.469 Y-6.871 E0.0249
G1 X10.537 Y-11.803 E0.2667
G1 X10.537 Y-11.152 E0.0249
G1 X15.469 Y-6.221 E0.2667
G1 X15.469 Y-5.570 E0.0249
G1 X10.537 Y-10.502 E0.2667
G1 X10.537 Y-9.851 E0.0249
G1 X15.469 Y-4.920 E0.2667
G1 X15.469 Y-4.269 E0.0249
G1 X10.537 Y-9.201 E0.2667
G1 X10.537 Y-8.550 E0.0249
G1 X15.469 Y-3.619 E0.2667
G1 X15.469 Y-2.968 E0.0249
G1 X10.537 Y-7.900 E0.2667
G1 X10.537 Y-7.249 E0.0249
G1 X15.469 Y-2.318 E0.2667
G1 X15.469 Y-1.667 E0.0249
G1 X10.537 Y-6.598 E0.2667
G1 X10.537 Y-5.948 E0.0249
G1 X15.469 Y-1.017 E0.2667
G1 X15.469 Y-0.366 E0.0249
G1 X10.537 Y-5.297 E0.2667
G1 X10.537 Y-4.647 E0.0249
G1 X15.469 Y0.284 E0.2667
G1 X15.469 Y0.935 E0.0249
G1 X10.537 Y-3.996 E0.2667
G1 X10.537 Y-3.346 E0.0249
G1 X15.469 Y1.586 E0.2667
G1 X15.469 Y2.236 E0.0249
G1 X10.537 Y-2.695 E0.2667
G1 X10.537 Y-2.045 E0.0249
G1 X15.469 Y2.887 E0.2667
G1 X15.469 Y3.537 E0.0249
G1 X10.537 Y-1.394 E0.2667
G1 X10.537 Y-0.744 E0.0249
G1 X15.469 Y4.188 E0.2667
G1 X15.469 Y4.838 E0.0249
G1 X10.537 Y-0.093 E0.2667
G1 X10.537 Y0.557 E0.0249
G1 X15.469 Y5.489 E0.2667
G1 X15.469 Y6.139 E0.0249
G1 X10.537 Y1.208 E0.2667
G1 X10.537 Y1.859 E0.0249
G1 X15.469 Y6.790 E0.2667
G1 X15.469 Y7.440 E0.0249
G1 X10.537 Y2.509 E0.2667
G1 X10.537 Y3.160 E0.0249
G1 X15.469 Y8.091 E0.2667
G1 X15.469 Y8.741 E0.0249
G1 X10.537 Y3.810 E0.2667
G1 X10.537 Y4.461 E0.0249
G1 X15.469 Y9.392 E0.2667
G1 X15.469 Y10.043 E0.0249
G1 X10.537 Y5.111 E0.2667
G1 X10.537 Y5.762 E0.0249
G1 X15.469 Y10.693 E0.2667
G1 X15.469 Y11.344 E0.0249
G1 X10.537 Y6.412 E0.2667
G1 X10.537 Y7.063 E0.0249
G1 X15.469 Y11.994 E0.2667
G1 X15.469 Y12.645 E0.0249
G1 X10.537 Y7.713 E0.2667
G1 X10.537 Y8.364 E0.0249
G1 X15.469 Y13.295 E0.2667
G1 X15.469 Y13.946 E0.0249
G1 X10.537 Y9.014 E0.2667
G1 X10.537 Y9.665 E0.0249
G1 X15.469 Y14.596 E0.2667
G1 X15.469 Y15.247 E0.0249
G1 X10.537 Y10.316 E0.2667
G1 X10.537 Y10.966 E0.0249
G1 X15.469 Y15.897 E0.2667
G1 X15.469 Y16.548 E0.0249
G1 X10.537 Y11.617 E0.2667
G1 X10.537 Y12.267 E0.0249
G1 X15.469 Y17.198 E0.2667
G1 X15.469 Y17.849 E0.0249
G1 X10.537 Y12.918 E0.2667
G1 X10.537 Y13.568 E0.0249
G1 X15.469 Y18.500 E0.2667
G1 X15.469 Y19.150 E0.0249
G1 X10.537 Y14.219 E0.2667
G1 X10.537 Y14.869 E0.0249
G1 X15.469 Y19.801 E0.2667
G1 X15.469 Y20.451 E0.0249
G1 X10.537 Y15.520 E0.2667
G1 X10.537 Y16.170 E0.0249
G1 X15.469 Y21.102 E0.2667
G1 X15.469 Y21.752 E0.0249
G1 X10.537 Y16.821 E0.2667
G1 X10.537 Y17.471 E0.0249
G1 X15.469 Y22.403 E0.2667
G1 X15.469 Y23.053 E0.0249
G1 X10.537 Y18.122 E0.2667
G1 X10.537 Y18.773 E0.0249
G1 X15.469 Y23.704 E0.2667
G1 X15.469 Y24.354 E0.0249
G1 X10.537 Y19.423 E0.2667
G1 X10.537 Y20.074 E0.0249
G1 X15.469 Y25.005 E0.2667
G1 X15.469 Y25.655 E0.0249
G1 X10.537 Y20.724 E0.2667
G1 X10.537 Y21.375 E0.0249
G1 X15.469 Y26.306 E0.2667
G1 X15.469 Y26.957 E0.0249
G1 X10.537 Y22.025 E0.2667
G1 X10.537 Y22.676 E0.0249
G1 X15.469 Y27.607 E0.2667
G1 X15.469 Y28.258 E0.0249
G1 X10.537 Y23.326 E0.2667
G1 X10.537 Y23.977 E0.0249
G1 X15.469 Y28.908 E0.2667
G1 X15.469 Y29.559 E0.0249
G1 X10.537 Y24.627 E0.2667
G1 X10.537 Y25.278 E0.0249
G1 X15.469 Y30.209 E0.2667
G1 X15.469 Y30.860 E0.0249
G1 X10.537 Y25.928 E0.2667
G1 X10.537 Y26.579 E0.0249
G1 X15.469 Y31.510 E0.2667
G1 X15.469 Y32.161 E0.0249
G1 X10.537 Y27.230 E0.2667
G1 X10.537 Y27.880 E0.0249
G1 X15.469 Y32.811 E0.2667
G1 X15.469 Y33.462 E0.0249
G1 X10.537 Y28.531 E0.2667
G1 X10.537 Y29.181 E0.0249
G1 X20.434 Y39.078 E0.5354
G1 X19.784 Y39.078 E0.0249
G1 X10.537 Y29.832 E0.5002
G1 X10.537 Y30.482 E0.0249
G1 X19.133 Y39.078 E0.4650
G1 X18.483 Y39.078 E0.0249
G1 X10.537 Y31.133 E0.4298
G1 X10.537 Y31.783 E0.0249
G1 X17.832 Y39.078 E0.3946
G1 X17.182 Y39.078 E0.0249
G1 X10.537 Y32.434 E0.3594
G1 X10.537 Y33.084 E0.0249
G1 X16.531 Y39.078 E0.3242
G1 X15.881 Y39.078 E0.0249
G1 X10.537 Y33.735 E0.2890
G1 X10.537 Y34.068 E0.0127
G1 X10.220 Y34.068 E0.0121
G1 X15.230 Y39.078 E0.2710
G1 X14.580 Y39.078 E0.0249
G1 X9.569 Y34.068 E0.2710
G1 X8.919 Y34.068 E0.0249
G1 X13.929 Y39.078 E0.2710
G1 X13.279 Y39.078 E0.0249
G1 X8.268 Y34.068 E0.2710
G1 X7.618 Y34.068 E0.0249
G1 X12.628 Y39.078 E0.2710
G1 X11.977 Y39.078 E0.0249
G1 X6.967 Y34.068 E0.2710
G1 X6.317 Y34.068 E0.0249
G1 X11.327 Y39.078 E0.2710
G1 X10.676 Y39.078 E0.0249
G1 X5.666 Y34.068 E0.2710
G1 X5.016 Y34.068 E0.0249
G1 X10.026 Y39.078 E0.2710
G1 X9.375 Y39.078 E0.0249
G1 X4.365 Y34.068 E0.2710
G1 X3.714 Y34.068 E0.0249
G1 X8.725 Y39.078 E0.2710
G1 X8.074 Y39.078 E0.0249
G1 X3.064 Y34.068 E0.2710
G1 X2.413 Y34.068 E0.0249
G1 X7.424 Y39.078 E0.2710
G1 X6.773 Y39.078 E0.0249
