; G-Code generated by Simplify3D(R) Version 4.1.2
; Apr 2, 2020 at 2:12:56 PM
; Settings Summary
;   processName,Process1
;   applyToModels,ballBlockV2R1,ballBlockV2R1(2)
;   profileName,MakerBot Replicator 2 HBP (modified)
;   profileVersion,2020-03-12 10:48:50
;   baseProfile,MakerBot Replicator 2(2)
;   printMaterial,PLA
;   printQuality,Medium
;   printExtruders,
;   extruderName,Primary Extruder
;   extruderToolheadNumber,0
;   extruderDiameter,0.4
;   extruderAutoWidth,0
;   extruderWidth,0.4
;   extrusionMultiplier,1
;   extruderUseRetract,1
;   extruderRetractionDistance,1.9
;   extruderExtraRestartDistance,0
;   extruderRetractionZLift,0.5
;   extruderRetractionSpeed,1200
;   extruderUseCoasting,0
;   extruderCoastingDistance,0.2
;   extruderUseWipe,0
;   extruderWipeDistance,5
;   primaryExtruder,0
;   layerHeight,0.2
;   topSolidLayers,3
;   bottomSolidLayers,3
;   perimeterOutlines,2
;   printPerimetersInsideOut,1
;   startPointOption,3
;   startPointOriginX,0
;   startPointOriginY,150
;   sequentialIslands,0
;   spiralVaseMode,0
;   firstLayerHeightPercentage,100
;   firstLayerWidthPercentage,115
;   firstLayerUnderspeed,0.5
;   useRaft,0
;   raftExtruder,0
;   raftTopLayers,2
;   raftBaseLayers,1
;   raftOffset,1
;   raftSeparationDistance,0.14
;   raftTopInfill,90
;   aboveRaftSpeedMultiplier,0.3
;   useSkirt,0
;   skirtExtruder,0
;   skirtLayers,1
;   skirtOutlines,5
;   skirtOffset,0
;   usePrimePillar,0
;   primePillarExtruder,999
;   primePillarWidth,12
;   primePillarLocation,7
;   primePillarSpeedMultiplier,1
;   useOozeShield,0
;   oozeShieldExtruder,999
;   oozeShieldOffset,2
;   oozeShieldOutlines,1
;   oozeShieldSidewallShape,1
;   oozeShieldSidewallAngle,30
;   oozeShieldSpeedMultiplier,1
;   infillExtruder,0
;   internalInfillPattern,Rectilinear
;   externalInfillPattern,Rectilinear
;   infillPercentage,15
;   outlineOverlapPercentage,25
;   infillExtrusionWidthPercentage,100
;   minInfillLength,5
;   infillLayerInterval,1
;   internalInfillAngles,45,-45
;   overlapInternalInfillAngles,0
;   externalInfillAngles,45,-45
;   generateSupport,0
;   supportExtruder,0
;   supportInfillPercentage,30
;   supportExtraInflation,0.5
;   supportBaseLayers,0
;   denseSupportExtruder,0
;   denseSupportLayers,2
;   denseSupportInfillPercentage,90
;   supportLayerInterval,1
;   supportHorizontalPartOffset,0.3
;   supportUpperSeparationLayers,1
;   supportLowerSeparationLayers,1
;   supportType,1
;   supportGridSpacing,2
;   maxOverhangAngle,45
;   supportAngles,45,-45
;   temperatureName,Primary Extruder,Heated Build Platform
;   temperatureNumber,0,0
;   temperatureSetpointCount,1,1
;   temperatureSetpointLayers,1,1
;   temperatureSetpointTemperatures,230,60
;   temperatureStabilizeAtStartup,1,1
;   temperatureHeatedBed,0,1
;   fanLayers,1,2
;   fanSpeeds,0,100
;   blipFanToFullPower,1
;   adjustSpeedForCooling,1
;   minSpeedLayerTime,15
;   minCoolingSpeedSlowdown,20
;   increaseFanForCooling,1
;   minFanLayerTime,45
;   maxCoolingFanSpeed,100
;   increaseFanForBridging,1
;   bridgingFanSpeed,100
;   use5D,1
;   relativeEdistances,1
;   allowEaxisZeroing,0
;   independentExtruderAxes,1
;   includeM10123,0
;   stickySupport,1
;   applyToolheadOffsets,0
;   gcodeXoffset,0
;   gcodeYoffset,0
;   gcodeZoffset,0
;   overrideMachineDefinition,1
;   machineTypeOverride,0
;   strokeXoverride,280
;   strokeYoverride,150
;   strokeZoverride,150
;   originOffsetXoverride,140
;   originOffsetYoverride,75
;   originOffsetZoverride,0
;   homeXdirOverride,1
;   homeYdirOverride,1
;   homeZdirOverride,-1
;   flipXoverride,1
;   flipYoverride,-1
;   flipZoverride,1
;   toolheadOffsets,0,0|0,0|0,0|0,0|0,0|0,0
;   overrideFirmwareConfiguration,1
;   firmwareTypeOverride,MakerBot/Sailfish Firmware
;   GPXconfigOverride,r2h
;   baudRateOverride,115200
;   overridePrinterModels,1
;   printerModelsOverride,MakerBot_Replicator2.stl
;   startingGcode,; **** Replicator 2 start.gcode ****,M73 P0 ; enable build progress,G162 X Y F3000 ; home XY maximum,G161 Z F1200 ; home Z minimum,G92 Z-5 ; set Z to -5,G1 Z0 ; move Z to 0,G161 Z F100 ; home Z slowly,M132 X Y Z A B ; recall home offsets,G1 X-145 Y-75 Z30 F9000 ; move to wait position off table,G130 X20 Y20 Z20 A20 B20 ; lower stepper Vrefs while heating,M126 S[fan_speed_pwm],M140 S[bed0_temperature] T0,M134 T0 ; stabilize bed temperature,M104 S[extruder0_temperature] T0,M133 T0 ; stabilize extruder temperature,G130 X127 Y127 Z40 A127 B127 ; default stepper Vrefs,G92 A0 ; zero extruder,G1 Z0.4 ; position nozzle,G1 E25 F300 ; purge nozzle,G1 X-140 Y-70 Z0.15 F1200 ; slow wipe,G1 X-135 Y-65 Z0.5 F1200 ; lift,G92 A0 ; zero extruder,M73 P1 ;@body (notify GPX body has started),; **** end of start.gcode ****
;   layerChangeGcode,
;   retractionGcode,
;   toolChangeGcode,
;   endingGcode,; **** Replicator 2 end.gcode ****,M73 P100 ; end build progress,G1 Z155 F1000 ; send Z axis to bottom of machine,M104 S0 T0 ; cool down extruder,M140 S0 T0 ; cool down HBP,M127 ; stop blower fan,G162 X Y F3000 ; home XY maximum,M18 ; disable stepper,M0 ; stop codes,M72 P1 ; play Ta-Da song,; **** end of end.gcode ****
;   exportFileFormat,gcode
;   celebration,0
;   celebrationSong,Random Song
;   postProcessing,
;   defaultSpeed,4800
;   outlineUnderspeed,0.5
;   solidInfillUnderspeed,1
;   supportUnderspeed,1
;   rapidXYspeed,9000
;   rapidZspeed,1200
;   minBridgingArea,50
;   bridgingExtraInflation,0
;   bridgingExtrusionMultiplier,1
;   bridgingSpeedMultiplier,0.8
;   useFixedBridgingAngle,0
;   fixedBridgingAngle,0
;   applyBridgingToPerimeters,0
;   filamentDiameters,1.75|1.75|1.75|1.75|1.75|1.75
;   filamentPricesPerKg,46|46|46|46|46|46
;   filamentDensities,1.25|1.25|1.25|1.25|1.25|1.25
;   useMinPrintHeight,0
;   minPrintHeight,0
;   useMaxPrintHeight,0
;   maxPrintHeight,4.84
;   useDiaphragm,0
;   diaphragmLayerInterval,20
;   robustSlicing,1
;   mergeAllIntoSolid,0
;   onlyRetractWhenCrossingOutline,0
;   retractBetweenLayers,0
;   useRetractionMinTravel,1
;   retractionMinTravel,7
;   retractWhileWiping,1
;   onlyWipeOutlines,1
;   avoidCrossingOutline,0
;   maxMovementDetourFactor,3
;   toolChangeRetractionDistance,12
;   toolChangeExtraRestartDistance,-0.5
;   toolChangeRetractionSpeed,600
;   externalThinWallType,0
;   internalThinWallType,0
;   thinWallAllowedOverlapPercentage,10
;   singleExtrusionMinLength,1
;   singleExtrusionMinPrintingWidthPercentage,50
;   singleExtrusionMaxPrintingWidthPercentage,200
;   singleExtrusionEndpointExtension,0.2
;   horizontalSizeCompensation,0
G90
M83
; **** Replicator 2 start.gcode ****
M73 P0 ; enable build progress
G162 X Y F3000 ; home XY maximum
G161 Z F1200 ; home Z minimum
G92 Z-5 ; set Z to -5
G1 Z0 ; move Z to 0
G161 Z F100 ; home Z slowly
M132 X Y Z A B ; recall home offsets
G1 X-145 Y-75 Z30 F9000 ; move to wait position off table
G130 X20 Y20 Z20 A20 B20 ; lower stepper Vrefs while heating
M127
M140 S60 T0
M134 T0 ; stabilize bed temperature
M104 S230 T0
M133 T0 ; stabilize extruder temperature
G130 X127 Y127 Z40 A127 B127 ; default stepper Vrefs
G92 A0 ; zero extruder
G1 Z0.4 ; position nozzle
G1 E25 F300 ; purge nozzle
G1 X-140 Y-70 Z0.15 F1200 ; slow wipe
G1 X-135 Y-65 Z0.5 F1200 ; lift
G92 A0 ; zero extruder
M73 P1 ;@body (notify GPX body has started)
; **** end of start.gcode ****
; process Process1
; layer 1, Z = 0.200
M135 T0
G1 E-1.9000 F1200
; feature inner perimeter
; tool H0.200 W0.460
G1 Z0.500 F1200
G1 X-3.262 Y14.156 F9000
G1 Z0.200 F1200
G1 E1.9000 F1200
G1 X-10.185 Y14.156 E0.2648 F1800
G1 X-10.185 Y-14.156 E1.0829
G1 X-3.262 Y-14.156 E0.2648
G1 X-4.110 Y-5.618 E0.3282
G1 X-4.408 Y-2.013 E0.1384
G1 X-4.609 Y0.000 E0.0774
G1 X-4.408 Y2.013 E0.0774
G1 X-4.110 Y5.618 E0.1384
G1 X-3.262 Y14.156 E0.3282
; feature outer perimeter
G1 X-2.754 Y14.616 F9000
G1 X-10.645 Y14.616 E0.3018 F1200
G1 X-10.645 Y-14.616 E1.1181
G1 X-2.754 Y-14.616 E0.3018
G1 X-3.652 Y-5.577 E0.3474
G1 X-3.950 Y-1.971 E0.1384
G1 X-4.147 Y0.000 E0.0758
G1 X-3.950 Y1.971 E0.0758
G1 X-3.652 Y5.577 E0.1384
G1 X-2.754 Y14.616 E0.3474
G1 E-1.9000 F1200
; feature solid layer
G1 Z0.700 F1200
G1 X-9.840 Y13.580 F9000
G1 Z0.200 F1200
G1 E1.9000 F1200
G1 X-9.609 Y13.811 E0.0125 F2400
G1 X-8.958 Y13.811 E0.0249
G1 X-9.840 Y12.929 E0.0477
G1 X-9.840 Y12.279 E0.0249
G1 X-8.308 Y13.811 E0.0829
G1 X-7.657 Y13.811 E0.0249
G1 X-9.840 Y11.628 E0.1181
G1 X-9.840 Y10.978 E0.0249
G1 X-7.007 Y13.811 E0.1532
G1 X-6.356 Y13.811 E0.0249
G1 X-9.840 Y10.327 E0.1884
G1 X-9.840 Y9.677 E0.0249
G1 X-5.706 Y13.811 E0.2236
G1 X-5.055 Y13.811 E0.0249
G1 X-9.840 Y9.026 E0.2588
G1 X-9.840 Y8.375 E0.0249
G1 X-4.404 Y13.811 E0.2940
G1 X-3.754 Y13.811 E0.0249
G1 X-9.840 Y7.725 E0.3292
G1 X-9.840 Y7.074 E0.0249
G1 X-3.702 Y13.212 E0.3320
G1 X-3.774 Y12.489 E0.0278
G1 X-9.840 Y6.424 E0.3281
G1 X-9.840 Y5.773 E0.0249
G1 X-3.846 Y11.767 E0.3242
G1 X-3.918 Y11.045 E0.0278
G1 X-9.840 Y5.123 E0.3203
G1 X-9.840 Y4.472 E0.0249
G1 X-3.989 Y10.322 E0.3164
G1 X-4.061 Y9.600 E0.0278
G1 X-9.840 Y3.822 E0.3126
G1 X-9.840 Y3.171 E0.0249
G1 X-4.133 Y8.878 E0.3087
G1 X-4.205 Y8.155 E0.0278
G1 X-9.840 Y2.521 E0.3048
G1 X-9.840 Y1.870 E0.0249
G1 X-4.277 Y7.433 E0.3009
G1 X-4.348 Y6.711 E0.0278
G1 X-9.840 Y1.220 E0.2970
G1 X-9.840 Y0.569 E0.0249
G1 X-4.420 Y5.989 E0.2932
G1 X-4.454 Y5.650 E0.0130
G1 X-4.485 Y5.273 E0.0144
G1 X-9.840 Y-0.082 E0.2896
G1 X-9.840 Y-0.732 E0.0249
G1 X-4.544 Y4.564 E0.2865
G1 X-4.602 Y3.855 E0.0272
G1 X-9.840 Y-1.383 E0.2833
G1 X-9.840 Y-2.033 E0.0249
G1 X-4.661 Y3.145 E0.2801
G1 X-4.720 Y2.436 E0.0272
G1 X-9.840 Y-2.684 E0.2770
G1 X-9.840 Y-3.334 E0.0249
G1 X-4.784 Y1.721 E0.2735
G1 X-4.856 Y0.998 E0.0278
G1 X-9.840 Y-3.985 E0.2696
G1 X-9.840 Y-4.635 E0.0249
G1 X-4.928 Y0.276 E0.2657
G1 X-4.956 Y0.000 E0.0106
G1 X-4.920 Y-0.366 E0.0141
G1 X-9.840 Y-5.286 E0.2661
G1 X-9.840 Y-5.936 E0.0249
G1 X-4.860 Y-0.957 E0.2693
G1 X-4.801 Y-1.549 E0.0227
G1 X-9.840 Y-6.587 E0.2725
G1 X-9.840 Y-7.237 E0.0249
G1 X-4.744 Y-2.142 E0.2756
G1 X-4.694 Y-2.743 E0.0231
G1 X-9.840 Y-7.888 E0.2783
G1 X-9.840 Y-8.539 E0.0249
G1 X-4.645 Y-3.344 E0.2810
G1 X-4.595 Y-3.944 E0.0231
G1 X-9.840 Y-9.189 E0.2837
G1 X-9.840 Y-9.840 E0.0249
G1 X-4.545 Y-4.545 E0.2864
G1 X-4.495 Y-5.146 E0.0231
G1 X-9.840 Y-10.490 E0.2891
G1 X-9.840 Y-11.141 E0.0249
G1 X-4.444 Y-5.745 E0.2918
G1 X-4.385 Y-6.337 E0.0227
G1 X-9.840 Y-11.791 E0.2950
G1 X-9.840 Y-12.442 E0.0249
G1 X-4.327 Y-6.929 E0.2982
G1 X-4.268 Y-7.521 E0.0227
G1 X-9.840 Y-13.092 E0.3014
G1 X-9.840 Y-13.743 E0.0249
G1 X-4.209 Y-8.112 E0.3046
G1 X-4.150 Y-8.704 E0.0227
G1 X-9.257 Y-13.811 E0.2762
G1 X-8.606 Y-13.811 E0.0249
G1 X-4.091 Y-9.296 E0.2442
G1 X-4.033 Y-9.888 E0.0227
G1 X-7.956 Y-13.811 E0.2122
G1 X-7.305 Y-13.811 E0.0249
G1 X-3.974 Y-10.479 E0.1802
G1 X-3.915 Y-11.071 E0.0227
G1 X-6.655 Y-13.811 E0.1482
G1 X-6.004 Y-13.811 E0.0249
G1 X-3.856 Y-11.663 E0.1162
G1 X-3.798 Y-12.255 E0.0227
G1 X-5.354 Y-13.811 E0.0842
G1 X-4.703 Y-13.811 E0.0249
G1 X-3.739 Y-12.846 E0.0522
G1 X-3.680 Y-13.438 E0.0227
G1 X-4.053 Y-13.811 E0.0202
G1 E-1.9000 F1200
; feature inner perimeter
G1 Z0.700 F1200
G1 X3.190 Y14.156 F9000
G1 Z0.200 F1200
G1 E1.9000 F1200
G1 X3.190 Y-14.156 E1.0829 F1800
G1 X8.325 Y-14.156 E0.1964
G1 X8.325 Y14.156 E1.0829
G1 X3.190 Y14.156 E0.1964
; feature outer perimeter
G1 X2.730 Y14.616 F9000
G1 X2.730 Y-14.616 E1.1181 F1200
G1 X8.785 Y-14.616 E0.2316
G1 X8.785 Y14.616 E1.1181
G1 X2.730 Y14.616 E0.2316
; feature solid layer
G1 X4.053 Y13.811 F9000
G1 X3.535 Y13.293 E0.0280 F2400
G1 X3.535 Y12.643 E0.0249
G1 X4.703 Y13.811 E0.0632
G1 X5.354 Y13.811 E0.0249
G1 X3.535 Y11.992 E0.0984
G1 X3.535 Y11.341 E0.0249
G1 X6.004 Y13.811 E0.1336
G1 X6.655 Y13.811 E0.0249
G1 X3.535 Y10.691 E0.1688
G1 X3.535 Y10.040 E0.0249
G1 X7.305 Y13.811 E0.2039
G1 X7.956 Y13.811 E0.0249
G1 X3.535 Y9.390 E0.2391
G1 X3.535 Y8.739 E0.0249
G1 X7.980 Y13.184 E0.2404
G1 X7.980 Y12.534 E0.0249
G1 X3.535 Y8.089 E0.2404
G1 X3.535 Y7.438 E0.0249
G1 X7.980 Y11.883 E0.2404
G1 X7.980 Y11.233 E0.0249
G1 X3.535 Y6.788 E0.2404
G1 X3.535 Y6.137 E0.0249
G1 X7.980 Y10.582 E0.2404
G1 X7.980 Y9.932 E0.0249
G1 X3.535 Y5.487 E0.2404
G1 X3.535 Y4.836 E0.0249
G1 X7.980 Y9.281 E0.2404
G1 X7.980 Y8.630 E0.0249
G1 X3.535 Y4.186 E0.2404
G1 X3.535 Y3.535 E0.0249
G1 X7.980 Y7.980 E0.2404
G1 X7.980 Y7.329 E0.0249
G1 X3.535 Y2.884 E0.2404
G1 X3.535 Y2.234 E0.0249
G1 X7.980 Y6.679 E0.2404
G1 X7.980 Y6.028 E0.0249
G1 X3.535 Y1.583 E0.2404
G1 X3.535 Y0.933 E0.0249
G1 X7.980 Y5.378 E0.2404
G1 X7.980 Y4.727 E0.0249
G1 X3.535 Y0.282 E0.2404
G1 X3.535 Y-0.368 E0.0249
G1 X7.980 Y4.077 E0.2404
G1 X7.980 Y3.426 E0.0249
G1 X3.535 Y-1.019 E0.2404
G1 X3.535 Y-1.669 E0.0249
G1 X7.980 Y2.776 E0.2404
G1 X7.980 Y2.125 E0.0249
G1 X3.535 Y-2.320 E0.2404
G1 X3.535 Y-2.970 E0.0249
G1 X7.980 Y1.475 E0.2404
G1 X7.980 Y0.824 E0.0249
G1 X3.535 Y-3.621 E0.2404
G1 X3.535 Y-4.271 E0.0249
G1 X7.980 Y0.173 E0.2404
G1 X7.980 Y-0.477 E0.0249
G1 X3.535 Y-4.922 E0.2404
G1 X3.535 Y-5.573 E0.0249
G1 X7.980 Y-1.128 E0.2404
G1 X7.980 Y-1.778 E0.0249
G1 X3.535 Y-6.223 E0.2404
G1 X3.535 Y-6.874 E0.0249
G1 X7.980 Y-2.429 E0.2404
G1 X7.980 Y-3.079 E0.0249
G1 X3.535 Y-7.524 E0.2404
G1 X3.535 Y-8.175 E0.0249
G1 X7.980 Y-3.730 E0.2404
G1 X7.980 Y-4.380 E0.0249
G1 X3.535 Y-8.825 E0.2404
G1 X3.535 Y-9.476 E0.0249
G1 X7.980 Y-5.031 E0.2404
G1 X7.980 Y-5.681 E0.0249
G1 X3.535 Y-10.126 E0.2404
G1 X3.535 Y-10.777 E0.0249
G1 X7.980 Y-6.332 E0.2404
G1 X7.980 Y-6.982 E0.0249
G1 X3.535 Y-11.427 E0.2404
G1 X3.535 Y-12.078 E0.0249
G1 X7.980 Y-7.633 E0.2404
G1 X7.980 Y-8.283 E0.0249
G1 X3.535 Y-12.728 E0.2404
G1 X3.535 Y-13.379 E0.0249
G1 X7.980 Y-8.934 E0.2404
G1 X7.980 Y-9.585 E0.0249
G1 X3.754 Y-13.811 E0.2286
G1 X4.404 Y-13.811 E0.0249
G1 X7.980 Y-10.235 E0.1934
G1 X7.980 Y-10.886 E0.0249
G1 X5.055 Y-13.811 E0.1582
G1 X5.706 Y-13.811 E0.0249
G1 X7.980 Y-11.536 E0.1230
G1 X7.980 Y-12.187 E0.0249
G1 X6.356 Y-13.811 E0.0878
G1 X7.007 Y-13.811 E0.0249
G1 X7.980 Y-12.837 E0.0527
G1 X7.980 Y-13.488 E0.0249
G1 X7.657 Y-13.811 E0.0175
G1 E-1.9000 F1200
; feature inner perimeter
G1 Z0.700 F1200
G1 X16.570 Y14.156 F9000
G1 Z0.200 F1200
G1 E1.9000 F1200
G1 X16.570 Y-14.156 E1.0829 F1800
G1 X23.493 Y-14.156 E0.2648
G1 X22.645 Y-5.618 E0.3282
G1 X22.347 Y-2.013 E0.1384
G1 X22.146 Y0.000 E0.0774
G1 X22.347 Y2.013 E0.0774
G1 X22.645 Y5.618 E0.1384
G1 X23.493 Y14.156 E0.3282
G1 X16.570 Y14.156 E0.2648
; feature outer perimeter
G1 X16.110 Y14.616 F9000
G1 X16.110 Y-14.616 E1.1181 F1200
G1 X24.001 Y-14.616 E0.3018
G1 X23.103 Y-5.577 E0.3474
G1 X22.805 Y-1.971 E0.1384
G1 X22.608 Y0.000 E0.0758
G1 X22.805 Y1.971 E0.0758
G1 X23.103 Y5.577 E0.1384
G1 X24.001 Y14.616 E0.3474
G1 X16.110 Y14.616 E0.3018
; feature solid layer
G1 X16.915 Y13.663 F9000
G1 X17.063 Y13.811 E0.0080 F2400
G1 X17.714 Y13.811 E0.0249
G1 X16.915 Y13.012 E0.0432
G1 X16.915 Y12.362 E0.0249
G1 X18.364 Y13.811 E0.0784
G1 X19.015 Y13.811 E0.0249
G1 X16.915 Y11.711 E0.1136
G1 X16.915 Y11.061 E0.0249
G1 X19.665 Y13.811 E0.1488
G1 X20.316 Y13.811 E0.0249
G1 X16.915 Y10.410 E0.1839
G1 X16.915 Y9.760 E0.0249
G1 X20.967 Y13.811 E0.2191
G1 X21.617 Y13.811 E0.0249
G1 X16.915 Y9.109 E0.2543
G1 X16.915 Y8.458 E0.0249
G1 X22.268 Y13.811 E0.2895
G1 X22.918 Y13.811 E0.0249
G1 X16.915 Y7.808 E0.3247
G1 X16.915 Y7.157 E0.0249
G1 X23.062 Y13.304 E0.3325
G1 X22.990 Y12.581 E0.0278
G1 X16.915 Y6.507 E0.3286
G1 X16.915 Y5.856 E0.0249
G1 X22.918 Y11.859 E0.3247
G1 X22.846 Y11.137 E0.0278
G1 X16.915 Y5.206 E0.3208
G1 X16.915 Y4.555 E0.0249
G1 X22.775 Y10.414 E0.3169
G1 X22.703 Y9.692 E0.0278
G1 X16.915 Y3.905 E0.3131
G1 X16.915 Y3.254 E0.0249
G1 X22.631 Y8.970 E0.3092
G1 X22.559 Y8.248 E0.0278
G1 X16.915 Y2.604 E0.3053
G1 X16.915 Y1.953 E0.0249
G1 X22.488 Y7.525 E0.3014
G1 X22.416 Y6.803 E0.0278
G1 X16.915 Y1.303 E0.2975
G1 X16.915 Y0.652 E0.0249
G1 X22.344 Y6.081 E0.2937
G1 X22.301 Y5.650 E0.0166
G1 X22.278 Y5.364 E0.0110
G1 X16.915 Y0.001 E0.2901
G1 X16.915 Y-0.649 E0.0249
G1 X22.219 Y4.654 E0.2869
G1 X22.160 Y3.945 E0.0272
G1 X16.915 Y-1.300 E0.2837
G1 X16.915 Y-1.950 E0.0249
G1 X22.102 Y3.236 E0.2805
