; G-Code generated by Simplify3D(R) Version 4.1.2
; Apr 2, 2020 at 2:13:10 PM
; Settings Summary
;   processName,Process1
;   applyToModels,ballBlockV2R1,ballBlockV2R1(2),ballBlockV2R1(3),ballBlockV2R1(2)(2)
;   profileName,MakerBot Replicator 2 HBP (modified)
;   profileVersion,2020-03-12 10:48:50
;   baseProfile,MakerBot Replicator 2(2)
;   printMaterial,PLA
;   printQuality,Medium
;   printExtruders,
;   extruderName,Primary Extruder
;   extruderToolheadNumber,0
;   extruderDiameter,0.4
;   extruderAutoWidth,0
;   extruderWidth,0.4
;   extrusionMultiplier,1
;   extruderUseRetract,1
;   extruderRetractionDistance,1.9
;   extruderExtraRestartDistance,0
;   extruderRetractionZLift,0.5
;   extruderRetractionSpeed,1200
;   extruderUseCoasting,0
;   extruderCoastingDistance,0.2
;   extruderUseWipe,0
;   extruderWipeDistance,5
;   primaryExtruder,0
;   layerHeight,0.2
;   topSolidLayers,3
;   bottomSolidLayers,3
;   perimeterOutlines,2
;   printPerimetersInsideOut,1
;   startPointOption,3
;   startPointOriginX,0
;   startPointOriginY,150
;   sequentialIslands,0
;   spiralVaseMode,0
;   firstLayerHeightPercentage,100
;   firstLayerWidthPercentage,115
;   firstLayerUnderspeed,0.5
;   useRaft,0
;   raftExtruder,0
;   raftTopLayers,2
;   raftBaseLayers,1
;   raftOffset,1
;   raftSeparationDistance,0.14
;   raftTopInfill,90
;   aboveRaftSpeedMultiplier,0.3
;   useSkirt,0
;   skirtExtruder,0
;   skirtLayers,1
;   skirtOutlines,5
;   skirtOffset,0
;   usePrimePillar,0
;   primePillarExtruder,999
;   primePillarWidth,12
;   primePillarLocation,7
;   primePillarSpeedMultiplier,1
;   useOozeShield,0
;   oozeShieldExtruder,999
;   oozeShieldOffset,2
;   oozeShieldOutlines,1
;   oozeShieldSidewallShape,1
;   oozeShieldSidewallAngle,30
;   oozeShieldSpeedMultiplier,1
;   infillExtruder,0
;   internalInfillPattern,Rectilinear
;   externalInfillPattern,Rectilinear
;   infillPercentage,15
;   outlineOverlapPercentage,25
;   infillExtrusionWidthPercentage,100
;   minInfillLength,5
;   infillLayerInterval,1
;   internalInfillAngles,45,-45
;   overlapInternalInfillAngles,0
;   externalInfillAngles,45,-45
;   generateSupport,0
;   supportExtruder,0
;   supportInfillPercentage,30
;   supportExtraInflation,0.5
;   supportBaseLayers,0
;   denseSupportExtruder,0
;   denseSupportLayers,2
;   denseSupportInfillPercentage,90
;   supportLayerInterval,1
;   supportHorizontalPartOffset,0.3
;   supportUpperSeparationLayers,1
;   supportLowerSeparationLayers,1
;   supportType,1
;   supportGridSpacing,2
;   maxOverhangAngle,45
;   supportAngles,45,-45
;   temperatureName,Primary Extruder,Heated Build Platform
;   temperatureNumber,0,0
;   temperatureSetpointCount,1,1
;   temperatureSetpointLayers,1,1
;   temperatureSetpointTemperatures,230,60
;   temperatureStabilizeAtStartup,1,1
;   temperatureHeatedBed,0,1
;   fanLayers,1,2
;   fanSpeeds,0,100
;   blipFanToFullPower,1
;   adjustSpeedForCooling,1
;   minSpeedLayerTime,15
;   minCoolingSpeedSlowdown,20
;   increaseFanForCooling,1
;   minFanLayerTime,45
;   maxCoolingFanSpeed,100
;   increaseFanForBridging,1
;   bridgingFanSpeed,100
;   use5D,1
;   relativeEdistances,1
;   allowEaxisZeroing,0
;   independentExtruderAxes,1
;   includeM10123,0
;   stickySupport,1
;   applyToolheadOffsets,0
;   gcodeXoffset,0
;   gcodeYoffset,0
;   gcodeZoffset,0
;   overrideMachineDefinition,1
;   machineTypeOverride,0
;   strokeXoverride,280
;   strokeYoverride,150
;   strokeZoverride,150
;   originOffsetXoverride,140
;   originOffsetYoverride,75
;   originOffsetZoverride,0
;   homeXdirOverride,1
;   homeYdirOverride,1
;   homeZdirOverride,-1
;   flipXoverride,1
;   flipYoverride,-1
;   flipZoverride,1
;   toolheadOffsets,0,0|0,0|0,0|0,0|0,0|0,0
;   overrideFirmwareConfiguration,1
;   firmwareTypeOverride,MakerBot/Sailfish Firmware
;   GPXconfigOverride,r2h
;   baudRateOverride,115200
;   overridePrinterModels,1
;   printerModelsOverride,MakerBot_Replicator2.stl
;   startingGcode,; **** Replicator 2 start.gcode ****,M73 P0 ; enable build progress,G162 X Y F3000 ; home XY maximum,G161 Z F1200 ; home Z minimum,G92 Z-5 ; set Z to -5,G1 Z0 ; move Z to 0,G161 Z F100 ; home Z slowly,M132 X Y Z A B ; recall home offsets,G1 X-145 Y-75 Z30 F9000 ; move to wait position off table,G130 X20 Y20 Z20 A20 B20 ; lower stepper Vrefs while heating,M126 S[fan_speed_pwm],M140 S[bed0_temperature] T0,M134 T0 ; stabilize bed temperature,M104 S[extruder0_temperature] T0,M133 T0 ; stabilize extruder temperature,G130 X127 Y127 Z40 A127 B127 ; default stepper Vrefs,G92 A0 ; zero extruder,G1 Z0.4 ; position nozzle,G1 E25 F300 ; purge nozzle,G1 X-140 Y-70 Z0.15 F1200 ; slow wipe,G1 X-135 Y-65 Z0.5 F1200 ; lift,G92 A0 ; zero extruder,M73 P1 ;@body (notify GPX body has started),; **** end of start.gcode ****
;   layerChangeGcode,
;   retractionGcode,
;   toolChangeGcode,
;   endingGcode,; **** Replicator 2 end.gcode ****,M73 P100 ; end build progress,G1 Z155 F1000 ; send Z axis to bottom of machine,M104 S0 T0 ; cool down extruder,M140 S0 T0 ; cool down HBP,M127 ; stop blower fan,G162 X Y F3000 ; home XY maximum,M18 ; disable stepper,M0 ; stop codes,M72 P1 ; play Ta-Da song,; **** end of end.gcode ****
;   exportFileFormat,gcode
;   celebration,0
;   celebrationSong,Random Song
;   postProcessing,
;   defaultSpeed,4800
;   outlineUnderspeed,0.5
;   solidInfillUnderspeed,1
;   supportUnderspeed,1
;   rapidXYspeed,9000
;   rapidZspeed,1200
;   minBridgingArea,50
;   bridgingExtraInflation,0
;   bridgingExtrusionMultiplier,1
;   bridgingSpeedMultiplier,0.8
;   useFixedBridgingAngle,0
;   fixedBridgingAngle,0
;   applyBridgingToPerimeters,0
;   filamentDiameters,1.75|1.75|1.75|1.75|1.75|1.75
;   filamentPricesPerKg,46|46|46|46|46|46
;   filamentDensities,1.25|1.25|1.25|1.25|1.25|1.25
;   useMinPrintHeight,0
;   minPrintHeight,0
;   useMaxPrintHeight,0
;   maxPrintHeight,4.84
;   useDiaphragm,0
;   diaphragmLayerInterval,20
;   robustSlicing,1
;   mergeAllIntoSolid,0
;   onlyRetractWhenCrossingOutline,0
;   retractBetweenLayers,0
;   useRetractionMinTravel,1
;   retractionMinTravel,7
;   retractWhileWiping,1
;   onlyWipeOutlines,1
;   avoidCrossingOutline,0
;   maxMovementDetourFactor,3
;   toolChangeRetractionDistance,12
;   toolChangeExtraRestartDistance,-0.5
;   toolChangeRetractionSpeed,600
;   externalThinWallType,0
;   internalThinWallType,0
;   thinWallAllowedOverlapPercentage,10
;   singleExtrusionMinLength,1
;   singleExtrusionMinPrintingWidthPercentage,50
;   singleExtrusionMaxPrintingWidthPercentage,200
;   singleExtrusionEndpointExtension,0.2
;   horizontalSizeCompensation,0
G90
M83
; **** Replicator 2 start.gcode ****
M73 P0 ; enable build progress
G162 X Y F3000 ; home XY maximum
G161 Z F1200 ; home Z minimum
G92 Z-5 ; set Z to -5
G1 Z0 ; move Z to 0
G161 Z F100 ; home Z slowly
M132 X Y Z A B ; recall home offsets
G1 X-145 Y-75 Z30 F9000 ; move to wait position off table
G130 X20 Y20 Z20 A20 B20 ; lower stepper Vrefs while heating
M127
M140 S60 T0
M134 T0 ; stabilize bed temperature
M104 S230 T0
M133 T0 ; stabilize extruder temperature
G130 X127 Y127 Z40 A127 B127 ; default stepper Vrefs
G92 A0 ; zero extruder
G1 Z0.4 ; position nozzle
G1 E25 F300 ; purge nozzle
G1 X-140 Y-70 Z0.15 F1200 ; slow wipe
G1 X-135 Y-65 Z0.5 F1200 ; lift
G92 A0 ; zero extruder
M73 P1 ;@body (notify GPX body has started)
; **** end of start.gcode ****
; process Process1
; layer 1, Z = 0.200
M135 T0
G1 E-1.9000 F1200
; feature inner perimeter
; tool H0.200 W0.460
G1 Z0.500 F1200
G1 X3.193 Y-3.190 F9000
G1 Z0.200 F1200
G1 E1.9000 F1200
G1 X3.193 Y-31.501 E1.0829 F1800
G1 X10.116 Y-31.501 E0.2648
G1 X9.267 Y-22.964 E0.3282
G1 X8.969 Y-19.359 E0.1384
G1 X8.768 Y-17.346 E0.0774
G1 X8.969 Y-15.332 E0.0774
G1 X9.267 Y-11.727 E0.1384
G1 X10.116 Y-3.190 E0.3282
G1 X3.193 Y-3.190 E0.2648
; feature outer perimeter
G1 X2.733 Y-2.730 F9000
G1 X2.733 Y-31.961 E1.1181 F1200
G1 X10.624 Y-31.961 E0.3018
G1 X9.725 Y-22.922 E0.3474
G1 X9.427 Y-19.317 E0.1384
G1 X9.231 Y-17.346 E0.0758
G1 X9.427 Y-15.374 E0.0758
G1 X9.725 Y-11.769 E0.1384
G1 X10.624 Y-2.730 E0.3474
G1 X2.733 Y-2.730 E0.3018
; feature solid layer
G1 X3.538 Y-3.618 F9000
G1 X3.621 Y-3.535 E0.0045 F2400
G1 X4.271 Y-3.535 E0.0249
G1 X3.538 Y-4.269 E0.0397
G1 X3.538 Y-4.919 E0.0249
G1 X4.922 Y-3.535 E0.0749
G1 X5.573 Y-3.535 E0.0249
G1 X3.538 Y-5.570 E0.1101
G1 X3.538 Y-6.220 E0.0249
G1 X6.223 Y-3.535 E0.1452
G1 X6.874 Y-3.535 E0.0249
G1 X3.538 Y-6.871 E0.1804
G1 X3.538 Y-7.521 E0.0249
G1 X7.524 Y-3.535 E0.2156
G1 X8.175 Y-3.535 E0.0249
G1 X3.538 Y-8.172 E0.2508
G1 X3.538 Y-8.822 E0.0249
G1 X8.825 Y-3.535 E0.2860
G1 X9.476 Y-3.535 E0.0249
G1 X3.538 Y-9.473 E0.3212
G1 X3.538 Y-10.123 E0.0249
G1 X9.691 Y-3.970 E0.3329
G1 X9.620 Y-4.692 E0.0278
G1 X3.538 Y-10.774 E0.3290
G1 X3.538 Y-11.424 E0.0249
G1 X9.548 Y-5.415 E0.3251
G1 X9.476 Y-6.137 E0.0278
G1 X3.538 Y-12.075 E0.3212
G1 X3.538 Y-12.726 E0.0249
G1 X9.404 Y-6.859 E0.3173
G1 X9.333 Y-7.581 E0.0278
G1 X3.538 Y-13.376 E0.3134
G1 X3.538 Y-14.027 E0.0249
G1 X9.261 Y-8.304 E0.3096
G1 X9.189 Y-9.026 E0.0278
G1 X3.538 Y-14.677 E0.3057
G1 X3.538 Y-15.328 E0.0249
G1 X9.117 Y-9.748 E0.3018
G1 X9.046 Y-10.471 E0.0278
G1 X3.538 Y-15.978 E0.2979
G1 X3.538 Y-16.629 E0.0249
G1 X8.974 Y-11.193 E0.2940
G1 X8.924 Y-11.696 E0.0193
G1 X8.906 Y-11.911 E0.0083
G1 X3.538 Y-17.279 E0.2904
G1 X3.538 Y-17.930 E0.0249
G1 X8.847 Y-12.620 E0.2872
G1 X8.789 Y-13.330 E0.0272
G1 X3.538 Y-18.580 E0.2840
G1 X3.538 Y-19.231 E0.0249
G1 X8.730 Y-14.039 E0.2808
G1 X8.671 Y-14.748 E0.0272
G1 X3.538 Y-19.881 E0.2777
G1 X3.538 Y-20.532 E0.0249
G1 X8.610 Y-15.460 E0.2743
G1 X8.538 Y-16.183 E0.0278
G1 X3.538 Y-21.183 E0.2704
G1 X3.538 Y-21.833 E0.0249
G1 X8.465 Y-16.906 E0.2665
G1 X8.422 Y-17.346 E0.0169
G1 X8.445 Y-17.577 E0.0089
G1 X3.538 Y-22.484 E0.2654
G1 X3.538 Y-23.134 E0.0249
G1 X8.504 Y-18.168 E0.2686
G1 X8.563 Y-18.760 E0.0227
G1 X3.538 Y-23.785 E0.2718
G1 X3.538 Y-24.435 E0.0249
G1 X8.622 Y-19.352 E0.2750
G1 X8.625 Y-19.390 E0.0015
G1 X8.672 Y-19.952 E0.0216
G1 X3.538 Y-25.086 E0.2777
G1 X3.538 Y-25.736 E0.0249
G1 X8.722 Y-20.553 E0.2804
G1 X8.771 Y-21.153 E0.0231
G1 X3.538 Y-26.387 E0.2831
G1 X3.538 Y-27.037 E0.0249
G1 X8.821 Y-21.754 E0.2858
G1 X8.871 Y-22.355 E0.0231
G1 X3.538 Y-27.688 E0.2885
G1 X3.538 Y-28.338 E0.0249
G1 X8.921 Y-22.956 E0.2912
G1 X8.924 Y-22.995 E0.0015
G1 X8.979 Y-23.548 E0.0213
G1 X3.538 Y-28.989 E0.2943
G1 X3.538 Y-29.640 E0.0249
G1 X9.038 Y-24.140 E0.2975
G1 X9.096 Y-24.732 E0.0227
G1 X3.538 Y-30.290 E0.3007
G1 X3.538 Y-30.941 E0.0249
G1 X9.155 Y-25.323 E0.3038
G1 X9.214 Y-25.915 E0.0227
G1 X3.973 Y-31.156 E0.2835
G1 X4.623 Y-31.156 E0.0249
G1 X9.273 Y-26.507 E0.2515
G1 X9.331 Y-27.099 E0.0227
G1 X5.274 Y-31.156 E0.2195
G1 X5.924 Y-31.156 E0.0249
G1 X9.390 Y-27.690 E0.1875
G1 X9.449 Y-28.282 E0.0227
G1 X6.575 Y-31.156 E0.1555
G1 X7.226 Y-31.156 E0.0249
G1 X9.508 Y-28.874 E0.1235
G1 X9.567 Y-29.466 E0.0227
G1 X7.876 Y-31.156 E0.0914
G1 X8.527 Y-31.156 E0.0249
G1 X9.625 Y-30.057 E0.0594
G1 X9.684 Y-30.649 E0.0227
G1 X9.177 Y-31.156 E0.0274
G1 E-1.9000 F1200
; feature inner perimeter
G1 Z0.700 F1200
G1 X16.568 Y-3.190 F9000
G1 Z0.200 F1200
G1 E1.9000 F1200
G1 X16.568 Y-31.501 E1.0829 F1800
G1 X21.703 Y-31.501 E0.1964
G1 X21.703 Y-3.190 E1.0829
G1 X16.568 Y-3.190 E0.1964
; feature outer perimeter
G1 X16.108 Y-2.730 F9000
G1 X16.108 Y-31.961 E1.1181 F1200
G1 X22.163 Y-31.961 E0.2316
G1 X22.163 Y-2.730 E1.1181
G1 X16.108 Y-2.730 E0.2316
; feature solid layer
G1 X17.282 Y-3.535 F9000
G1 X16.913 Y-3.905 E0.0200 F2400
G1 X16.913 Y-4.555 E0.0249
G1 X17.933 Y-3.535 E0.0552
G1 X18.583 Y-3.535 E0.0249
G1 X16.913 Y-5.206 E0.0904
G1 X16.913 Y-5.856 E0.0249
G1 X19.234 Y-3.535 E0.1256
G1 X19.884 Y-3.535 E0.0249
G1 X16.913 Y-6.507 E0.1608
G1 X16.913 Y-7.157 E0.0249
G1 X20.535 Y-3.535 E0.1959
G1 X21.185 Y-3.535 E0.0249
G1 X16.913 Y-7.808 E0.2311
G1 X16.913 Y-8.458 E0.0249
G1 X21.358 Y-4.013 E0.2404
G1 X21.358 Y-4.664 E0.0249
G1 X16.913 Y-9.109 E0.2404
G1 X16.913 Y-9.760 E0.0249
G1 X21.358 Y-5.315 E0.2404
G1 X21.358 Y-5.965 E0.0249
G1 X16.913 Y-10.410 E0.2404
G1 X16.913 Y-11.061 E0.0249
G1 X21.358 Y-6.616 E0.2404
G1 X21.358 Y-7.266 E0.0249
G1 X16.913 Y-11.711 E0.2404
G1 X16.913 Y-12.362 E0.0249
G1 X21.358 Y-7.917 E0.2404
G1 X21.358 Y-8.567 E0.0249
G1 X16.913 Y-13.012 E0.2404
G1 X16.913 Y-13.663 E0.0249
G1 X21.358 Y-9.218 E0.2404
G1 X21.358 Y-9.868 E0.0249
G1 X16.913 Y-14.313 E0.2404
G1 X16.913 Y-14.964 E0.0249
G1 X21.358 Y-10.519 E0.2404
G1 X21.358 Y-11.169 E0.0249
G1 X16.913 Y-15.614 E0.2404
G1 X16.913 Y-16.265 E0.0249
G1 X21.358 Y-11.820 E0.2404
G1 X21.358 Y-12.470 E0.0249
G1 X16.913 Y-16.915 E0.2404
G1 X16.913 Y-17.566 E0.0249
G1 X21.358 Y-13.121 E0.2404
G1 X21.358 Y-13.772 E0.0249
G1 X16.913 Y-18.217 E0.2404
G1 X16.913 Y-18.867 E0.0249
G1 X21.358 Y-14.422 E0.2404
G1 X21.358 Y-15.073 E0.0249
G1 X16.913 Y-19.518 E0.2404
G1 X16.913 Y-20.168 E0.0249
G1 X21.358 Y-15.723 E0.2404
G1 X21.358 Y-16.374 E0.0249
G1 X16.913 Y-20.819 E0.2404
G1 X16.913 Y-21.469 E0.0249
G1 X21.358 Y-17.024 E0.2404
G1 X21.358 Y-17.675 E0.0249
G1 X16.913 Y-22.120 E0.2404
G1 X16.913 Y-22.770 E0.0249
G1 X21.358 Y-18.325 E0.2404
G1 X21.358 Y-18.976 E0.0249
G1 X16.913 Y-23.421 E0.2404
G1 X16.913 Y-24.071 E0.0249
G1 X21.358 Y-19.626 E0.2404
G1 X21.358 Y-20.277 E0.0249
G1 X16.913 Y-24.722 E0.2404
G1 X16.913 Y-25.372 E0.0249
G1 X21.358 Y-20.927 E0.2404
G1 X21.358 Y-21.578 E0.0249
G1 X16.913 Y-26.023 E0.2404
G1 X16.913 Y-26.674 E0.0249
G1 X21.358 Y-22.229 E0.2404
G1 X21.358 Y-22.879 E0.0249
G1 X16.913 Y-27.324 E0.2404
G1 X16.913 Y-27.975 E0.0249
G1 X21.358 Y-23.530 E0.2404
G1 X21.358 Y-24.180 E0.0249
G1 X16.913 Y-28.625 E0.2404
G1 X16.913 Y-29.276 E0.0249
G1 X21.358 Y-24.831 E0.2404
G1 X21.358 Y-25.481 E0.0249
G1 X16.913 Y-29.926 E0.2404
G1 X16.913 Y-30.577 E0.0249
G1 X21.358 Y-26.132 E0.2404
G1 X21.358 Y-26.782 E0.0249
G1 X16.984 Y-31.156 E0.2366
G1 X17.634 Y-31.156 E0.0249
G1 X21.358 Y-27.433 E0.2014
G1 X21.358 Y-28.083 E0.0249
G1 X18.285 Y-31.156 E0.1662
G1 X18.935 Y-31.156 E0.0249
G1 X21.358 Y-28.734 E0.1310
G1 X21.358 Y-29.384 E0.0249
G1 X19.586 Y-31.156 E0.0958
G1 X20.236 Y-31.156 E0.0249
G1 X21.358 Y-30.035 E0.0607
G1 X21.358 Y-30.686 E0.0249
G1 X20.887 Y-31.156 E0.0255
G1 E-1.9000 F1200
; feature inner perimeter
G1 Z0.700 F1200
G1 X29.948 Y-3.190 F9000
G1 Z0.200 F1200
G1 E1.9000 F1200
G1 X29.948 Y-31.501 E1.0829 F1800
G1 X36.871 Y-31.501 E0.2648
G1 X36.022 Y-22.964 E0.3282
G1 X35.724 Y-19.359 E0.1384
G1 X35.523 Y-17.346 E0.0774
G1 X35.724 Y-15.332 E0.0774
G1 X36.022 Y-11.727 E0.1384
G1 X36.871 Y-3.190 E0.3282
G1 X29.948 Y-3.190 E0.2648
; feature outer perimeter
G1 X29.488 Y-2.730 F9000
G1 X29.488 Y-31.961 E1.1181 F1200
G1 X37.379 Y-31.961 E0.3018
G1 X36.481 Y-22.922 E0.3474
G1 X36.182 Y-19.317 E0.1384
G1 X35.986 Y-17.346 E0.0758
G1 X36.182 Y-15.374 E0.0758
G1 X36.481 Y-11.769 E0.1384
G1 X37.379 Y-2.730 E0.3474
G1 X29.488 Y-2.730 E0.3018
; feature solid layer
G1 X30.944 Y-3.535 F9000
G1 X30.293 Y-4.186 E0.0352 F2400
G1 X30.293 Y-4.836 E0.0249
G1 X31.594 Y-3.535 E0.0704
G1 X32.245 Y-3.535 E0.0249
G1 X30.293 Y-5.487 E0.1056
G1 X30.293 Y-6.137 E0.0249
G1 X32.895 Y-3.535 E0.1408
G1 X33.546 Y-3.535 E0.0249
G1 X30.293 Y-6.788 E0.1759
G1 X30.293 Y-7.438 E0.0249
G1 X34.196 Y-3.535 E0.2111
G1 X34.847 Y-3.535 E0.0249
G1 X30.293 Y-8.089 E0.2463
G1 X30.293 Y-8.739 E0.0249
G1 X35.497 Y-3.535 E0.2815
G1 X36.148 Y-3.535 E0.0249
G1 X30.293 Y-9.390 E0.3167
G1 X30.293 Y-10.040 E0.0249
G1 X36.456 Y-3.878 E0.3334
G1 X36.384 Y-4.600 E0.0278
G1 X30.293 Y-10.691 E0.3295
G1 X30.293 Y-11.341 E0.0249
G1 X36.312 Y-5.322 E0.3256
G1 X36.240 Y-6.045 E0.0278
G1 X30.293 Y-11.992 E0.3217
G1 X30.293 Y-12.643 E0.0249
G1 X36.169 Y-6.767 E0.3178
G1 X36.097 Y-7.489 E0.0278
G1 X30.293 Y-13.293 E0.3139
G1 X30.293 Y-13.944 E0.0249
G1 X36.025 Y-8.212 E0.3101
G1 X35.953 Y-8.934 E0.0278
G1 X30.293 Y-14.594 E0.3062
G1 X30.293 Y-15.245 E0.0249
G1 X35.882 Y-9.656 E0.3023
G1 X35.810 Y-10.378 E0.0278
G1 X30.293 Y-15.895 E0.2984
G1 X30.293 Y-16.546 E0.0249
G1 X35.738 Y-11.101 E0.2945
G1 X35.679 Y-11.696 E0.0229
G1 X35.669 Y-11.821 E0.0048
