; G-Code generated by Simplify3D(R) Version 4.1.2
; Apr 2, 2020 at 2:00:11 PM
; Settings Summary
;   processName,Process1
;   applyToModels,Goggles,target,Goggles(2),target(2),Goggles(3),target(3),Goggles(2)(2),target(2)(2)
;   profileName,MakerBot Replicator 2 HBP (modified)
;   profileVersion,2020-03-12 10:48:50
;   baseProfile,MakerBot Replicator 2(2)
;   printMaterial,PLA
;   printQuality,Medium
;   printExtruders,
;   extruderName,Primary Extruder
;   extruderToolheadNumber,0
;   extruderDiameter,0.4
;   extruderAutoWidth,0
;   extruderWidth,0.4
;   extrusionMultiplier,1
;   extruderUseRetract,1
;   extruderRetractionDistance,1.9
;   extruderExtraRestartDistance,0
;   extruderRetractionZLift,0.5
;   extruderRetractionSpeed,1200
;   extruderUseCoasting,0
;   extruderCoastingDistance,0.2
;   extruderUseWipe,0
;   extruderWipeDistance,5
;   primaryExtruder,0
;   layerHeight,0.2
;   topSolidLayers,3
;   bottomSolidLayers,3
;   perimeterOutlines,2
;   printPerimetersInsideOut,1
;   startPointOption,3
;   startPointOriginX,0
;   startPointOriginY,150
;   sequentialIslands,0
;   spiralVaseMode,0
;   firstLayerHeightPercentage,100
;   firstLayerWidthPercentage,115
;   firstLayerUnderspeed,0.5
;   useRaft,0
;   raftExtruder,0
;   raftTopLayers,2
;   raftBaseLayers,1
;   raftOffset,1
;   raftSeparationDistance,0.14
;   raftTopInfill,90
;   aboveRaftSpeedMultiplier,0.3
;   useSkirt,0
;   skirtExtruder,0
;   skirtLayers,1
;   skirtOutlines,5
;   skirtOffset,0
;   usePrimePillar,0
;   primePillarExtruder,999
;   primePillarWidth,12
;   primePillarLocation,7
;   primePillarSpeedMultiplier,1
;   useOozeShield,0
;   oozeShieldExtruder,999
;   oozeShieldOffset,2
;   oozeShieldOutlines,1
;   oozeShieldSidewallShape,1
;   oozeShieldSidewallAngle,30
;   oozeShieldSpeedMultiplier,1
;   infillExtruder,0
;   internalInfillPattern,Rectilinear
;   externalInfillPattern,Rectilinear
;   infillPercentage,15
;   outlineOverlapPercentage,25
;   infillExtrusionWidthPercentage,100
;   minInfillLength,5
;   infillLayerInterval,1
;   internalInfillAngles,45,-45
;   overlapInternalInfillAngles,0
;   externalInfillAngles,45,-45
;   generateSupport,1
;   supportExtruder,0
;   supportInfillPercentage,30
;   supportExtraInflation,0.5
;   supportBaseLayers,0
;   denseSupportExtruder,0
;   denseSupportLayers,2
;   denseSupportInfillPercentage,90
;   supportLayerInterval,1
;   supportHorizontalPartOffset,0.3
;   supportUpperSeparationLayers,1
;   supportLowerSeparationLayers,1
;   supportType,1
;   supportGridSpacing,2
;   maxOverhangAngle,45
;   supportAngles,45,-45
;   temperatureName,Primary Extruder,Heated Build Platform
;   temperatureNumber,0,0
;   temperatureSetpointCount,1,1
;   temperatureSetpointLayers,1,1
;   temperatureSetpointTemperatures,230,60
;   temperatureStabilizeAtStartup,1,1
;   temperatureHeatedBed,0,1
;   fanLayers,1,2
;   fanSpeeds,0,100
;   blipFanToFullPower,1
;   adjustSpeedForCooling,1
;   minSpeedLayerTime,15
;   minCoolingSpeedSlowdown,20
;   increaseFanForCooling,1
;   minFanLayerTime,45
;   maxCoolingFanSpeed,100
;   increaseFanForBridging,1
;   bridgingFanSpeed,100
;   use5D,1
;   relativeEdistances,1
;   allowEaxisZeroing,0
;   independentExtruderAxes,1
;   includeM10123,0
;   stickySupport,1
;   applyToolheadOffsets,0
;   gcodeXoffset,0
;   gcodeYoffset,0
;   gcodeZoffset,0
;   overrideMachineDefinition,1
;   machineTypeOverride,0
;   strokeXoverride,280
;   strokeYoverride,150
;   strokeZoverride,150
;   originOffsetXoverride,140
;   originOffsetYoverride,75
;   originOffsetZoverride,0
;   homeXdirOverride,1
;   homeYdirOverride,1
;   homeZdirOverride,-1
;   flipXoverride,1
;   flipYoverride,-1
;   flipZoverride,1
;   toolheadOffsets,0,0|0,0|0,0|0,0|0,0|0,0
;   overrideFirmwareConfiguration,1
;   firmwareTypeOverride,MakerBot/Sailfish Firmware
;   GPXconfigOverride,r2h
;   baudRateOverride,115200
;   overridePrinterModels,1
;   printerModelsOverride,MakerBot_Replicator2.stl
;   startingGcode,; **** Replicator 2 start.gcode ****,M73 P0 ; enable build progress,G162 X Y F3000 ; home XY maximum,G161 Z F1200 ; home Z minimum,G92 Z-5 ; set Z to -5,G1 Z0 ; move Z to 0,G161 Z F100 ; home Z slowly,M132 X Y Z A B ; recall home offsets,G1 X-145 Y-75 Z30 F9000 ; move to wait position off table,G130 X20 Y20 Z20 A20 B20 ; lower stepper Vrefs while heating,M126 S[fan_speed_pwm],M140 S[bed0_temperature] T0,M134 T0 ; stabilize bed temperature,M104 S[extruder0_temperature] T0,M133 T0 ; stabilize extruder temperature,G130 X127 Y127 Z40 A127 B127 ; default stepper Vrefs,G92 A0 ; zero extruder,G1 Z0.4 ; position nozzle,G1 E25 F300 ; purge nozzle,G1 X-140 Y-70 Z0.15 F1200 ; slow wipe,G1 X-135 Y-65 Z0.5 F1200 ; lift,G92 A0 ; zero extruder,M73 P1 ;@body (notify GPX body has started),; **** end of start.gcode ****
;   layerChangeGcode,
;   retractionGcode,
;   toolChangeGcode,
;   endingGcode,; **** Replicator 2 end.gcode ****,M73 P100 ; end build progress,G1 Z155 F1000 ; send Z axis to bottom of machine,M104 S0 T0 ; cool down extruder,M140 S0 T0 ; cool down HBP,M127 ; stop blower fan,G162 X Y F3000 ; home XY maximum,M18 ; disable stepper,M0 ; stop codes,M72 P1 ; play Ta-Da song,; **** end of end.gcode ****
;   exportFileFormat,gcode
;   celebration,0
;   celebrationSong,Random Song
;   postProcessing,
;   defaultSpeed,4800
;   outlineUnderspeed,0.5
;   solidInfillUnderspeed,1
;   supportUnderspeed,1
;   rapidXYspeed,9000
;   rapidZspeed,1200
;   minBridgingArea,50
;   bridgingExtraInflation,0
;   bridgingExtrusionMultiplier,1
;   bridgingSpeedMultiplier,0.8
;   useFixedBridgingAngle,0
;   fixedBridgingAngle,0
;   applyBridgingToPerimeters,0
;   filamentDiameters,1.75|1.75|1.75|1.75|1.75|1.75
;   filamentPricesPerKg,46|46|46|46|46|46
;   filamentDensities,1.25|1.25|1.25|1.25|1.25|1.25
;   useMinPrintHeight,0
;   minPrintHeight,0
;   useMaxPrintHeight,0
;   maxPrintHeight,4.84
;   useDiaphragm,0
;   diaphragmLayerInterval,20
;   robustSlicing,1
;   mergeAllIntoSolid,0
;   onlyRetractWhenCrossingOutline,0
;   retractBetweenLayers,0
;   useRetractionMinTravel,1
;   retractionMinTravel,7
;   retractWhileWiping,1
;   onlyWipeOutlines,1
;   avoidCrossingOutline,0
;   maxMovementDetourFactor,3
;   toolChangeRetractionDistance,12
;   toolChangeExtraRestartDistance,-0.5
;   toolChangeRetractionSpeed,600
;   externalThinWallType,0
;   internalThinWallType,0
;   thinWallAllowedOverlapPercentage,10
;   singleExtrusionMinLength,1
;   singleExtrusionMinPrintingWidthPercentage,50
;   singleExtrusionMaxPrintingWidthPercentage,200
;   singleExtrusionEndpointExtension,0.2
;   horizontalSizeCompensation,0
G90
M83
; **** Replicator 2 start.gcode ****
M73 P0 ; enable build progress
G162 X Y F3000 ; home XY maximum
G161 Z F1200 ; home Z minimum
G92 Z-5 ; set Z to -5
G1 Z0 ; move Z to 0
G161 Z F100 ; home Z slowly
M132 X Y Z A B ; recall home offsets
G1 X-145 Y-75 Z30 F9000 ; move to wait position off table
G130 X20 Y20 Z20 A20 B20 ; lower stepper Vrefs while heating
M127
M140 S60 T0
M134 T0 ; stabilize bed temperature
M104 S230 T0
M133 T0 ; stabilize extruder temperature
G130 X127 Y127 Z40 A127 B127 ; default stepper Vrefs
G92 A0 ; zero extruder
G1 Z0.4 ; position nozzle
G1 E25 F300 ; purge nozzle
G1 X-140 Y-70 Z0.15 F1200 ; slow wipe
G1 X-135 Y-65 Z0.5 F1200 ; lift
G92 A0 ; zero extruder
M73 P1 ;@body (notify GPX body has started)
; **** end of start.gcode ****
; process Process1
; layer 1, Z = 0.200
M135 T0
G1 E-1.9000 F1200
; feature inner perimeter
; tool H0.200 W0.460
G1 Z0.500 F1200
G1 X3.190 Y23.793 F9000
G1 Z0.200 F1200
G1 E1.9000 F1200
G1 X3.190 Y14.173 E0.3680 F1800
G1 X8.851 Y14.173 E0.2165
G1 X8.851 Y23.793 E0.3680
G1 X3.190 Y23.793 E0.2165
G1 E-1.9000 F1200
G1 Z0.700 F1200
G1 X74.227 Y23.793 F9000
G1 Z0.200 F1200
G1 E1.9000 F1200
G1 X74.227 Y14.173 E0.3680 F1800
G1 X79.888 Y14.173 E0.2165
G1 X79.888 Y23.793 E0.3680
G1 X74.227 Y23.793 E0.2165
; feature outer perimeter
G1 X80.348 Y24.253 F9000
G1 X2.730 Y24.253 E2.9688 F1200
G1 X2.730 Y13.713 E0.4031
G1 X80.348 Y13.713 E2.9688
G1 X80.348 Y24.253 E0.4031
G1 X73.767 Y23.713 F9000
G1 X73.767 Y14.254 E0.3618 F1200
G1 X9.311 Y14.254 E2.4654
G1 X9.311 Y23.713 E0.3618
G1 X73.767 Y23.713 E2.4654
; feature solid layer
G1 X74.841 Y23.448 F9000
G1 X74.572 Y23.180 E0.0145 F2400
G1 X74.572 Y22.529 E0.0249
G1 X75.491 Y23.448 E0.0497
G1 X76.142 Y23.448 E0.0249
G1 X74.572 Y21.879 E0.0849
G1 X74.572 Y21.228 E0.0249
G1 X76.792 Y23.448 E0.1201
G1 X77.443 Y23.448 E0.0249
G1 X74.572 Y20.578 E0.1553
G1 X74.572 Y19.927 E0.0249
G1 X78.093 Y23.448 E0.1905
G1 X78.744 Y23.448 E0.0249
G1 X74.572 Y19.277 E0.2257
G1 X74.572 Y18.626 E0.0249
G1 X79.395 Y23.448 E0.2608
G1 X79.543 Y23.448 E0.0057
G1 X79.543 Y22.946 E0.0192
G1 X74.572 Y17.976 E0.2689
G1 X74.572 Y17.325 E0.0249
G1 X79.543 Y22.296 E0.2689
G1 X79.543 Y21.645 E0.0249
G1 X74.572 Y16.674 E0.2689
G1 X74.572 Y16.024 E0.0249
G1 X79.543 Y20.995 E0.2689
G1 X79.543 Y20.344 E0.0249
G1 X74.572 Y15.373 E0.2689
G1 X74.572 Y14.723 E0.0249
G1 X79.543 Y19.694 E0.2689
G1 X79.543 Y19.043 E0.0249
G1 X75.018 Y14.518 E0.2448
G1 X75.669 Y14.518 E0.0249
G1 X79.543 Y18.393 E0.2096
G1 X79.543 Y17.742 E0.0249
G1 X76.319 Y14.518 E0.1744
G1 X76.970 Y14.518 E0.0249
G1 X79.543 Y17.092 E0.1392
G1 X79.543 Y16.441 E0.0249
G1 X77.620 Y14.518 E0.1040
G1 X78.271 Y14.518 E0.0249
G1 X79.543 Y15.790 E0.0688
G1 X79.543 Y15.140 E0.0249
G1 X78.922 Y14.518 E0.0336
G1 E-1.9000 F1200
G1 Z0.700 F1200
G1 X8.013 Y14.518 F9000
G1 Z0.200 F1200
G1 E1.9000 F1200
G1 X8.506 Y15.011 E0.0267 F2400
G1 X8.506 Y15.662 E0.0249
G1 X7.362 Y14.518 E0.0619
G1 X6.712 Y14.518 E0.0249
G1 X8.506 Y16.312 E0.0970
G1 X8.506 Y16.963 E0.0249
G1 X6.061 Y14.518 E0.1322
G1 X5.411 Y14.518 E0.0249
G1 X8.506 Y17.613 E0.1674
G1 X8.506 Y18.264 E0.0249
G1 X4.760 Y14.518 E0.2026
G1 X4.110 Y14.518 E0.0249
G1 X8.506 Y18.914 E0.2378
G1 X8.506 Y19.565 E0.0249
G1 X3.535 Y14.594 E0.2689
G1 X3.535 Y15.245 E0.0249
G1 X8.506 Y20.216 E0.2689
G1 X8.506 Y20.866 E0.0249
G1 X3.535 Y15.895 E0.2689
G1 X3.535 Y16.546 E0.0249
G1 X8.506 Y21.517 E0.2689
G1 X8.506 Y22.167 E0.0249
G1 X3.535 Y17.196 E0.2689
G1 X3.535 Y17.847 E0.0249
G1 X8.506 Y22.818 E0.2689
G1 X8.506 Y23.448 E0.0241
G1 X8.486 Y23.448 E0.0008
G1 X3.535 Y18.497 E0.2678
G1 X3.535 Y19.148 E0.0249
G1 X7.835 Y23.448 E0.2326
G1 X7.185 Y23.448 E0.0249
G1 X3.535 Y19.798 E0.1974
G1 X3.535 Y20.449 E0.0249
G1 X6.534 Y23.448 E0.1622
G1 X5.884 Y23.448 E0.0249
G1 X3.535 Y21.100 E0.1270
G1 X3.535 Y21.750 E0.0249
G1 X5.233 Y23.448 E0.0919
G1 X4.583 Y23.448 E0.0249
G1 X3.535 Y22.401 E0.0567
G1 X3.535 Y23.051 E0.0249
G1 X3.932 Y23.448 E0.0215
G1 E-1.9000 F1200
; feature inner perimeter
G1 Z0.700 F1200
G1 X-3.190 Y23.793 F9000
G1 Z0.200 F1200
G1 E1.9000 F1200
G1 X-8.851 Y23.793 E0.2165 F1800
G1 X-8.851 Y14.173 E0.3680
G1 X-3.190 Y14.173 E0.2165
G1 X-3.190 Y23.793 E0.3680
G1 E-1.9000 F1200
G1 Z0.700 F1200
G1 X-74.227 Y23.793 F9000
G1 Z0.200 F1200
G1 E1.9000 F1200
G1 X-79.888 Y23.793 E0.2165 F1800
G1 X-79.888 Y14.173 E0.3680
G1 X-74.227 Y14.173 E0.2165
G1 X-74.227 Y23.793 E0.3680
; feature outer perimeter
G1 X-80.348 Y24.253 F9000
G1 X-80.348 Y13.713 E0.4031 F1200
G1 X-2.730 Y13.713 E2.9688
G1 X-2.730 Y24.253 E0.4031
G1 X-80.348 Y24.253 E2.9688
G1 X-73.767 Y23.713 F9000
G1 X-9.311 Y23.713 E2.4654 F1200
G1 X-9.311 Y14.254 E0.3618
G1 X-73.767 Y14.254 E2.4654
G1 X-73.767 Y23.713 E0.3618
; feature solid layer
G1 X-79.543 Y23.242 F9000
G1 X-79.337 Y23.448 E0.0112 F2400
G1 X-78.686 Y23.448 E0.0249
G1 X-79.543 Y22.591 E0.0464
G1 X-79.543 Y21.941 E0.0249
G1 X-78.036 Y23.448 E0.0815
G1 X-77.385 Y23.448 E0.0249
G1 X-79.543 Y21.290 E0.1167
G1 X-79.543 Y20.640 E0.0249
G1 X-76.735 Y23.448 E0.1519
G1 X-76.084 Y23.448 E0.0249
G1 X-79.543 Y19.989 E0.1871
G1 X-79.543 Y19.339 E0.0249
G1 X-75.434 Y23.448 E0.2223
G1 X-74.783 Y23.448 E0.0249
G1 X-79.543 Y18.688 E0.2575
G1 X-79.543 Y18.037 E0.0249
G1 X-74.572 Y23.008 E0.2689
G1 X-74.572 Y22.358 E0.0249
G1 X-79.543 Y17.387 E0.2689
G1 X-79.543 Y16.736 E0.0249
G1 X-74.572 Y21.707 E0.2689
G1 X-74.572 Y21.057 E0.0249
G1 X-79.543 Y16.086 E0.2689
G1 X-79.543 Y15.435 E0.0249
G1 X-74.572 Y20.406 E0.2689
G1 X-74.572 Y19.756 E0.0249
G1 X-79.543 Y14.785 E0.2689
G1 X-79.543 Y14.518 E0.0102
G1 X-79.159 Y14.518 E0.0147
G1 X-74.572 Y19.105 E0.2481
G1 X-74.572 Y18.455 E0.0249
G1 X-78.509 Y14.518 E0.2129
G1 X-77.858 Y14.518 E0.0249
G1 X-74.572 Y17.804 E0.1777
G1 X-74.572 Y17.154 E0.0249
G1 X-77.208 Y14.518 E0.1425
G1 X-76.557 Y14.518 E0.0249
G1 X-74.572 Y16.503 E0.1074
G1 X-74.572 Y15.852 E0.0249
G1 X-75.907 Y14.518 E0.0722
G1 X-75.256 Y14.518 E0.0249
G1 X-74.572 Y15.202 E0.0370
G1 X-74.572 Y14.551 E0.0249
G1 X-74.605 Y14.518 E0.0018
G1 E-1.9000 F1200
G1 Z0.700 F1200
G1 X-8.506 Y23.370 F9000
G1 Z0.200 F1200
G1 E1.9000 F1200
G1 X-8.428 Y23.448 E0.0042 F2400
G1 X-7.778 Y23.448 E0.0249
G1 X-8.506 Y22.720 E0.0394
G1 X-8.506 Y22.069 E0.0249
G1 X-7.127 Y23.448 E0.0746
G1 X-6.477 Y23.448 E0.0249
G1 X-8.506 Y21.419 E0.1098
G1 X-8.506 Y20.768 E0.0249
G1 X-5.826 Y23.448 E0.1450
G1 X-5.175 Y23.448 E0.0249
G1 X-8.506 Y20.118 E0.1802
G1 X-8.506 Y19.467 E0.0249
G1 X-4.525 Y23.448 E0.2153
G1 X-3.874 Y23.448 E0.0249
G1 X-8.506 Y18.817 E0.2505
G1 X-8.506 Y18.166 E0.0249
G1 X-3.535 Y23.137 E0.2689
G1 X-3.535 Y22.487 E0.0249
G1 X-8.506 Y17.516 E0.2689
G1 X-8.506 Y16.865 E0.0249
G1 X-3.535 Y21.836 E0.2689
G1 X-3.535 Y21.185 E0.0249
G1 X-8.506 Y16.215 E0.2689
G1 X-8.506 Y15.564 E0.0249
G1 X-3.535 Y20.535 E0.2689
G1 X-3.535 Y19.884 E0.0249
G1 X-8.506 Y14.913 E0.2689
G1 X-8.506 Y14.518 E0.0151
G1 X-8.251 Y14.518 E0.0098
G1 X-3.535 Y19.234 E0.2551
G1 X-3.535 Y18.583 E0.0249
G1 X-7.600 Y14.518 E0.2199
G1 X-6.950 Y14.518 E0.0249
G1 X-3.535 Y17.933 E0.1847
G1 X-3.535 Y17.282 E0.0249
G1 X-6.299 Y14.518 E0.1495
G1 X-5.648 Y14.518 E0.0249
G1 X-3.535 Y16.632 E0.1143
G1 X-3.535 Y15.981 E0.0249
G1 X-4.998 Y14.518 E0.0791
G1 X-4.347 Y14.518 E0.0249
G1 X-3.535 Y15.331 E0.0439
G1 X-3.535 Y14.680 E0.0249
G1 X-3.697 Y14.518 E0.0088
G1 E-1.9000 F1200
; feature inner perimeter
G1 Z0.700 F1200
G1 X-3.190 Y39.793 F9000
G1 Z0.200 F1200
G1 E1.9000 F1200
G1 X-8.851 Y39.793 E0.2165 F1800
G1 X-8.851 Y30.173 E0.3680
G1 X-3.190 Y30.173 E0.2165
G1 X-3.190 Y39.793 E0.3680
G1 E-1.9000 F1200
G1 Z0.700 F1200
G1 X-74.227 Y39.793 F9000
G1 Z0.200 F1200
G1 E1.9000 F1200
G1 X-79.888 Y39.793 E0.2165 F1800
G1 X-79.888 Y30.173 E0.3680
G1 X-74.227 Y30.173 E0.2165
G1 X-74.227 Y39.793 E0.3680
; feature outer perimeter
G1 X-80.348 Y40.253 F9000
G1 X-80.348 Y29.713 E0.4031 F1200
G1 X-2.730 Y29.713 E2.9688
G1 X-2.730 Y40.253 E0.4031
G1 X-80.348 Y40.253 E2.9688
G1 X-73.767 Y39.713 F9000
G1 X-9.311 Y39.713 E2.4654 F1200
G1 X-9.311 Y30.254 E0.3618
G1 X-73.767 Y30.254 E2.4654
G1 X-73.767 Y39.713 E0.3618
; feature solid layer
G1 X-78.950 Y39.448 F9000
G1 X-79.543 Y38.855 E0.0321 F2400
G1 X-79.543 Y38.204 E0.0249
G1 X-78.299 Y39.448 E0.0673
G1 X-77.649 Y39.448 E0.0249
G1 X-79.543 Y37.554 E0.1025
G1 X-79.543 Y36.903 E0.0249
G1 X-76.998 Y39.448 E0.1377
G1 X-76.348 Y39.448 E0.0249
G1 X-79.543 Y36.253 E0.1729
G1 X-79.543 Y35.602 E0.0249
G1 X-75.697 Y39.448 E0.2081
G1 X-75.046 Y39.448 E0.0249
G1 X-79.543 Y34.951 E0.2432
G1 X-79.543 Y34.301 E0.0249
G1 X-74.572 Y39.272 E0.2689
G1 X-74.572 Y38.621 E0.0249
G1 X-79.543 Y33.650 E0.2689
G1 X-79.543 Y33.000 E0.0249
G1 X-74.572 Y37.971 E0.2689
G1 X-74.572 Y37.320 E0.0249
G1 X-79.543 Y32.349 E0.2689
G1 X-79.543 Y31.699 E0.0249
G1 X-74.572 Y36.670 E0.2689
G1 X-74.572 Y36.019 E0.0249
G1 X-79.543 Y31.048 E0.2689
G1 X-79.543 Y30.518 E0.0203
G1 X-79.423 Y30.518 E0.0046
G1 X-74.572 Y35.369 E0.2624
G1 X-74.572 Y34.718 E0.0249
G1 X-78.772 Y30.518 E0.2272
G1 X-78.122 Y30.518 E0.0249
G1 X-74.572 Y34.068 E0.1920
G1 X-74.572 Y33.417 E0.0249
G1 X-77.471 Y30.518 E0.1568
G1 X-76.821 Y30.518 E0.0249
G1 X-74.572 Y32.766 E0.1216
G1 X-74.572 Y32.116 E0.0249
G1 X-76.170 Y30.518 E0.0864
G1 X-75.519 Y30.518 E0.0249
G1 X-74.572 Y31.465 E0.0512
G1 X-74.572 Y30.815 E0.0249
G1 X-74.869 Y30.518 E0.0160
G1 E-1.9000 F1200
G1 Z0.700 F1200
G1 X-8.041 Y39.448 F9000
G1 Z0.200 F1200
G1 E1.9000 F1200
G1 X-8.506 Y38.983 E0.0251 F2400
G1 X-8.506 Y38.333 E0.0249
