; G-Code generated by Simplify3D(R) Version 4.1.2
; Apr 2, 2020 at 1:59:58 PM
; Settings Summary
;   processName,Process1
;   applyToModels,Goggles,target,Goggles(2),target(2)
;   profileName,MakerBot Replicator 2 HBP (modified)
;   profileVersion,2020-03-12 10:48:50
;   baseProfile,MakerBot Replicator 2(2)
;   printMaterial,PLA
;   printQuality,Medium
;   printExtruders,
;   extruderName,Primary Extruder
;   extruderToolheadNumber,0
;   extruderDiameter,0.4
;   extruderAutoWidth,0
;   extruderWidth,0.4
;   extrusionMultiplier,1
;   extruderUseRetract,1
;   extruderRetractionDistance,1.9
;   extruderExtraRestartDistance,0
;   extruderRetractionZLift,0.5
;   extruderRetractionSpeed,1200
;   extruderUseCoasting,0
;   extruderCoastingDistance,0.2
;   extruderUseWipe,0
;   extruderWipeDistance,5
;   primaryExtruder,0
;   layerHeight,0.2
;   topSolidLayers,3
;   bottomSolidLayers,3
;   perimeterOutlines,2
;   printPerimetersInsideOut,1
;   startPointOption,3
;   startPointOriginX,0
;   startPointOriginY,150
;   sequentialIslands,0
;   spiralVaseMode,0
;   firstLayerHeightPercentage,100
;   firstLayerWidthPercentage,115
;   firstLayerUnderspeed,0.5
;   useRaft,0
;   raftExtruder,0
;   raftTopLayers,2
;   raftBaseLayers,1
;   raftOffset,1
;   raftSeparationDistance,0.14
;   raftTopInfill,90
;   aboveRaftSpeedMultiplier,0.3
;   useSkirt,0
;   skirtExtruder,0
;   skirtLayers,1
;   skirtOutlines,5
;   skirtOffset,0
;   usePrimePillar,0
;   primePillarExtruder,999
;   primePillarWidth,12
;   primePillarLocation,7
;   primePillarSpeedMultiplier,1
;   useOozeShield,0
;   oozeShieldExtruder,999
;   oozeShieldOffset,2
;   oozeShieldOutlines,1
;   oozeShieldSidewallShape,1
;   oozeShieldSidewallAngle,30
;   oozeShieldSpeedMultiplier,1
;   infillExtruder,0
;   internalInfillPattern,Rectilinear
;   externalInfillPattern,Rectilinear
;   infillPercentage,15
;   outlineOverlapPercentage,25
;   infillExtrusionWidthPercentage,100
;   minInfillLength,5
;   infillLayerInterval,1
;   internalInfillAngles,45,-45
;   overlapInternalInfillAngles,0
;   externalInfillAngles,45,-45
;   generateSupport,1
;   supportExtruder,0
;   supportInfillPercentage,30
;   supportExtraInflation,0.5
;   supportBaseLayers,0
;   denseSupportExtruder,0
;   denseSupportLayers,2
;   denseSupportInfillPercentage,90
;   supportLayerInterval,1
;   supportHorizontalPartOffset,0.3
;   supportUpperSeparationLayers,1
;   supportLowerSeparationLayers,1
;   supportType,1
;   supportGridSpacing,2
;   maxOverhangAngle,45
;   supportAngles,45,-45
;   temperatureName,Primary Extruder,Heated Build Platform
;   temperatureNumber,0,0
;   temperatureSetpointCount,1,1
;   temperatureSetpointLayers,1,1
;   temperatureSetpointTemperatures,230,60
;   temperatureStabilizeAtStartup,1,1
;   temperatureHeatedBed,0,1
;   fanLayers,1,2
;   fanSpeeds,0,100
;   blipFanToFullPower,1
;   adjustSpeedForCooling,1
;   minSpeedLayerTime,15
;   minCoolingSpeedSlowdown,20
;   increaseFanForCooling,1
;   minFanLayerTime,45
;   maxCoolingFanSpeed,100
;   increaseFanForBridging,1
;   bridgingFanSpeed,100
;   use5D,1
;   relativeEdistances,1
;   allowEaxisZeroing,0
;   independentExtruderAxes,1
;   includeM10123,0
;   stickySupport,1
;   applyToolheadOffsets,0
;   gcodeXoffset,0
;   gcodeYoffset,0
;   gcodeZoffset,0
;   overrideMachineDefinition,1
;   machineTypeOverride,0
;   strokeXoverride,280
;   strokeYoverride,150
;   strokeZoverride,150
;   originOffsetXoverride,140
;   originOffsetYoverride,75
;   originOffsetZoverride,0
;   homeXdirOverride,1
;   homeYdirOverride,1
;   homeZdirOverride,-1
;   flipXoverride,1
;   flipYoverride,-1
;   flipZoverride,1
;   toolheadOffsets,0,0|0,0|0,0|0,0|0,0|0,0
;   overrideFirmwareConfiguration,1
;   firmwareTypeOverride,MakerBot/Sailfish Firmware
;   GPXconfigOverride,r2h
;   baudRateOverride,115200
;   overridePrinterModels,1
;   printerModelsOverride,MakerBot_Replicator2.stl
;   startingGcode,; **** Replicator 2 start.gcode ****,M73 P0 ; enable build progress,G162 X Y F3000 ; home XY maximum,G161 Z F1200 ; home Z minimum,G92 Z-5 ; set Z to -5,G1 Z0 ; move Z to 0,G161 Z F100 ; home Z slowly,M132 X Y Z A B ; recall home offsets,G1 X-145 Y-75 Z30 F9000 ; move to wait position off table,G130 X20 Y20 Z20 A20 B20 ; lower stepper Vrefs while heating,M126 S[fan_speed_pwm],M140 S[bed0_temperature] T0,M134 T0 ; stabilize bed temperature,M104 S[extruder0_temperature] T0,M133 T0 ; stabilize extruder temperature,G130 X127 Y127 Z40 A127 B127 ; default stepper Vrefs,G92 A0 ; zero extruder,G1 Z0.4 ; position nozzle,G1 E25 F300 ; purge nozzle,G1 X-140 Y-70 Z0.15 F1200 ; slow wipe,G1 X-135 Y-65 Z0.5 F1200 ; lift,G92 A0 ; zero extruder,M73 P1 ;@body (notify GPX body has started),; **** end of start.gcode ****
;   layerChangeGcode,
;   retractionGcode,
;   toolChangeGcode,
;   endingGcode,; **** Replicator 2 end.gcode ****,M73 P100 ; end build progress,G1 Z155 F1000 ; send Z axis to bottom of machine,M104 S0 T0 ; cool down extruder,M140 S0 T0 ; cool down HBP,M127 ; stop blower fan,G162 X Y F3000 ; home XY maximum,M18 ; disable stepper,M0 ; stop codes,M72 P1 ; play Ta-Da song,; **** end of end.gcode ****
;   exportFileFormat,gcode
;   celebration,0
;   celebrationSong,Random Song
;   postProcessing,
;   defaultSpeed,4800
;   outlineUnderspeed,0.5
;   solidInfillUnderspeed,1
;   supportUnderspeed,1
;   rapidXYspeed,9000
;   rapidZspeed,1200
;   minBridgingArea,50
;   bridgingExtraInflation,0
;   bridgingExtrusionMultiplier,1
;   bridgingSpeedMultiplier,0.8
;   useFixedBridgingAngle,0
;   fixedBridgingAngle,0
;   applyBridgingToPerimeters,0
;   filamentDiameters,1.75|1.75|1.75|1.75|1.75|1.75
;   filamentPricesPerKg,46|46|46|46|46|46
;   filamentDensities,1.25|1.25|1.25|1.25|1.25|1.25
;   useMinPrintHeight,0
;   minPrintHeight,0
;   useMaxPrintHeight,0
;   maxPrintHeight,4.84
;   useDiaphragm,0
;   diaphragmLayerInterval,20
;   robustSlicing,1
;   mergeAllIntoSolid,0
;   onlyRetractWhenCrossingOutline,0
;   retractBetweenLayers,0
;   useRetractionMinTravel,1
;   retractionMinTravel,7
;   retractWhileWiping,1
;   onlyWipeOutlines,1
;   avoidCrossingOutline,0
;   maxMovementDetourFactor,3
;   toolChangeRetractionDistance,12
;   toolChangeExtraRestartDistance,-0.5
;   toolChangeRetractionSpeed,600
;   externalThinWallType,0
;   internalThinWallType,0
;   thinWallAllowedOverlapPercentage,10
;   singleExtrusionMinLength,1
;   singleExtrusionMinPrintingWidthPercentage,50
;   singleExtrusionMaxPrintingWidthPercentage,200
;   singleExtrusionEndpointExtension,0.2
;   horizontalSizeCompensation,0
G90
M83
; **** Replicator 2 start.gcode ****
M73 P0 ; enable build progress
G162 X Y F3000 ; home XY maximum
G161 Z F1200 ; home Z minimum
G92 Z-5 ; set Z to -5
G1 Z0 ; move Z to 0
G161 Z F100 ; home Z slowly
M132 X Y Z A B ; recall home offsets
G1 X-145 Y-75 Z30 F9000 ; move to wait position off table
G130 X20 Y20 Z20 A20 B20 ; lower stepper Vrefs while heating
M127
M140 S60 T0
M134 T0 ; stabilize bed temperature
M104 S230 T0
M133 T0 ; stabilize extruder temperature
G130 X127 Y127 Z40 A127 B127 ; default stepper Vrefs
G92 A0 ; zero extruder
G1 Z0.4 ; position nozzle
G1 E25 F300 ; purge nozzle
G1 X-140 Y-70 Z0.15 F1200 ; slow wipe
G1 X-135 Y-65 Z0.5 F1200 ; lift
G92 A0 ; zero extruder
M73 P1 ;@body (notify GPX body has started)
; **** end of start.gcode ****
; process Process1
; layer 1, Z = 0.200
M135 T0
G1 E-1.9000 F1200
; feature inner perimeter
; tool H0.200 W0.460
G1 Z0.500 F1200
G1 X3.190 Y-5.698 F9000
G1 Z0.200 F1200
G1 E1.9000 F1200
G1 X3.190 Y-26.302 E0.7881 F1800
G1 X40.778 Y-26.302 E1.4377
G1 X40.778 Y-5.698 E0.7881
G1 X3.190 Y-5.698 E1.4377
; feature outer perimeter
G1 X2.730 Y-5.238 F9000
G1 X2.730 Y-26.762 E0.8232 F1200
G1 X41.238 Y-26.762 E1.4729
G1 X41.238 Y-5.238 E0.8232
G1 X2.730 Y-5.238 E1.4729
G1 E-1.9000 F1200
; feature inner perimeter
G1 Z0.700 F1200
G1 X5.529 Y-12.541 F9000
G1 Z0.200 F1200
G1 E1.9000 F1200
G1 X6.248 Y-12.237 E0.0299 F1800
G1 X6.783 Y-12.062 E0.0215
G1 X7.341 Y-11.925 E0.0220
G1 X7.924 Y-11.835 E0.0226
G1 X8.501 Y-11.804 E0.0221
G1 X10.087 Y-11.776 E0.0607
G1 X11.154 Y-11.792 E0.0408
G1 X11.734 Y-11.824 E0.0222
G1 X12.325 Y-11.877 E0.0227
G1 X12.923 Y-11.956 E0.0231
G1 X13.520 Y-12.067 E0.0232
G1 X14.107 Y-12.216 E0.0232
G1 X14.666 Y-12.405 E0.0226
G1 X15.545 Y-12.762 E0.0363
G1 X16.344 Y-13.138 E0.0338
G1 X16.737 Y-13.353 E0.0171
G1 X17.114 Y-13.586 E0.0170
G1 X17.483 Y-13.845 E0.0172
G1 X17.843 Y-14.132 E0.0176
G1 X18.195 Y-14.451 E0.0182
G1 X18.540 Y-14.805 E0.0189
G1 X18.881 Y-15.197 E0.0199
G1 X19.222 Y-15.635 E0.0212
G1 X19.856 Y-16.567 E0.0431
G1 X19.961 Y-16.694 E0.0063
G1 X20.061 Y-16.790 E0.0053
G1 X20.168 Y-16.866 E0.0050
G1 X20.305 Y-16.933 E0.0058
G1 X20.498 Y-16.995 E0.0077
G1 X20.765 Y-17.046 E0.0104
G1 X21.113 Y-17.080 E0.0133
G1 X22.685 Y-17.091 E0.0602
G1 X23.258 Y-17.048 E0.0220
G1 X23.470 Y-17.009 E0.0083
G1 X23.657 Y-16.952 E0.0075
G1 X23.817 Y-16.879 E0.0067
G1 X23.960 Y-16.786 E0.0065
G1 X24.099 Y-16.661 E0.0072
G1 X24.236 Y-16.496 E0.0082
G1 X24.704 Y-15.723 E0.0346
G1 X25.017 Y-15.259 E0.0214
G1 X25.436 Y-14.728 E0.0259
G1 X25.704 Y-14.427 E0.0154
G1 X26.324 Y-13.808 E0.0335
G1 X27.110 Y-13.136 E0.0396
G1 X27.482 Y-12.862 E0.0177
G1 X28.040 Y-12.506 E0.0253
G1 X28.761 Y-12.124 E0.0312
G1 X29.191 Y-11.934 E0.0180
G1 X29.651 Y-11.759 E0.0188
G1 X30.144 Y-11.605 E0.0198
G1 X30.670 Y-11.478 E0.0207
G1 X31.224 Y-11.387 E0.0215
G1 X31.797 Y-11.338 E0.0220
G1 X32.870 Y-11.318 E0.0410
G1 X33.977 Y-11.347 E0.0423
G1 X34.608 Y-11.389 E0.0242
G1 X35.262 Y-11.455 E0.0252
G1 X35.929 Y-11.551 E0.0258
G1 X36.594 Y-11.682 E0.0259
G1 X37.243 Y-11.855 E0.0257
G1 X37.862 Y-12.079 E0.0252
G1 X38.425 Y-12.359 E0.0240
G1 X38.650 Y-12.502 E0.0102
G1 X38.870 Y-12.670 E0.0106
G1 X39.087 Y-12.881 E0.0116
G1 X39.289 Y-13.139 E0.0125
G1 X39.466 Y-13.444 E0.0135
G1 X39.614 Y-13.796 E0.0146
G1 X39.734 Y-14.196 E0.0160
G1 X39.826 Y-14.652 E0.0178
G1 X39.891 Y-15.173 E0.0201
G1 X39.930 Y-15.767 E0.0228
G1 X39.942 Y-16.446 E0.0259
G1 X39.926 Y-17.243 E0.0305
G1 X39.886 Y-17.549 E0.0118
G1 X39.790 Y-17.892 E0.0136
G1 X39.641 Y-18.245 E0.0147
G1 X39.438 Y-18.605 E0.0158
G1 X39.176 Y-18.966 E0.0170
G1 X38.854 Y-19.318 E0.0183
G1 X38.469 Y-19.652 E0.0195
G1 X38.018 Y-19.958 E0.0208
G1 X37.501 Y-20.223 E0.0222
G1 X36.917 Y-20.439 E0.0238
G1 X36.266 Y-20.594 E0.0256
G1 X35.520 Y-20.685 E0.0287
G1 X35.126 Y-20.656 E0.0151
G1 X34.606 Y-20.566 E0.0202
G1 X32.157 Y-20.072 E0.0956
G1 X31.045 Y-19.867 E0.0433
G1 X29.794 Y-19.661 E0.0485
G1 X28.412 Y-19.467 E0.0534
G1 X26.909 Y-19.295 E0.0579
G1 X25.293 Y-19.157 E0.0620
G1 X23.571 Y-19.066 E0.0660
G1 X21.755 Y-19.033 E0.0695
G1 X19.858 Y-19.071 E0.0726
G1 X18.202 Y-19.177 E0.0635
G1 X16.765 Y-19.337 E0.0553
G1 X15.524 Y-19.536 E0.0481
G1 X14.457 Y-19.762 E0.0417
G1 X13.541 Y-20.002 E0.0362
G1 X12.749 Y-20.243 E0.0316
G1 X10.881 Y-20.858 E0.0752
G1 X10.319 Y-20.987 E0.0221
G1 X9.783 Y-21.039 E0.0206
G1 X9.300 Y-21.041 E0.0185
G1 X8.479 Y-21.012 E0.0314
G1 X8.084 Y-20.979 E0.0151
G1 X7.390 Y-20.875 E0.0269
G1 X6.780 Y-20.707 E0.0242
G1 X6.481 Y-20.584 E0.0123
G1 X6.213 Y-20.442 E0.0116
G1 X5.965 Y-20.273 E0.0115
G1 X5.752 Y-20.085 E0.0108
G1 X5.381 Y-19.698 E0.0205
G1 X4.938 Y-19.188 E0.0258
G1 X4.471 Y-18.574 E0.0295
G1 X4.239 Y-18.223 E0.0161
G1 X4.023 Y-17.857 E0.0163
G1 X3.828 Y-17.471 E0.0165
G1 X3.663 Y-17.068 E0.0167
G1 X3.536 Y-16.645 E0.0169
G1 X3.457 Y-16.201 E0.0173
G1 X3.447 Y-15.664 E0.0205
G1 X3.479 Y-15.348 E0.0121
G1 X3.535 Y-15.034 E0.0122
G1 X3.620 Y-14.711 E0.0128
G1 X3.737 Y-14.384 E0.0133
G1 X3.889 Y-14.058 E0.0138
G1 X4.081 Y-13.737 E0.0143
G1 X4.315 Y-13.429 E0.0148
G1 X4.594 Y-13.141 E0.0153
G1 X4.920 Y-12.881 E0.0159
G1 X5.277 Y-12.666 E0.0159
G1 X5.529 Y-12.541 E0.0108
; feature outer perimeter
G1 X5.721 Y-12.960 F9000
G1 X6.410 Y-12.668 E0.0286 F1200
G1 X6.910 Y-12.504 E0.0201
G1 X7.431 Y-12.376 E0.0205
G1 X7.972 Y-12.293 E0.0209
G1 X8.517 Y-12.264 E0.0209
G1 X10.087 Y-12.236 E0.0601
G1 X11.138 Y-12.252 E0.0402
G1 X11.701 Y-12.283 E0.0216
G1 X12.274 Y-12.334 E0.0220
G1 X12.851 Y-12.411 E0.0222
G1 X13.421 Y-12.517 E0.0222
G1 X13.977 Y-12.657 E0.0219
G1 X14.505 Y-12.836 E0.0213
G1 X15.360 Y-13.184 E0.0353
G1 X16.136 Y-13.548 E0.0328
G1 X16.505 Y-13.751 E0.0161
G1 X16.861 Y-13.971 E0.0160
G1 X17.207 Y-14.213 E0.0162
G1 X17.545 Y-14.482 E0.0165
G1 X17.876 Y-14.782 E0.0171
G1 X18.202 Y-15.116 E0.0179
G1 X18.526 Y-15.489 E0.0189
G1 X18.850 Y-15.906 E0.0202
G1 X19.488 Y-16.842 E0.0433
G1 X19.622 Y-17.007 E0.0081
G1 X19.767 Y-17.146 E0.0077
G1 X19.932 Y-17.263 E0.0077
G1 X20.132 Y-17.361 E0.0085
G1 X20.384 Y-17.442 E0.0101
G1 X20.700 Y-17.502 E0.0123
G1 X21.089 Y-17.540 E0.0150
G1 X22.701 Y-17.551 E0.0616
G1 X23.317 Y-17.505 E0.0237
G1 X23.580 Y-17.456 E0.0102
G1 X23.820 Y-17.383 E0.0096
G1 X24.039 Y-17.284 E0.0092
G1 X24.241 Y-17.152 E0.0092
G1 X24.432 Y-16.980 E0.0098
G1 X24.612 Y-16.764 E0.0108
G1 X25.092 Y-15.971 E0.0355
G1 X25.389 Y-15.531 E0.0203
G1 X25.789 Y-15.024 E0.0247
G1 X26.039 Y-14.743 E0.0144
G1 X26.636 Y-14.146 E0.0323
G1 X27.397 Y-13.496 E0.0383
G1 X27.743 Y-13.241 E0.0164
G1 X28.272 Y-12.904 E0.0240
G1 X28.962 Y-12.538 E0.0299
G1 X29.366 Y-12.359 E0.0169
G1 X29.801 Y-12.194 E0.0178
G1 X30.267 Y-12.049 E0.0187
G1 X30.761 Y-11.929 E0.0194
G1 X31.281 Y-11.843 E0.0202
G1 X31.821 Y-11.798 E0.0207
G1 X32.868 Y-11.778 E0.0401
G1 X33.955 Y-11.807 E0.0416
G1 X34.570 Y-11.848 E0.0235
G1 X35.207 Y-11.912 E0.0245
G1 X35.852 Y-12.004 E0.0249
G1 X36.490 Y-12.130 E0.0249
G1 X37.105 Y-12.294 E0.0243
G1 X37.681 Y-12.503 E0.0234
G1 X38.199 Y-12.760 E0.0221
G1 X38.387 Y-12.879 E0.0085
G1 X38.568 Y-13.018 E0.0088
G1 X38.744 Y-13.189 E0.0094
G1 X38.907 Y-13.398 E0.0101
G1 X39.054 Y-13.650 E0.0112
G1 X39.181 Y-13.951 E0.0125
G1 X39.287 Y-14.307 E0.0142
G1 X39.371 Y-14.727 E0.0164
G1 X39.433 Y-15.217 E0.0189
G1 X39.471 Y-15.787 E0.0218
G1 X39.482 Y-16.445 E0.0252
G1 X39.466 Y-17.209 E0.0292
G1 X39.434 Y-17.457 E0.0096
G1 X39.355 Y-17.740 E0.0112
G1 X39.227 Y-18.042 E0.0125
G1 X39.050 Y-18.356 E0.0138
G1 X38.819 Y-18.675 E0.0150
G1 X38.533 Y-18.988 E0.0162
G1 X38.188 Y-19.287 E0.0174
G1 X37.783 Y-19.561 E0.0187
G1 X37.315 Y-19.801 E0.0201
G1 X36.783 Y-19.998 E0.0217
G1 X36.185 Y-20.141 E0.0235
G1 X35.509 Y-20.223 E0.0260
G1 X35.182 Y-20.199 E0.0125
G1 X34.691 Y-20.114 E0.0191
G1 X32.245 Y-19.620 E0.0955
G1 X31.124 Y-19.414 E0.0436
G1 X29.863 Y-19.207 E0.0489
G1 X28.470 Y-19.010 E0.0538
G1 X26.955 Y-18.837 E0.0584
G1 X25.325 Y-18.698 E0.0626
G1 X23.588 Y-18.606 E0.0665
G1 X21.754 Y-18.573 E0.0702
G1 X19.839 Y-18.612 E0.0733
G1 X18.162 Y-18.719 E0.0643
G1 X16.703 Y-18.881 E0.0562
G1 X15.440 Y-19.084 E0.0489
G1 X14.351 Y-19.314 E0.0426
G1 X13.415 Y-19.559 E0.0370
G1 X12.610 Y-19.804 E0.0322
G1 X10.757 Y-20.414 E0.0746
G1 X10.245 Y-20.532 E0.0201
G1 X9.760 Y-20.579 E0.0186
G1 X9.307 Y-20.581 E0.0173
G1 X8.506 Y-20.553 E0.0307
G1 X8.138 Y-20.522 E0.0141
G1 X7.485 Y-20.424 E0.0252
G1 X6.929 Y-20.271 E0.0221
G1 X6.677 Y-20.167 E0.0104
G1 X6.451 Y-20.048 E0.0098
G1 X6.248 Y-19.909 E0.0094
G1 X6.071 Y-19.753 E0.0090
G1 X5.721 Y-19.387 E0.0194
G1 X5.295 Y-18.897 E0.0248
G1 X4.847 Y-18.307 E0.0283
G1 X4.629 Y-17.979 E0.0151
G1 X4.427 Y-17.636 E0.0152
G1 X4.247 Y-17.280 E0.0152
G1 X4.097 Y-16.914 E0.0152
G1 X3.984 Y-16.539 E0.0150
G1 X3.917 Y-16.157 E0.0148
G1 X3.908 Y-15.682 E0.0181
G1 X3.935 Y-15.411 E0.0104
G1 X3.984 Y-15.133 E0.0108
G1 X4.059 Y-14.848 E0.0113
G1 X4.163 Y-14.560 E0.0117
G1 X4.296 Y-14.274 E0.0121
G1 X4.463 Y-13.995 E0.0124
G1 X4.665 Y-13.729 E0.0128
G1 X4.904 Y-13.482 E0.0132
G1 X5.183 Y-13.259 E0.0137
G1 X5.498 Y-13.070 E0.0140
G1 X5.721 Y-12.960 E0.0095
; feature solid layer
G1 X3.535 Y-17.933 F9000
G1 X3.628 Y-17.840 E0.0050 F2400
G1 X3.720 Y-18.022 E0.0078
G1 X3.859 Y-18.259 E0.0105
G1 X3.535 Y-18.583 E0.0175
G1 X3.535 Y-19.234 E0.0249
G1 X4.112 Y-18.657 E0.0312
G1 X4.190 Y-18.774 E0.0054
G1 X4.387 Y-19.033 E0.0124
G1 X3.535 Y-19.884 E0.0461
G1 X3.535 Y-20.535 E0.0249
G1 X4.668 Y-19.402 E0.0613
G1 X4.970 Y-19.750 E0.0176
G1 X3.535 Y-21.185 E0.0776
G1 X3.535 Y-21.836 E0.0249
