; G-Code generated by Simplify3D(R) Version 4.1.2
; Apr 2, 2020 at 2:11:28 PM
; Settings Summary
;   processName,Process1
;   applyToModels,Diffuser,Diffuser(2),Diffuser(3),Diffuser(2)(2)
;   profileName,MakerBot Replicator 2 HBP (modified)
;   profileVersion,2020-03-12 10:48:50
;   baseProfile,MakerBot Replicator 2(2)
;   printMaterial,PLA
;   printQuality,Medium
;   printExtruders,
;   extruderName,Primary Extruder
;   extruderToolheadNumber,0
;   extruderDiameter,0.4
;   extruderAutoWidth,0
;   extruderWidth,0.4
;   extrusionMultiplier,1
;   extruderUseRetract,1
;   extruderRetractionDistance,1.9
;   extruderExtraRestartDistance,0
;   extruderRetractionZLift,0.5
;   extruderRetractionSpeed,1200
;   extruderUseCoasting,0
;   extruderCoastingDistance,0.2
;   extruderUseWipe,0
;   extruderWipeDistance,5
;   primaryExtruder,0
;   layerHeight,0.2
;   topSolidLayers,3
;   bottomSolidLayers,3
;   perimeterOutlines,2
;   printPerimetersInsideOut,1
;   startPointOption,3
;   startPointOriginX,0
;   startPointOriginY,150
;   sequentialIslands,0
;   spiralVaseMode,0
;   firstLayerHeightPercentage,100
;   firstLayerWidthPercentage,115
;   firstLayerUnderspeed,0.5
;   useRaft,0
;   raftExtruder,0
;   raftTopLayers,2
;   raftBaseLayers,1
;   raftOffset,1
;   raftSeparationDistance,0.14
;   raftTopInfill,90
;   aboveRaftSpeedMultiplier,0.3
;   useSkirt,0
;   skirtExtruder,0
;   skirtLayers,1
;   skirtOutlines,5
;   skirtOffset,0
;   usePrimePillar,0
;   primePillarExtruder,999
;   primePillarWidth,12
;   primePillarLocation,7
;   primePillarSpeedMultiplier,1
;   useOozeShield,0
;   oozeShieldExtruder,999
;   oozeShieldOffset,2
;   oozeShieldOutlines,1
;   oozeShieldSidewallShape,1
;   oozeShieldSidewallAngle,30
;   oozeShieldSpeedMultiplier,1
;   infillExtruder,0
;   internalInfillPattern,Rectilinear
;   externalInfillPattern,Rectilinear
;   infillPercentage,15
;   outlineOverlapPercentage,25
;   infillExtrusionWidthPercentage,100
;   minInfillLength,5
;   infillLayerInterval,1
;   internalInfillAngles,45,-45
;   overlapInternalInfillAngles,0
;   externalInfillAngles,45,-45
;   generateSupport,0
;   supportExtruder,0
;   supportInfillPercentage,30
;   supportExtraInflation,0.5
;   supportBaseLayers,0
;   denseSupportExtruder,0
;   denseSupportLayers,2
;   denseSupportInfillPercentage,90
;   supportLayerInterval,1
;   supportHorizontalPartOffset,0.3
;   supportUpperSeparationLayers,1
;   supportLowerSeparationLayers,1
;   supportType,1
;   supportGridSpacing,2
;   maxOverhangAngle,45
;   supportAngles,45,-45
;   temperatureName,Primary Extruder,Heated Build Platform
;   temperatureNumber,0,0
;   temperatureSetpointCount,1,1
;   temperatureSetpointLayers,1,1
;   temperatureSetpointTemperatures,230,60
;   temperatureStabilizeAtStartup,1,1
;   temperatureHeatedBed,0,1
;   fanLayers,1,2
;   fanSpeeds,0,100
;   blipFanToFullPower,1
;   adjustSpeedForCooling,1
;   minSpeedLayerTime,15
;   minCoolingSpeedSlowdown,20
;   increaseFanForCooling,1
;   minFanLayerTime,45
;   maxCoolingFanSpeed,100
;   increaseFanForBridging,1
;   bridgingFanSpeed,100
;   use5D,1
;   relativeEdistances,1
;   allowEaxisZeroing,0
;   independentExtruderAxes,1
;   includeM10123,0
;   stickySupport,1
;   applyToolheadOffsets,0
;   gcodeXoffset,0
;   gcodeYoffset,0
;   gcodeZoffset,0
;   overrideMachineDefinition,1
;   machineTypeOverride,0
;   strokeXoverride,280
;   strokeYoverride,150
;   strokeZoverride,150
;   originOffsetXoverride,140
;   originOffsetYoverride,75
;   originOffsetZoverride,0
;   homeXdirOverride,1
;   homeYdirOverride,1
;   homeZdirOverride,-1
;   flipXoverride,1
;   flipYoverride,-1
;   flipZoverride,1
;   toolheadOffsets,0,0|0,0|0,0|0,0|0,0|0,0
;   overrideFirmwareConfiguration,1
;   firmwareTypeOverride,MakerBot/Sailfish Firmware
;   GPXconfigOverride,r2h
;   baudRateOverride,115200
;   overridePrinterModels,1
;   printerModelsOverride,MakerBot_Replicator2.stl
;   startingGcode,; **** Replicator 2 start.gcode ****,M73 P0 ; enable build progress,G162 X Y F3000 ; home XY maximum,G161 Z F1200 ; home Z minimum,G92 Z-5 ; set Z to -5,G1 Z0 ; move Z to 0,G161 Z F100 ; home Z slowly,M132 X Y Z A B ; recall home offsets,G1 X-145 Y-75 Z30 F9000 ; move to wait position off table,G130 X20 Y20 Z20 A20 B20 ; lower stepper Vrefs while heating,M126 S[fan_speed_pwm],M140 S[bed0_temperature] T0,M134 T0 ; stabilize bed temperature,M104 S[extruder0_temperature] T0,M133 T0 ; stabilize extruder temperature,G130 X127 Y127 Z40 A127 B127 ; default stepper Vrefs,G92 A0 ; zero extruder,G1 Z0.4 ; position nozzle,G1 E25 F300 ; purge nozzle,G1 X-140 Y-70 Z0.15 F1200 ; slow wipe,G1 X-135 Y-65 Z0.5 F1200 ; lift,G92 A0 ; zero extruder,M73 P1 ;@body (notify GPX body has started),; **** end of start.gcode ****
;   layerChangeGcode,
;   retractionGcode,
;   toolChangeGcode,
;   endingGcode,; **** Replicator 2 end.gcode ****,M73 P100 ; end build progress,G1 Z155 F1000 ; send Z axis to bottom of machine,M104 S0 T0 ; cool down extruder,M140 S0 T0 ; cool down HBP,M127 ; stop blower fan,G162 X Y F3000 ; home XY maximum,M18 ; disable stepper,M0 ; stop codes,M72 P1 ; play Ta-Da song,; **** end of end.gcode ****
;   exportFileFormat,gcode
;   celebration,0
;   celebrationSong,Random Song
;   postProcessing,
;   defaultSpeed,4800
;   outlineUnderspeed,0.5
;   solidInfillUnderspeed,1
;   supportUnderspeed,1
;   rapidXYspeed,9000
;   rapidZspeed,1200
;   minBridgingArea,50
;   bridgingExtraInflation,0
;   bridgingExtrusionMultiplier,1
;   bridgingSpeedMultiplier,0.8
;   useFixedBridgingAngle,0
;   fixedBridgingAngle,0
;   applyBridgingToPerimeters,0
;   filamentDiameters,1.75|1.75|1.75|1.75|1.75|1.75
;   filamentPricesPerKg,46|46|46|46|46|46
;   filamentDensities,1.25|1.25|1.25|1.25|1.25|1.25
;   useMinPrintHeight,0
;   minPrintHeight,0
;   useMaxPrintHeight,0
;   maxPrintHeight,4.84
;   useDiaphragm,0
;   diaphragmLayerInterval,20
;   robustSlicing,1
;   mergeAllIntoSolid,0
;   onlyRetractWhenCrossingOutline,0
;   retractBetweenLayers,0
;   useRetractionMinTravel,1
;   retractionMinTravel,7
;   retractWhileWiping,1
;   onlyWipeOutlines,1
;   avoidCrossingOutline,0
;   maxMovementDetourFactor,3
;   toolChangeRetractionDistance,12
;   toolChangeExtraRestartDistance,-0.5
;   toolChangeRetractionSpeed,600
;   externalThinWallType,0
;   internalThinWallType,0
;   thinWallAllowedOverlapPercentage,10
;   singleExtrusionMinLength,1
;   singleExtrusionMinPrintingWidthPercentage,50
;   singleExtrusionMaxPrintingWidthPercentage,200
;   singleExtrusionEndpointExtension,0.2
;   horizontalSizeCompensation,0
G90
M83
; **** Replicator 2 start.gcode ****
M73 P0 ; enable build progress
G162 X Y F3000 ; home XY maximum
G161 Z F1200 ; home Z minimum
G92 Z-5 ; set Z to -5
G1 Z0 ; move Z to 0
G161 Z F100 ; home Z slowly
M132 X Y Z A B ; recall home offsets
G1 X-145 Y-75 Z30 F9000 ; move to wait position off table
G130 X20 Y20 Z20 A20 B20 ; lower stepper Vrefs while heating
M127
M140 S60 T0
M134 T0 ; stabilize bed temperature
M104 S230 T0
M133 T0 ; stabilize extruder temperature
G130 X127 Y127 Z40 A127 B127 ; default stepper Vrefs
G92 A0 ; zero extruder
G1 Z0.4 ; position nozzle
G1 E25 F300 ; purge nozzle
G1 X-140 Y-70 Z0.15 F1200 ; slow wipe
G1 X-135 Y-65 Z0.5 F1200 ; lift
G92 A0 ; zero extruder
M73 P1 ;@body (notify GPX body has started)
; **** end of start.gcode ****
; process Process1
; layer 1, Z = 0.200
M135 T0
G1 E-1.9000 F1200
; feature inner perimeter
; tool H0.200 W0.460
G1 Z0.500 F1200
G1 X3.199 Y-3.190 F9000
G1 Z0.200 F1200
G1 E1.9000 F1200
G1 X3.200 Y-36.507 E1.2743 F1800
G1 X54.032 Y-36.509 E1.9443
G1 X54.034 Y-3.190 E1.2744
G1 X32.286 Y-3.190 E0.8318
G1 X35.030 Y-4.022 E0.1097
G1 X37.928 Y-5.571 E0.1257
G1 X40.468 Y-7.656 E0.1257
G1 X42.553 Y-10.196 E0.1257
G1 X44.102 Y-13.094 E0.1257
G1 X45.055 Y-16.238 E0.1257
G1 X45.377 Y-19.508 E0.1257
G1 X45.055 Y-22.778 E0.1257
G1 X44.102 Y-25.922 E0.1257
G1 X42.553 Y-28.820 E0.1257
G1 X40.468 Y-31.360 E0.1257
G1 X37.928 Y-33.444 E0.1257
G1 X35.030 Y-34.993 E0.1257
G1 X31.886 Y-35.947 E0.1257
G1 X28.616 Y-36.269 E0.1257
G1 X25.346 Y-35.947 E0.1257
G1 X22.202 Y-34.993 E0.1257
G1 X19.304 Y-33.444 E0.1257
G1 X16.764 Y-31.360 E0.1257
G1 X14.679 Y-28.820 E0.1257
G1 X13.131 Y-25.922 E0.1257
G1 X12.177 Y-22.778 E0.1257
G1 X11.855 Y-19.508 E0.1257
G1 X12.177 Y-16.238 E0.1257
G1 X13.131 Y-13.094 E0.1257
G1 X14.679 Y-10.196 E0.1257
G1 X16.764 Y-7.656 E0.1257
G1 X19.304 Y-5.571 E0.1257
G1 X22.202 Y-4.022 E0.1257
G1 X24.946 Y-3.190 E0.1097
G1 X3.199 Y-3.190 E0.8318
; feature outer perimeter
G1 X2.739 Y-2.730 F9000
G1 X2.740 Y-36.967 E1.3095 F1200
G1 X54.492 Y-36.969 E1.9795
G1 X54.494 Y-2.730 E1.3096
G1 X2.739 Y-2.730 E1.9796
G1 E-1.9000 F1200
G1 Z0.700 F1200
G1 X15.064 Y-10.453 F9000
G1 Z0.200 F1200
G1 E1.9000 F1200
G1 X17.091 Y-7.983 E0.1222 F1200
G1 X19.561 Y-5.956 E0.1222
G1 X22.379 Y-4.449 E0.1222
G1 X25.436 Y-3.522 E0.1222
G1 X28.616 Y-3.209 E0.1222
G1 X31.796 Y-3.522 E0.1222
G1 X34.853 Y-4.449 E0.1222
G1 X37.671 Y-5.956 E0.1222
G1 X40.141 Y-7.983 E0.1222
G1 X42.168 Y-10.453 E0.1222
G1 X43.675 Y-13.271 E0.1222
G1 X44.602 Y-16.328 E0.1222
G1 X44.915 Y-19.508 E0.1222
G1 X44.602 Y-22.688 E0.1222
G1 X43.675 Y-25.745 E0.1222
G1 X42.168 Y-28.563 E0.1222
G1 X40.141 Y-31.033 E0.1222
G1 X37.671 Y-33.060 E0.1222
G1 X34.853 Y-34.566 E0.1222
G1 X31.796 Y-35.494 E0.1222
G1 X28.616 Y-35.807 E0.1222
G1 X25.436 Y-35.494 E0.1222
G1 X22.379 Y-34.566 E0.1222
G1 X19.561 Y-33.060 E0.1222
G1 X17.091 Y-31.033 E0.1222
G1 X15.064 Y-28.563 E0.1222
G1 X13.558 Y-25.745 E0.1222
G1 X12.630 Y-22.688 E0.1222
G1 X12.317 Y-19.508 E0.1222
G1 X12.630 Y-16.328 E0.1222
G1 X13.558 Y-13.271 E0.1222
G1 X15.064 Y-10.453 E0.1222
G1 E-1.9000 F1200
; feature solid layer
G1 Z0.700 F1200
G1 X21.185 Y-3.535 F9000
G1 Z0.200 F1200
G1 E1.9000 F1200
G1 X19.812 Y-4.909 E0.0743 F2400
G1 X21.209 Y-4.162 E0.0606
G1 X21.836 Y-3.535 E0.0339
G1 X22.487 Y-3.535 E0.0249
G1 X22.428 Y-3.593 E0.0031
G1 E-1.9000 F1200
G1 Z0.700 F1200
G1 X34.792 Y-3.590 F9000
G1 Z0.200 F1200
G1 E1.9000 F1200
G1 X34.847 Y-3.535 E0.0030 F2400
G1 X35.497 Y-3.535 E0.0249
G1 X35.272 Y-3.760 E0.0122
G1 X35.696 Y-3.987 E0.0184
G1 X36.148 Y-3.535 E0.0244
G1 X36.798 Y-3.535 E0.0249
G1 X36.120 Y-4.214 E0.0367
G1 X36.544 Y-4.440 E0.0184
G1 X37.449 Y-3.535 E0.0490
G1 X38.099 Y-3.535 E0.0249
G1 X36.968 Y-4.667 E0.0612
G1 X37.392 Y-4.893 E0.0184
G1 X38.750 Y-3.535 E0.0735
G1 X39.401 Y-3.535 E0.0249
G1 X37.816 Y-5.120 E0.0857
G1 X38.121 Y-5.283 E0.0132
G1 X38.221 Y-5.365 E0.0050
G1 X40.051 Y-3.535 E0.0990
G1 X40.702 Y-3.535 E0.0249
G1 X38.578 Y-5.658 E0.1149
G1 X38.935 Y-5.952 E0.0177
G1 X41.352 Y-3.535 E0.1307
G1 X42.003 Y-3.535 E0.0249
G1 X39.293 Y-6.245 E0.1466
G1 X39.650 Y-6.538 E0.0177
G1 X42.653 Y-3.535 E0.1624
G1 X43.304 Y-3.535 E0.0249
G1 X40.007 Y-6.831 E0.1783
G1 X40.365 Y-7.125 E0.0177
G1 X43.954 Y-3.535 E0.1942
G1 X44.605 Y-3.535 E0.0249
G1 X40.720 Y-7.419 E0.2101
G1 X41.014 Y-7.777 E0.0177
G1 X45.255 Y-3.535 E0.2294
G1 X45.906 Y-3.535 E0.0249
G1 X41.307 Y-8.134 E0.2488
G1 X41.600 Y-8.491 E0.0177
G1 X46.556 Y-3.535 E0.2681
G1 X47.207 Y-3.535 E0.0249
G1 X41.893 Y-8.849 E0.2874
G1 X42.187 Y-9.206 E0.0177
G1 X47.858 Y-3.535 E0.3068
G1 X48.508 Y-3.535 E0.0249
G1 X42.480 Y-9.563 E0.3261
G1 X42.773 Y-9.921 E0.0177
G1 X49.159 Y-3.535 E0.3454
G1 X49.809 Y-3.535 E0.0249
G1 X43.015 Y-10.329 E0.3675
G1 X43.242 Y-10.753 E0.0184
G1 X50.460 Y-3.535 E0.3904
G1 X51.110 Y-3.535 E0.0249
G1 X43.468 Y-11.177 E0.4134
G1 X43.695 Y-11.601 E0.0184
G1 X51.761 Y-3.535 E0.4363
G1 X52.411 Y-3.535 E0.0249
G1 X43.921 Y-12.025 E0.4592
G1 X44.148 Y-12.449 E0.0184
G1 X53.062 Y-3.535 E0.4822
G1 X53.689 Y-3.535 E0.0240
G1 X53.689 Y-3.559 E0.0009
G1 X44.375 Y-12.873 E0.5038
G1 X44.422 Y-12.961 E0.0038
G1 X44.542 Y-13.356 E0.0158
G1 X53.689 Y-4.209 E0.4948
G1 X53.688 Y-4.860 E0.0249
G1 X44.693 Y-13.855 E0.4866
G1 X44.845 Y-14.354 E0.0200
G1 X53.688 Y-5.511 E0.4784
G1 X53.688 Y-6.161 E0.0249
G1 X44.996 Y-14.854 E0.4702
G1 X45.147 Y-15.353 E0.0200
G1 X53.688 Y-6.812 E0.4620
G1 X53.688 Y-7.462 E0.0249
G1 X45.299 Y-15.852 E0.4538
G1 X45.395 Y-16.170 E0.0127
G1 X45.416 Y-16.385 E0.0082
G1 X53.688 Y-8.113 E0.4474
G1 X53.688 Y-8.763 E0.0249
G1 X45.475 Y-16.977 E0.4443
G1 X45.533 Y-17.569 E0.0228
G1 X53.688 Y-9.414 E0.4411
G1 X53.688 Y-10.064 E0.0249
G1 X45.591 Y-18.161 E0.4380
G1 X45.650 Y-18.754 E0.0228
G1 X53.688 Y-10.715 E0.4348
G1 X53.688 Y-11.366 E0.0249
G1 X45.708 Y-19.346 E0.4317
G1 X45.724 Y-19.508 E0.0062
G1 X45.672 Y-20.032 E0.0201
G1 X53.688 Y-12.016 E0.4336
G1 X53.688 Y-12.667 E0.0249
G1 X45.601 Y-20.753 E0.4374
G1 X45.530 Y-21.475 E0.0277
G1 X53.688 Y-13.317 E0.4413
G1 X53.688 Y-13.968 E0.0249
G1 X45.459 Y-22.197 E0.4451
G1 X45.395 Y-22.846 E0.0249
G1 X45.367 Y-22.940 E0.0038
G1 X53.688 Y-14.618 E0.4501
G1 X53.688 Y-15.269 E0.0249
G1 X45.084 Y-23.874 E0.4654
G1 X44.800 Y-24.807 E0.0373
G1 X53.688 Y-15.919 E0.4808
G1 X53.688 Y-16.570 E0.0249
G1 X44.517 Y-25.741 E0.4961
G1 X44.422 Y-26.055 E0.0125
G1 X43.926 Y-26.983 E0.0402
G1 X53.688 Y-17.221 E0.5281
G1 X53.688 Y-17.871 E0.0249
G1 X43.179 Y-28.380 E0.5685
G1 E-1.9000 F1200
G1 Z0.700 F1200
G1 X32.982 Y-35.975 F9000
G1 Z0.200 F1200
G1 E1.9000 F1200
G1 X32.794 Y-36.163 E0.0102 F2400
G1 X33.444 Y-36.163 E0.0249
G1 X33.915 Y-35.692 E0.0255
G1 X34.849 Y-35.409 E0.0373
G1 X34.095 Y-36.163 E0.0408
G1 X34.745 Y-36.163 E0.0249
G1 X36.091 Y-34.818 E0.0728
G1 X37.489 Y-34.071 E0.0606
G1 X35.396 Y-36.163 E0.1132
G1 X36.047 Y-36.163 E0.0249
G1 X40.107 Y-32.102 E0.2197
G1 X40.713 Y-31.605 E0.0300
G1 X41.211 Y-30.999 E0.0300
G1 X53.688 Y-18.522 E0.6749
G1 X53.688 Y-19.172 E0.0249
G1 X36.697 Y-36.163 E0.9191
G1 X37.348 Y-36.163 E0.0249
G1 X53.688 Y-19.823 E0.8839
G1 X53.688 Y-20.473 E0.0249
G1 X37.998 Y-36.163 E0.8487
G1 X38.649 Y-36.163 E0.0249
G1 X53.688 Y-21.124 E0.8135
G1 X53.688 Y-21.774 E0.0249
G1 X39.299 Y-36.163 E0.7783
G1 X39.950 Y-36.163 E0.0249
G1 X53.688 Y-22.425 E0.7431
G1 X53.688 Y-23.076 E0.0249
G1 X40.600 Y-36.163 E0.7080
G1 X41.251 Y-36.163 E0.0249
G1 X53.688 Y-23.726 E0.6728
G1 X53.688 Y-24.377 E0.0249
G1 X41.901 Y-36.163 E0.6376
G1 X42.552 Y-36.163 E0.0249
G1 X53.688 Y-25.027 E0.6024
G1 X53.688 Y-25.678 E0.0249
G1 X43.202 Y-36.163 E0.5672
G1 X43.853 Y-36.164 E0.0249
G1 X53.688 Y-26.328 E0.5320
G1 X53.688 Y-26.979 E0.0249
G1 X44.503 Y-36.164 E0.4968
G1 X45.154 Y-36.164 E0.0249
G1 X53.688 Y-27.630 E0.4616
G1 X53.688 Y-28.280 E0.0249
G1 X45.804 Y-36.164 E0.4264
G1 X46.455 Y-36.164 E0.0249
G1 X53.688 Y-28.931 E0.3912
G1 X53.688 Y-29.581 E0.0249
G1 X47.105 Y-36.164 E0.3561
G1 X47.756 Y-36.164 E0.0249
G1 X53.688 Y-30.232 E0.3209
G1 X53.688 Y-30.882 E0.0249
G1 X48.406 Y-36.164 E0.2857
G1 X49.057 Y-36.164 E0.0249
G1 X53.688 Y-31.533 E0.2505
G1 X53.688 Y-32.183 E0.0249
G1 X49.707 Y-36.164 E0.2153
G1 X50.358 Y-36.164 E0.0249
G1 X53.688 Y-32.834 E0.1801
G1 X53.688 Y-33.485 E0.0249
G1 X51.008 Y-36.164 E0.1449
G1 X51.659 Y-36.164 E0.0249
G1 X53.688 Y-34.135 E0.1097
G1 X53.688 Y-34.786 E0.0249
G1 X52.309 Y-36.164 E0.0745
G1 X52.960 Y-36.164 E0.0249
G1 X53.688 Y-35.436 E0.0394
G1 X53.688 Y-36.087 E0.0249
G1 X53.610 Y-36.164 E0.0042
G1 E-1.9000 F1200
G1 Z0.700 F1200
G1 X24.337 Y-36.163 F9000
G1 Z0.200 F1200
G1 E1.9000 F1200
G1 X24.461 Y-36.039 E0.0067 F2400
G1 X23.962 Y-35.888 E0.0200
G1 X23.687 Y-36.163 E0.0149
G1 X23.036 Y-36.163 E0.0249
G1 X23.463 Y-35.736 E0.0231
G1 X22.963 Y-35.585 E0.0200
G1 X22.386 Y-36.163 E0.0313
G1 X21.735 Y-36.163 E0.0249
G1 X22.464 Y-35.434 E0.0394
G1 X22.069 Y-35.314 E0.0158
G1 X21.981 Y-35.267 E0.0038
G1 X21.085 Y-36.163 E0.0485
G1 X20.434 Y-36.163 E0.0249
G1 X21.557 Y-35.040 E0.0607
G1 X21.133 Y-34.813 E0.0184
G1 X19.784 Y-36.163 E0.0730
G1 X19.133 Y-36.163 E0.0249
G1 X20.709 Y-34.587 E0.0852
G1 X20.285 Y-34.360 E0.0184
G1 X18.483 Y-36.163 E0.0975
G1 X17.832 Y-36.163 E0.0249
G1 X19.861 Y-34.134 E0.1098
G1 X19.437 Y-33.907 E0.0184
G1 X17.182 Y-36.163 E0.1220
G1 X16.531 Y-36.163 E0.0249
G1 X19.029 Y-33.665 E0.1351
G1 X18.671 Y-33.372 E0.0177
G1 X15.881 Y-36.163 E0.1510
G1 X15.230 Y-36.162 E0.0249
G1 X18.314 Y-33.078 E0.1668
G1 X17.957 Y-32.785 E0.0177
G1 X14.580 Y-36.162 E0.1827
