; G-Code generated by Simplify3D(R) Version 4.1.2
; Apr 2, 2020 at 2:11:06 PM
; Settings Summary
;   processName,Process1
;   applyToModels,Diffuser,Diffuser(2)
;   profileName,MakerBot Replicator 2 HBP (modified)
;   profileVersion,2020-03-12 10:48:50
;   baseProfile,MakerBot Replicator 2(2)
;   printMaterial,PLA
;   printQuality,Medium
;   printExtruders,
;   extruderName,Primary Extruder
;   extruderToolheadNumber,0
;   extruderDiameter,0.4
;   extruderAutoWidth,0
;   extruderWidth,0.4
;   extrusionMultiplier,1
;   extruderUseRetract,1
;   extruderRetractionDistance,1.9
;   extruderExtraRestartDistance,0
;   extruderRetractionZLift,0.5
;   extruderRetractionSpeed,1200
;   extruderUseCoasting,0
;   extruderCoastingDistance,0.2
;   extruderUseWipe,0
;   extruderWipeDistance,5
;   primaryExtruder,0
;   layerHeight,0.2
;   topSolidLayers,3
;   bottomSolidLayers,3
;   perimeterOutlines,2
;   printPerimetersInsideOut,1
;   startPointOption,3
;   startPointOriginX,0
;   startPointOriginY,150
;   sequentialIslands,0
;   spiralVaseMode,0
;   firstLayerHeightPercentage,100
;   firstLayerWidthPercentage,115
;   firstLayerUnderspeed,0.5
;   useRaft,0
;   raftExtruder,0
;   raftTopLayers,2
;   raftBaseLayers,1
;   raftOffset,1
;   raftSeparationDistance,0.14
;   raftTopInfill,90
;   aboveRaftSpeedMultiplier,0.3
;   useSkirt,0
;   skirtExtruder,0
;   skirtLayers,1
;   skirtOutlines,5
;   skirtOffset,0
;   usePrimePillar,0
;   primePillarExtruder,999
;   primePillarWidth,12
;   primePillarLocation,7
;   primePillarSpeedMultiplier,1
;   useOozeShield,0
;   oozeShieldExtruder,999
;   oozeShieldOffset,2
;   oozeShieldOutlines,1
;   oozeShieldSidewallShape,1
;   oozeShieldSidewallAngle,30
;   oozeShieldSpeedMultiplier,1
;   infillExtruder,0
;   internalInfillPattern,Rectilinear
;   externalInfillPattern,Rectilinear
;   infillPercentage,15
;   outlineOverlapPercentage,25
;   infillExtrusionWidthPercentage,100
;   minInfillLength,5
;   infillLayerInterval,1
;   internalInfillAngles,45,-45
;   overlapInternalInfillAngles,0
;   externalInfillAngles,45,-45
;   generateSupport,0
;   supportExtruder,0
;   supportInfillPercentage,30
;   supportExtraInflation,0.5
;   supportBaseLayers,0
;   denseSupportExtruder,0
;   denseSupportLayers,2
;   denseSupportInfillPercentage,90
;   supportLayerInterval,1
;   supportHorizontalPartOffset,0.3
;   supportUpperSeparationLayers,1
;   supportLowerSeparationLayers,1
;   supportType,1
;   supportGridSpacing,2
;   maxOverhangAngle,45
;   supportAngles,45,-45
;   temperatureName,Primary Extruder,Heated Build Platform
;   temperatureNumber,0,0
;   temperatureSetpointCount,1,1
;   temperatureSetpointLayers,1,1
;   temperatureSetpointTemperatures,230,60
;   temperatureStabilizeAtStartup,1,1
;   temperatureHeatedBed,0,1
;   fanLayers,1,2
;   fanSpeeds,0,100
;   blipFanToFullPower,1
;   adjustSpeedForCooling,1
;   minSpeedLayerTime,15
;   minCoolingSpeedSlowdown,20
;   increaseFanForCooling,1
;   minFanLayerTime,45
;   maxCoolingFanSpeed,100
;   increaseFanForBridging,1
;   bridgingFanSpeed,100
;   use5D,1
;   relativeEdistances,1
;   allowEaxisZeroing,0
;   independentExtruderAxes,1
;   includeM10123,0
;   stickySupport,1
;   applyToolheadOffsets,0
;   gcodeXoffset,0
;   gcodeYoffset,0
;   gcodeZoffset,0
;   overrideMachineDefinition,1
;   machineTypeOverride,0
;   strokeXoverride,280
;   strokeYoverride,150
;   strokeZoverride,150
;   originOffsetXoverride,140
;   originOffsetYoverride,75
;   originOffsetZoverride,0
;   homeXdirOverride,1
;   homeYdirOverride,1
;   homeZdirOverride,-1
;   flipXoverride,1
;   flipYoverride,-1
;   flipZoverride,1
;   toolheadOffsets,0,0|0,0|0,0|0,0|0,0|0,0
;   overrideFirmwareConfiguration,1
;   firmwareTypeOverride,MakerBot/Sailfish Firmware
;   GPXconfigOverride,r2h
;   baudRateOverride,115200
;   overridePrinterModels,1
;   printerModelsOverride,MakerBot_Replicator2.stl
;   startingGcode,; **** Replicator 2 start.gcode ****,M73 P0 ; enable build progress,G162 X Y F3000 ; home XY maximum,G161 Z F1200 ; home Z minimum,G92 Z-5 ; set Z to -5,G1 Z0 ; move Z to 0,G161 Z F100 ; home Z slowly,M132 X Y Z A B ; recall home offsets,G1 X-145 Y-75 Z30 F9000 ; move to wait position off table,G130 X20 Y20 Z20 A20 B20 ; lower stepper Vrefs while heating,M126 S[fan_speed_pwm],M140 S[bed0_temperature] T0,M134 T0 ; stabilize bed temperature,M104 S[extruder0_temperature] T0,M133 T0 ; stabilize extruder temperature,G130 X127 Y127 Z40 A127 B127 ; default stepper Vrefs,G92 A0 ; zero extruder,G1 Z0.4 ; position nozzle,G1 E25 F300 ; purge nozzle,G1 X-140 Y-70 Z0.15 F1200 ; slow wipe,G1 X-135 Y-65 Z0.5 F1200 ; lift,G92 A0 ; zero extruder,M73 P1 ;@body (notify GPX body has started),; **** end of start.gcode ****
;   layerChangeGcode,
;   retractionGcode,
;   toolChangeGcode,
;   endingGcode,; **** Replicator 2 end.gcode ****,M73 P100 ; end build progress,G1 Z155 F1000 ; send Z axis to bottom of machine,M104 S0 T0 ; cool down extruder,M140 S0 T0 ; cool down HBP,M127 ; stop blower fan,G162 X Y F3000 ; home XY maximum,M18 ; disable stepper,M0 ; stop codes,M72 P1 ; play Ta-Da song,; **** end of end.gcode ****
;   exportFileFormat,gcode
;   celebration,0
;   celebrationSong,Random Song
;   postProcessing,
;   defaultSpeed,4800
;   outlineUnderspeed,0.5
;   solidInfillUnderspeed,1
;   supportUnderspeed,1
;   rapidXYspeed,9000
;   rapidZspeed,1200
;   minBridgingArea,50
;   bridgingExtraInflation,0
;   bridgingExtrusionMultiplier,1
;   bridgingSpeedMultiplier,0.8
;   useFixedBridgingAngle,0
;   fixedBridgingAngle,0
;   applyBridgingToPerimeters,0
;   filamentDiameters,1.75|1.75|1.75|1.75|1.75|1.75
;   filamentPricesPerKg,46|46|46|46|46|46
;   filamentDensities,1.25|1.25|1.25|1.25|1.25|1.25
;   useMinPrintHeight,0
;   minPrintHeight,0
;   useMaxPrintHeight,0
;   maxPrintHeight,4.84
;   useDiaphragm,0
;   diaphragmLayerInterval,20
;   robustSlicing,1
;   mergeAllIntoSolid,0
;   onlyRetractWhenCrossingOutline,0
;   retractBetweenLayers,0
;   useRetractionMinTravel,1
;   retractionMinTravel,7
;   retractWhileWiping,1
;   onlyWipeOutlines,1
;   avoidCrossingOutline,0
;   maxMovementDetourFactor,3
;   toolChangeRetractionDistance,12
;   toolChangeExtraRestartDistance,-0.5
;   toolChangeRetractionSpeed,600
;   externalThinWallType,0
;   internalThinWallType,0
;   thinWallAllowedOverlapPercentage,10
;   singleExtrusionMinLength,1
;   singleExtrusionMinPrintingWidthPercentage,50
;   singleExtrusionMaxPrintingWidthPercentage,200
;   singleExtrusionEndpointExtension,0.2
;   horizontalSizeCompensation,0
G90
M83
; **** Replicator 2 start.gcode ****
M73 P0 ; enable build progress
G162 X Y F3000 ; home XY maximum
G161 Z F1200 ; home Z minimum
G92 Z-5 ; set Z to -5
G1 Z0 ; move Z to 0
G161 Z F100 ; home Z slowly
M132 X Y Z A B ; recall home offsets
G1 X-145 Y-75 Z30 F9000 ; move to wait position off table
G130 X20 Y20 Z20 A20 B20 ; lower stepper Vrefs while heating
M127
M140 S60 T0
M134 T0 ; stabilize bed temperature
M104 S230 T0
M133 T0 ; stabilize extruder temperature
G130 X127 Y127 Z40 A127 B127 ; default stepper Vrefs
G92 A0 ; zero extruder
G1 Z0.4 ; position nozzle
G1 E25 F300 ; purge nozzle
G1 X-140 Y-70 Z0.15 F1200 ; slow wipe
G1 X-135 Y-65 Z0.5 F1200 ; lift
G92 A0 ; zero extruder
M73 P1 ;@body (notify GPX body has started)
; **** end of start.gcode ****
; process Process1
; layer 1, Z = 0.200
M135 T0
G1 E-1.9000 F1200
; feature inner perimeter
; tool H0.200 W0.460
G1 Z0.500 F1200
G1 X-3.199 Y16.659 F9000
G1 Z0.200 F1200
G1 E1.9000 F1200
G1 X-24.946 Y16.659 E0.8318 F1800
G1 X-22.202 Y15.827 E0.1097
G1 X-19.304 Y14.278 E0.1257
G1 X-16.764 Y12.194 E0.1257
G1 X-14.679 Y9.654 E0.1257
G1 X-13.131 Y6.756 E0.1257
G1 X-12.177 Y3.612 E0.1257
G1 X-11.855 Y0.342 E0.1257
G1 X-12.177 Y-2.928 E0.1257
G1 X-13.131 Y-6.073 E0.1257
G1 X-14.679 Y-8.971 E0.1257
G1 X-16.764 Y-11.511 E0.1257
G1 X-19.304 Y-13.595 E0.1257
G1 X-22.202 Y-15.144 E0.1257
G1 X-25.346 Y-16.098 E0.1257
G1 X-28.616 Y-16.420 E0.1257
G1 X-31.886 Y-16.098 E0.1257
G1 X-35.030 Y-15.144 E0.1257
G1 X-37.928 Y-13.595 E0.1257
G1 X-40.468 Y-11.511 E0.1257
G1 X-42.553 Y-8.971 E0.1257
G1 X-44.102 Y-6.073 E0.1257
G1 X-45.055 Y-2.928 E0.1257
G1 X-45.377 Y0.342 E0.1257
G1 X-45.055 Y3.612 E0.1257
G1 X-44.102 Y6.756 E0.1257
G1 X-42.553 Y9.654 E0.1257
G1 X-40.468 Y12.194 E0.1257
G1 X-37.928 Y14.278 E0.1257
G1 X-35.030 Y15.827 E0.1257
G1 X-32.286 Y16.659 E0.1097
G1 X-54.034 Y16.659 E0.8318
G1 X-54.032 Y-16.658 E1.2743
G1 X-3.200 Y-16.659 E1.9443
G1 X-3.199 Y16.659 E1.2744
; feature outer perimeter
G1 X-2.739 Y17.119 F9000
G1 X-54.494 Y17.119 E1.9796 F1200
G1 X-54.492 Y-17.118 E1.3095
G1 X-2.740 Y-17.119 E1.9795
G1 X-2.739 Y17.119 E1.3096
G1 E-1.9000 F1200
G1 Z0.700 F1200
G1 X-15.064 Y9.397 F9000
G1 Z0.200 F1200
G1 E1.9000 F1200
G1 X-13.558 Y6.579 E0.1222 F1200
G1 X-12.630 Y3.521 E0.1222
G1 X-12.317 Y0.342 E0.1222
G1 X-12.630 Y-2.838 E0.1222
G1 X-13.558 Y-5.896 E0.1222
G1 X-15.064 Y-8.714 E0.1222
G1 X-17.091 Y-11.184 E0.1222
G1 X-19.561 Y-13.211 E0.1222
G1 X-22.379 Y-14.717 E0.1222
G1 X-25.436 Y-15.644 E0.1222
G1 X-28.616 Y-15.958 E0.1222
G1 X-31.796 Y-15.644 E0.1222
G1 X-34.853 Y-14.717 E0.1222
G1 X-37.671 Y-13.211 E0.1222
G1 X-40.141 Y-11.184 E0.1222
G1 X-42.168 Y-8.714 E0.1222
G1 X-43.675 Y-5.896 E0.1222
G1 X-44.602 Y-2.838 E0.1222
G1 X-44.915 Y0.342 E0.1222
G1 X-44.602 Y3.521 E0.1222
G1 X-43.675 Y6.579 E0.1222
G1 X-42.168 Y9.397 E0.1222
G1 X-40.141 Y11.867 E0.1222
G1 X-37.671 Y13.894 E0.1222
G1 X-34.853 Y15.400 E0.1222
G1 X-31.796 Y16.327 E0.1222
G1 X-28.616 Y16.641 E0.1222
G1 X-25.436 Y16.327 E0.1222
G1 X-22.379 Y15.400 E0.1222
G1 X-19.561 Y13.894 E0.1222
G1 X-17.091 Y11.867 E0.1222
G1 X-15.064 Y9.397 E0.1222
G1 E-1.9000 F1200
; feature solid layer
G1 Z0.700 F1200
G1 X-22.067 Y16.314 F9000
G1 Z0.200 F1200
G1 E1.9000 F1200
G1 X-22.196 Y16.186 E0.0070 F2400
G1 X-22.069 Y16.147 E0.0051
G1 X-21.753 Y15.978 E0.0137
G1 X-21.417 Y16.314 E0.0182
G1 X-20.766 Y16.314 E0.0249
G1 X-21.329 Y15.752 E0.0304
G1 X-20.905 Y15.525 E0.0184
G1 X-20.116 Y16.314 E0.0427
G1 X-19.465 Y16.314 E0.0249
G1 X-20.481 Y15.298 E0.0550
G1 X-20.057 Y15.072 E0.0184
G1 X-18.815 Y16.314 E0.0672
G1 X-18.164 Y16.314 E0.0249
G1 X-19.633 Y14.845 E0.0795
G1 X-19.209 Y14.619 E0.0184
G1 X-17.514 Y16.314 E0.0917
G1 X-16.863 Y16.314 E0.0249
G1 X-18.837 Y14.341 E0.1068
G1 X-18.479 Y14.048 E0.0177
G1 X-16.212 Y16.314 E0.1226
G1 X-15.562 Y16.314 E0.0249
G1 X-18.122 Y13.754 E0.1385
G1 X-17.765 Y13.461 E0.0177
G1 X-14.911 Y16.314 E0.1543
G1 X-14.261 Y16.314 E0.0249
G1 X-17.407 Y13.168 E0.1702
G1 X-17.050 Y12.875 E0.0177
G1 X-13.610 Y16.314 E0.1861
G1 X-12.960 Y16.314 E0.0249
G1 X-16.693 Y12.581 E0.2019
G1 X-16.519 Y12.439 E0.0086
G1 X-16.368 Y12.255 E0.0091
G1 X-12.309 Y16.314 E0.2196
G1 X-11.659 Y16.314 E0.0249
G1 X-16.075 Y11.898 E0.2389
G1 X-15.782 Y11.541 E0.0177
G1 X-11.008 Y16.314 E0.2582
G1 X-10.358 Y16.314 E0.0249
G1 X-15.489 Y11.183 E0.2776
G1 X-15.195 Y10.826 E0.0177
G1 X-9.707 Y16.314 E0.2969
G1 X-9.057 Y16.314 E0.0249
G1 X-14.902 Y10.469 E0.3162
G1 X-14.609 Y10.112 E0.0177
G1 X-8.406 Y16.314 E0.3355
G1 X-7.755 Y16.314 E0.0249
G1 X-14.333 Y9.737 E0.3558
G1 X-14.106 Y9.313 E0.0184
G1 X-7.105 Y16.314 E0.3787
G1 X-6.454 Y16.314 E0.0249
G1 X-13.880 Y8.889 E0.4017
G1 X-13.653 Y8.465 E0.0184
G1 X-5.804 Y16.314 E0.4246
G1 X-5.153 Y16.314 E0.0249
G1 X-13.426 Y8.041 E0.4475
G1 X-13.200 Y7.617 E0.0184
G1 X-4.503 Y16.314 E0.4704
G1 X-3.852 Y16.314 E0.0249
G1 X-12.973 Y7.193 E0.4934
G1 X-12.810 Y6.888 E0.0132
G1 X-12.768 Y6.748 E0.0056
G1 X-3.544 Y15.973 E0.4990
G1 X-3.544 Y15.322 E0.0249
G1 X-12.616 Y6.249 E0.4908
G1 X-12.465 Y5.750 E0.0200
G1 X-3.544 Y14.671 E0.4826
G1 X-3.544 Y14.021 E0.0249
G1 X-12.314 Y5.251 E0.4744
G1 X-12.162 Y4.752 E0.0200
G1 X-3.544 Y13.370 E0.4662
G1 X-3.544 Y12.720 E0.0249
G1 X-12.011 Y4.253 E0.4580
G1 X-11.859 Y3.754 E0.0200
G1 X-3.544 Y12.069 E0.4498
G1 X-3.544 Y11.419 E0.0249
G1 X-11.787 Y3.175 E0.4459
G1 X-11.729 Y2.583 E0.0228
G1 X-3.544 Y10.768 E0.4427
G1 X-3.544 Y10.118 E0.0249
G1 X-11.670 Y1.991 E0.4396
G1 X-11.612 Y1.399 E0.0228
G1 X-3.544 Y9.467 E0.4364
G1 X-3.544 Y8.816 E0.0249
G1 X-11.554 Y0.806 E0.4333
G1 X-11.508 Y0.342 E0.0179
G1 X-11.523 Y0.186 E0.0060
G1 X-3.544 Y8.166 E0.4316
G1 X-3.544 Y7.515 E0.0249
G1 X-11.594 Y-0.535 E0.4355
G1 X-11.665 Y-1.257 E0.0277
G1 X-3.544 Y6.865 E0.4393
G1 X-3.544 Y6.214 E0.0249
G1 X-11.737 Y-1.978 E0.4432
G1 X-11.808 Y-2.700 E0.0277
G1 X-3.544 Y5.564 E0.4470
G1 X-3.544 Y4.913 E0.0249
G1 X-12.004 Y-3.547 E0.4576
G1 X-12.287 Y-4.481 E0.0373
G1 X-3.544 Y4.262 E0.4729
G1 X-3.544 Y3.612 E0.0249
G1 X-12.570 Y-5.414 E0.4883
G1 X-12.810 Y-6.205 E0.0316
G1 X-12.925 Y-6.419 E0.0093
G1 X-3.544 Y2.961 E0.5074
G1 X-3.544 Y2.311 E0.0249
G1 X-13.672 Y-7.817 E0.5478
G1 E-1.9000 F1200
G1 Z0.700 F1200
G1 X-3.954 Y-16.314 F9000
G1 Z0.200 F1200
G1 E1.9000 F1200
G1 X-3.545 Y-15.905 E0.0222 F2400
G1 X-3.545 Y-15.254 E0.0249
G1 X-4.605 Y-16.314 E0.0573
G1 X-5.255 Y-16.314 E0.0249
G1 X-3.545 Y-14.604 E0.0925
G1 X-3.545 Y-13.953 E0.0249
G1 X-5.906 Y-16.314 E0.1277
G1 X-6.556 Y-16.314 E0.0249
G1 X-3.545 Y-13.303 E0.1629
G1 X-3.544 Y-12.652 E0.0249
G1 X-7.207 Y-16.314 E0.1981
G1 X-7.857 Y-16.314 E0.0249
G1 X-3.544 Y-12.001 E0.2333
G1 X-3.544 Y-11.351 E0.0249
G1 X-8.508 Y-16.314 E0.2685
G1 X-9.158 Y-16.314 E0.0249
G1 X-3.544 Y-10.700 E0.3037
G1 X-3.544 Y-10.050 E0.0249
G1 X-9.809 Y-16.314 E0.3389
G1 X-10.459 Y-16.314 E0.0249
G1 X-3.544 Y-9.399 E0.3740
G1 X-3.544 Y-8.749 E0.0249
G1 X-11.110 Y-16.314 E0.4092
G1 X-11.760 Y-16.314 E0.0249
G1 X-3.544 Y-8.098 E0.4444
G1 X-3.544 Y-7.448 E0.0249
G1 X-12.411 Y-16.314 E0.4796
G1 X-13.061 Y-16.314 E0.0249
G1 X-3.544 Y-6.797 E0.5148
G1 X-3.544 Y-6.146 E0.0249
G1 X-13.712 Y-16.314 E0.5500
G1 X-14.362 Y-16.314 E0.0249
G1 X-3.544 Y-5.496 E0.5852
G1 X-3.544 Y-4.845 E0.0249
G1 X-15.013 Y-16.314 E0.6204
G1 X-15.663 Y-16.314 E0.0249
G1 X-3.544 Y-4.195 E0.6556
G1 X-3.544 Y-3.544 E0.0249
G1 X-16.314 Y-16.314 E0.6907
G1 X-16.964 Y-16.314 E0.0249
G1 X-3.544 Y-2.894 E0.7259
G1 X-3.544 Y-2.243 E0.0249
G1 X-17.615 Y-16.314 E0.7611
G1 X-18.265 Y-16.314 E0.0249
G1 X-3.544 Y-1.593 E0.7963
G1 X-3.544 Y-0.942 E0.0249
G1 X-18.916 Y-16.314 E0.8315
G1 X-19.567 Y-16.314 E0.0249
G1 X-3.544 Y-0.291 E0.8667
G1 X-3.544 Y0.359 E0.0249
G1 X-20.217 Y-16.314 E0.9019
G1 X-20.868 Y-16.314 E0.0249
G1 X-3.544 Y1.010 E0.9371
G1 X-3.544 Y1.660 E0.0249
G1 X-14.500 Y-9.296 E0.5926
G1 X-16.519 Y-11.756 E0.1217
G1 X-18.979 Y-13.775 E0.1217
G1 X-21.518 Y-16.314 E0.1373
G1 X-22.169 Y-16.314 E0.0249
G1 X-20.458 Y-14.603 E0.0925
G1 X-21.855 Y-15.350 E0.0606
G1 X-22.819 Y-16.314 E0.0521
G1 X-23.470 Y-16.314 E0.0249
G1 X-22.860 Y-15.704 E0.0330
G1 X-23.794 Y-15.987 E0.0373
G1 X-24.120 Y-16.314 E0.0176
G1 X-24.771 Y-16.314 E0.0249
G1 X-24.728 Y-16.271 E0.0023
G1 E-1.9000 F1200
G1 Z0.700 F1200
G1 X-32.577 Y-16.313 F9000
G1 Z0.200 F1200
G1 E1.9000 F1200
G1 X-32.527 Y-16.264 E0.0027 F2400
G1 X-33.026 Y-16.112 E0.0200
G1 X-33.227 Y-16.313 E0.0109
G1 X-33.878 Y-16.313 E0.0249
G1 X-33.525 Y-15.961 E0.0191
G1 X-34.025 Y-15.810 E0.0200
G1 X-34.528 Y-16.313 E0.0272
G1 X-35.179 Y-16.313 E0.0249
G1 X-34.524 Y-15.658 E0.0354
G1 X-35.023 Y-15.507 E0.0200
G1 X-35.829 Y-16.313 E0.0436
G1 X-36.480 Y-16.313 E0.0249
G1 X-35.468 Y-15.301 E0.0547
G1 X-35.892 Y-15.075 E0.0184
G1 X-37.130 Y-16.313 E0.0670
G1 X-37.781 Y-16.313 E0.0249
G1 X-36.316 Y-14.848 E0.0793
G1 X-36.740 Y-14.621 E0.0184
G1 X-38.431 Y-16.313 E0.0915
G1 X-39.082 Y-16.313 E0.0249
G1 X-37.164 Y-14.395 E0.1038
G1 X-37.588 Y-14.168 E0.0184
G1 X-39.732 Y-16.313 E0.1160
G1 X-40.383 Y-16.313 E0.0249
G1 X-38.012 Y-13.942 E0.1283
G1 X-38.121 Y-13.883 E0.0047
G1 X-38.386 Y-13.666 E0.0131
G1 X-41.033 Y-16.313 E0.1432
G1 X-41.684 Y-16.313 E0.0249
G1 X-38.743 Y-13.372 E0.1591
G1 X-39.101 Y-13.079 E0.0177
G1 X-42.335 Y-16.313 E0.1749
G1 X-42.985 Y-16.313 E0.0249
G1 X-39.458 Y-12.786 E0.1908
G1 X-39.815 Y-12.493 E0.0177
G1 X-43.636 Y-16.313 E0.2066
G1 X-44.286 Y-16.313 E0.0249
G1 X-40.173 Y-12.199 E0.2225
G1 X-40.530 Y-11.906 E0.0177
G1 X-44.937 Y-16.313 E0.2384
G1 X-45.587 Y-16.313 E0.0249
G1 X-40.856 Y-11.582 E0.2559
