; G-Code generated by Simplify3D(R) Version 4.1.2
; Apr 2, 2020 at 2:16:51 PM
; Settings Summary
;   processName,Process1
;   applyToModels,orbV1R1,orbV1R1(2),orbV1R1(3),orbV1R1(3)(2)
;   profileName,MakerBot Replicator 2 HBP (modified)
;   profileVersion,2020-03-12 10:48:50
;   baseProfile,MakerBot Replicator 2(2)
;   printMaterial,PLA
;   printQuality,Medium
;   printExtruders,
;   extruderName,Primary Extruder
;   extruderToolheadNumber,0
;   extruderDiameter,0.4
;   extruderAutoWidth,0
;   extruderWidth,0.4
;   extrusionMultiplier,1
;   extruderUseRetract,1
;   extruderRetractionDistance,1.9
;   extruderExtraRestartDistance,0
;   extruderRetractionZLift,0.5
;   extruderRetractionSpeed,1200
;   extruderUseCoasting,0
;   extruderCoastingDistance,0.2
;   extruderUseWipe,0
;   extruderWipeDistance,5
;   primaryExtruder,0
;   layerHeight,0.2
;   topSolidLayers,3
;   bottomSolidLayers,3
;   perimeterOutlines,2
;   printPerimetersInsideOut,1
;   startPointOption,3
;   startPointOriginX,0
;   startPointOriginY,150
;   sequentialIslands,0
;   spiralVaseMode,0
;   firstLayerHeightPercentage,100
;   firstLayerWidthPercentage,115
;   firstLayerUnderspeed,0.5
;   useRaft,0
;   raftExtruder,0
;   raftTopLayers,2
;   raftBaseLayers,1
;   raftOffset,1
;   raftSeparationDistance,0.14
;   raftTopInfill,90
;   aboveRaftSpeedMultiplier,0.3
;   useSkirt,0
;   skirtExtruder,0
;   skirtLayers,1
;   skirtOutlines,5
;   skirtOffset,0
;   usePrimePillar,0
;   primePillarExtruder,999
;   primePillarWidth,12
;   primePillarLocation,7
;   primePillarSpeedMultiplier,1
;   useOozeShield,0
;   oozeShieldExtruder,999
;   oozeShieldOffset,2
;   oozeShieldOutlines,1
;   oozeShieldSidewallShape,1
;   oozeShieldSidewallAngle,30
;   oozeShieldSpeedMultiplier,1
;   infillExtruder,0
;   internalInfillPattern,Rectilinear
;   externalInfillPattern,Rectilinear
;   infillPercentage,15
;   outlineOverlapPercentage,25
;   infillExtrusionWidthPercentage,100
;   minInfillLength,5
;   infillLayerInterval,1
;   internalInfillAngles,45,-45
;   overlapInternalInfillAngles,0
;   externalInfillAngles,45,-45
;   generateSupport,0
;   supportExtruder,0
;   supportInfillPercentage,30
;   supportExtraInflation,0.5
;   supportBaseLayers,0
;   denseSupportExtruder,0
;   denseSupportLayers,2
;   denseSupportInfillPercentage,90
;   supportLayerInterval,1
;   supportHorizontalPartOffset,0.3
;   supportUpperSeparationLayers,1
;   supportLowerSeparationLayers,1
;   supportType,1
;   supportGridSpacing,2
;   maxOverhangAngle,45
;   supportAngles,45,-45
;   temperatureName,Primary Extruder,Heated Build Platform
;   temperatureNumber,0,0
;   temperatureSetpointCount,1,1
;   temperatureSetpointLayers,1,1
;   temperatureSetpointTemperatures,230,60
;   temperatureStabilizeAtStartup,1,1
;   temperatureHeatedBed,0,1
;   fanLayers,1,2
;   fanSpeeds,0,100
;   blipFanToFullPower,1
;   adjustSpeedForCooling,1
;   minSpeedLayerTime,15
;   minCoolingSpeedSlowdown,20
;   increaseFanForCooling,1
;   minFanLayerTime,45
;   maxCoolingFanSpeed,100
;   increaseFanForBridging,1
;   bridgingFanSpeed,100
;   use5D,1
;   relativeEdistances,1
;   allowEaxisZeroing,0
;   independentExtruderAxes,1
;   includeM10123,0
;   stickySupport,1
;   applyToolheadOffsets,0
;   gcodeXoffset,0
;   gcodeYoffset,0
;   gcodeZoffset,0
;   overrideMachineDefinition,1
;   machineTypeOverride,0
;   strokeXoverride,280
;   strokeYoverride,150
;   strokeZoverride,150
;   originOffsetXoverride,140
;   originOffsetYoverride,75
;   originOffsetZoverride,0
;   homeXdirOverride,1
;   homeYdirOverride,1
;   homeZdirOverride,-1
;   flipXoverride,1
;   flipYoverride,-1
;   flipZoverride,1
;   toolheadOffsets,0,0|0,0|0,0|0,0|0,0|0,0
;   overrideFirmwareConfiguration,1
;   firmwareTypeOverride,MakerBot/Sailfish Firmware
;   GPXconfigOverride,r2h
;   baudRateOverride,115200
;   overridePrinterModels,1
;   printerModelsOverride,MakerBot_Replicator2.stl
;   startingGcode,; **** Replicator 2 start.gcode ****,M73 P0 ; enable build progress,G162 X Y F3000 ; home XY maximum,G161 Z F1200 ; home Z minimum,G92 Z-5 ; set Z to -5,G1 Z0 ; move Z to 0,G161 Z F100 ; home Z slowly,M132 X Y Z A B ; recall home offsets,G1 X-145 Y-75 Z30 F9000 ; move to wait position off table,G130 X20 Y20 Z20 A20 B20 ; lower stepper Vrefs while heating,M126 S[fan_speed_pwm],M140 S[bed0_temperature] T0,M134 T0 ; stabilize bed temperature,M104 S[extruder0_temperature] T0,M133 T0 ; stabilize extruder temperature,G130 X127 Y127 Z40 A127 B127 ; default stepper Vrefs,G92 A0 ; zero extruder,G1 Z0.4 ; position nozzle,G1 E25 F300 ; purge nozzle,G1 X-140 Y-70 Z0.15 F1200 ; slow wipe,G1 X-135 Y-65 Z0.5 F1200 ; lift,G92 A0 ; zero extruder,M73 P1 ;@body (notify GPX body has started),; **** end of start.gcode ****
;   layerChangeGcode,
;   retractionGcode,
;   toolChangeGcode,
;   endingGcode,; **** Replicator 2 end.gcode ****,M73 P100 ; end build progress,G1 Z155 F1000 ; send Z axis to bottom of machine,M104 S0 T0 ; cool down extruder,M140 S0 T0 ; cool down HBP,M127 ; stop blower fan,G162 X Y F3000 ; home XY maximum,M18 ; disable stepper,M0 ; stop codes,M72 P1 ; play Ta-Da song,; **** end of end.gcode ****
;   exportFileFormat,gcode
;   celebration,0
;   celebrationSong,Random Song
;   postProcessing,
;   defaultSpeed,4800
;   outlineUnderspeed,0.5
;   solidInfillUnderspeed,1
;   supportUnderspeed,1
;   rapidXYspeed,9000
;   rapidZspeed,1200
;   minBridgingArea,50
;   bridgingExtraInflation,0
;   bridgingExtrusionMultiplier,1
;   bridgingSpeedMultiplier,0.8
;   useFixedBridgingAngle,0
;   fixedBridgingAngle,0
;   applyBridgingToPerimeters,0
;   filamentDiameters,1.75|1.75|1.75|1.75|1.75|1.75
;   filamentPricesPerKg,46|46|46|46|46|46
;   filamentDensities,1.25|1.25|1.25|1.25|1.25|1.25
;   useMinPrintHeight,0
;   minPrintHeight,0
;   useMaxPrintHeight,0
;   maxPrintHeight,4.84
;   useDiaphragm,0
;   diaphragmLayerInterval,20
;   robustSlicing,1
;   mergeAllIntoSolid,0
;   onlyRetractWhenCrossingOutline,0
;   retractBetweenLayers,0
;   useRetractionMinTravel,1
;   retractionMinTravel,7
;   retractWhileWiping,1
;   onlyWipeOutlines,1
;   avoidCrossingOutline,0
;   maxMovementDetourFactor,3
;   toolChangeRetractionDistance,12
;   toolChangeExtraRestartDistance,-0.5
;   toolChangeRetractionSpeed,600
;   externalThinWallType,0
;   internalThinWallType,0
;   thinWallAllowedOverlapPercentage,10
;   singleExtrusionMinLength,1
;   singleExtrusionMinPrintingWidthPercentage,50
;   singleExtrusionMaxPrintingWidthPercentage,200
;   singleExtrusionEndpointExtension,0.2
;   horizontalSizeCompensation,0
G90
M83
; **** Replicator 2 start.gcode ****
M73 P0 ; enable build progress
G162 X Y F3000 ; home XY maximum
G161 Z F1200 ; home Z minimum
G92 Z-5 ; set Z to -5
G1 Z0 ; move Z to 0
G161 Z F100 ; home Z slowly
M132 X Y Z A B ; recall home offsets
G1 X-145 Y-75 Z30 F9000 ; move to wait position off table
G130 X20 Y20 Z20 A20 B20 ; lower stepper Vrefs while heating
M127
M140 S60 T0
M134 T0 ; stabilize bed temperature
M104 S230 T0
M133 T0 ; stabilize extruder temperature
G130 X127 Y127 Z40 A127 B127 ; default stepper Vrefs
G92 A0 ; zero extruder
G1 Z0.4 ; position nozzle
G1 E25 F300 ; purge nozzle
G1 X-140 Y-70 Z0.15 F1200 ; slow wipe
G1 X-135 Y-65 Z0.5 F1200 ; lift
G92 A0 ; zero extruder
M73 P1 ;@body (notify GPX body has started)
; **** end of start.gcode ****
; process Process1
; layer 1, Z = 0.200
M135 T0
G1 E-1.9000 F1200
; feature inner perimeter
; tool H0.200 W0.460
G1 Z0.500 F1200
G1 X7.004 Y14.726 F9000
G1 Z0.200 F1200
G1 E1.9000 F1200
G1 X6.404 Y14.678 E0.0230 F1800
G1 X5.823 Y14.539 E0.0229
G1 X5.271 Y14.310 E0.0229
G1 X4.762 Y13.998 E0.0229
G1 X4.307 Y13.610 E0.0229
G1 X3.919 Y13.156 E0.0229
G1 X3.607 Y12.646 E0.0229
G1 X3.379 Y12.094 E0.0229
G1 X3.239 Y11.513 E0.0229
G1 X3.190 Y10.890 E0.0239
G1 X3.190 Y9.944 E0.0362
G1 X3.239 Y9.322 E0.0239
G1 X3.379 Y8.741 E0.0229
G1 X3.607 Y8.189 E0.0229
G1 X3.919 Y7.679 E0.0229
G1 X4.307 Y7.225 E0.0229
G1 X4.762 Y6.837 E0.0229
G1 X5.271 Y6.524 E0.0229
G1 X5.823 Y6.296 E0.0229
G1 X6.404 Y6.156 E0.0229
G1 X7.004 Y6.109 E0.0230
G1 X8.251 Y6.193 E0.0478
G1 X9.106 Y6.319 E0.0331
G1 X9.857 Y6.506 E0.0296
G1 X10.538 Y6.749 E0.0277
G1 X13.180 Y7.946 E0.1110
G1 X14.410 Y8.448 E0.0508
G1 X15.573 Y8.852 E0.0471
G1 X16.623 Y9.141 E0.0417
G1 X17.656 Y9.334 E0.0402
G1 X18.501 Y9.406 E0.0324
G1 X19.359 Y9.383 E0.0328
G1 X20.182 Y9.269 E0.0318
G1 X21.011 Y9.068 E0.0326
G1 X21.865 Y8.778 E0.0345
G1 X22.795 Y8.381 E0.0387
G1 X25.493 Y7.028 E0.1154
G1 X26.365 Y6.636 E0.0366
G1 X27.168 Y6.341 E0.0327
G1 X27.881 Y6.147 E0.0283
G1 X28.044 Y6.113 E0.0064
G1 X28.600 Y6.157 E0.0213
G1 X29.196 Y6.303 E0.0235
G1 X29.728 Y6.524 E0.0220
G1 X30.237 Y6.836 E0.0228
G1 X30.704 Y7.236 E0.0235
G1 X31.081 Y7.679 E0.0222
G1 X31.389 Y8.181 E0.0225
G1 X31.622 Y8.741 E0.0232
G1 X31.761 Y9.322 E0.0228
G1 X31.810 Y9.944 E0.0239
G1 X31.810 Y10.890 E0.0362
G1 X31.761 Y11.513 E0.0239
G1 X31.621 Y12.094 E0.0229
G1 X31.393 Y12.646 E0.0229
G1 X31.081 Y13.156 E0.0229
G1 X30.693 Y13.610 E0.0229
G1 X30.238 Y13.998 E0.0229
G1 X29.729 Y14.310 E0.0229
G1 X29.177 Y14.539 E0.0228
G1 X28.596 Y14.678 E0.0229
G1 X28.044 Y14.722 E0.0212
G1 X27.881 Y14.688 E0.0064
G1 X27.169 Y14.494 E0.0282
G1 X26.365 Y14.198 E0.0327
G1 X25.489 Y13.805 E0.0367
G1 X22.776 Y12.445 E0.1161
G1 X21.865 Y12.057 E0.0379
G1 X21.011 Y11.766 E0.0345
G1 X20.182 Y11.565 E0.0326
G1 X19.359 Y11.452 E0.0318
G1 X18.501 Y11.429 E0.0328
G1 X17.656 Y11.501 E0.0324
G1 X16.623 Y11.694 E0.0402
G1 X15.573 Y11.982 E0.0417
G1 X14.410 Y12.386 E0.0471
G1 X13.180 Y12.888 E0.0508
G1 X10.538 Y14.085 E0.1110
G1 X9.857 Y14.329 E0.0277
G1 X9.106 Y14.516 E0.0296
G1 X8.251 Y14.642 E0.0331
G1 X7.004 Y14.726 E0.0478
; feature outer perimeter
G1 X7.001 Y15.187 F9000
G1 X6.332 Y15.134 E0.0257 F1200
G1 X5.681 Y14.978 E0.0256
G1 X5.062 Y14.721 E0.0256
G1 X4.491 Y14.371 E0.0256
G1 X3.981 Y13.936 E0.0256
G1 X3.546 Y13.427 E0.0256
G1 X3.196 Y12.856 E0.0256
G1 X2.940 Y12.237 E0.0256
G1 X2.783 Y11.585 E0.0256
G1 X2.730 Y10.908 E0.0260
G1 X2.730 Y9.926 E0.0376
G1 X2.783 Y9.250 E0.0260
G1 X2.940 Y8.598 E0.0256
G1 X3.196 Y7.979 E0.0256
G1 X3.546 Y7.408 E0.0256
G1 X3.981 Y6.898 E0.0256
G1 X4.491 Y6.463 E0.0256
G1 X5.062 Y6.113 E0.0256
G1 X5.681 Y5.857 E0.0256
G1 X6.332 Y5.701 E0.0256
G1 X7.001 Y5.648 E0.0257
G1 X8.300 Y5.735 E0.0498
G1 X9.196 Y5.867 E0.0346
G1 X9.991 Y6.065 E0.0313
G1 X10.711 Y6.323 E0.0293
G1 X13.362 Y7.524 E0.1113
G1 X14.572 Y8.018 E0.0500
G1 X15.709 Y8.413 E0.0460
G1 X16.726 Y8.692 E0.0403
G1 X17.718 Y8.878 E0.0386
G1 X18.514 Y8.945 E0.0306
G1 X19.322 Y8.924 E0.0309
G1 X20.096 Y8.817 E0.0299
G1 X20.882 Y8.626 E0.0310
G1 X21.700 Y8.348 E0.0330
G1 X22.601 Y7.963 E0.0375
G1 X25.295 Y6.612 E0.1153
G1 X26.191 Y6.210 E0.0376
G1 X27.029 Y5.902 E0.0341
G1 X27.774 Y5.700 E0.0295
G1 X28.015 Y5.649 E0.0094
G1 X28.673 Y5.702 E0.0253
G1 X29.340 Y5.865 E0.0263
G1 X29.938 Y6.113 E0.0248
G1 X30.509 Y6.463 E0.0256
G1 X31.030 Y6.911 E0.0263
G1 X31.454 Y7.408 E0.0250
G1 X31.799 Y7.971 E0.0253
G1 X32.060 Y8.598 E0.0260
G1 X32.217 Y9.249 E0.0256
G1 X32.270 Y9.926 E0.0260
G1 X32.270 Y10.908 E0.0376
G1 X32.217 Y11.585 E0.0260
G1 X32.060 Y12.237 E0.0256
G1 X31.804 Y12.856 E0.0256
G1 X31.454 Y13.427 E0.0256
G1 X31.019 Y13.936 E0.0256
G1 X30.509 Y14.371 E0.0256
G1 X29.938 Y14.721 E0.0256
G1 X29.319 Y14.978 E0.0256
G1 X28.668 Y15.134 E0.0256
G1 X28.015 Y15.185 E0.0251
G1 X27.773 Y15.135 E0.0094
G1 X27.029 Y14.932 E0.0295
G1 X26.192 Y14.625 E0.0341
G1 X25.292 Y14.221 E0.0377
G1 X22.583 Y12.862 E0.1159
G1 X21.700 Y12.487 E0.0367
G1 X20.882 Y12.209 E0.0330
G1 X20.096 Y12.018 E0.0310
G1 X19.322 Y11.911 E0.0299
G1 X18.514 Y11.889 E0.0309
G1 X17.718 Y11.957 E0.0306
G1 X16.726 Y12.142 E0.0386
G1 X15.709 Y12.422 E0.0403
G1 X14.572 Y12.817 E0.0460
G1 X13.362 Y13.311 E0.0500
G1 X10.711 Y14.512 E0.1113
G1 X9.991 Y14.770 E0.0293
G1 X9.196 Y14.968 E0.0313
G1 X8.300 Y15.100 E0.0346
G1 X7.001 Y15.187 E0.0498
; feature inner perimeter
G1 X6.946 Y13.561 F9000
G1 X7.500 Y13.610 E0.0213 F1800
G1 X8.054 Y13.561 E0.0213
G1 X8.592 Y13.417 E0.0213
G1 X9.096 Y13.182 E0.0213
G1 X9.552 Y12.863 E0.0213
G1 X9.946 Y12.470 E0.0213
G1 X10.265 Y12.014 E0.0213
G1 X10.500 Y11.509 E0.0213
G1 X10.644 Y10.972 E0.0213
G1 X10.693 Y10.417 E0.0213
G1 X10.644 Y9.863 E0.0213
G1 X10.500 Y9.325 E0.0213
G1 X10.265 Y8.821 E0.0213
G1 X9.946 Y8.365 E0.0213
G1 X9.552 Y7.972 E0.0213
G1 X9.096 Y7.652 E0.0213
G1 X8.592 Y7.417 E0.0213
G1 X8.054 Y7.273 E0.0213
G1 X7.500 Y7.225 E0.0213
G1 X6.946 Y7.273 E0.0213
G1 X6.408 Y7.417 E0.0213
G1 X5.904 Y7.652 E0.0213
G1 X5.448 Y7.972 E0.0213
G1 X5.054 Y8.365 E0.0213
G1 X4.735 Y8.821 E0.0213
G1 X4.500 Y9.325 E0.0213
G1 X4.356 Y9.863 E0.0213
G1 X4.307 Y10.420 E0.0214
G1 X4.362 Y10.996 E0.0221
G1 X4.500 Y11.509 E0.0203
G1 X4.735 Y12.014 E0.0213
G1 X5.054 Y12.470 E0.0213
G1 X5.448 Y12.863 E0.0213
G1 X5.904 Y13.182 E0.0213
G1 X6.408 Y13.417 E0.0213
G1 X6.946 Y13.561 E0.0213
; feature outer perimeter
G1 X7.026 Y13.107 F9000
G1 X7.500 Y13.148 E0.0182 F1200
G1 X7.974 Y13.107 E0.0182
G1 X8.434 Y12.984 E0.0182
G1 X8.865 Y12.782 E0.0182
G1 X9.255 Y12.509 E0.0182
G1 X9.592 Y12.173 E0.0182
G1 X9.865 Y11.783 E0.0182
G1 X10.066 Y11.351 E0.0182
G1 X10.189 Y10.892 E0.0182
G1 X10.231 Y10.417 E0.0182
G1 X10.189 Y9.943 E0.0182
G1 X10.066 Y9.483 E0.0182
G1 X9.865 Y9.052 E0.0182
G1 X9.592 Y8.662 E0.0182
G1 X9.255 Y8.325 E0.0182
G1 X8.865 Y8.052 E0.0182
G1 X8.434 Y7.851 E0.0182
G1 X7.974 Y7.728 E0.0182
G1 X7.500 Y7.686 E0.0182
G1 X7.026 Y7.728 E0.0182
G1 X6.566 Y7.851 E0.0182
G1 X6.135 Y8.052 E0.0182
G1 X5.745 Y8.325 E0.0182
G1 X5.408 Y8.662 E0.0182
G1 X5.135 Y9.052 E0.0182
G1 X4.934 Y9.483 E0.0182
G1 X4.811 Y9.943 E0.0182
G1 X4.769 Y10.418 E0.0182
G1 X4.816 Y10.914 E0.0190
G1 X4.934 Y11.351 E0.0173
G1 X5.135 Y11.783 E0.0182
G1 X5.408 Y12.173 E0.0182
G1 X5.745 Y12.509 E0.0182
G1 X6.135 Y12.782 E0.0182
G1 X6.566 Y12.984 E0.0182
G1 X7.026 Y13.107 E0.0182
G1 E-1.9000 F1200
; feature inner perimeter
G1 Z0.700 F1200
G1 X24.356 Y10.972 F9000
G1 Z0.200 F1200
G1 E1.9000 F1200
G1 X24.501 Y11.511 E0.0214 F1800
G1 X24.737 Y12.016 E0.0213
G1 X25.057 Y12.473 E0.0213
G1 X25.452 Y12.866 E0.0213
G1 X25.909 Y13.185 E0.0213
G1 X26.404 Y13.416 E0.0209
G1 X26.931 Y13.558 E0.0209
G1 X27.496 Y13.610 E0.0217
G1 X28.052 Y13.562 E0.0214
G1 X28.591 Y13.418 E0.0213
G1 X29.096 Y13.182 E0.0213
G1 X29.553 Y12.862 E0.0213
G1 X29.947 Y12.468 E0.0213
G1 X30.266 Y12.011 E0.0213
G1 X30.502 Y11.505 E0.0213
G1 X30.645 Y10.966 E0.0213
G1 X30.692 Y10.412 E0.0213
G1 X30.645 Y9.867 E0.0209
G1 X30.502 Y9.329 E0.0213
G1 X30.266 Y8.824 E0.0213
G1 X29.947 Y8.366 E0.0214
G1 X29.544 Y7.965 E0.0217
G1 X29.096 Y7.652 E0.0209
G1 X28.602 Y7.421 E0.0209
G1 X28.064 Y7.275 E0.0213
G1 X27.501 Y7.225 E0.0217
G1 X26.942 Y7.274 E0.0215
G1 X26.403 Y7.419 E0.0213
G1 X25.899 Y7.655 E0.0213
G1 X25.451 Y7.969 E0.0209
G1 X25.050 Y8.371 E0.0217
G1 X24.736 Y8.820 E0.0210
G1 X24.497 Y9.335 E0.0217
G1 X24.354 Y9.873 E0.0213
G1 X24.307 Y10.418 E0.0209
G1 X24.356 Y10.972 E0.0213
; feature outer perimeter
G1 X24.811 Y10.892 F9000
G1 X24.934 Y11.353 E0.0183 F1200
G1 X25.136 Y11.785 E0.0182
G1 X25.410 Y12.175 E0.0182
G1 X25.748 Y12.512 E0.0182
G1 X26.139 Y12.785 E0.0182
G1 X26.562 Y12.982 E0.0178
G1 X27.012 Y13.104 E0.0178
G1 X27.497 Y13.148 E0.0186
G1 X27.972 Y13.107 E0.0183
G1 X28.433 Y12.984 E0.0182
G1 X28.865 Y12.782 E0.0182
G1 X29.256 Y12.509 E0.0182
G1 X29.593 Y12.171 E0.0182
G1 X29.866 Y11.780 E0.0182
G1 X30.067 Y11.348 E0.0182
G1 X30.190 Y10.887 E0.0182
G1 X30.231 Y10.412 E0.0182
G1 X30.190 Y9.947 E0.0178
G1 X30.067 Y9.487 E0.0182
G1 X29.866 Y9.054 E0.0182
G1 X29.593 Y8.663 E0.0183
G1 X29.248 Y8.320 E0.0186
G1 X28.865 Y8.052 E0.0178
G1 X28.443 Y7.855 E0.0178
G1 X27.983 Y7.730 E0.0182
G1 X27.500 Y7.686 E0.0185
G1 X27.022 Y7.729 E0.0183
G1 X26.562 Y7.853 E0.0182
G1 X26.130 Y8.055 E0.0182
G1 X25.748 Y8.323 E0.0179
G1 X25.404 Y8.667 E0.0186
G1 X25.136 Y9.050 E0.0179
G1 X24.931 Y9.492 E0.0186
G1 X24.809 Y9.953 E0.0182
G1 X24.769 Y10.417 E0.0178
G1 X24.811 Y10.892 E0.0182
; feature solid layer
G1 X26.914 Y13.903 F9000
G1 X27.118 Y14.108 E0.0111 F2400
