; G-Code generated by Simplify3D(R) Version 4.1.2
; Apr 2, 2020 at 2:17:10 PM
; Settings Summary
;   processName,Process1
;   applyToModels,orbV1R1,orbV1R1(2),orbV1R1(3),orbV1R1(3)(2),orbV1R1(4),orbV1R1(2)(2),orbV1R1(3)(3),orbV1R1(3)(2)(2),orbV1R1(3)(2)(2)(2),orbV1R1(3)(2)(2)(3)
;   profileName,MakerBot Replicator 2 HBP (modified)
;   profileVersion,2020-03-12 10:48:50
;   baseProfile,MakerBot Replicator 2(2)
;   printMaterial,PLA
;   printQuality,Medium
;   printExtruders,
;   extruderName,Primary Extruder
;   extruderToolheadNumber,0
;   extruderDiameter,0.4
;   extruderAutoWidth,0
;   extruderWidth,0.4
;   extrusionMultiplier,1
;   extruderUseRetract,1
;   extruderRetractionDistance,1.9
;   extruderExtraRestartDistance,0
;   extruderRetractionZLift,0.5
;   extruderRetractionSpeed,1200
;   extruderUseCoasting,0
;   extruderCoastingDistance,0.2
;   extruderUseWipe,0
;   extruderWipeDistance,5
;   primaryExtruder,0
;   layerHeight,0.2
;   topSolidLayers,3
;   bottomSolidLayers,3
;   perimeterOutlines,2
;   printPerimetersInsideOut,1
;   startPointOption,3
;   startPointOriginX,0
;   startPointOriginY,150
;   sequentialIslands,0
;   spiralVaseMode,0
;   firstLayerHeightPercentage,100
;   firstLayerWidthPercentage,115
;   firstLayerUnderspeed,0.5
;   useRaft,0
;   raftExtruder,0
;   raftTopLayers,2
;   raftBaseLayers,1
;   raftOffset,1
;   raftSeparationDistance,0.14
;   raftTopInfill,90
;   aboveRaftSpeedMultiplier,0.3
;   useSkirt,0
;   skirtExtruder,0
;   skirtLayers,1
;   skirtOutlines,5
;   skirtOffset,0
;   usePrimePillar,0
;   primePillarExtruder,999
;   primePillarWidth,12
;   primePillarLocation,7
;   primePillarSpeedMultiplier,1
;   useOozeShield,0
;   oozeShieldExtruder,999
;   oozeShieldOffset,2
;   oozeShieldOutlines,1
;   oozeShieldSidewallShape,1
;   oozeShieldSidewallAngle,30
;   oozeShieldSpeedMultiplier,1
;   infillExtruder,0
;   internalInfillPattern,Rectilinear
;   externalInfillPattern,Rectilinear
;   infillPercentage,15
;   outlineOverlapPercentage,25
;   infillExtrusionWidthPercentage,100
;   minInfillLength,5
;   infillLayerInterval,1
;   internalInfillAngles,45,-45
;   overlapInternalInfillAngles,0
;   externalInfillAngles,45,-45
;   generateSupport,0
;   supportExtruder,0
;   supportInfillPercentage,30
;   supportExtraInflation,0.5
;   supportBaseLayers,0
;   denseSupportExtruder,0
;   denseSupportLayers,2
;   denseSupportInfillPercentage,90
;   supportLayerInterval,1
;   supportHorizontalPartOffset,0.3
;   supportUpperSeparationLayers,1
;   supportLowerSeparationLayers,1
;   supportType,1
;   supportGridSpacing,2
;   maxOverhangAngle,45
;   supportAngles,45,-45
;   temperatureName,Primary Extruder,Heated Build Platform
;   temperatureNumber,0,0
;   temperatureSetpointCount,1,1
;   temperatureSetpointLayers,1,1
;   temperatureSetpointTemperatures,230,60
;   temperatureStabilizeAtStartup,1,1
;   temperatureHeatedBed,0,1
;   fanLayers,1,2
;   fanSpeeds,0,100
;   blipFanToFullPower,1
;   adjustSpeedForCooling,1
;   minSpeedLayerTime,15
;   minCoolingSpeedSlowdown,20
;   increaseFanForCooling,1
;   minFanLayerTime,45
;   maxCoolingFanSpeed,100
;   increaseFanForBridging,1
;   bridgingFanSpeed,100
;   use5D,1
;   relativeEdistances,1
;   allowEaxisZeroing,0
;   independentExtruderAxes,1
;   includeM10123,0
;   stickySupport,1
;   applyToolheadOffsets,0
;   gcodeXoffset,0
;   gcodeYoffset,0
;   gcodeZoffset,0
;   overrideMachineDefinition,1
;   machineTypeOverride,0
;   strokeXoverride,280
;   strokeYoverride,150
;   strokeZoverride,150
;   originOffsetXoverride,140
;   originOffsetYoverride,75
;   originOffsetZoverride,0
;   homeXdirOverride,1
;   homeYdirOverride,1
;   homeZdirOverride,-1
;   flipXoverride,1
;   flipYoverride,-1
;   flipZoverride,1
;   toolheadOffsets,0,0|0,0|0,0|0,0|0,0|0,0
;   overrideFirmwareConfiguration,1
;   firmwareTypeOverride,MakerBot/Sailfish Firmware
;   GPXconfigOverride,r2h
;   baudRateOverride,115200
;   overridePrinterModels,1
;   printerModelsOverride,MakerBot_Replicator2.stl
;   startingGcode,; **** Replicator 2 start.gcode ****,M73 P0 ; enable build progress,G162 X Y F3000 ; home XY maximum,G161 Z F1200 ; home Z minimum,G92 Z-5 ; set Z to -5,G1 Z0 ; move Z to 0,G161 Z F100 ; home Z slowly,M132 X Y Z A B ; recall home offsets,G1 X-145 Y-75 Z30 F9000 ; move to wait position off table,G130 X20 Y20 Z20 A20 B20 ; lower stepper Vrefs while heating,M126 S[fan_speed_pwm],M140 S[bed0_temperature] T0,M134 T0 ; stabilize bed temperature,M104 S[extruder0_temperature] T0,M133 T0 ; stabilize extruder temperature,G130 X127 Y127 Z40 A127 B127 ; default stepper Vrefs,G92 A0 ; zero extruder,G1 Z0.4 ; position nozzle,G1 E25 F300 ; purge nozzle,G1 X-140 Y-70 Z0.15 F1200 ; slow wipe,G1 X-135 Y-65 Z0.5 F1200 ; lift,G92 A0 ; zero extruder,M73 P1 ;@body (notify GPX body has started),; **** end of start.gcode ****
;   layerChangeGcode,
;   retractionGcode,
;   toolChangeGcode,
;   endingGcode,; **** Replicator 2 end.gcode ****,M73 P100 ; end build progress,G1 Z155 F1000 ; send Z axis to bottom of machine,M104 S0 T0 ; cool down extruder,M140 S0 T0 ; cool down HBP,M127 ; stop blower fan,G162 X Y F3000 ; home XY maximum,M18 ; disable stepper,M0 ; stop codes,M72 P1 ; play Ta-Da song,; **** end of end.gcode ****
;   exportFileFormat,gcode
;   celebration,0
;   celebrationSong,Random Song
;   postProcessing,
;   defaultSpeed,4800
;   outlineUnderspeed,0.5
;   solidInfillUnderspeed,1
;   supportUnderspeed,1
;   rapidXYspeed,9000
;   rapidZspeed,1200
;   minBridgingArea,50
;   bridgingExtraInflation,0
;   bridgingExtrusionMultiplier,1
;   bridgingSpeedMultiplier,0.8
;   useFixedBridgingAngle,0
;   fixedBridgingAngle,0
;   applyBridgingToPerimeters,0
;   filamentDiameters,1.75|1.75|1.75|1.75|1.75|1.75
;   filamentPricesPerKg,46|46|46|46|46|46
;   filamentDensities,1.25|1.25|1.25|1.25|1.25|1.25
;   useMinPrintHeight,0
;   minPrintHeight,0
;   useMaxPrintHeight,0
;   maxPrintHeight,4.84
;   useDiaphragm,0
;   diaphragmLayerInterval,20
;   robustSlicing,1
;   mergeAllIntoSolid,0
;   onlyRetractWhenCrossingOutline,0
;   retractBetweenLayers,0
;   useRetractionMinTravel,1
;   retractionMinTravel,7
;   retractWhileWiping,1
;   onlyWipeOutlines,1
;   avoidCrossingOutline,0
;   maxMovementDetourFactor,3
;   toolChangeRetractionDistance,12
;   toolChangeExtraRestartDistance,-0.5
;   toolChangeRetractionSpeed,600
;   externalThinWallType,0
;   internalThinWallType,0
;   thinWallAllowedOverlapPercentage,10
;   singleExtrusionMinLength,1
;   singleExtrusionMinPrintingWidthPercentage,50
;   singleExtrusionMaxPrintingWidthPercentage,200
;   singleExtrusionEndpointExtension,0.2
;   horizontalSizeCompensation,0
G90
M83
; **** Replicator 2 start.gcode ****
M73 P0 ; enable build progress
G162 X Y F3000 ; home XY maximum
G161 Z F1200 ; home Z minimum
G92 Z-5 ; set Z to -5
G1 Z0 ; move Z to 0
G161 Z F100 ; home Z slowly
M132 X Y Z A B ; recall home offsets
G1 X-145 Y-75 Z30 F9000 ; move to wait position off table
G130 X20 Y20 Z20 A20 B20 ; lower stepper Vrefs while heating
M127
M140 S60 T0
M134 T0 ; stabilize bed temperature
M104 S230 T0
M133 T0 ; stabilize extruder temperature
G130 X127 Y127 Z40 A127 B127 ; default stepper Vrefs
G92 A0 ; zero extruder
G1 Z0.4 ; position nozzle
G1 E25 F300 ; purge nozzle
G1 X-140 Y-70 Z0.15 F1200 ; slow wipe
G1 X-135 Y-65 Z0.5 F1200 ; lift
G92 A0 ; zero extruder
M73 P1 ;@body (notify GPX body has started)
; **** end of start.gcode ****
; process Process1
; layer 1, Z = 0.200
M135 T0
G1 E-1.9000 F1200
; feature inner perimeter
; tool H0.200 W0.460
G1 Z0.500 F1200
G1 X7.004 Y4.307 F9000
G1 Z0.200 F1200
G1 E1.9000 F1200
G1 X6.404 Y4.260 E0.0230 F1800
G1 X5.823 Y4.120 E0.0229
G1 X5.271 Y3.892 E0.0228
G1 X4.762 Y3.580 E0.0229
G1 X4.307 Y3.192 E0.0229
G1 X3.919 Y2.737 E0.0229
G1 X3.607 Y2.228 E0.0229
G1 X3.379 Y1.676 E0.0229
G1 X3.239 Y1.095 E0.0229
G1 X3.190 Y0.472 E0.0239
G1 X3.190 Y-0.474 E0.0362
G1 X3.239 Y-1.097 E0.0239
G1 X3.379 Y-1.678 E0.0229
G1 X3.607 Y-2.230 E0.0229
G1 X3.919 Y-2.739 E0.0229
G1 X4.307 Y-3.194 E0.0228
G1 X4.762 Y-3.582 E0.0229
G1 X5.271 Y-3.894 E0.0229
G1 X5.823 Y-4.123 E0.0229
G1 X6.404 Y-4.262 E0.0229
G1 X7.004 Y-4.309 E0.0230
G1 X8.251 Y-4.226 E0.0478
G1 X9.106 Y-4.099 E0.0331
G1 X9.857 Y-3.913 E0.0296
G1 X10.538 Y-3.669 E0.0277
G1 X13.180 Y-2.472 E0.1110
G1 X14.410 Y-1.970 E0.0508
G1 X15.573 Y-1.566 E0.0471
G1 X16.623 Y-1.277 E0.0417
G1 X17.656 Y-1.084 E0.0402
G1 X18.501 Y-1.013 E0.0324
G1 X19.359 Y-1.036 E0.0328
G1 X20.182 Y-1.149 E0.0318
G1 X21.011 Y-1.350 E0.0326
G1 X21.865 Y-1.641 E0.0345
G1 X22.795 Y-2.037 E0.0387
G1 X25.493 Y-3.390 E0.1154
G1 X26.365 Y-3.782 E0.0366
G1 X27.168 Y-4.077 E0.0327
G1 X27.881 Y-4.271 E0.0283
G1 X28.044 Y-4.305 E0.0064
G1 X28.600 Y-4.261 E0.0213
G1 X29.196 Y-4.115 E0.0235
G1 X29.728 Y-3.894 E0.0220
G1 X30.237 Y-3.582 E0.0228
G1 X30.704 Y-3.182 E0.0235
G1 X31.081 Y-2.739 E0.0222
G1 X31.389 Y-2.238 E0.0225
G1 X31.622 Y-1.677 E0.0232
G1 X31.761 Y-1.097 E0.0228
G1 X31.810 Y-0.474 E0.0239
G1 X31.810 Y0.472 E0.0362
G1 X31.761 Y1.095 E0.0239
G1 X31.621 Y1.676 E0.0229
G1 X31.393 Y2.228 E0.0229
G1 X31.081 Y2.737 E0.0229
G1 X30.693 Y3.192 E0.0229
G1 X30.238 Y3.580 E0.0229
G1 X29.729 Y3.892 E0.0229
G1 X29.177 Y4.120 E0.0228
G1 X28.596 Y4.260 E0.0229
G1 X28.044 Y4.303 E0.0212
G1 X27.881 Y4.269 E0.0064
G1 X27.169 Y4.075 E0.0282
G1 X26.365 Y3.780 E0.0327
G1 X25.489 Y3.387 E0.0367
G1 X22.776 Y2.026 E0.1161
G1 X21.865 Y1.638 E0.0379
G1 X21.011 Y1.348 E0.0345
G1 X20.182 Y1.147 E0.0326
G1 X19.359 Y1.034 E0.0318
G1 X18.501 Y1.011 E0.0328
G1 X17.656 Y1.082 E0.0324
G1 X16.623 Y1.275 E0.0402
G1 X15.573 Y1.564 E0.0417
G1 X14.410 Y1.968 E0.0471
G1 X13.180 Y2.470 E0.0508
G1 X10.538 Y3.667 E0.1110
G1 X9.857 Y3.911 E0.0277
G1 X9.106 Y4.097 E0.0296
G1 X8.251 Y4.224 E0.0331
G1 X7.004 Y4.307 E0.0478
; feature outer perimeter
G1 X7.001 Y4.768 F9000
G1 X6.332 Y4.716 E0.0257 F1200
G1 X5.681 Y4.559 E0.0256
G1 X5.062 Y4.303 E0.0256
G1 X4.491 Y3.953 E0.0256
G1 X3.981 Y3.518 E0.0256
G1 X3.546 Y3.008 E0.0256
G1 X3.196 Y2.437 E0.0256
G1 X2.940 Y1.818 E0.0256
G1 X2.783 Y1.167 E0.0256
G1 X2.730 Y0.490 E0.0260
G1 X2.730 Y-0.492 E0.0376
G1 X2.783 Y-1.169 E0.0260
G1 X2.940 Y-1.820 E0.0256
G1 X3.196 Y-2.439 E0.0256
G1 X3.546 Y-3.010 E0.0256
G1 X3.981 Y-3.520 E0.0256
G1 X4.491 Y-3.955 E0.0256
G1 X5.062 Y-4.305 E0.0256
G1 X5.681 Y-4.561 E0.0256
G1 X6.332 Y-4.718 E0.0256
G1 X7.001 Y-4.770 E0.0257
G1 X8.300 Y-4.684 E0.0498
G1 X9.196 Y-4.551 E0.0346
G1 X9.991 Y-4.354 E0.0313
G1 X10.711 Y-4.096 E0.0293
G1 X13.362 Y-2.895 E0.1113
G1 X14.572 Y-2.401 E0.0500
G1 X15.709 Y-2.006 E0.0460
G1 X16.726 Y-1.726 E0.0403
G1 X17.718 Y-1.541 E0.0386
G1 X18.514 Y-1.473 E0.0306
G1 X19.322 Y-1.495 E0.0309
G1 X20.096 Y-1.602 E0.0299
G1 X20.882 Y-1.792 E0.0310
G1 X21.700 Y-2.070 E0.0330
G1 X22.601 Y-2.455 E0.0375
G1 X25.295 Y-3.806 E0.1153
G1 X26.191 Y-4.208 E0.0376
G1 X27.029 Y-4.516 E0.0341
G1 X27.774 Y-4.719 E0.0295
G1 X28.015 Y-4.769 E0.0094
G1 X28.673 Y-4.717 E0.0253
G1 X29.340 Y-4.554 E0.0263
G1 X29.938 Y-4.305 E0.0248
G1 X30.509 Y-3.955 E0.0256
G1 X31.030 Y-3.508 E0.0263
G1 X31.454 Y-3.010 E0.0250
G1 X31.799 Y-2.448 E0.0253
G1 X32.060 Y-1.820 E0.0260
G1 X32.217 Y-1.169 E0.0256
G1 X32.270 Y-0.492 E0.0260
G1 X32.270 Y0.490 E0.0376
G1 X32.217 Y1.167 E0.0260
G1 X32.060 Y1.818 E0.0256
G1 X31.804 Y2.437 E0.0256
G1 X31.454 Y3.008 E0.0256
G1 X31.019 Y3.518 E0.0256
G1 X30.509 Y3.953 E0.0256
G1 X29.938 Y4.303 E0.0256
G1 X29.319 Y4.559 E0.0256
G1 X28.668 Y4.716 E0.0256
G1 X28.015 Y4.767 E0.0251
G1 X27.773 Y4.717 E0.0094
G1 X27.029 Y4.514 E0.0295
G1 X26.192 Y4.206 E0.0341
G1 X25.292 Y3.802 E0.0377
G1 X22.583 Y2.444 E0.1159
G1 X21.700 Y2.068 E0.0367
G1 X20.882 Y1.790 E0.0330
G1 X20.096 Y1.599 E0.0310
G1 X19.322 Y1.493 E0.0299
G1 X18.514 Y1.471 E0.0309
G1 X17.718 Y1.539 E0.0306
G1 X16.726 Y1.724 E0.0386
G1 X15.709 Y2.004 E0.0403
G1 X14.572 Y2.399 E0.0460
G1 X13.362 Y2.892 E0.0500
G1 X10.711 Y4.094 E0.1113
G1 X9.991 Y4.352 E0.0293
G1 X9.196 Y4.549 E0.0313
G1 X8.300 Y4.681 E0.0346
G1 X7.001 Y4.768 E0.0498
; feature inner perimeter
G1 X6.946 Y3.143 F9000
G1 X7.500 Y3.192 E0.0213 F1800
G1 X8.054 Y3.143 E0.0213
G1 X8.592 Y2.999 E0.0213
G1 X9.096 Y2.764 E0.0213
G1 X9.552 Y2.445 E0.0213
G1 X9.946 Y2.051 E0.0213
G1 X10.265 Y1.595 E0.0213
G1 X10.500 Y1.091 E0.0213
G1 X10.644 Y0.553 E0.0213
G1 X10.693 Y-0.001 E0.0213
G1 X10.644 Y-0.555 E0.0213
G1 X10.500 Y-1.093 E0.0213
G1 X10.265 Y-1.597 E0.0213
G1 X9.946 Y-2.053 E0.0213
G1 X9.552 Y-2.447 E0.0213
G1 X9.096 Y-2.766 E0.0213
G1 X8.592 Y-3.001 E0.0213
G1 X8.054 Y-3.145 E0.0213
G1 X7.500 Y-3.194 E0.0213
G1 X6.946 Y-3.145 E0.0213
G1 X6.408 Y-3.001 E0.0213
G1 X5.904 Y-2.766 E0.0213
G1 X5.448 Y-2.447 E0.0213
G1 X5.054 Y-2.053 E0.0213
G1 X4.735 Y-1.597 E0.0213
G1 X4.500 Y-1.093 E0.0213
G1 X4.356 Y-0.555 E0.0213
G1 X4.307 Y0.002 E0.0214
G1 X4.362 Y0.577 E0.0221
G1 X4.500 Y1.091 E0.0203
G1 X4.735 Y1.595 E0.0213
G1 X5.054 Y2.051 E0.0213
G1 X5.448 Y2.445 E0.0213
G1 X5.904 Y2.764 E0.0213
G1 X6.408 Y2.999 E0.0213
G1 X6.946 Y3.143 E0.0213
; feature outer perimeter
G1 X7.026 Y2.688 F9000
G1 X7.500 Y2.730 E0.0182 F1200
G1 X7.974 Y2.688 E0.0182
G1 X8.434 Y2.565 E0.0182
G1 X8.865 Y2.364 E0.0182
G1 X9.255 Y2.091 E0.0182
G1 X9.592 Y1.754 E0.0182
G1 X9.865 Y1.364 E0.0182
G1 X10.066 Y0.933 E0.0182
G1 X10.189 Y0.473 E0.0182
G1 X10.231 Y-0.001 E0.0182
G1 X10.189 Y-0.475 E0.0182
G1 X10.066 Y-0.935 E0.0182
G1 X9.865 Y-1.366 E0.0182
G1 X9.592 Y-1.756 E0.0182
G1 X9.255 Y-2.093 E0.0182
G1 X8.865 Y-2.366 E0.0182
G1 X8.434 Y-2.567 E0.0182
G1 X7.974 Y-2.690 E0.0182
G1 X7.500 Y-2.732 E0.0182
G1 X7.026 Y-2.690 E0.0182
G1 X6.566 Y-2.567 E0.0182
G1 X6.135 Y-2.366 E0.0182
G1 X5.745 Y-2.093 E0.0182
G1 X5.408 Y-1.756 E0.0182
G1 X5.135 Y-1.366 E0.0182
G1 X4.934 Y-0.935 E0.0182
G1 X4.811 Y-0.475 E0.0182
G1 X4.769 Y-0.000 E0.0182
G1 X4.816 Y0.495 E0.0190
G1 X4.934 Y0.933 E0.0173
G1 X5.135 Y1.364 E0.0182
G1 X5.408 Y1.754 E0.0182
G1 X5.745 Y2.091 E0.0182
G1 X6.135 Y2.364 E0.0182
G1 X6.566 Y2.565 E0.0182
G1 X7.026 Y2.688 E0.0182
G1 E-1.9000 F1200
; feature inner perimeter
G1 Z0.700 F1200
G1 X24.356 Y0.553 F9000
G1 Z0.200 F1200
G1 E1.9000 F1200
G1 X24.501 Y1.093 E0.0214 F1800
G1 X24.737 Y1.598 E0.0213
G1 X25.057 Y2.054 E0.0213
G1 X25.452 Y2.448 E0.0213
G1 X25.909 Y2.767 E0.0213
G1 X26.404 Y2.997 E0.0209
G1 X26.931 Y3.140 E0.0209
G1 X27.496 Y3.192 E0.0217
G1 X28.052 Y3.143 E0.0214
G1 X28.591 Y2.999 E0.0213
G1 X29.096 Y2.764 E0.0213
G1 X29.553 Y2.444 E0.0213
G1 X29.947 Y2.050 E0.0213
G1 X30.266 Y1.593 E0.0213
G1 X30.502 Y1.087 E0.0213
G1 X30.645 Y0.548 E0.0213
G1 X30.692 Y-0.007 E0.0213
G1 X30.645 Y-0.551 E0.0209
G1 X30.502 Y-1.089 E0.0213
G1 X30.266 Y-1.595 E0.0213
G1 X29.947 Y-2.052 E0.0214
G1 X29.544 Y-2.453 E0.0217
G1 X29.096 Y-2.766 E0.0209
G1 X28.602 Y-2.997 E0.0209
G1 X28.064 Y-3.143 E0.0213
G1 X27.501 Y-3.194 E0.0217
G1 X26.942 Y-3.144 E0.0215
G1 X26.403 Y-2.999 E0.0213
G1 X25.899 Y-2.763 E0.0213
G1 X25.451 Y-2.449 E0.0209
G1 X25.050 Y-2.048 E0.0217
G1 X24.736 Y-1.599 E0.0210
G1 X24.497 Y-1.083 E0.0217
G1 X24.354 Y-0.545 E0.0213
G1 X24.307 Y-0.001 E0.0209
G1 X24.356 Y0.553 E0.0213
; feature outer perimeter
G1 X24.811 Y0.473 F9000
G1 X24.934 Y0.935 E0.0183 F1200
G1 X25.136 Y1.367 E0.0182
G1 X25.410 Y1.757 E0.0182
G1 X25.748 Y2.094 E0.0182
G1 X26.139 Y2.366 E0.0182
G1 X26.562 Y2.564 E0.0178
G1 X27.012 Y2.685 E0.0178
G1 X27.497 Y2.730 E0.0186
G1 X27.972 Y2.689 E0.0183
G1 X28.433 Y2.565 E0.0182
G1 X28.865 Y2.364 E0.0182
G1 X29.256 Y2.090 E0.0182
G1 X29.593 Y1.753 E0.0182
G1 X29.866 Y1.362 E0.0182
G1 X30.067 Y0.930 E0.0182
G1 X30.190 Y0.469 E0.0182
G1 X30.231 Y-0.006 E0.0182
G1 X30.190 Y-0.471 E0.0178
G1 X30.067 Y-0.932 E0.0182
G1 X29.866 Y-1.364 E0.0182
G1 X29.593 Y-1.755 E0.0183
G1 X29.248 Y-2.099 E0.0186
G1 X28.865 Y-2.366 E0.0178
G1 X28.443 Y-2.564 E0.0178
G1 X27.983 Y-2.689 E0.0182
G1 X27.500 Y-2.732 E0.0185
G1 X27.022 Y-2.690 E0.0183
G1 X26.562 Y-2.566 E0.0182
G1 X26.130 Y-2.363 E0.0182
G1 X25.748 Y-2.096 E0.0179
G1 X25.404 Y-1.751 E0.0186
G1 X25.136 Y-1.368 E0.0179
G1 X24.931 Y-0.927 E0.0186
G1 X24.809 Y-0.466 E0.0182
G1 X24.769 Y-0.001 E0.0178
G1 X24.811 Y0.473 E0.0182
