; G-Code generated by Simplify3D(R) Version 4.1.2
; Apr 2, 2020 at 2:01:15 PM
; Settings Summary
;   processName,Process1
;   applyToModels,Torch Flame A,Torch Flame A(2),Torch Flame A(3),Torch Flame A(2)(2)
;   profileName,MakerBot Replicator 2 HBP (modified)
;   profileVersion,2020-03-12 10:48:50
;   baseProfile,MakerBot Replicator 2(2)
;   printMaterial,PLA
;   printQuality,Medium
;   printExtruders,
;   extruderName,Primary Extruder
;   extruderToolheadNumber,0
;   extruderDiameter,0.4
;   extruderAutoWidth,0
;   extruderWidth,0.4
;   extrusionMultiplier,1
;   extruderUseRetract,1
;   extruderRetractionDistance,1.9
;   extruderExtraRestartDistance,0
;   extruderRetractionZLift,0.5
;   extruderRetractionSpeed,1200
;   extruderUseCoasting,0
;   extruderCoastingDistance,0.2
;   extruderUseWipe,0
;   extruderWipeDistance,5
;   primaryExtruder,0
;   layerHeight,0.2
;   topSolidLayers,3
;   bottomSolidLayers,3
;   perimeterOutlines,2
;   printPerimetersInsideOut,1
;   startPointOption,3
;   startPointOriginX,0
;   startPointOriginY,150
;   sequentialIslands,0
;   spiralVaseMode,0
;   firstLayerHeightPercentage,100
;   firstLayerWidthPercentage,115
;   firstLayerUnderspeed,0.5
;   useRaft,0
;   raftExtruder,0
;   raftTopLayers,2
;   raftBaseLayers,1
;   raftOffset,1
;   raftSeparationDistance,0.14
;   raftTopInfill,90
;   aboveRaftSpeedMultiplier,0.3
;   useSkirt,0
;   skirtExtruder,0
;   skirtLayers,1
;   skirtOutlines,5
;   skirtOffset,0
;   usePrimePillar,0
;   primePillarExtruder,999
;   primePillarWidth,12
;   primePillarLocation,7
;   primePillarSpeedMultiplier,1
;   useOozeShield,0
;   oozeShieldExtruder,999
;   oozeShieldOffset,2
;   oozeShieldOutlines,1
;   oozeShieldSidewallShape,1
;   oozeShieldSidewallAngle,30
;   oozeShieldSpeedMultiplier,1
;   infillExtruder,0
;   internalInfillPattern,Rectilinear
;   externalInfillPattern,Rectilinear
;   infillPercentage,15
;   outlineOverlapPercentage,25
;   infillExtrusionWidthPercentage,100
;   minInfillLength,5
;   infillLayerInterval,1
;   internalInfillAngles,45,-45
;   overlapInternalInfillAngles,0
;   externalInfillAngles,45,-45
;   generateSupport,1
;   supportExtruder,0
;   supportInfillPercentage,30
;   supportExtraInflation,0.5
;   supportBaseLayers,0
;   denseSupportExtruder,0
;   denseSupportLayers,2
;   denseSupportInfillPercentage,90
;   supportLayerInterval,1
;   supportHorizontalPartOffset,0.3
;   supportUpperSeparationLayers,1
;   supportLowerSeparationLayers,1
;   supportType,1
;   supportGridSpacing,2
;   maxOverhangAngle,45
;   supportAngles,45,-45
;   temperatureName,Primary Extruder,Heated Build Platform
;   temperatureNumber,0,0
;   temperatureSetpointCount,1,1
;   temperatureSetpointLayers,1,1
;   temperatureSetpointTemperatures,230,60
;   temperatureStabilizeAtStartup,1,1
;   temperatureHeatedBed,0,1
;   fanLayers,1,2
;   fanSpeeds,0,100
;   blipFanToFullPower,1
;   adjustSpeedForCooling,1
;   minSpeedLayerTime,15
;   minCoolingSpeedSlowdown,20
;   increaseFanForCooling,1
;   minFanLayerTime,45
;   maxCoolingFanSpeed,100
;   increaseFanForBridging,1
;   bridgingFanSpeed,100
;   use5D,1
;   relativeEdistances,1
;   allowEaxisZeroing,0
;   independentExtruderAxes,1
;   includeM10123,0
;   stickySupport,1
;   applyToolheadOffsets,0
;   gcodeXoffset,0
;   gcodeYoffset,0
;   gcodeZoffset,0
;   overrideMachineDefinition,1
;   machineTypeOverride,0
;   strokeXoverride,280
;   strokeYoverride,150
;   strokeZoverride,150
;   originOffsetXoverride,140
;   originOffsetYoverride,75
;   originOffsetZoverride,0
;   homeXdirOverride,1
;   homeYdirOverride,1
;   homeZdirOverride,-1
;   flipXoverride,1
;   flipYoverride,-1
;   flipZoverride,1
;   toolheadOffsets,0,0|0,0|0,0|0,0|0,0|0,0
;   overrideFirmwareConfiguration,1
;   firmwareTypeOverride,MakerBot/Sailfish Firmware
;   GPXconfigOverride,r2h
;   baudRateOverride,115200
;   overridePrinterModels,1
;   printerModelsOverride,MakerBot_Replicator2.stl
;   startingGcode,; **** Replicator 2 start.gcode ****,M73 P0 ; enable build progress,G162 X Y F3000 ; home XY maximum,G161 Z F1200 ; home Z minimum,G92 Z-5 ; set Z to -5,G1 Z0 ; move Z to 0,G161 Z F100 ; home Z slowly,M132 X Y Z A B ; recall home offsets,G1 X-145 Y-75 Z30 F9000 ; move to wait position off table,G130 X20 Y20 Z20 A20 B20 ; lower stepper Vrefs while heating,M126 S[fan_speed_pwm],M140 S[bed0_temperature] T0,M134 T0 ; stabilize bed temperature,M104 S[extruder0_temperature] T0,M133 T0 ; stabilize extruder temperature,G130 X127 Y127 Z40 A127 B127 ; default stepper Vrefs,G92 A0 ; zero extruder,G1 Z0.4 ; position nozzle,G1 E25 F300 ; purge nozzle,G1 X-140 Y-70 Z0.15 F1200 ; slow wipe,G1 X-135 Y-65 Z0.5 F1200 ; lift,G92 A0 ; zero extruder,M73 P1 ;@body (notify GPX body has started),; **** end of start.gcode ****
;   layerChangeGcode,
;   retractionGcode,
;   toolChangeGcode,
;   endingGcode,; **** Replicator 2 end.gcode ****,M73 P100 ; end build progress,G1 Z155 F1000 ; send Z axis to bottom of machine,M104 S0 T0 ; cool down extruder,M140 S0 T0 ; cool down HBP,M127 ; stop blower fan,G162 X Y F3000 ; home XY maximum,M18 ; disable stepper,M0 ; stop codes,M72 P1 ; play Ta-Da song,; **** end of end.gcode ****
;   exportFileFormat,gcode
;   celebration,0
;   celebrationSong,Random Song
;   postProcessing,
;   defaultSpeed,4800
;   outlineUnderspeed,0.5
;   solidInfillUnderspeed,1
;   supportUnderspeed,1
;   rapidXYspeed,9000
;   rapidZspeed,1200
;   minBridgingArea,50
;   bridgingExtraInflation,0
;   bridgingExtrusionMultiplier,1
;   bridgingSpeedMultiplier,0.8
;   useFixedBridgingAngle,0
;   fixedBridgingAngle,0
;   applyBridgingToPerimeters,0
;   filamentDiameters,1.75|1.75|1.75|1.75|1.75|1.75
;   filamentPricesPerKg,46|46|46|46|46|46
;   filamentDensities,1.25|1.25|1.25|1.25|1.25|1.25
;   useMinPrintHeight,0
;   minPrintHeight,0
;   useMaxPrintHeight,0
;   maxPrintHeight,4.84
;   useDiaphragm,0
;   diaphragmLayerInterval,20
;   robustSlicing,1
;   mergeAllIntoSolid,0
;   onlyRetractWhenCrossingOutline,0
;   retractBetweenLayers,0
;   useRetractionMinTravel,1
;   retractionMinTravel,7
;   retractWhileWiping,1
;   onlyWipeOutlines,1
;   avoidCrossingOutline,0
;   maxMovementDetourFactor,3
;   toolChangeRetractionDistance,12
;   toolChangeExtraRestartDistance,-0.5
;   toolChangeRetractionSpeed,600
;   externalThinWallType,0
;   internalThinWallType,0
;   thinWallAllowedOverlapPercentage,10
;   singleExtrusionMinLength,1
;   singleExtrusionMinPrintingWidthPercentage,50
;   singleExtrusionMaxPrintingWidthPercentage,200
;   singleExtrusionEndpointExtension,0.2
;   horizontalSizeCompensation,0
G90
M83
; **** Replicator 2 start.gcode ****
M73 P0 ; enable build progress
G162 X Y F3000 ; home XY maximum
G161 Z F1200 ; home Z minimum
G92 Z-5 ; set Z to -5
G1 Z0 ; move Z to 0
G161 Z F100 ; home Z slowly
M132 X Y Z A B ; recall home offsets
G1 X-145 Y-75 Z30 F9000 ; move to wait position off table
G130 X20 Y20 Z20 A20 B20 ; lower stepper Vrefs while heating
M126 S58
M140 S60 T0
M134 T0 ; stabilize bed temperature
M104 S230 T0
M133 T0 ; stabilize extruder temperature
G130 X127 Y127 Z40 A127 B127 ; default stepper Vrefs
G92 A0 ; zero extruder
G1 Z0.4 ; position nozzle
G1 E25 F300 ; purge nozzle
G1 X-140 Y-70 Z0.15 F1200 ; slow wipe
G1 X-135 Y-65 Z0.5 F1200 ; lift
G92 A0 ; zero extruder
M73 P1 ;@body (notify GPX body has started)
; **** end of start.gcode ****
; process Process1
; layer 1, Z = 0.200
M135 T0
G1 E-1.9000 F1200
; feature inner perimeter
; tool H0.200 W0.460
G1 Z0.500 F1200
G1 X-0.415 Y-3.727 F9000
G1 Z0.200 F1200
G1 E1.9000 F1200
G1 X-0.349 Y-4.102 E0.0146 F1800
G1 X-0.643 Y-4.860 E0.0311
G1 X-1.272 Y-5.347 E0.0304
G1 X-2.045 Y-5.584 E0.0309
G1 X-3.204 Y-5.663 E0.0444
G1 X-4.768 Y-5.601 E0.0599
G1 X-6.213 Y-5.420 E0.0557
G1 X-7.245 Y-5.220 E0.0402
G1 X-6.923 Y-5.621 E0.0197
G1 X-5.602 Y-7.124 E0.0765
G1 X-4.247 Y-8.482 E0.0734
G1 X-2.809 Y-9.683 E0.0717
G1 X-1.805 Y-10.321 E0.0455
G1 X-0.229 Y-11.004 E0.0657
G1 X0.543 Y-11.472 E0.0345
G1 X1.095 Y-12.276 E0.0373
G1 X1.037 Y-13.224 E0.0363
G1 X1.652 Y-13.045 E0.0245
G1 X2.385 Y-12.685 E0.0312
G1 X3.034 Y-12.274 E0.0294
G1 X3.975 Y-11.601 E0.0443
G1 X8.533 Y-11.596 E0.1743
G1 X8.539 Y-11.593 E0.0002
G1 X8.544 Y-3.929 E0.2931
G1 X8.539 Y-3.927 E0.0002
G1 X4.237 Y-3.924 E0.1645
G1 X3.191 Y-4.038 E0.0403
G1 X2.145 Y-4.063 E0.0400
G1 X0.884 Y-3.976 E0.0483
G1 X-0.415 Y-3.727 E0.0506
; feature outer perimeter
G1 X-0.394 Y-3.262 F9000
G1 X-1.210 Y-2.971 E0.0331 F1200
G1 X-0.930 Y-3.453 E0.0213
G1 X-0.824 Y-4.055 E0.0234
G1 X-1.025 Y-4.575 E0.0213
G1 X-1.487 Y-4.932 E0.0223
G1 X-2.129 Y-5.129 E0.0257
G1 X-3.210 Y-5.202 E0.0415
G1 X-4.730 Y-5.142 E0.0582
G1 X-6.141 Y-4.965 E0.0544
G1 X-7.374 Y-4.727 E0.0480
G1 X-8.359 Y-4.484 E0.0388
G1 X-8.447 Y-4.459 E0.0035
G1 X-7.275 Y-5.917 E0.0716
G1 X-5.939 Y-7.438 E0.0774
G1 X-4.558 Y-8.822 E0.0748
G1 X-3.081 Y-10.055 E0.0736
G1 X-2.021 Y-10.728 E0.0480
G1 X-0.441 Y-11.414 E0.0659
G1 X0.220 Y-11.814 E0.0296
G1 X0.626 Y-12.406 E0.0275
G1 X0.578 Y-13.192 E0.0301
G1 X0.441 Y-13.714 E0.0206
G1 X0.989 Y-13.716 E0.0210
G1 X1.819 Y-13.476 E0.0330
G1 X2.610 Y-13.087 E0.0337
G1 X3.291 Y-12.656 E0.0308
G1 X4.123 Y-12.060 E0.0391
G1 X8.661 Y-12.056 E0.1736
G1 X8.999 Y-11.854 E0.0151
G1 X9.004 Y-3.669 E0.3131
G1 X8.666 Y-3.467 E0.0150
G1 X4.213 Y-3.464 E0.1704
G1 X3.161 Y-3.578 E0.0405
G1 X2.155 Y-3.603 E0.0385
G1 X0.944 Y-3.519 E0.0464
G1 X-0.394 Y-3.262 E0.0521
; feature solid layer
G1 X0.332 Y-4.222 F9000
G1 X-0.251 Y-4.805 E0.0316 F2400
G1 X-6.069 Y-6.069 F9000
G1 X-5.817 Y-5.817 E0.0137 F2400
G1 X-5.239 Y-5.890 E0.0223
G1 X-5.765 Y-6.416 E0.0285
G1 X-5.461 Y-6.762 E0.0176
G1 X-4.650 Y-5.951 E0.0439
G1 X-4.024 Y-5.976 E0.0240
G1 X-5.144 Y-7.095 E0.0606
G1 X-4.819 Y-7.421 E0.0176
G1 X-3.398 Y-6.000 E0.0768
G1 X-3.199 Y-6.008 E0.0076
G1 X-2.723 Y-5.976 E0.0182
G1 X-4.494 Y-7.747 E0.0958
G1 X-4.169 Y-8.072 E0.0176
G1 X-2.025 Y-5.929 E0.1159
G1 X-1.982 Y-5.926 E0.0017
G1 X-1.111 Y-5.658 E0.0348
G1 X-1.082 Y-5.636 E0.0014
G1 X-3.829 Y-8.382 E0.1485
G1 X-3.474 Y-8.678 E0.0177
G1 X0.882 Y-4.322 E0.2357
G1 X1.491 Y-4.364 E0.0233
G1 X-3.120 Y-8.974 E0.2494
G1 X-2.765 Y-9.271 E0.0177
G1 X2.099 Y-4.406 E0.2631
G1 X2.137 Y-4.409 E0.0014
G1 X2.763 Y-4.393 E0.0239
G1 X-2.387 Y-9.543 E0.2785
G1 X-1.989 Y-9.795 E0.0180
G1 X3.450 Y-4.357 E0.2942
G1 X4.179 Y-4.278 E0.0281
G1 X-1.584 Y-10.041 E0.3117
G1 X-1.130 Y-10.238 E0.0189
G1 X4.838 Y-4.270 E0.3228
G1 X5.488 Y-4.270 E0.0249
G1 X-0.676 Y-10.434 E0.3334
G1 X-0.223 Y-10.631 E0.0189
G1 X6.138 Y-4.270 E0.3441
G1 X6.789 Y-4.271 E0.0249
G1 X0.199 Y-10.860 E0.3565
G1 X0.604 Y-11.106 E0.0181
G1 X7.439 Y-4.271 E0.3697
G1 X8.089 Y-4.271 E0.0249
G1 X0.931 Y-11.429 E0.3872
G1 X1.197 Y-11.814 E0.0179
G1 X8.198 Y-4.813 E0.3787
G1 X8.198 Y-5.464 E0.0249
G1 X1.444 Y-12.217 E0.3653
G1 X1.411 Y-12.756 E0.0207
G1 X1.527 Y-12.723 E0.0046
G1 X1.650 Y-12.662 E0.0052
G1 X8.197 Y-6.115 E0.3542
G1 X8.197 Y-6.766 E0.0249
G1 X3.310 Y-11.652 E0.2643
G1 X3.864 Y-11.256 E0.0261
G1 X4.358 Y-11.255 E0.0189
G1 X8.196 Y-7.417 E0.2076
G1 X8.196 Y-8.067 E0.0249
G1 X5.009 Y-11.255 E0.1724
G1 X5.660 Y-11.254 E0.0249
G1 X8.196 Y-8.718 E0.1372
G1 X8.195 Y-9.369 E0.0249
G1 X6.311 Y-11.253 E0.1019
G1 X6.962 Y-11.253 E0.0249
G1 X8.195 Y-10.020 E0.0667
G1 X8.194 Y-10.671 E0.0249
G1 X7.614 Y-11.252 E0.0314
G1 E-1.9000 F1200
; feature inner perimeter
G1 Z0.700 F1200
G1 X23.055 Y-3.727 F9000
G1 Z0.200 F1200
G1 E1.9000 F1200
G1 X23.121 Y-4.102 E0.0146 F1800
G1 X22.828 Y-4.860 E0.0311
G1 X22.198 Y-5.347 E0.0304
G1 X21.425 Y-5.584 E0.0309
G1 X20.266 Y-5.663 E0.0444
G1 X18.702 Y-5.601 E0.0599
G1 X17.257 Y-5.420 E0.0557
G1 X16.226 Y-5.220 E0.0402
G1 X16.548 Y-5.621 E0.0197
G1 X17.868 Y-7.124 E0.0765
G1 X19.223 Y-8.482 E0.0734
G1 X20.661 Y-9.683 E0.0717
G1 X21.665 Y-10.321 E0.0455
G1 X23.241 Y-11.004 E0.0657
G1 X24.013 Y-11.472 E0.0345
G1 X24.565 Y-12.276 E0.0373
G1 X24.507 Y-13.224 E0.0363
G1 X25.122 Y-13.045 E0.0245
G1 X25.855 Y-12.685 E0.0312
G1 X26.504 Y-12.274 E0.0294
G1 X27.445 Y-11.601 E0.0443
G1 X32.003 Y-11.596 E0.1743
G1 X32.009 Y-11.593 E0.0002
G1 X32.014 Y-3.929 E0.2931
G1 X32.009 Y-3.927 E0.0002
G1 X27.708 Y-3.924 E0.1645
G1 X26.661 Y-4.038 E0.0403
G1 X25.615 Y-4.063 E0.0400
G1 X24.355 Y-3.976 E0.0483
G1 X23.055 Y-3.727 E0.0506
; feature outer perimeter
G1 X23.076 Y-3.262 F9000
G1 X22.260 Y-2.971 E0.0331 F1200
G1 X22.540 Y-3.453 E0.0213
G1 X22.646 Y-4.055 E0.0234
G1 X22.445 Y-4.575 E0.0213
G1 X21.983 Y-4.932 E0.0223
G1 X21.341 Y-5.129 E0.0257
G1 X20.260 Y-5.202 E0.0415
G1 X18.740 Y-5.142 E0.0582
G1 X17.329 Y-4.965 E0.0544
G1 X16.096 Y-4.727 E0.0480
G1 X15.111 Y-4.484 E0.0388
G1 X15.024 Y-4.459 E0.0035
G1 X16.195 Y-5.917 E0.0716
G1 X17.532 Y-7.438 E0.0774
G1 X18.912 Y-8.822 E0.0748
G1 X20.389 Y-10.055 E0.0736
G1 X21.449 Y-10.728 E0.0480
G1 X23.029 Y-11.414 E0.0659
G1 X23.690 Y-11.814 E0.0296
G1 X24.096 Y-12.406 E0.0275
G1 X24.048 Y-13.192 E0.0301
G1 X23.911 Y-13.714 E0.0206
G1 X24.459 Y-13.716 E0.0210
G1 X25.289 Y-13.476 E0.0330
G1 X26.080 Y-13.087 E0.0337
G1 X26.761 Y-12.656 E0.0308
G1 X27.593 Y-12.060 E0.0391
G1 X32.131 Y-12.056 E0.1736
G1 X32.469 Y-11.854 E0.0151
G1 X32.474 Y-3.669 E0.3131
G1 X32.137 Y-3.467 E0.0150
G1 X27.683 Y-3.464 E0.1704
G1 X26.631 Y-3.578 E0.0405
G1 X25.625 Y-3.603 E0.0385
G1 X24.414 Y-3.519 E0.0464
G1 X23.076 Y-3.262 E0.0521
; feature solid layer
G1 X23.760 Y-4.213 F9000
G1 X23.251 Y-4.722 E0.0275 F2400
G1 X17.377 Y-6.042 F9000
G1 X17.608 Y-5.811 E0.0125 F2400
G1 X18.186 Y-5.884 E0.0223
G1 X17.681 Y-6.389 E0.0273
G1 X17.985 Y-6.735 E0.0176
G1 X18.771 Y-5.949 E0.0425
G1 X19.397 Y-5.974 E0.0240
G1 X18.301 Y-7.070 E0.0593
G1 X18.626 Y-7.395 E0.0176
G1 X20.023 Y-5.999 E0.0756
G1 X20.271 Y-6.008 E0.0095
G1 X20.692 Y-5.980 E0.0161
G1 X18.951 Y-7.721 E0.0942
G1 X19.276 Y-8.047 E0.0176
G1 X21.390 Y-5.932 E0.1144
G1 X21.489 Y-5.926 E0.0038
G1 X22.295 Y-5.678 E0.0323
G1 X19.614 Y-8.359 E0.1450
G1 X19.968 Y-8.655 E0.0177
G1 X24.306 Y-4.318 E0.2346
G1 X24.914 Y-4.361 E0.0233
G1 X20.323 Y-8.951 E0.2483
G1 X20.677 Y-9.247 E0.0177
G1 X25.522 Y-4.403 E0.2621
G1 X25.607 Y-4.409 E0.0033
G1 X26.181 Y-4.395 E0.0219
G1 X21.052 Y-9.523 E0.2774
G1 X21.450 Y-9.776 E0.0180
G1 X26.863 Y-4.363 E0.2928
G1 X27.593 Y-4.284 E0.0281
G1 X21.851 Y-10.025 E0.3106
G1 X22.305 Y-10.222 E0.0189
G1 X28.257 Y-4.270 E0.3220
G1 X28.908 Y-4.270 E0.0249
G1 X22.758 Y-10.419 E0.3326
G1 X23.212 Y-10.616 E0.0189
G1 X29.558 Y-4.270 E0.3432
G1 X30.208 Y-4.271 E0.0249
G1 X23.637 Y-10.841 E0.3554
G1 X24.042 Y-11.087 E0.0181
G1 X30.858 Y-4.271 E0.3687
G1 X31.508 Y-4.271 E0.0249
G1 X24.381 Y-11.399 E0.3855
G1 X24.646 Y-11.784 E0.0179
G1 X31.668 Y-4.762 E0.3799
G1 X31.668 Y-5.413 E0.0249
G1 X24.911 Y-12.170 E0.3655
G1 X24.917 Y-12.178 E0.0004
G1 X24.882 Y-12.756 E0.0221
G1 X24.997 Y-12.723 E0.0046
G1 X25.020 Y-12.711 E0.0010
G1 X31.667 Y-6.064 E0.3596
G1 X31.667 Y-6.715 E0.0249
G1 X26.602 Y-11.780 E0.2740
G1 X27.334 Y-11.256 E0.0344
G1 X27.777 Y-11.255 E0.0169
G1 X31.667 Y-7.366 E0.2104
G1 X31.666 Y-8.017 E0.0249
G1 X28.428 Y-11.255 E0.1751
G1 X29.079 Y-11.254 E0.0249
G1 X31.666 Y-8.668 E0.1399
G1 X31.665 Y-9.319 E0.0249
G1 X29.731 Y-11.253 E0.1047
G1 X30.382 Y-11.253 E0.0249
G1 X31.665 Y-9.970 E0.0694
G1 X31.664 Y-10.621 E0.0249
G1 X31.033 Y-11.252 E0.0342
G1 E-1.9000 F1200
; feature inner perimeter
G1 Z0.700 F1200
G1 X-14.931 Y-3.927 F9000
G1 Z0.200 F1200
G1 E1.9000 F1200
G1 X-19.233 Y-3.924 E0.1645 F1800
G1 X-20.279 Y-4.038 E0.0403
G1 X-21.325 Y-4.063 E0.0400
G1 X-22.586 Y-3.976 E0.0483
G1 X-23.885 Y-3.727 E0.0506
G1 X-23.819 Y-4.102 E0.0146
G1 X-24.113 Y-4.860 E0.0311
G1 X-24.742 Y-5.347 E0.0304
G1 X-25.515 Y-5.584 E0.0309
G1 X-26.674 Y-5.663 E0.0444
G1 X-28.238 Y-5.601 E0.0599
G1 X-29.683 Y-5.420 E0.0557
G1 X-30.715 Y-5.220 E0.0402
G1 X-30.393 Y-5.621 E0.0197
G1 X-29.073 Y-7.124 E0.0765
G1 X-27.717 Y-8.482 E0.0734
G1 X-26.279 Y-9.683 E0.0717
G1 X-25.275 Y-10.321 E0.0455
G1 X-23.700 Y-11.004 E0.0657
G1 X-22.927 Y-11.472 E0.0345
G1 X-22.375 Y-12.276 E0.0373
G1 X-22.433 Y-13.224 E0.0363
G1 X-21.818 Y-13.045 E0.0245
G1 X-21.085 Y-12.685 E0.0312
G1 X-20.436 Y-12.274 E0.0294
