; G-Code generated by Simplify3D(R) Version 4.1.2
; Apr 2, 2020 at 2:02:17 PM
; Settings Summary
;   processName,Process1
;   applyToModels,Torch Flame A,Torch Flame A(2),Torch Flame A(3),Torch Flame A(4),Torch Flame A(5),Torch Flame A(6),Torch Flame A(7),Torch Flame A(8),Torch Flame A(9),Torch Flame A(10),Torch Flame A(11),Torch Flame A(12),Torch Flame A(13),Torch Flame A(14),Torch Flame A(15),Torch Flame A(16),Torch Flame A(17),Torch Flame A(18),Torch Flame A(19),Torch Flame A(20),Torch Flame A(21)
;   profileName,MakerBot Replicator 2 HBP (modified)
;   profileVersion,2020-03-12 10:48:50
;   baseProfile,MakerBot Replicator 2(2)
;   printMaterial,PLA
;   printQuality,Medium
;   printExtruders,
;   extruderName,Primary Extruder
;   extruderToolheadNumber,0
;   extruderDiameter,0.4
;   extruderAutoWidth,0
;   extruderWidth,0.4
;   extrusionMultiplier,1
;   extruderUseRetract,1
;   extruderRetractionDistance,1.9
;   extruderExtraRestartDistance,0
;   extruderRetractionZLift,0.5
;   extruderRetractionSpeed,1200
;   extruderUseCoasting,0
;   extruderCoastingDistance,0.2
;   extruderUseWipe,0
;   extruderWipeDistance,5
;   primaryExtruder,0
;   layerHeight,0.2
;   topSolidLayers,3
;   bottomSolidLayers,3
;   perimeterOutlines,2
;   printPerimetersInsideOut,1
;   startPointOption,3
;   startPointOriginX,0
;   startPointOriginY,150
;   sequentialIslands,0
;   spiralVaseMode,0
;   firstLayerHeightPercentage,100
;   firstLayerWidthPercentage,115
;   firstLayerUnderspeed,0.5
;   useRaft,0
;   raftExtruder,0
;   raftTopLayers,2
;   raftBaseLayers,1
;   raftOffset,1
;   raftSeparationDistance,0.14
;   raftTopInfill,90
;   aboveRaftSpeedMultiplier,0.3
;   useSkirt,0
;   skirtExtruder,0
;   skirtLayers,1
;   skirtOutlines,5
;   skirtOffset,0
;   usePrimePillar,0
;   primePillarExtruder,999
;   primePillarWidth,12
;   primePillarLocation,7
;   primePillarSpeedMultiplier,1
;   useOozeShield,0
;   oozeShieldExtruder,999
;   oozeShieldOffset,2
;   oozeShieldOutlines,1
;   oozeShieldSidewallShape,1
;   oozeShieldSidewallAngle,30
;   oozeShieldSpeedMultiplier,1
;   infillExtruder,0
;   internalInfillPattern,Rectilinear
;   externalInfillPattern,Rectilinear
;   infillPercentage,15
;   outlineOverlapPercentage,25
;   infillExtrusionWidthPercentage,100
;   minInfillLength,5
;   infillLayerInterval,1
;   internalInfillAngles,45,-45
;   overlapInternalInfillAngles,0
;   externalInfillAngles,45,-45
;   generateSupport,1
;   supportExtruder,0
;   supportInfillPercentage,30
;   supportExtraInflation,0.5
;   supportBaseLayers,0
;   denseSupportExtruder,0
;   denseSupportLayers,2
;   denseSupportInfillPercentage,90
;   supportLayerInterval,1
;   supportHorizontalPartOffset,0.3
;   supportUpperSeparationLayers,1
;   supportLowerSeparationLayers,1
;   supportType,1
;   supportGridSpacing,2
;   maxOverhangAngle,45
;   supportAngles,45,-45
;   temperatureName,Primary Extruder,Heated Build Platform
;   temperatureNumber,0,0
;   temperatureSetpointCount,1,1
;   temperatureSetpointLayers,1,1
;   temperatureSetpointTemperatures,230,60
;   temperatureStabilizeAtStartup,1,1
;   temperatureHeatedBed,0,1
;   fanLayers,1,2
;   fanSpeeds,0,100
;   blipFanToFullPower,1
;   adjustSpeedForCooling,1
;   minSpeedLayerTime,15
;   minCoolingSpeedSlowdown,20
;   increaseFanForCooling,1
;   minFanLayerTime,45
;   maxCoolingFanSpeed,100
;   increaseFanForBridging,1
;   bridgingFanSpeed,100
;   use5D,1
;   relativeEdistances,1
;   allowEaxisZeroing,0
;   independentExtruderAxes,1
;   includeM10123,0
;   stickySupport,1
;   applyToolheadOffsets,0
;   gcodeXoffset,0
;   gcodeYoffset,0
;   gcodeZoffset,0
;   overrideMachineDefinition,1
;   machineTypeOverride,0
;   strokeXoverride,280
;   strokeYoverride,150
;   strokeZoverride,150
;   originOffsetXoverride,140
;   originOffsetYoverride,75
;   originOffsetZoverride,0
;   homeXdirOverride,1
;   homeYdirOverride,1
;   homeZdirOverride,-1
;   flipXoverride,1
;   flipYoverride,-1
;   flipZoverride,1
;   toolheadOffsets,0,0|0,0|0,0|0,0|0,0|0,0
;   overrideFirmwareConfiguration,1
;   firmwareTypeOverride,MakerBot/Sailfish Firmware
;   GPXconfigOverride,r2h
;   baudRateOverride,115200
;   overridePrinterModels,1
;   printerModelsOverride,MakerBot_Replicator2.stl
;   startingGcode,; **** Replicator 2 start.gcode ****,M73 P0 ; enable build progress,G162 X Y F3000 ; home XY maximum,G161 Z F1200 ; home Z minimum,G92 Z-5 ; set Z to -5,G1 Z0 ; move Z to 0,G161 Z F100 ; home Z slowly,M132 X Y Z A B ; recall home offsets,G1 X-145 Y-75 Z30 F9000 ; move to wait position off table,G130 X20 Y20 Z20 A20 B20 ; lower stepper Vrefs while heating,M126 S[fan_speed_pwm],M140 S[bed0_temperature] T0,M134 T0 ; stabilize bed temperature,M104 S[extruder0_temperature] T0,M133 T0 ; stabilize extruder temperature,G130 X127 Y127 Z40 A127 B127 ; default stepper Vrefs,G92 A0 ; zero extruder,G1 Z0.4 ; position nozzle,G1 E25 F300 ; purge nozzle,G1 X-140 Y-70 Z0.15 F1200 ; slow wipe,G1 X-135 Y-65 Z0.5 F1200 ; lift,G92 A0 ; zero extruder,M73 P1 ;@body (notify GPX body has started),; **** end of start.gcode ****
;   layerChangeGcode,
;   retractionGcode,
;   toolChangeGcode,
;   endingGcode,; **** Replicator 2 end.gcode ****,M73 P100 ; end build progress,G1 Z155 F1000 ; send Z axis to bottom of machine,M104 S0 T0 ; cool down extruder,M140 S0 T0 ; cool down HBP,M127 ; stop blower fan,G162 X Y F3000 ; home XY maximum,M18 ; disable stepper,M0 ; stop codes,M72 P1 ; play Ta-Da song,; **** end of end.gcode ****
;   exportFileFormat,gcode
;   celebration,0
;   celebrationSong,Random Song
;   postProcessing,
;   defaultSpeed,4800
;   outlineUnderspeed,0.5
;   solidInfillUnderspeed,1
;   supportUnderspeed,1
;   rapidXYspeed,9000
;   rapidZspeed,1200
;   minBridgingArea,50
;   bridgingExtraInflation,0
;   bridgingExtrusionMultiplier,1
;   bridgingSpeedMultiplier,0.8
;   useFixedBridgingAngle,0
;   fixedBridgingAngle,0
;   applyBridgingToPerimeters,0
;   filamentDiameters,1.75|1.75|1.75|1.75|1.75|1.75
;   filamentPricesPerKg,46|46|46|46|46|46
;   filamentDensities,1.25|1.25|1.25|1.25|1.25|1.25
;   useMinPrintHeight,0
;   minPrintHeight,0
;   useMaxPrintHeight,0
;   maxPrintHeight,4.84
;   useDiaphragm,0
;   diaphragmLayerInterval,20
;   robustSlicing,1
;   mergeAllIntoSolid,0
;   onlyRetractWhenCrossingOutline,0
;   retractBetweenLayers,0
;   useRetractionMinTravel,1
;   retractionMinTravel,7
;   retractWhileWiping,1
;   onlyWipeOutlines,1
;   avoidCrossingOutline,0
;   maxMovementDetourFactor,3
;   toolChangeRetractionDistance,12
;   toolChangeExtraRestartDistance,-0.5
;   toolChangeRetractionSpeed,600
;   externalThinWallType,0
;   internalThinWallType,0
;   thinWallAllowedOverlapPercentage,10
;   singleExtrusionMinLength,1
;   singleExtrusionMinPrintingWidthPercentage,50
;   singleExtrusionMaxPrintingWidthPercentage,200
;   singleExtrusionEndpointExtension,0.2
;   horizontalSizeCompensation,0
G90
M83
; **** Replicator 2 start.gcode ****
M73 P0 ; enable build progress
G162 X Y F3000 ; home XY maximum
G161 Z F1200 ; home Z minimum
G92 Z-5 ; set Z to -5
G1 Z0 ; move Z to 0
G161 Z F100 ; home Z slowly
M132 X Y Z A B ; recall home offsets
G1 X-145 Y-75 Z30 F9000 ; move to wait position off table
G130 X20 Y20 Z20 A20 B20 ; lower stepper Vrefs while heating
M127
M140 S60 T0
M134 T0 ; stabilize bed temperature
M104 S230 T0
M133 T0 ; stabilize extruder temperature
G130 X127 Y127 Z40 A127 B127 ; default stepper Vrefs
G92 A0 ; zero extruder
G1 Z0.4 ; position nozzle
G1 E25 F300 ; purge nozzle
G1 X-140 Y-70 Z0.15 F1200 ; slow wipe
G1 X-135 Y-65 Z0.5 F1200 ; lift
G92 A0 ; zero extruder
M73 P1 ;@body (notify GPX body has started)
; **** end of start.gcode ****
; process Process1
; layer 1, Z = 0.200
M135 T0
G1 E-1.9000 F1200
; feature inner perimeter
; tool H0.200 W0.460
G1 Z0.500 F1200
G1 X-3.196 Y-3.927 F9000
G1 Z0.200 F1200
G1 E1.9000 F1200
G1 X-7.498 Y-3.924 E0.1645 F1800
G1 X-8.544 Y-4.038 E0.0403
G1 X-9.590 Y-4.063 E0.0400
G1 X-10.851 Y-3.976 E0.0483
G1 X-12.150 Y-3.727 E0.0506
G1 X-12.084 Y-4.102 E0.0146
G1 X-12.378 Y-4.860 E0.0311
G1 X-13.007 Y-5.347 E0.0304
G1 X-13.780 Y-5.584 E0.0309
G1 X-14.939 Y-5.663 E0.0444
G1 X-16.503 Y-5.601 E0.0599
G1 X-17.948 Y-5.420 E0.0557
G1 X-18.980 Y-5.220 E0.0402
G1 X-18.658 Y-5.621 E0.0197
G1 X-17.338 Y-7.124 E0.0765
G1 X-15.982 Y-8.482 E0.0734
G1 X-14.544 Y-9.683 E0.0717
G1 X-13.540 Y-10.321 E0.0455
G1 X-11.964 Y-11.004 E0.0657
G1 X-11.192 Y-11.472 E0.0345
G1 X-10.640 Y-12.276 E0.0373
G1 X-10.698 Y-13.224 E0.0363
G1 X-10.083 Y-13.045 E0.0245
G1 X-9.350 Y-12.685 E0.0312
G1 X-8.701 Y-12.274 E0.0294
G1 X-7.760 Y-11.601 E0.0443
G1 X-3.202 Y-11.596 E0.1743
G1 X-3.196 Y-11.593 E0.0002
G1 X-3.191 Y-3.929 E0.2931
G1 X-3.196 Y-3.927 E0.0002
; feature outer perimeter
G1 X-3.069 Y-3.467 F9000
G1 X-7.522 Y-3.464 E0.1704 F1200
G1 X-8.574 Y-3.578 E0.0405
G1 X-9.580 Y-3.603 E0.0385
G1 X-10.791 Y-3.519 E0.0464
G1 X-12.129 Y-3.262 E0.0521
G1 X-12.945 Y-2.971 E0.0331
G1 X-12.665 Y-3.453 E0.0213
G1 X-12.559 Y-4.055 E0.0234
G1 X-12.760 Y-4.575 E0.0213
G1 X-13.222 Y-4.932 E0.0223
G1 X-13.864 Y-5.129 E0.0257
G1 X-14.946 Y-5.202 E0.0415
G1 X-16.465 Y-5.142 E0.0582
G1 X-17.876 Y-4.965 E0.0544
G1 X-19.109 Y-4.727 E0.0480
G1 X-20.094 Y-4.484 E0.0388
G1 X-20.182 Y-4.459 E0.0035
G1 X-19.010 Y-5.917 E0.0716
G1 X-17.674 Y-7.438 E0.0774
G1 X-16.293 Y-8.822 E0.0748
G1 X-14.816 Y-10.055 E0.0736
G1 X-13.756 Y-10.728 E0.0480
G1 X-12.176 Y-11.414 E0.0659
G1 X-11.515 Y-11.814 E0.0296
G1 X-11.109 Y-12.406 E0.0275
G1 X-11.157 Y-13.192 E0.0301
G1 X-11.294 Y-13.714 E0.0206
G1 X-10.746 Y-13.716 E0.0210
G1 X-9.916 Y-13.476 E0.0330
G1 X-9.125 Y-13.087 E0.0337
G1 X-8.444 Y-12.656 E0.0308
G1 X-7.612 Y-12.060 E0.0391
G1 X-3.074 Y-12.056 E0.1736
G1 X-2.737 Y-11.854 E0.0151
G1 X-2.731 Y-3.669 E0.3131
G1 X-3.069 Y-3.467 E0.0150
G1 E-1.9000 F1200
; feature solid layer
G1 Z0.700 F1200
G1 X-4.096 Y-11.252 F9000
G1 Z0.200 F1200
G1 E1.9000 F1200
G1 X-3.541 Y-10.697 E0.0300 F2400
G1 X-3.540 Y-10.046 E0.0249
G1 X-4.747 Y-11.253 E0.0653
G1 X-5.398 Y-11.253 E0.0249
G1 X-3.540 Y-9.395 E0.1005
G1 X-3.539 Y-8.744 E0.0249
G1 X-6.050 Y-11.254 E0.1358
G1 X-6.701 Y-11.255 E0.0249
G1 X-3.539 Y-8.093 E0.1710
G1 X-3.539 Y-7.442 E0.0249
G1 X-7.352 Y-11.255 E0.2063
G1 X-7.871 Y-11.256 E0.0198
G1 X-8.335 Y-11.588 E0.0219
G1 X-3.538 Y-6.791 E0.2595
G1 X-3.538 Y-6.140 E0.0249
G1 X-10.035 Y-12.637 E0.3515
G1 X-10.208 Y-12.723 E0.0074
G1 X-10.324 Y-12.756 E0.0046
G1 X-10.292 Y-12.244 E0.0196
G1 X-3.537 Y-5.489 E0.3654
G1 X-3.537 Y-4.838 E0.0249
G1 X-10.528 Y-11.829 E0.3782
G1 X-10.793 Y-11.444 E0.0179
G1 X-3.621 Y-4.271 E0.3880
G1 X-4.271 Y-4.271 E0.0249
G1 X-11.115 Y-11.115 E0.3702
G1 X-11.520 Y-10.870 E0.0181
G1 X-4.921 Y-4.271 E0.3570
G1 X-5.571 Y-4.270 E0.0249
G1 X-11.940 Y-10.639 E0.3445
G1 X-12.394 Y-10.442 E0.0189
G1 X-6.222 Y-4.270 E0.3339
G1 X-6.872 Y-4.270 E0.0249
G1 X-12.847 Y-10.245 E0.3232
G1 X-13.301 Y-10.048 E0.0189
G1 X-7.527 Y-4.275 E0.3123
G1 X-8.257 Y-4.354 E0.0281
G1 X-13.708 Y-9.805 E0.2949
G1 X-14.106 Y-9.553 E0.0180
G1 X-8.946 Y-4.393 E0.2791
G1 X-9.598 Y-4.409 E0.0249
G1 X-9.612 Y-4.408 E0.0005
G1 X-14.486 Y-9.282 E0.2637
G1 X-14.841 Y-8.986 E0.0177
G1 X-10.220 Y-4.366 E0.2499
G1 X-10.829 Y-4.324 E0.0233
G1 X-15.195 Y-8.690 E0.2362
G1 X-15.550 Y-8.394 E0.0177
G1 X-12.706 Y-5.550 E0.1538
G1 X-12.846 Y-5.658 E0.0068
G1 X-13.717 Y-5.926 E0.0348
G1 X-13.733 Y-5.927 E0.0006
G1 X-15.891 Y-8.085 E0.1167
G1 X-16.216 Y-7.759 E0.0176
G1 X-14.431 Y-5.974 E0.0966
G1 X-14.934 Y-6.008 E0.0193
G1 X-15.109 Y-6.001 E0.0067
G1 X-16.541 Y-7.434 E0.0775
G1 X-16.866 Y-7.108 E0.0176
G1 X-15.735 Y-5.977 E0.0612
G1 X-16.361 Y-5.952 E0.0240
G1 X-17.184 Y-6.776 E0.0445
G1 X-17.488 Y-6.429 E0.0176
G1 X-16.952 Y-5.893 E0.0290
G1 X-17.530 Y-5.820 E0.0223
G1 X-17.793 Y-6.083 E0.0142
G1 X-12.002 Y-4.846 F9000
G1 X-11.382 Y-4.226 E0.0336 F2400
G1 E-1.9000 F1200
; feature inner perimeter
G1 Z0.700 F1200
G1 X-3.196 Y12.606 F9000
G1 Z0.200 F1200
G1 E1.9000 F1200
G1 X-7.498 Y12.608 E0.1645 F1800
G1 X-8.544 Y12.494 E0.0403
G1 X-9.590 Y12.469 E0.0400
G1 X-10.851 Y12.556 E0.0483
G1 X-12.150 Y12.805 E0.0506
G1 X-12.084 Y12.430 E0.0146
G1 X-12.378 Y11.672 E0.0311
G1 X-13.007 Y11.185 E0.0304
G1 X-13.780 Y10.948 E0.0309
G1 X-14.939 Y10.869 E0.0444
G1 X-16.503 Y10.931 E0.0599
G1 X-17.948 Y11.113 E0.0557
G1 X-18.980 Y11.312 E0.0402
G1 X-18.658 Y10.911 E0.0197
G1 X-17.338 Y9.408 E0.0765
G1 X-15.982 Y8.050 E0.0734
G1 X-14.544 Y6.849 E0.0717
G1 X-13.540 Y6.211 E0.0455
G1 X-11.964 Y5.528 E0.0657
G1 X-11.192 Y5.060 E0.0345
G1 X-10.640 Y4.256 E0.0373
G1 X-10.698 Y3.308 E0.0363
G1 X-10.083 Y3.487 E0.0245
G1 X-9.350 Y3.847 E0.0312
G1 X-8.701 Y4.258 E0.0294
G1 X-7.760 Y4.932 E0.0443
G1 X-3.202 Y4.936 E0.1743
G1 X-3.196 Y4.939 E0.0002
G1 X-3.191 Y12.603 E0.2931
G1 X-3.196 Y12.606 E0.0002
; feature outer perimeter
G1 X-3.069 Y13.066 F9000
G1 X-7.522 Y13.068 E0.1704 F1200
G1 X-8.574 Y12.954 E0.0405
G1 X-9.580 Y12.929 E0.0385
G1 X-10.791 Y13.013 E0.0464
G1 X-12.129 Y13.270 E0.0521
G1 X-12.945 Y13.561 E0.0331
G1 X-12.665 Y13.079 E0.0213
G1 X-12.559 Y12.477 E0.0234
G1 X-12.760 Y11.957 E0.0213
G1 X-13.222 Y11.601 E0.0223
G1 X-13.864 Y11.403 E0.0257
G1 X-14.946 Y11.330 E0.0415
G1 X-16.465 Y11.390 E0.0582
G1 X-17.876 Y11.567 E0.0544
G1 X-19.109 Y11.805 E0.0480
G1 X-20.094 Y12.048 E0.0388
G1 X-20.182 Y12.073 E0.0035
G1 X-19.010 Y10.615 E0.0716
G1 X-17.674 Y9.094 E0.0774
G1 X-16.293 Y7.710 E0.0748
G1 X-14.816 Y6.477 E0.0736
G1 X-13.756 Y5.804 E0.0480
G1 X-12.176 Y5.118 E0.0659
G1 X-11.515 Y4.718 E0.0296
G1 X-11.109 Y4.126 E0.0275
G1 X-11.157 Y3.340 E0.0301
G1 X-11.294 Y2.818 E0.0206
G1 X-10.746 Y2.816 E0.0210
G1 X-9.916 Y3.056 E0.0330
G1 X-9.125 Y3.445 E0.0337
G1 X-8.444 Y3.877 E0.0308
G1 X-7.612 Y4.472 E0.0391
G1 X-3.074 Y4.476 E0.1736
G1 X-2.737 Y4.678 E0.0151
G1 X-2.731 Y12.863 E0.3131
G1 X-3.069 Y13.066 E0.0150
G1 E-1.9000 F1200
; feature solid layer
G1 Z0.700 F1200
G1 X-3.827 Y5.280 F9000
G1 Z0.200 F1200
G1 E1.9000 F1200
G1 X-3.541 Y5.567 E0.0155 F2400
G1 X-3.541 Y6.218 E0.0249
G1 X-4.478 Y5.280 E0.0507
G1 X-5.130 Y5.279 E0.0249
G1 X-3.540 Y6.869 E0.0860
G1 X-3.540 Y7.519 E0.0249
G1 X-5.781 Y5.278 E0.1212
G1 X-6.432 Y5.278 E0.0249
G1 X-3.539 Y8.170 E0.1565
G1 X-3.539 Y8.821 E0.0249
G1 X-7.083 Y5.277 E0.1917
G1 X-7.734 Y5.277 E0.0249
G1 X-3.538 Y9.472 E0.2270
G1 X-3.538 Y10.123 E0.0249
G1 X-9.501 Y4.160 E0.3226
G1 X-9.519 Y4.149 E0.0008
G1 X-10.208 Y3.810 E0.0294
G1 X-10.324 Y3.776 E0.0046
G1 X-10.310 Y4.002 E0.0087
G1 X-3.538 Y10.774 E0.3663
G1 X-3.537 Y11.425 E0.0249
G1 X-10.419 Y4.544 E0.3722
G1 X-10.684 Y4.929 E0.0179
G1 X-3.537 Y12.076 E0.3866
G1 X-3.537 Y12.261 E0.0071
G1 X-4.002 Y12.261 E0.0178
G1 X-10.950 Y5.316 E0.3758
G1 X-11.353 Y5.561 E0.0180
G1 X-4.653 Y12.261 E0.3624
G1 X-5.303 Y12.262 E0.0249
G1 X-11.758 Y5.806 E0.3492
G1 X-11.806 Y5.835 E0.0021
G1 X-12.206 Y6.009 E0.0167
G1 X-5.953 Y12.262 E0.3382
G1 X-6.603 Y12.262 E0.0249
G1 X-12.660 Y6.206 E0.3276
G1 X-13.114 Y6.402 E0.0189
G1 X-7.254 Y12.263 E0.3170
G1 X-7.479 Y12.263 E0.0086
G1 X-7.956 Y12.211 E0.0183
G1 X-13.544 Y6.623 E0.3023
G1 X-13.942 Y6.875 E0.0180
G1 X-8.671 Y12.146 E0.2851
G1 X-9.338 Y12.130 E0.0255
G1 X-14.340 Y7.128 E0.2706
G1 X-14.694 Y7.424 E0.0176
G1 X-9.969 Y12.149 E0.2556
G1 X-10.578 Y12.191 E0.0233
G1 X-15.049 Y7.720 E0.2419
G1 X-15.403 Y8.016 E0.0177
G1 X-11.156 Y12.263 E0.2297
G1 X-11.702 Y12.368 E0.0213
G1 X-11.761 Y12.309 E0.0032
G1 X-12.091 Y11.457 E0.0349
G1 X-12.846 Y10.874 E0.0365
G1 X-13.351 Y10.719 E0.0202
G1 X-15.757 Y8.313 E0.1301
G1 X-16.082 Y8.638 E0.0176
G1 X-14.143 Y10.577 E0.1049
G1 X-14.841 Y10.530 E0.0268
G1 X-16.407 Y8.964 E0.0847
G1 X-16.732 Y9.290 E0.0176
G1 X-15.476 Y10.545 E0.0679
G1 X-16.102 Y10.570 E0.0240
G1 X-17.057 Y9.615 E0.0516
G1 X-17.086 Y9.644 E0.0016
G1 X-17.363 Y9.960 E0.0161
G1 X-16.713 Y10.610 E0.0351
G1 X-17.291 Y10.682 E0.0223
G1 X-17.667 Y10.306 E0.0203
G1 X-17.971 Y10.652 E0.0176
G1 X-17.869 Y10.755 E0.0055
G1 E-1.9000 F1200
; feature inner perimeter
G1 Z0.700 F1200
G1 X-26.666 Y12.606 F9000
G1 Z0.200 F1200
G1 E1.9000 F1200
G1 X-30.968 Y12.608 E0.1645 F1800
G1 X-32.014 Y12.494 E0.0403
