; G-Code generated by Simplify3D(R) Version 4.1.2
; Apr 2, 2020 at 2:03:10 PM
; Settings Summary
;   processName,Process1
;   applyToModels,Torch Flame B,Torch Flame B(2),Torch Flame B(3),Torch Flame B(2)(2),Torch Flame B(4),Torch Flame B(2)(3),Torch Flame B(3)(2),Torch Flame B(2)(2)(2)
;   profileName,MakerBot Replicator 2 HBP (modified)
;   profileVersion,2020-03-12 10:48:50
;   baseProfile,MakerBot Replicator 2(2)
;   printMaterial,PLA
;   printQuality,Medium
;   printExtruders,
;   extruderName,Primary Extruder
;   extruderToolheadNumber,0
;   extruderDiameter,0.4
;   extruderAutoWidth,0
;   extruderWidth,0.4
;   extrusionMultiplier,1
;   extruderUseRetract,1
;   extruderRetractionDistance,1.9
;   extruderExtraRestartDistance,0
;   extruderRetractionZLift,0.5
;   extruderRetractionSpeed,1200
;   extruderUseCoasting,0
;   extruderCoastingDistance,0.2
;   extruderUseWipe,0
;   extruderWipeDistance,5
;   primaryExtruder,0
;   layerHeight,0.2
;   topSolidLayers,3
;   bottomSolidLayers,3
;   perimeterOutlines,2
;   printPerimetersInsideOut,1
;   startPointOption,3
;   startPointOriginX,0
;   startPointOriginY,150
;   sequentialIslands,0
;   spiralVaseMode,0
;   firstLayerHeightPercentage,100
;   firstLayerWidthPercentage,115
;   firstLayerUnderspeed,0.5
;   useRaft,0
;   raftExtruder,0
;   raftTopLayers,2
;   raftBaseLayers,1
;   raftOffset,1
;   raftSeparationDistance,0.14
;   raftTopInfill,90
;   aboveRaftSpeedMultiplier,0.3
;   useSkirt,0
;   skirtExtruder,0
;   skirtLayers,1
;   skirtOutlines,5
;   skirtOffset,0
;   usePrimePillar,0
;   primePillarExtruder,999
;   primePillarWidth,12
;   primePillarLocation,7
;   primePillarSpeedMultiplier,1
;   useOozeShield,0
;   oozeShieldExtruder,999
;   oozeShieldOffset,2
;   oozeShieldOutlines,1
;   oozeShieldSidewallShape,1
;   oozeShieldSidewallAngle,30
;   oozeShieldSpeedMultiplier,1
;   infillExtruder,0
;   internalInfillPattern,Rectilinear
;   externalInfillPattern,Rectilinear
;   infillPercentage,15
;   outlineOverlapPercentage,25
;   infillExtrusionWidthPercentage,100
;   minInfillLength,5
;   infillLayerInterval,1
;   internalInfillAngles,45,-45
;   overlapInternalInfillAngles,0
;   externalInfillAngles,45,-45
;   generateSupport,1
;   supportExtruder,0
;   supportInfillPercentage,30
;   supportExtraInflation,0.5
;   supportBaseLayers,0
;   denseSupportExtruder,0
;   denseSupportLayers,2
;   denseSupportInfillPercentage,90
;   supportLayerInterval,1
;   supportHorizontalPartOffset,0.3
;   supportUpperSeparationLayers,1
;   supportLowerSeparationLayers,1
;   supportType,1
;   supportGridSpacing,2
;   maxOverhangAngle,45
;   supportAngles,45,-45
;   temperatureName,Primary Extruder,Heated Build Platform
;   temperatureNumber,0,0
;   temperatureSetpointCount,1,1
;   temperatureSetpointLayers,1,1
;   temperatureSetpointTemperatures,230,60
;   temperatureStabilizeAtStartup,1,1
;   temperatureHeatedBed,0,1
;   fanLayers,1,2
;   fanSpeeds,0,100
;   blipFanToFullPower,1
;   adjustSpeedForCooling,1
;   minSpeedLayerTime,15
;   minCoolingSpeedSlowdown,20
;   increaseFanForCooling,1
;   minFanLayerTime,45
;   maxCoolingFanSpeed,100
;   increaseFanForBridging,1
;   bridgingFanSpeed,100
;   use5D,1
;   relativeEdistances,1
;   allowEaxisZeroing,0
;   independentExtruderAxes,1
;   includeM10123,0
;   stickySupport,1
;   applyToolheadOffsets,0
;   gcodeXoffset,0
;   gcodeYoffset,0
;   gcodeZoffset,0
;   overrideMachineDefinition,1
;   machineTypeOverride,0
;   strokeXoverride,280
;   strokeYoverride,150
;   strokeZoverride,150
;   originOffsetXoverride,140
;   originOffsetYoverride,75
;   originOffsetZoverride,0
;   homeXdirOverride,1
;   homeYdirOverride,1
;   homeZdirOverride,-1
;   flipXoverride,1
;   flipYoverride,-1
;   flipZoverride,1
;   toolheadOffsets,0,0|0,0|0,0|0,0|0,0|0,0
;   overrideFirmwareConfiguration,1
;   firmwareTypeOverride,MakerBot/Sailfish Firmware
;   GPXconfigOverride,r2h
;   baudRateOverride,115200
;   overridePrinterModels,1
;   printerModelsOverride,MakerBot_Replicator2.stl
;   startingGcode,; **** Replicator 2 start.gcode ****,M73 P0 ; enable build progress,G162 X Y F3000 ; home XY maximum,G161 Z F1200 ; home Z minimum,G92 Z-5 ; set Z to -5,G1 Z0 ; move Z to 0,G161 Z F100 ; home Z slowly,M132 X Y Z A B ; recall home offsets,G1 X-145 Y-75 Z30 F9000 ; move to wait position off table,G130 X20 Y20 Z20 A20 B20 ; lower stepper Vrefs while heating,M126 S[fan_speed_pwm],M140 S[bed0_temperature] T0,M134 T0 ; stabilize bed temperature,M104 S[extruder0_temperature] T0,M133 T0 ; stabilize extruder temperature,G130 X127 Y127 Z40 A127 B127 ; default stepper Vrefs,G92 A0 ; zero extruder,G1 Z0.4 ; position nozzle,G1 E25 F300 ; purge nozzle,G1 X-140 Y-70 Z0.15 F1200 ; slow wipe,G1 X-135 Y-65 Z0.5 F1200 ; lift,G92 A0 ; zero extruder,M73 P1 ;@body (notify GPX body has started),; **** end of start.gcode ****
;   layerChangeGcode,
;   retractionGcode,
;   toolChangeGcode,
;   endingGcode,; **** Replicator 2 end.gcode ****,M73 P100 ; end build progress,G1 Z155 F1000 ; send Z axis to bottom of machine,M104 S0 T0 ; cool down extruder,M140 S0 T0 ; cool down HBP,M127 ; stop blower fan,G162 X Y F3000 ; home XY maximum,M18 ; disable stepper,M0 ; stop codes,M72 P1 ; play Ta-Da song,; **** end of end.gcode ****
;   exportFileFormat,gcode
;   celebration,0
;   celebrationSong,Random Song
;   postProcessing,
;   defaultSpeed,4800
;   outlineUnderspeed,0.5
;   solidInfillUnderspeed,1
;   supportUnderspeed,1
;   rapidXYspeed,9000
;   rapidZspeed,1200
;   minBridgingArea,50
;   bridgingExtraInflation,0
;   bridgingExtrusionMultiplier,1
;   bridgingSpeedMultiplier,0.8
;   useFixedBridgingAngle,0
;   fixedBridgingAngle,0
;   applyBridgingToPerimeters,0
;   filamentDiameters,1.75|1.75|1.75|1.75|1.75|1.75
;   filamentPricesPerKg,46|46|46|46|46|46
;   filamentDensities,1.25|1.25|1.25|1.25|1.25|1.25
;   useMinPrintHeight,0
;   minPrintHeight,0
;   useMaxPrintHeight,0
;   maxPrintHeight,4.84
;   useDiaphragm,0
;   diaphragmLayerInterval,20
;   robustSlicing,1
;   mergeAllIntoSolid,0
;   onlyRetractWhenCrossingOutline,0
;   retractBetweenLayers,0
;   useRetractionMinTravel,1
;   retractionMinTravel,7
;   retractWhileWiping,1
;   onlyWipeOutlines,1
;   avoidCrossingOutline,0
;   maxMovementDetourFactor,3
;   toolChangeRetractionDistance,12
;   toolChangeExtraRestartDistance,-0.5
;   toolChangeRetractionSpeed,600
;   externalThinWallType,0
;   internalThinWallType,0
;   thinWallAllowedOverlapPercentage,10
;   singleExtrusionMinLength,1
;   singleExtrusionMinPrintingWidthPercentage,50
;   singleExtrusionMaxPrintingWidthPercentage,200
;   singleExtrusionEndpointExtension,0.2
;   horizontalSizeCompensation,0
G90
M83
; **** Replicator 2 start.gcode ****
M73 P0 ; enable build progress
G162 X Y F3000 ; home XY maximum
G161 Z F1200 ; home Z minimum
G92 Z-5 ; set Z to -5
G1 Z0 ; move Z to 0
G161 Z F100 ; home Z slowly
M132 X Y Z A B ; recall home offsets
G1 X-145 Y-75 Z30 F9000 ; move to wait position off table
G130 X20 Y20 Z20 A20 B20 ; lower stepper Vrefs while heating
M127
M140 S60 T0
M134 T0 ; stabilize bed temperature
M104 S230 T0
M133 T0 ; stabilize extruder temperature
G130 X127 Y127 Z40 A127 B127 ; default stepper Vrefs
G92 A0 ; zero extruder
G1 Z0.4 ; position nozzle
G1 E25 F300 ; purge nozzle
G1 X-140 Y-70 Z0.15 F1200 ; slow wipe
G1 X-135 Y-65 Z0.5 F1200 ; lift
G92 A0 ; zero extruder
M73 P1 ;@body (notify GPX body has started)
; **** end of start.gcode ****
; process Process1
; layer 1, Z = 0.200
M135 T0
G1 E-1.9000 F1200
; feature inner perimeter
; tool H0.200 W0.460
G1 Z0.500 F1200
G1 X3.190 Y-7.248 F9000
G1 Z0.200 F1200
G1 E1.9000 F1200
G1 X3.192 Y-18.574 E0.4333 F1800
G1 X4.326 Y-18.502 E0.0435
G1 X4.638 Y-18.455 E0.0121
G1 X4.965 Y-18.366 E0.0129
G1 X5.337 Y-18.206 E0.0155
G1 X5.780 Y-17.944 E0.0197
G1 X6.305 Y-17.550 E0.0251
G1 X7.994 Y-16.038 E0.0867
G1 X8.367 Y-15.664 E0.0202
G1 X8.500 Y-15.486 E0.0085
G1 X8.555 Y-15.383 E0.0045
G1 X8.623 Y-15.176 E0.0084
G1 X8.668 Y-14.896 E0.0108
G1 X8.711 Y-14.066 E0.0318
G1 X8.753 Y-11.476 E0.0991
G1 X8.725 Y-10.959 E0.0198
G1 X8.677 Y-10.723 E0.0092
G1 X8.603 Y-10.541 E0.0075
G1 X8.472 Y-10.340 E0.0092
G1 X8.344 Y-10.187 E0.0076
G1 X8.040 Y-9.872 E0.0168
G1 X6.649 Y-8.539 E0.0737
G1 X6.266 Y-8.206 E0.0194
G1 X5.919 Y-7.941 E0.0167
G1 X5.606 Y-7.737 E0.0143
G1 X5.327 Y-7.588 E0.0121
G1 X5.077 Y-7.483 E0.0104
G1 X4.858 Y-7.416 E0.0088
G1 X4.472 Y-7.344 E0.0150
G1 X3.538 Y-7.287 E0.0358
G1 X3.190 Y-7.248 E0.0134
; feature outer perimeter
G1 X3.168 Y-6.782 F9000
G1 X2.730 Y-6.685 E0.0172 F1200
G1 X2.730 Y-19.139 E0.4763
G1 X2.864 Y-19.099 E0.0053
G1 X3.247 Y-19.031 E0.0149
G1 X4.374 Y-18.959 E0.0432
G1 X4.733 Y-18.906 E0.0139
G1 X5.117 Y-18.801 E0.0152
G1 X5.546 Y-18.617 E0.0179
G1 X6.036 Y-18.327 E0.0218
G1 X6.597 Y-17.906 E0.0268
G1 X8.311 Y-16.372 E0.0880
G1 X8.716 Y-15.965 E0.0220
G1 X8.889 Y-15.734 E0.0111
G1 X8.979 Y-15.564 E0.0073
G1 X9.071 Y-15.284 E0.0113
G1 X9.126 Y-14.945 E0.0132
G1 X9.171 Y-14.082 E0.0330
G1 X9.213 Y-11.467 E0.1000
G1 X9.182 Y-10.901 E0.0217
G1 X9.119 Y-10.590 E0.0121
G1 X9.012 Y-10.327 E0.0109
G1 X8.842 Y-10.066 E0.0119
G1 X8.686 Y-9.880 E0.0093
G1 X8.365 Y-9.546 E0.0177
G1 X6.960 Y-8.199 E0.0745
G1 X6.557 Y-7.849 E0.0204
G1 X6.185 Y-7.565 E0.0179
G1 X5.841 Y-7.341 E0.0157
G1 X5.525 Y-7.172 E0.0137
G1 X5.235 Y-7.050 E0.0120
G1 X4.968 Y-6.968 E0.0107
G1 X4.528 Y-6.887 E0.0171
G1 X3.577 Y-6.828 E0.0364
G1 X3.168 Y-6.782 E0.0157
; feature solid layer
G1 X4.046 Y-7.664 F9000
G1 X3.535 Y-8.175 E0.0276 F2400
G1 X3.535 Y-8.825 E0.0249
G1 X4.635 Y-7.725 E0.0595
G1 X4.776 Y-7.751 E0.0055
G1 X4.960 Y-7.808 E0.0074
G1 X5.131 Y-7.880 E0.0071
G1 X3.535 Y-9.476 E0.0863
G1 X3.535 Y-10.126 E0.0249
G1 X5.549 Y-8.112 E0.1090
G1 X5.720 Y-8.223 E0.0078
G1 X5.929 Y-8.382 E0.0101
G1 X3.535 Y-10.777 E0.1295
G1 X3.535 Y-11.427 E0.0249
G1 X6.284 Y-8.678 E0.1487
G1 X6.417 Y-8.794 E0.0067
G1 X6.622 Y-8.991 E0.0109
G1 X3.535 Y-12.078 E0.1670
G1 X3.535 Y-12.728 E0.0249
G1 X6.954 Y-9.309 E0.1850
G1 X7.286 Y-9.628 E0.0176
G1 X3.535 Y-13.379 E0.2029
G1 X3.535 Y-14.030 E0.0249
G1 X7.618 Y-9.946 E0.2209
G1 X7.796 Y-10.117 E0.0094
G1 X7.945 Y-10.270 E0.0082
G1 X3.535 Y-14.680 E0.2385
G1 X3.535 Y-15.331 E0.0249
G1 X8.244 Y-10.622 E0.2547
G1 X8.296 Y-10.702 E0.0037
G1 X8.345 Y-10.823 E0.0050
G1 X8.381 Y-11.003 E0.0070
G1 X8.388 Y-11.128 E0.0048
G1 X3.535 Y-15.981 E0.2625
G1 X3.535 Y-16.632 E0.0249
G1 X8.403 Y-11.763 E0.2633
G1 X8.393 Y-12.425 E0.0253
G1 X3.535 Y-17.282 E0.2628
G1 X3.535 Y-17.933 E0.0249
G1 X8.382 Y-13.086 E0.2622
G1 X8.371 Y-13.747 E0.0253
G1 X3.938 Y-18.181 E0.2398
G1 X4.290 Y-18.158 E0.0135
G1 X4.567 Y-18.117 E0.0107
G1 X4.684 Y-18.085 E0.0046
G1 X8.347 Y-14.422 E0.1981
G1 X8.324 Y-14.859 E0.0168
G1 X8.286 Y-15.094 E0.0091
G1 X8.267 Y-15.152 E0.0023
G1 X6.567 Y-16.853 E0.0920
G1 E-1.9000 F1200
; feature inner perimeter
G1 Z0.700 F1200
G1 X17.051 Y-7.248 F9000
G1 Z0.200 F1200
G1 E1.9000 F1200
G1 X17.053 Y-18.574 E0.4333 F1800
G1 X18.187 Y-18.502 E0.0435
G1 X18.499 Y-18.455 E0.0121
G1 X18.825 Y-18.366 E0.0129
G1 X19.198 Y-18.206 E0.0155
G1 X19.641 Y-17.944 E0.0197
G1 X20.166 Y-17.550 E0.0251
G1 X21.855 Y-16.038 E0.0867
G1 X22.228 Y-15.664 E0.0202
G1 X22.361 Y-15.486 E0.0085
G1 X22.416 Y-15.383 E0.0045
G1 X22.484 Y-15.176 E0.0084
G1 X22.529 Y-14.896 E0.0108
G1 X22.572 Y-14.066 E0.0318
G1 X22.614 Y-11.476 E0.0991
G1 X22.585 Y-10.959 E0.0198
G1 X22.538 Y-10.723 E0.0092
G1 X22.464 Y-10.541 E0.0075
G1 X22.333 Y-10.340 E0.0092
G1 X22.205 Y-10.187 E0.0076
G1 X21.901 Y-9.872 E0.0167
G1 X20.510 Y-8.539 E0.0737
G1 X20.127 Y-8.206 E0.0194
G1 X19.780 Y-7.941 E0.0167
G1 X19.467 Y-7.737 E0.0143
G1 X19.188 Y-7.588 E0.0121
G1 X18.938 Y-7.483 E0.0103
G1 X18.719 Y-7.416 E0.0088
G1 X18.333 Y-7.344 E0.0150
G1 X17.398 Y-7.287 E0.0358
G1 X17.051 Y-7.248 E0.0134
; feature outer perimeter
G1 X17.029 Y-6.782 F9000
G1 X16.591 Y-6.685 E0.0172 F1200
G1 X16.591 Y-19.139 E0.4763
G1 X16.725 Y-19.099 E0.0053
G1 X17.108 Y-19.031 E0.0149
G1 X18.235 Y-18.959 E0.0432
G1 X18.594 Y-18.906 E0.0139
G1 X18.978 Y-18.801 E0.0152
G1 X19.407 Y-18.617 E0.0179
G1 X19.897 Y-18.327 E0.0218
G1 X20.458 Y-17.906 E0.0268
G1 X22.172 Y-16.372 E0.0880
G1 X22.577 Y-15.965 E0.0220
G1 X22.750 Y-15.734 E0.0111
G1 X22.840 Y-15.564 E0.0073
G1 X22.932 Y-15.284 E0.0113
G1 X22.987 Y-14.945 E0.0132
G1 X23.032 Y-14.082 E0.0330
G1 X23.074 Y-11.467 E0.1000
G1 X23.043 Y-10.901 E0.0217
G1 X22.980 Y-10.590 E0.0121
G1 X22.873 Y-10.327 E0.0109
G1 X22.703 Y-10.066 E0.0119
G1 X22.547 Y-9.879 E0.0093
G1 X22.226 Y-9.547 E0.0177
G1 X20.820 Y-8.199 E0.0745
G1 X20.418 Y-7.849 E0.0204
G1 X20.046 Y-7.565 E0.0179
G1 X19.701 Y-7.341 E0.0157
G1 X19.386 Y-7.172 E0.0137
G1 X19.095 Y-7.050 E0.0120
G1 X18.829 Y-6.968 E0.0107
G1 X18.389 Y-6.887 E0.0171
G1 X17.438 Y-6.828 E0.0364
G1 X17.029 Y-6.782 E0.0157
; feature solid layer
G1 X17.719 Y-7.652 F9000
G1 X17.396 Y-7.975 E0.0175 F2400
G1 X17.396 Y-8.626 E0.0249
G1 X18.327 Y-7.694 E0.0504
G1 X18.637 Y-7.751 E0.0120
G1 X18.821 Y-7.808 E0.0074
G1 X18.851 Y-7.821 E0.0013
G1 X17.396 Y-9.276 E0.0787
G1 X17.396 Y-9.927 E0.0249
G1 X19.289 Y-8.033 E0.1024
G1 X19.581 Y-8.223 E0.0133
G1 X19.677 Y-8.296 E0.0046
G1 X17.396 Y-10.577 E0.1234
G1 X17.396 Y-11.228 E0.0249
G1 X20.038 Y-8.585 E0.1429
G1 X20.277 Y-8.794 E0.0121
G1 X20.381 Y-8.893 E0.0055
G1 X17.396 Y-11.878 E0.1615
G1 X17.396 Y-12.529 E0.0249
G1 X20.713 Y-9.212 E0.1794
G1 X21.045 Y-9.530 E0.0176
G1 X17.396 Y-13.179 E0.1974
G1 X17.396 Y-13.830 E0.0249
G1 X21.377 Y-9.848 E0.2154
G1 X21.657 Y-10.117 E0.0148
G1 X21.708 Y-10.169 E0.0028
G1 X17.396 Y-14.481 E0.2332
G1 X17.396 Y-15.131 E0.0249
G1 X22.021 Y-10.506 E0.2502
G1 X22.055 Y-10.546 E0.0020
G1 X22.157 Y-10.702 E0.0071
G1 X22.206 Y-10.823 E0.0050
G1 X22.231 Y-10.946 E0.0048
G1 X17.396 Y-15.782 E0.2615
G1 X17.396 Y-16.432 E0.0249
G1 X22.267 Y-11.561 E0.2635
G1 X22.257 Y-12.222 E0.0253
G1 X17.396 Y-17.083 E0.2629
G1 X17.396 Y-17.733 E0.0249
G1 X22.246 Y-12.883 E0.2624
G1 X22.235 Y-13.544 E0.0253
G1 X17.585 Y-18.194 E0.2515
G1 X18.151 Y-18.158 E0.0217
G1 X18.293 Y-18.137 E0.0055
G1 X22.219 Y-14.211 E0.2124
G1 X22.185 Y-14.859 E0.0248
G1 X22.178 Y-14.902 E0.0017
G1 X19.389 Y-17.692 E0.1509
G1 E-1.9000 F1200
; feature inner perimeter
G1 Z0.700 F1200
G1 X30.912 Y-7.248 F9000
G1 Z0.200 F1200
G1 E1.9000 F1200
G1 X30.914 Y-18.574 E0.4333 F1800
G1 X32.048 Y-18.502 E0.0435
G1 X32.360 Y-18.455 E0.0121
G1 X32.686 Y-18.366 E0.0129
G1 X33.059 Y-18.206 E0.0155
G1 X33.502 Y-17.944 E0.0197
G1 X34.027 Y-17.550 E0.0251
G1 X35.716 Y-16.038 E0.0867
G1 X36.089 Y-15.664 E0.0202
G1 X36.221 Y-15.486 E0.0085
G1 X36.276 Y-15.383 E0.0045
G1 X36.344 Y-15.176 E0.0084
G1 X36.390 Y-14.896 E0.0108
G1 X36.433 Y-14.066 E0.0318
G1 X36.475 Y-11.476 E0.0991
G1 X36.446 Y-10.959 E0.0198
G1 X36.399 Y-10.723 E0.0092
G1 X36.325 Y-10.541 E0.0075
G1 X36.194 Y-10.340 E0.0092
G1 X36.066 Y-10.187 E0.0076
G1 X35.762 Y-9.872 E0.0167
G1 X34.371 Y-8.539 E0.0737
G1 X33.988 Y-8.206 E0.0194
G1 X33.641 Y-7.941 E0.0167
G1 X33.328 Y-7.737 E0.0143
G1 X33.049 Y-7.588 E0.0121
G1 X32.799 Y-7.483 E0.0103
G1 X32.580 Y-7.416 E0.0088
G1 X32.194 Y-7.344 E0.0150
G1 X31.259 Y-7.287 E0.0358
G1 X30.912 Y-7.248 E0.0134
; feature outer perimeter
G1 X30.890 Y-6.782 F9000
G1 X30.452 Y-6.685 E0.0172 F1200
G1 X30.452 Y-19.139 E0.4763
G1 X30.586 Y-19.099 E0.0053
G1 X30.969 Y-19.031 E0.0149
G1 X32.096 Y-18.959 E0.0432
G1 X32.455 Y-18.906 E0.0139
G1 X32.839 Y-18.801 E0.0152
G1 X33.268 Y-18.617 E0.0179
G1 X33.758 Y-18.327 E0.0218
G1 X34.319 Y-17.906 E0.0268
G1 X36.033 Y-16.372 E0.0880
G1 X36.438 Y-15.965 E0.0220
G1 X36.611 Y-15.734 E0.0111
G1 X36.701 Y-15.564 E0.0073
G1 X36.793 Y-15.284 E0.0113
G1 X36.848 Y-14.945 E0.0132
G1 X36.892 Y-14.082 E0.0330
G1 X36.935 Y-11.467 E0.1000
G1 X36.904 Y-10.901 E0.0217
G1 X36.841 Y-10.590 E0.0121
G1 X36.734 Y-10.327 E0.0109
G1 X36.564 Y-10.066 E0.0119
G1 X36.408 Y-9.879 E0.0093
G1 X36.087 Y-9.547 E0.0177
G1 X34.681 Y-8.199 E0.0745
G1 X34.279 Y-7.849 E0.0204
G1 X33.906 Y-7.565 E0.0179
G1 X33.562 Y-7.341 E0.0157
G1 X33.246 Y-7.172 E0.0137
G1 X32.956 Y-7.050 E0.0120
G1 X32.690 Y-6.968 E0.0107
