; G-Code generated by Simplify3D(R) Version 4.1.2
; Apr 6, 2020 at 12:11:50 PM
; Settings Summary
;   processName,Process1
;   applyToModels,WOZ bracket4_Snake,WOZ bracket4_Snake(2),WOZ bracket4_Snake(3),WOZ bracket4_Snake(2)(2)
;   profileName,MakerBot Replicator 2 HBP (modified)
;   profileVersion,2020-03-12 10:48:50
;   baseProfile,MakerBot Replicator 2(2)
;   printMaterial,PLA
;   printQuality,Medium
;   printExtruders,
;   extruderName,Primary Extruder
;   extruderToolheadNumber,0
;   extruderDiameter,0.4
;   extruderAutoWidth,0
;   extruderWidth,0.4
;   extrusionMultiplier,1
;   extruderUseRetract,1
;   extruderRetractionDistance,1.9
;   extruderExtraRestartDistance,0
;   extruderRetractionZLift,0.5
;   extruderRetractionSpeed,1200
;   extruderUseCoasting,0
;   extruderCoastingDistance,0.2
;   extruderUseWipe,0
;   extruderWipeDistance,5
;   primaryExtruder,0
;   layerHeight,0.2
;   topSolidLayers,3
;   bottomSolidLayers,3
;   perimeterOutlines,3
;   printPerimetersInsideOut,1
;   startPointOption,3
;   startPointOriginX,0
;   startPointOriginY,150
;   sequentialIslands,0
;   spiralVaseMode,0
;   firstLayerHeightPercentage,100
;   firstLayerWidthPercentage,115
;   firstLayerUnderspeed,0.5
;   useRaft,0
;   raftExtruder,0
;   raftTopLayers,2
;   raftBaseLayers,1
;   raftOffset,1
;   raftSeparationDistance,0.14
;   raftTopInfill,90
;   aboveRaftSpeedMultiplier,0.3
;   useSkirt,0
;   skirtExtruder,0
;   skirtLayers,1
;   skirtOutlines,5
;   skirtOffset,0
;   usePrimePillar,0
;   primePillarExtruder,999
;   primePillarWidth,12
;   primePillarLocation,7
;   primePillarSpeedMultiplier,1
;   useOozeShield,0
;   oozeShieldExtruder,999
;   oozeShieldOffset,2
;   oozeShieldOutlines,1
;   oozeShieldSidewallShape,1
;   oozeShieldSidewallAngle,30
;   oozeShieldSpeedMultiplier,1
;   infillExtruder,0
;   internalInfillPattern,Rectilinear
;   externalInfillPattern,Rectilinear
;   infillPercentage,15
;   outlineOverlapPercentage,25
;   infillExtrusionWidthPercentage,100
;   minInfillLength,5
;   infillLayerInterval,1
;   internalInfillAngles,45,-45
;   overlapInternalInfillAngles,0
;   externalInfillAngles,45,-45
;   generateSupport,1
;   supportExtruder,0
;   supportInfillPercentage,15
;   supportExtraInflation,0.5
;   supportBaseLayers,0
;   denseSupportExtruder,0
;   denseSupportLayers,2
;   denseSupportInfillPercentage,90
;   supportLayerInterval,1
;   supportHorizontalPartOffset,0.3
;   supportUpperSeparationLayers,1
;   supportLowerSeparationLayers,1
;   supportType,1
;   supportGridSpacing,2
;   maxOverhangAngle,45
;   supportAngles,45,-45
;   temperatureName,Primary Extruder,Heated Build Platform
;   temperatureNumber,0,0
;   temperatureSetpointCount,1,1
;   temperatureSetpointLayers,1,1
;   temperatureSetpointTemperatures,230,60
;   temperatureStabilizeAtStartup,1,1
;   temperatureHeatedBed,0,1
;   fanLayers,1,2
;   fanSpeeds,0,100
;   blipFanToFullPower,1
;   adjustSpeedForCooling,1
;   minSpeedLayerTime,15
;   minCoolingSpeedSlowdown,20
;   increaseFanForCooling,1
;   minFanLayerTime,45
;   maxCoolingFanSpeed,100
;   increaseFanForBridging,1
;   bridgingFanSpeed,100
;   use5D,1
;   relativeEdistances,1
;   allowEaxisZeroing,0
;   independentExtruderAxes,1
;   includeM10123,0
;   stickySupport,1
;   applyToolheadOffsets,0
;   gcodeXoffset,0
;   gcodeYoffset,0
;   gcodeZoffset,0
;   overrideMachineDefinition,1
;   machineTypeOverride,0
;   strokeXoverride,280
;   strokeYoverride,150
;   strokeZoverride,150
;   originOffsetXoverride,140
;   originOffsetYoverride,75
;   originOffsetZoverride,0
;   homeXdirOverride,1
;   homeYdirOverride,1
;   homeZdirOverride,-1
;   flipXoverride,1
;   flipYoverride,-1
;   flipZoverride,1
;   toolheadOffsets,0,0|0,0|0,0|0,0|0,0|0,0
;   overrideFirmwareConfiguration,1
;   firmwareTypeOverride,MakerBot/Sailfish Firmware
;   GPXconfigOverride,r2h
;   baudRateOverride,115200
;   overridePrinterModels,1
;   printerModelsOverride,MakerBot_Replicator2.stl
;   startingGcode,; **** Replicator 2 start.gcode ****,M73 P0 ; enable build progress,G162 X Y F3000 ; home XY maximum,G161 Z F1200 ; home Z minimum,G92 Z-5 ; set Z to -5,G1 Z0 ; move Z to 0,G161 Z F100 ; home Z slowly,M132 X Y Z A B ; recall home offsets,G1 X-145 Y-75 Z30 F9000 ; move to wait position off table,G130 X20 Y20 Z20 A20 B20 ; lower stepper Vrefs while heating,M126 S[fan_speed_pwm],M140 S[bed0_temperature] T0,M134 T0 ; stabilize bed temperature,M104 S[extruder0_temperature] T0,M133 T0 ; stabilize extruder temperature,G130 X127 Y127 Z40 A127 B127 ; default stepper Vrefs,G92 A0 ; zero extruder,G1 Z0.4 ; position nozzle,G1 E25 F300 ; purge nozzle,G1 X-140 Y-70 Z0.15 F1200 ; slow wipe,G1 X-135 Y-65 Z0.5 F1200 ; lift,G92 A0 ; zero extruder,M73 P1 ;@body (notify GPX body has started),; **** end of start.gcode ****
;   layerChangeGcode,
;   retractionGcode,
;   toolChangeGcode,
;   endingGcode,; **** Replicator 2 end.gcode ****,M73 P100 ; end build progress,G1 Z155 F1000 ; send Z axis to bottom of machine,M104 S0 T0 ; cool down extruder,M140 S0 T0 ; cool down HBP,M127 ; stop blower fan,G162 X Y F3000 ; home XY maximum,M18 ; disable stepper,M0 ; stop codes,M72 P1 ; play Ta-Da song,; **** end of end.gcode ****
;   exportFileFormat,gcode
;   celebration,0
;   celebrationSong,Random Song
;   postProcessing,
;   defaultSpeed,4800
;   outlineUnderspeed,0.5
;   solidInfillUnderspeed,1
;   supportUnderspeed,1
;   rapidXYspeed,9000
;   rapidZspeed,1200
;   minBridgingArea,50
;   bridgingExtraInflation,0
;   bridgingExtrusionMultiplier,1
;   bridgingSpeedMultiplier,0.8
;   useFixedBridgingAngle,0
;   fixedBridgingAngle,0
;   applyBridgingToPerimeters,0
;   filamentDiameters,1.75|1.75|1.75|1.75|1.75|1.75
;   filamentPricesPerKg,46|46|46|46|46|46
;   filamentDensities,1.25|1.25|1.25|1.25|1.25|1.25
;   useMinPrintHeight,0
;   minPrintHeight,0
;   useMaxPrintHeight,0
;   maxPrintHeight,4.84
;   useDiaphragm,0
;   diaphragmLayerInterval,20
;   robustSlicing,1
;   mergeAllIntoSolid,0
;   onlyRetractWhenCrossingOutline,0
;   retractBetweenLayers,0
;   useRetractionMinTravel,1
;   retractionMinTravel,7
;   retractWhileWiping,1
;   onlyWipeOutlines,1
;   avoidCrossingOutline,0
;   maxMovementDetourFactor,3
;   toolChangeRetractionDistance,12
;   toolChangeExtraRestartDistance,-0.5
;   toolChangeRetractionSpeed,600
;   externalThinWallType,0
;   internalThinWallType,0
;   thinWallAllowedOverlapPercentage,10
;   singleExtrusionMinLength,1
;   singleExtrusionMinPrintingWidthPercentage,50
;   singleExtrusionMaxPrintingWidthPercentage,200
;   singleExtrusionEndpointExtension,0.2
;   horizontalSizeCompensation,0
G90
M83
; **** Replicator 2 start.gcode ****
M73 P0 ; enable build progress
G162 X Y F3000 ; home XY maximum
G161 Z F1200 ; home Z minimum
G92 Z-5 ; set Z to -5
G1 Z0 ; move Z to 0
G161 Z F100 ; home Z slowly
M132 X Y Z A B ; recall home offsets
G1 X-145 Y-75 Z30 F9000 ; move to wait position off table
G130 X20 Y20 Z20 A20 B20 ; lower stepper Vrefs while heating
M127
M140 S60 T0
M134 T0 ; stabilize bed temperature
M104 S230 T0
M133 T0 ; stabilize extruder temperature
G130 X127 Y127 Z40 A127 B127 ; default stepper Vrefs
G92 A0 ; zero extruder
G1 Z0.4 ; position nozzle
G1 E25 F300 ; purge nozzle
G1 X-140 Y-70 Z0.15 F1200 ; slow wipe
G1 X-135 Y-65 Z0.5 F1200 ; lift
G92 A0 ; zero extruder
M73 P1 ;@body (notify GPX body has started)
; **** end of start.gcode ****
; process Process1
; layer 1, Z = 0.200
M135 T0
G1 E-1.9000 F1200
; feature inner perimeter
; tool H0.200 W0.460
G1 Z0.500 F1200
G1 X-3.650 Y-3.650 F9000
G1 Z0.200 F1200
G1 E1.9000 F1200
G1 X-11.388 Y-3.650 E0.2960 F1800
G1 X-11.388 Y-6.059 E0.0921
G1 X-55.697 Y-6.059 E1.6948
G1 X-55.697 Y-13.997 E0.3036
G1 X-11.388 Y-13.997 E1.6948
G1 X-11.388 Y-16.407 E0.0922
G1 X-3.650 Y-16.407 E0.2960
G1 X-3.650 Y-3.650 E0.4879
G1 X-3.190 Y-3.190 F9000
G1 X-11.848 Y-3.190 E0.3312 F1800
G1 X-11.848 Y-5.599 E0.0921
G1 X-56.157 Y-5.599 E1.6948
G1 X-56.157 Y-14.457 E0.3388
G1 X-11.848 Y-14.457 E1.6948
G1 X-11.848 Y-16.867 E0.0922
G1 X-3.190 Y-16.867 E0.3312
G1 X-3.190 Y-3.190 E0.5231
; feature outer perimeter
G1 X-2.730 Y-2.730 F9000
G1 X-12.308 Y-2.730 E0.3664 F1200
G1 X-12.308 Y-5.139 E0.0921
G1 X-56.617 Y-5.139 E1.6948
G1 X-56.617 Y-14.917 E0.3740
G1 X-12.308 Y-14.917 E1.6948
G1 X-12.308 Y-17.327 E0.0922
G1 X-2.730 Y-17.327 E0.3664
G1 X-2.730 Y-2.730 E0.5583
G1 E-1.9000 F1200
; feature inner perimeter
G1 Z0.700 F1200
G1 X-42.052 Y-9.314 F9000
G1 Z0.200 F1200
G1 E1.9000 F1200
G1 X-41.990 Y-9.936 E0.0239 F1800
G1 X-42.052 Y-10.557 E0.0239
G1 X-42.233 Y-11.155 E0.0239
G1 X-42.527 Y-11.706 E0.0239
G1 X-42.923 Y-12.188 E0.0239
G1 X-43.406 Y-12.584 E0.0239
G1 X-43.957 Y-12.879 E0.0239
G1 X-44.554 Y-13.060 E0.0239
G1 X-45.176 Y-13.121 E0.0239
G1 X-45.797 Y-13.060 E0.0239
G1 X-46.395 Y-12.879 E0.0239
G1 X-46.945 Y-12.584 E0.0239
G1 X-47.428 Y-12.188 E0.0239
G1 X-47.824 Y-11.706 E0.0239
G1 X-48.119 Y-11.155 E0.0239
G1 X-48.300 Y-10.557 E0.0239
G1 X-48.359 Y-9.954 E0.0232
G1 X-48.301 Y-9.316 E0.0245
G1 X-48.119 Y-8.717 E0.0240
G1 X-47.824 Y-8.166 E0.0239
G1 X-47.428 Y-7.683 E0.0239
G1 X-46.945 Y-7.287 E0.0239
G1 X-46.395 Y-6.993 E0.0239
G1 X-45.797 Y-6.812 E0.0239
G1 X-45.176 Y-6.750 E0.0239
G1 X-44.554 Y-6.812 E0.0239
G1 X-43.957 Y-6.993 E0.0239
G1 X-43.406 Y-7.287 E0.0239
G1 X-42.923 Y-7.683 E0.0239
G1 X-42.527 Y-8.166 E0.0239
G1 X-42.233 Y-8.717 E0.0239
G1 X-42.052 Y-9.314 E0.0239
; feature outer perimeter
G1 X-42.505 Y-9.405 F9000
G1 X-42.453 Y-9.936 E0.0204 F1200
G1 X-42.505 Y-10.467 E0.0204
G1 X-42.660 Y-10.978 E0.0204
G1 X-42.912 Y-11.449 E0.0204
G1 X-43.250 Y-11.861 E0.0204
G1 X-43.663 Y-12.200 E0.0204
G1 X-44.134 Y-12.452 E0.0204
G1 X-44.644 Y-12.607 E0.0204
G1 X-45.176 Y-12.659 E0.0204
G1 X-45.707 Y-12.607 E0.0204
G1 X-46.218 Y-12.452 E0.0204
G1 X-46.689 Y-12.200 E0.0204
G1 X-47.101 Y-11.861 E0.0204
G1 X-47.440 Y-11.449 E0.0204
G1 X-47.692 Y-10.978 E0.0204
G1 X-47.847 Y-10.467 E0.0204
G1 X-47.897 Y-9.953 E0.0198
G1 X-47.847 Y-9.405 E0.0210
G1 X-47.692 Y-8.894 E0.0204
G1 X-47.440 Y-8.423 E0.0204
G1 X-47.101 Y-8.010 E0.0204
G1 X-46.689 Y-7.672 E0.0204
G1 X-46.218 Y-7.420 E0.0204
G1 X-45.707 Y-7.265 E0.0204
G1 X-45.176 Y-7.213 E0.0204
G1 X-44.645 Y-7.265 E0.0204
G1 X-44.134 Y-7.420 E0.0204
G1 X-43.663 Y-7.672 E0.0204
G1 X-43.250 Y-8.010 E0.0204
G1 X-42.912 Y-8.423 E0.0204
G1 X-42.660 Y-8.894 E0.0204
G1 X-42.505 Y-9.405 E0.0204
; feature inner perimeter
G1 X-41.598 Y-9.224 F9000
G1 X-41.528 Y-9.936 E0.0274 F1800
G1 X-41.598 Y-10.647 E0.0273
G1 X-41.806 Y-11.332 E0.0274
G1 X-42.143 Y-11.962 E0.0274
G1 X-42.597 Y-12.515 E0.0274
G1 X-43.149 Y-12.969 E0.0274
G1 X-43.780 Y-13.306 E0.0273
G1 X-44.464 Y-13.513 E0.0274
G1 X-45.176 Y-13.584 E0.0274
G1 X-45.887 Y-13.513 E0.0274
G1 X-46.572 Y-13.306 E0.0274
G1 X-47.202 Y-12.969 E0.0274
G1 X-47.755 Y-12.515 E0.0274
G1 X-48.209 Y-11.962 E0.0274
G1 X-48.451 Y-11.510 E0.0196
G1 X-48.862 Y-12.136 E0.0287
G1 X-49.284 Y-12.652 E0.0255
G1 X-49.840 Y-13.108 E0.0275
G1 X-50.474 Y-13.446 E0.0275
G1 X-51.161 Y-13.655 E0.0275
G1 X-51.876 Y-13.725 E0.0275
G1 X-52.591 Y-13.655 E0.0275
G1 X-53.279 Y-13.446 E0.0275
G1 X-53.912 Y-13.108 E0.0275
G1 X-54.468 Y-12.652 E0.0275
G1 X-54.923 Y-12.096 E0.0275
G1 X-55.262 Y-11.463 E0.0275
G1 X-55.458 Y-10.816 E0.0258
G1 X-55.591 Y-10.051 E0.0297
G1 X-55.458 Y-9.302 E0.0291
G1 X-55.262 Y-8.658 E0.0258
G1 X-54.923 Y-8.024 E0.0275
G1 X-54.468 Y-7.469 E0.0275
G1 X-53.909 Y-7.010 E0.0276
G1 X-53.260 Y-6.668 E0.0281
G1 X-52.591 Y-6.465 E0.0267
G1 X-51.895 Y-6.397 E0.0268
G1 X-51.154 Y-6.446 E0.0284
G1 X-50.457 Y-6.683 E0.0282
G1 X-49.840 Y-7.013 E0.0268
G1 X-49.284 Y-7.469 E0.0275
G1 X-48.829 Y-8.024 E0.0275
G1 X-48.548 Y-8.548 E0.0227
G1 X-48.546 Y-8.540 E0.0003
G1 X-48.209 Y-7.909 E0.0274
G1 X-47.755 Y-7.357 E0.0273
G1 X-47.202 Y-6.903 E0.0274
G1 X-46.572 Y-6.566 E0.0274
G1 X-45.887 Y-6.358 E0.0274
G1 X-45.176 Y-6.288 E0.0274
G1 X-44.464 Y-6.358 E0.0274
G1 X-43.780 Y-6.566 E0.0273
G1 X-43.149 Y-6.903 E0.0274
G1 X-42.597 Y-7.357 E0.0274
G1 X-42.143 Y-7.909 E0.0274
G1 X-41.806 Y-8.540 E0.0274
G1 X-41.598 Y-9.224 E0.0274
G1 E-1.9000 F1200
G1 Z0.700 F1200
G1 X-48.673 Y-10.060 F9000
G1 Z0.200 F1200
G1 E1.9000 F1200
G1 X-48.732 Y-10.657 E0.0229 F1800
G1 X-48.876 Y-11.320 E0.0259
G1 X-49.233 Y-11.864 E0.0249
G1 X-49.611 Y-12.325 E0.0228
G1 X-50.097 Y-12.723 E0.0240
G1 X-50.650 Y-13.019 E0.0240
G1 X-51.251 Y-13.201 E0.0240
G1 X-51.876 Y-13.263 E0.0240
G1 X-52.501 Y-13.201 E0.0240
G1 X-53.102 Y-13.019 E0.0240
G1 X-53.655 Y-12.723 E0.0240
G1 X-54.141 Y-12.325 E0.0240
G1 X-54.539 Y-11.840 E0.0240
G1 X-54.835 Y-11.286 E0.0240
G1 X-55.010 Y-10.709 E0.0230
G1 X-55.124 Y-10.052 E0.0255
G1 X-55.010 Y-9.409 E0.0250
G1 X-54.835 Y-8.834 E0.0230
G1 X-54.539 Y-8.281 E0.0240
G1 X-54.141 Y-7.795 E0.0240
G1 X-53.654 Y-7.396 E0.0241
G1 X-53.084 Y-7.096 E0.0246
G1 X-52.501 Y-6.919 E0.0233
G1 X-51.887 Y-6.858 E0.0236
G1 X-51.245 Y-6.901 E0.0246
G1 X-50.640 Y-7.106 E0.0244
G1 X-50.097 Y-7.397 E0.0236
G1 X-49.611 Y-7.795 E0.0240
G1 X-49.213 Y-8.281 E0.0240
G1 X-48.917 Y-8.834 E0.0240
G1 X-48.735 Y-9.435 E0.0240
G1 X-48.673 Y-10.060 E0.0240
; feature outer perimeter
G1 X-49.135 Y-10.060 F9000
G1 X-49.187 Y-10.586 E0.0202 F1200
G1 X-49.307 Y-11.139 E0.0217
G1 X-49.604 Y-11.591 E0.0207
G1 X-49.938 Y-11.998 E0.0202
G1 X-50.353 Y-12.339 E0.0206
G1 X-50.827 Y-12.592 E0.0205
G1 X-51.341 Y-12.748 E0.0205
G1 X-51.876 Y-12.801 E0.0206
G1 X-52.411 Y-12.748 E0.0205
G1 X-52.925 Y-12.592 E0.0205
G1 X-53.399 Y-12.339 E0.0206
G1 X-53.814 Y-11.998 E0.0205
G1 X-54.155 Y-11.583 E0.0205
G1 X-54.408 Y-11.109 E0.0205
G1 X-54.562 Y-10.603 E0.0202
G1 X-54.657 Y-10.053 E0.0213
G1 X-54.561 Y-9.517 E0.0208
G1 X-54.408 Y-9.011 E0.0202
G1 X-54.155 Y-8.538 E0.0206
G1 X-53.814 Y-8.122 E0.0205
G1 X-53.398 Y-7.781 E0.0206
G1 X-52.909 Y-7.523 E0.0212
G1 X-52.411 Y-7.372 E0.0199
G1 X-51.880 Y-7.320 E0.0204
G1 X-51.335 Y-7.356 E0.0209
G1 X-50.824 Y-7.530 E0.0207
G1 X-50.353 Y-7.781 E0.0204
G1 X-49.938 Y-8.122 E0.0205
G1 X-49.597 Y-8.538 E0.0205
G1 X-49.344 Y-9.011 E0.0205
G1 X-49.188 Y-9.525 E0.0205
G1 X-49.135 Y-10.060 E0.0206
; feature solid layer
G1 X-48.664 Y-7.680 F9000
G1 X-47.388 Y-6.404 E0.0690 F2400
G1 X-48.039 Y-6.404 E0.0249
G1 X-48.958 Y-7.323 E0.0497
G1 X-49.039 Y-7.223 E0.0049
G1 X-49.297 Y-7.012 E0.0127
G1 X-48.689 Y-6.404 E0.0329
G1 X-49.340 Y-6.404 E0.0249
G1 X-49.656 Y-6.720 E0.0171
G1 X-50.079 Y-6.493 E0.0184
G1 X-49.990 Y-6.404 E0.0048
G1 X-55.195 Y-6.404 F9000
G1 X-55.352 Y-6.561 E0.0085 F2400
G1 X-55.352 Y-7.212 E0.0249
G1 X-54.544 Y-6.404 E0.0437
G1 X-53.893 Y-6.404 E0.0249
G1 X-54.712 Y-7.223 E0.0443
G1 X-55.352 Y-7.862 E0.0346
G1 X-55.216 Y-12.281 F9000
G1 X-55.352 Y-12.416 E0.0073 F2400
G1 X-55.352 Y-13.067 E0.0249
G1 X-54.924 Y-12.639 E0.0231
G1 X-54.713 Y-12.897 E0.0127
G1 X-54.613 Y-12.979 E0.0049
G1 X-55.287 Y-13.652 E0.0364
G1 X-54.636 Y-13.652 E0.0249
G1 X-54.256 Y-13.272 E0.0206
G1 X-54.105 Y-13.396 E0.0075
G1 X-53.860 Y-13.527 E0.0106
G1 X-53.986 Y-13.652 E0.0068
G1 X-50.082 Y-13.652 F9000
G1 X-50.031 Y-13.601 E0.0028 F2400
G1 X-49.647 Y-13.396 E0.0166
G1 X-49.039 Y-12.897 E0.0301
G1 X-48.583 Y-12.341 E0.0275
G1 X-48.477 Y-12.179 E0.0074
G1 X-48.243 Y-12.464 E0.0141
G1 X-49.432 Y-13.652 E0.0643
G1 X-48.781 Y-13.652 E0.0249
G1 X-47.939 Y-12.810 E0.0456
G1 X-47.582 Y-13.103 E0.0177
G1 X-48.131 Y-13.652 E0.0297
G1 X-47.480 Y-13.652 E0.0249
G1 X-47.193 Y-13.365 E0.0155
G1 X-46.769 Y-13.592 E0.0184
G1 X-46.830 Y-13.652 E0.0033
G1 E-1.9000 F1200
G1 Z0.700 F1200
G1 X-42.834 Y-6.404 F9000
G1 Z0.200 F1200
G1 E1.9000 F1200
G1 X-43.014 Y-6.584 E0.0097 F2400
G1 X-42.957 Y-6.615 E0.0025
G1 X-42.648 Y-6.868 E0.0153
G1 X-42.184 Y-6.404 E0.0251
G1 X-41.533 Y-6.404 E0.0249
G1 X-42.301 Y-7.172 E0.0416
G1 X-42.008 Y-7.530 E0.0177
G1 X-40.883 Y-6.404 E0.0609
G1 X-40.232 Y-6.404 E0.0249
G1 X-41.747 Y-7.919 E0.0819
G1 X-41.520 Y-8.343 E0.0184
G1 X-39.582 Y-6.404 E0.1049
G1 X-38.931 Y-6.404 E0.0249
G1 X-41.357 Y-8.830 E0.1312
G1 X-41.258 Y-9.157 E0.0130
G1 X-41.238 Y-9.362 E0.0079
G1 X-38.281 Y-6.404 E0.1600
G1 X-37.630 Y-6.404 E0.0249
G1 X-41.184 Y-9.958 E0.1922
