; G-Code generated by Simplify3D(R) Version 4.1.2
; Apr 6, 2020 at 12:16:00 PM
; Settings Summary
;   processName,Process1
;   applyToModels,WOZ bracket4_Snake,WOZ bracket4_Snake(2),WOZ bracket4_Snake(3),WOZ bracket4_Snake(4),WOZ bracket4_Snake(5),WOZ bracket4_Snake(6)
;   profileName,MakerBot Replicator 2 HBP (modified)
;   profileVersion,2020-03-12 10:48:50
;   baseProfile,MakerBot Replicator 2(2)
;   printMaterial,PLA
;   printQuality,Medium
;   printExtruders,
;   extruderName,Primary Extruder
;   extruderToolheadNumber,0
;   extruderDiameter,0.4
;   extruderAutoWidth,0
;   extruderWidth,0.4
;   extrusionMultiplier,1
;   extruderUseRetract,1
;   extruderRetractionDistance,1.9
;   extruderExtraRestartDistance,0
;   extruderRetractionZLift,0.5
;   extruderRetractionSpeed,1200
;   extruderUseCoasting,0
;   extruderCoastingDistance,0.2
;   extruderUseWipe,0
;   extruderWipeDistance,5
;   primaryExtruder,0
;   layerHeight,0.2
;   topSolidLayers,3
;   bottomSolidLayers,3
;   perimeterOutlines,3
;   printPerimetersInsideOut,1
;   startPointOption,3
;   startPointOriginX,0
;   startPointOriginY,150
;   sequentialIslands,0
;   spiralVaseMode,0
;   firstLayerHeightPercentage,100
;   firstLayerWidthPercentage,115
;   firstLayerUnderspeed,0.5
;   useRaft,0
;   raftExtruder,0
;   raftTopLayers,2
;   raftBaseLayers,1
;   raftOffset,1
;   raftSeparationDistance,0.14
;   raftTopInfill,90
;   aboveRaftSpeedMultiplier,0.3
;   useSkirt,0
;   skirtExtruder,0
;   skirtLayers,1
;   skirtOutlines,5
;   skirtOffset,0
;   usePrimePillar,0
;   primePillarExtruder,999
;   primePillarWidth,12
;   primePillarLocation,7
;   primePillarSpeedMultiplier,1
;   useOozeShield,0
;   oozeShieldExtruder,999
;   oozeShieldOffset,2
;   oozeShieldOutlines,1
;   oozeShieldSidewallShape,1
;   oozeShieldSidewallAngle,30
;   oozeShieldSpeedMultiplier,1
;   infillExtruder,0
;   internalInfillPattern,Rectilinear
;   externalInfillPattern,Rectilinear
;   infillPercentage,15
;   outlineOverlapPercentage,25
;   infillExtrusionWidthPercentage,100
;   minInfillLength,5
;   infillLayerInterval,1
;   internalInfillAngles,45,-45
;   overlapInternalInfillAngles,0
;   externalInfillAngles,45,-45
;   generateSupport,0
;   supportExtruder,0
;   supportInfillPercentage,15
;   supportExtraInflation,0.5
;   supportBaseLayers,0
;   denseSupportExtruder,0
;   denseSupportLayers,2
;   denseSupportInfillPercentage,90
;   supportLayerInterval,1
;   supportHorizontalPartOffset,0.3
;   supportUpperSeparationLayers,1
;   supportLowerSeparationLayers,1
;   supportType,1
;   supportGridSpacing,2
;   maxOverhangAngle,45
;   supportAngles,45,-45
;   temperatureName,Primary Extruder,Heated Build Platform
;   temperatureNumber,0,0
;   temperatureSetpointCount,1,1
;   temperatureSetpointLayers,1,1
;   temperatureSetpointTemperatures,230,60
;   temperatureStabilizeAtStartup,1,1
;   temperatureHeatedBed,0,1
;   fanLayers,1,2
;   fanSpeeds,0,100
;   blipFanToFullPower,1
;   adjustSpeedForCooling,1
;   minSpeedLayerTime,15
;   minCoolingSpeedSlowdown,20
;   increaseFanForCooling,1
;   minFanLayerTime,45
;   maxCoolingFanSpeed,100
;   increaseFanForBridging,1
;   bridgingFanSpeed,100
;   use5D,1
;   relativeEdistances,1
;   allowEaxisZeroing,0
;   independentExtruderAxes,1
;   includeM10123,0
;   stickySupport,1
;   applyToolheadOffsets,0
;   gcodeXoffset,0
;   gcodeYoffset,0
;   gcodeZoffset,0
;   overrideMachineDefinition,1
;   machineTypeOverride,0
;   strokeXoverride,280
;   strokeYoverride,150
;   strokeZoverride,150
;   originOffsetXoverride,140
;   originOffsetYoverride,75
;   originOffsetZoverride,0
;   homeXdirOverride,1
;   homeYdirOverride,1
;   homeZdirOverride,-1
;   flipXoverride,1
;   flipYoverride,-1
;   flipZoverride,1
;   toolheadOffsets,0,0|0,0|0,0|0,0|0,0|0,0
;   overrideFirmwareConfiguration,1
;   firmwareTypeOverride,MakerBot/Sailfish Firmware
;   GPXconfigOverride,r2h
;   baudRateOverride,115200
;   overridePrinterModels,1
;   printerModelsOverride,MakerBot_Replicator2.stl
;   startingGcode,; **** Replicator 2 start.gcode ****,M73 P0 ; enable build progress,G162 X Y F3000 ; home XY maximum,G161 Z F1200 ; home Z minimum,G92 Z-5 ; set Z to -5,G1 Z0 ; move Z to 0,G161 Z F100 ; home Z slowly,M132 X Y Z A B ; recall home offsets,G1 X-145 Y-75 Z30 F9000 ; move to wait position off table,G130 X20 Y20 Z20 A20 B20 ; lower stepper Vrefs while heating,M126 S[fan_speed_pwm],M140 S[bed0_temperature] T0,M134 T0 ; stabilize bed temperature,M104 S[extruder0_temperature] T0,M133 T0 ; stabilize extruder temperature,G130 X127 Y127 Z40 A127 B127 ; default stepper Vrefs,G92 A0 ; zero extruder,G1 Z0.4 ; position nozzle,G1 E25 F300 ; purge nozzle,G1 X-140 Y-70 Z0.15 F1200 ; slow wipe,G1 X-135 Y-65 Z0.5 F1200 ; lift,G92 A0 ; zero extruder,M73 P1 ;@body (notify GPX body has started),; **** end of start.gcode ****
;   layerChangeGcode,
;   retractionGcode,
;   toolChangeGcode,
;   endingGcode,; **** Replicator 2 end.gcode ****,M73 P100 ; end build progress,G1 Z155 F1000 ; send Z axis to bottom of machine,M104 S0 T0 ; cool down extruder,M140 S0 T0 ; cool down HBP,M127 ; stop blower fan,G162 X Y F3000 ; home XY maximum,M18 ; disable stepper,M0 ; stop codes,M72 P1 ; play Ta-Da song,; **** end of end.gcode ****
;   exportFileFormat,gcode
;   celebration,0
;   celebrationSong,Random Song
;   postProcessing,
;   defaultSpeed,4800
;   outlineUnderspeed,0.5
;   solidInfillUnderspeed,1
;   supportUnderspeed,1
;   rapidXYspeed,9000
;   rapidZspeed,1200
;   minBridgingArea,50
;   bridgingExtraInflation,0
;   bridgingExtrusionMultiplier,1
;   bridgingSpeedMultiplier,0.8
;   useFixedBridgingAngle,0
;   fixedBridgingAngle,0
;   applyBridgingToPerimeters,0
;   filamentDiameters,1.75|1.75|1.75|1.75|1.75|1.75
;   filamentPricesPerKg,46|46|46|46|46|46
;   filamentDensities,1.25|1.25|1.25|1.25|1.25|1.25
;   useMinPrintHeight,0
;   minPrintHeight,0
;   useMaxPrintHeight,0
;   maxPrintHeight,4.84
;   useDiaphragm,0
;   diaphragmLayerInterval,20
;   robustSlicing,1
;   mergeAllIntoSolid,0
;   onlyRetractWhenCrossingOutline,0
;   retractBetweenLayers,0
;   useRetractionMinTravel,1
;   retractionMinTravel,7
;   retractWhileWiping,1
;   onlyWipeOutlines,1
;   avoidCrossingOutline,0
;   maxMovementDetourFactor,3
;   toolChangeRetractionDistance,12
;   toolChangeExtraRestartDistance,-0.5
;   toolChangeRetractionSpeed,600
;   externalThinWallType,0
;   internalThinWallType,0
;   thinWallAllowedOverlapPercentage,10
;   singleExtrusionMinLength,1
;   singleExtrusionMinPrintingWidthPercentage,50
;   singleExtrusionMaxPrintingWidthPercentage,200
;   singleExtrusionEndpointExtension,0.2
;   horizontalSizeCompensation,0
G90
M83
; **** Replicator 2 start.gcode ****
M73 P0 ; enable build progress
G162 X Y F3000 ; home XY maximum
G161 Z F1200 ; home Z minimum
G92 Z-5 ; set Z to -5
G1 Z0 ; move Z to 0
G161 Z F100 ; home Z slowly
M132 X Y Z A B ; recall home offsets
G1 X-145 Y-75 Z30 F9000 ; move to wait position off table
G130 X20 Y20 Z20 A20 B20 ; lower stepper Vrefs while heating
M127
M140 S60 T0
M134 T0 ; stabilize bed temperature
M104 S230 T0
M133 T0 ; stabilize extruder temperature
G130 X127 Y127 Z40 A127 B127 ; default stepper Vrefs
G92 A0 ; zero extruder
G1 Z0.4 ; position nozzle
G1 E25 F300 ; purge nozzle
G1 X-140 Y-70 Z0.15 F1200 ; slow wipe
G1 X-135 Y-65 Z0.5 F1200 ; lift
G92 A0 ; zero extruder
M73 P1 ;@body (notify GPX body has started)
; **** end of start.gcode ****
; process Process1
; layer 1, Z = 0.200
M135 T0
G1 E-1.9000 F1200
; feature inner perimeter
; tool H0.200 W0.460
G1 Z0.500 F1200
G1 X3.650 Y3.969 F9000
G1 Z0.200 F1200
G1 E1.9000 F1200
G1 X3.650 Y-3.969 E0.3036 F1800
G1 X47.959 Y-3.969 E1.6948
G1 X47.959 Y-6.379 E0.0922
G1 X55.697 Y-6.379 E0.2960
G1 X55.697 Y6.379 E0.4879
G1 X47.959 Y6.379 E0.2960
G1 X47.959 Y3.969 E0.0921
G1 X3.650 Y3.969 E1.6948
G1 X3.190 Y4.429 F9000
G1 X3.190 Y-4.429 E0.3388 F1800
G1 X47.499 Y-4.429 E1.6948
G1 X47.499 Y-6.839 E0.0922
G1 X56.157 Y-6.839 E0.3312
G1 X56.157 Y6.839 E0.5231
G1 X47.499 Y6.839 E0.3312
G1 X47.499 Y4.429 E0.0921
G1 X3.190 Y4.429 E1.6948
; feature outer perimeter
G1 X2.730 Y4.889 F9000
G1 X2.730 Y-4.889 E0.3740 F1200
G1 X47.039 Y-4.889 E1.6948
G1 X47.039 Y-7.299 E0.0922
G1 X56.617 Y-7.299 E0.3664
G1 X56.617 Y7.299 E0.5583
G1 X47.039 Y7.299 E0.3664
G1 X47.039 Y4.889 E0.0921
G1 X2.730 Y4.889 E1.6948
; feature inner perimeter
G1 X4.879 Y2.560 F9000
G1 X5.437 Y3.018 E0.0276 F1800
G1 X6.087 Y3.360 E0.0281
G1 X6.756 Y3.563 E0.0267
G1 X7.452 Y3.632 E0.0268
G1 X8.193 Y3.582 E0.0284
G1 X8.890 Y3.345 E0.0282
G1 X9.507 Y3.016 E0.0268
G1 X10.062 Y2.560 E0.0275
G1 X10.518 Y2.005 E0.0275
G1 X10.798 Y1.480 E0.0227
G1 X10.801 Y1.489 E0.0003
G1 X11.138 Y2.119 E0.0274
G1 X11.592 Y2.672 E0.0273
G1 X12.144 Y3.126 E0.0274
G1 X12.775 Y3.463 E0.0273
G1 X13.459 Y3.670 E0.0274
G1 X14.171 Y3.740 E0.0274
G1 X14.883 Y3.670 E0.0274
G1 X15.567 Y3.463 E0.0274
G1 X16.197 Y3.126 E0.0273
G1 X16.750 Y2.672 E0.0274
G1 X17.204 Y2.119 E0.0274
G1 X17.541 Y1.489 E0.0274
G1 X17.748 Y0.804 E0.0273
G1 X17.819 Y0.093 E0.0274
G1 X17.748 Y-0.619 E0.0273
G1 X17.541 Y-1.303 E0.0274
G1 X17.204 Y-1.934 E0.0274
G1 X16.750 Y-2.487 E0.0273
G1 X16.197 Y-2.940 E0.0274
G1 X15.567 Y-3.277 E0.0274
G1 X14.883 Y-3.485 E0.0273
G1 X14.171 Y-3.555 E0.0274
G1 X13.459 Y-3.485 E0.0274
G1 X12.775 Y-3.277 E0.0274
G1 X12.144 Y-2.940 E0.0274
G1 X11.592 Y-2.487 E0.0273
G1 X11.138 Y-1.934 E0.0274
G1 X10.896 Y-1.481 E0.0196
G1 X10.485 Y-2.108 E0.0287
G1 X10.062 Y-2.623 E0.0255
G1 X9.507 Y-3.079 E0.0275
G1 X8.873 Y-3.418 E0.0275
G1 X8.186 Y-3.626 E0.0275
G1 X7.471 Y-3.697 E0.0275
G1 X6.756 Y-3.626 E0.0275
G1 X6.068 Y-3.418 E0.0275
G1 X5.434 Y-3.079 E0.0275
G1 X4.879 Y-2.623 E0.0275
G1 X4.423 Y-2.068 E0.0275
G1 X4.085 Y-1.434 E0.0275
G1 X3.888 Y-0.787 E0.0258
G1 X3.756 Y-0.023 E0.0297
G1 X3.889 Y0.727 E0.0291
G1 X4.085 Y1.371 E0.0257
G1 X4.423 Y2.005 E0.0275
G1 X4.879 Y2.560 E0.0275
G1 X5.206 Y2.233 F9000
G1 X5.693 Y2.633 E0.0241 F1800
G1 X6.263 Y2.933 E0.0246
G1 X6.846 Y3.110 E0.0233
G1 X7.459 Y3.170 E0.0236
G1 X8.102 Y3.127 E0.0246
G1 X8.706 Y2.922 E0.0244
G1 X9.250 Y2.631 E0.0236
G1 X9.735 Y2.233 E0.0240
G1 X10.134 Y1.748 E0.0240
G1 X10.430 Y1.194 E0.0240
G1 X10.612 Y0.593 E0.0240
G1 X10.673 Y-0.032 E0.0240
G1 X10.615 Y-0.629 E0.0229
G1 X10.471 Y-1.291 E0.0259
G1 X10.114 Y-1.835 E0.0249
G1 X9.735 Y-2.296 E0.0228
G1 X9.250 Y-2.695 E0.0240
G1 X8.696 Y-2.991 E0.0240
G1 X8.095 Y-3.173 E0.0240
G1 X7.471 Y-3.234 E0.0240
G1 X6.846 Y-3.173 E0.0240
G1 X6.245 Y-2.991 E0.0240
G1 X5.691 Y-2.695 E0.0240
G1 X5.206 Y-2.296 E0.0240
G1 X4.808 Y-1.811 E0.0240
G1 X4.512 Y-1.257 E0.0240
G1 X4.337 Y-0.681 E0.0230
G1 X4.223 Y-0.024 E0.0255
G1 X4.337 Y0.619 E0.0250
G1 X4.512 Y1.194 E0.0230
G1 X4.808 Y1.748 E0.0240
G1 X5.206 Y2.233 E0.0240
; feature outer perimeter
G1 X5.533 Y1.906 F9000
G1 X5.949 Y2.248 E0.0206 F1200
G1 X6.438 Y2.505 E0.0212
G1 X6.936 Y2.656 E0.0199
G1 X7.467 Y2.709 E0.0204
G1 X8.011 Y2.672 E0.0209
G1 X8.523 Y2.499 E0.0207
G1 X8.993 Y2.247 E0.0204
G1 X9.409 Y1.906 E0.0205
G1 X9.749 Y1.491 E0.0205
G1 X10.003 Y1.017 E0.0205
G1 X10.159 Y0.503 E0.0205
G1 X10.211 Y-0.032 E0.0205
G1 X10.159 Y-0.557 E0.0202
G1 X10.039 Y-1.110 E0.0217
G1 X9.743 Y-1.562 E0.0207
G1 X9.409 Y-1.970 E0.0202
G1 X8.993 Y-2.310 E0.0206
G1 X8.519 Y-2.564 E0.0205
G1 X8.005 Y-2.720 E0.0205
G1 X7.471 Y-2.772 E0.0206
G1 X6.936 Y-2.720 E0.0205
G1 X6.422 Y-2.564 E0.0205
G1 X5.948 Y-2.310 E0.0206
G1 X5.533 Y-1.970 E0.0205
G1 X5.192 Y-1.554 E0.0205
G1 X4.939 Y-1.080 E0.0205
G1 X4.785 Y-0.574 E0.0202
G1 X4.690 Y-0.025 E0.0213
G1 X4.785 Y0.512 E0.0208
G1 X4.939 Y1.017 E0.0202
G1 X5.192 Y1.491 E0.0206
G1 X5.533 Y1.906 E0.0205
; feature inner perimeter
G1 X11.046 Y0.712 F9000
G1 X11.228 Y1.312 E0.0240 F1800
G1 X11.522 Y1.862 E0.0239
G1 X11.918 Y2.345 E0.0239
G1 X12.401 Y2.741 E0.0239
G1 X12.952 Y3.036 E0.0239
G1 X13.549 Y3.217 E0.0239
G1 X14.171 Y3.278 E0.0239
G1 X14.792 Y3.217 E0.0239
G1 X15.390 Y3.036 E0.0239
G1 X15.941 Y2.741 E0.0239
G1 X16.423 Y2.345 E0.0239
G1 X16.819 Y1.862 E0.0239
G1 X17.114 Y1.312 E0.0239
G1 X17.295 Y0.714 E0.0239
G1 X17.356 Y0.093 E0.0239
G1 X17.295 Y-0.529 E0.0239
G1 X17.114 Y-1.126 E0.0239
G1 X16.819 Y-1.677 E0.0239
G1 X16.423 Y-2.160 E0.0239
G1 X15.941 Y-2.556 E0.0239
G1 X15.390 Y-2.850 E0.0239
G1 X14.792 Y-3.032 E0.0239
G1 X14.171 Y-3.093 E0.0239
G1 X13.549 Y-3.032 E0.0239
G1 X12.952 Y-2.850 E0.0239
G1 X12.401 Y-2.556 E0.0239
G1 X11.918 Y-2.160 E0.0239
G1 X11.522 Y-1.677 E0.0239
G1 X11.228 Y-1.126 E0.0239
G1 X11.047 Y-0.529 E0.0239
G1 X10.987 Y0.074 E0.0232
G1 X11.046 Y0.712 E0.0245
; feature outer perimeter
G1 X11.500 Y0.623 F9000
G1 X11.655 Y1.135 E0.0204 F1200
G1 X11.907 Y1.606 E0.0204
G1 X12.245 Y2.018 E0.0204
G1 X12.658 Y2.357 E0.0204
G1 X13.129 Y2.609 E0.0204
G1 X13.640 Y2.764 E0.0204
G1 X14.171 Y2.816 E0.0204
G1 X14.702 Y2.764 E0.0204
G1 X15.213 Y2.609 E0.0204
G1 X15.684 Y2.357 E0.0204
G1 X16.096 Y2.018 E0.0204
G1 X16.435 Y1.606 E0.0204
G1 X16.687 Y1.135 E0.0204
G1 X16.842 Y0.624 E0.0204
G1 X16.894 Y0.093 E0.0204
G1 X16.842 Y-0.439 E0.0204
G1 X16.687 Y-0.949 E0.0204
G1 X16.435 Y-1.420 E0.0204
G1 X16.096 Y-1.833 E0.0204
G1 X15.684 Y-2.172 E0.0204
G1 X15.213 Y-2.423 E0.0204
G1 X14.702 Y-2.578 E0.0204
G1 X14.171 Y-2.631 E0.0204
G1 X13.640 Y-2.578 E0.0204
G1 X13.129 Y-2.423 E0.0204
G1 X12.658 Y-2.172 E0.0204
G1 X12.245 Y-1.833 E0.0204
G1 X11.907 Y-1.420 E0.0204
G1 X11.655 Y-0.949 E0.0204
G1 X11.500 Y-0.439 E0.0204
G1 X11.449 Y0.076 E0.0198
G1 X11.500 Y0.623 E0.0210
; feature solid layer
G1 X10.738 Y2.281 F9000
G1 X11.220 Y2.763 E0.0261 F2400
G1 X11.347 Y2.917 E0.0076
G1 X11.500 Y3.043 E0.0076
G1 X12.081 Y3.624 E0.0314
G1 X11.431 Y3.624 E0.0249
G1 X10.444 Y2.638 E0.0534
G1 X10.307 Y2.805 E0.0083
G1 X10.117 Y2.961 E0.0094
G1 X10.780 Y3.624 E0.0359
G1 X10.130 Y3.624 E0.0249
G1 X9.760 Y3.254 E0.0200
G1 X9.699 Y3.304 E0.0030
G1 X9.347 Y3.492 E0.0153
G1 X9.479 Y3.624 E0.0071
G1 X4.275 Y3.624 F9000
G1 X3.995 Y3.344 E0.0151 F2400
G1 X3.995 Y2.694 E0.0249
G1 X4.925 Y3.624 E0.0503
G1 X5.576 Y3.624 E0.0249
G1 X5.273 Y3.322 E0.0164
G1 X5.245 Y3.307 E0.0012
G1 X4.634 Y2.805 E0.0303
G1 X4.135 Y2.197 E0.0301
G1 X4.119 Y2.167 E0.0013
G1 X3.995 Y2.043 E0.0067
G1 X4.185 Y-2.321 F9000
G1 X3.995 Y-2.510 E0.0103 F2400
G1 X3.995 Y-3.161 E0.0249
G1 X4.478 Y-2.678 E0.0261
G1 X4.634 Y-2.868 E0.0094
G1 X4.801 Y-3.005 E0.0083
G1 X4.183 Y-3.624 E0.0334
G1 X4.833 Y-3.624 E0.0249
G1 X5.158 Y-3.299 E0.0176
G1 X5.242 Y-3.367 E0.0041
G1 X5.567 Y-3.541 E0.0141
G1 X5.484 Y-3.624 E0.0045
G1 X9.387 Y-3.624 F9000
G1 X9.579 Y-3.431 E0.0104 F2400
G1 X9.699 Y-3.367 E0.0052
G1 X10.307 Y-2.868 E0.0301
G1 X10.764 Y-2.312 E0.0275
G1 X10.870 Y-2.151 E0.0074
G1 X11.159 Y-2.503 E0.0174
G1 X10.037 Y-3.624 E0.0606
G1 X10.688 Y-3.624 E0.0249
G1 X11.475 Y-2.837 E0.0426
G1 X11.832 Y-3.130 E0.0177
G1 X11.339 Y-3.624 E0.0267
G1 X11.989 Y-3.624 E0.0249
G1 X12.234 Y-3.379 E0.0132
G1 X12.642 Y-3.598 E0.0177
G1 X12.660 Y-3.603 E0.0007
G1 X12.640 Y-3.624 E0.0011
G1 E-1.9000 F1200
G1 Z0.700 F1200
G1 X16.635 Y3.624 F9000
G1 Z0.200 F1200
G1 E1.9000 F1200
G1 X16.409 Y3.398 E0.0122 F2400
G1 X16.766 Y3.105 E0.0177
G1 X17.286 Y3.624 E0.0281
G1 X17.936 Y3.624 E0.0249
G1 X17.101 Y2.789 E0.0452
G1 X17.394 Y2.431 E0.0177
G1 X18.587 Y3.624 E0.0645
G1 X19.237 Y3.624 E0.0249
G1 X17.643 Y2.030 E0.0863
G1 X17.861 Y1.621 E0.0177
G1 X17.867 Y1.603 E0.0007
G1 X19.888 Y3.624 E0.1093
G1 X20.538 Y3.624 E0.0249
G1 X18.018 Y1.104 E0.1363
G1 X18.088 Y0.872 E0.0093
G1 X18.120 Y0.555 E0.0122
G1 X21.189 Y3.624 E0.1660
G1 X21.839 Y3.624 E0.0249
G1 X18.150 Y-0.065 E0.1996
G1 X18.088 Y-0.687 E0.0239
G1 X18.049 Y-0.817 E0.0052
G1 X22.490 Y3.624 E0.2402
G1 X23.141 Y3.624 E0.0249
G1 X17.610 Y-1.907 E0.2992
G1 X17.492 Y-2.126 E0.0095
G1 X16.995 Y-2.732 E0.0299
G1 X16.390 Y-3.228 E0.0300
G1 X16.170 Y-3.346 E0.0095
G1 X15.892 Y-3.624 E0.0150
G1 X16.543 Y-3.624 E0.0249
G1 X23.791 Y3.624 E0.3921
G1 X24.442 Y3.624 E0.0249
G1 X17.193 Y-3.624 E0.3921
G1 X17.844 Y-3.624 E0.0249
G1 X25.092 Y3.624 E0.3921
G1 X25.743 Y3.624 E0.0249
G1 X18.494 Y-3.624 E0.3921
G1 X19.145 Y-3.624 E0.0249
G1 X26.393 Y3.624 E0.3921
