; G-Code generated by Simplify3D(R) Version 4.1.2
; Apr 6, 2020 at 12:16:27 PM
; Settings Summary
;   processName,Process1
;   applyToModels,WOZ bracket4_Snake,WOZ bracket4_Snake(2),WOZ bracket4_Snake(3),WOZ bracket4_Snake(4),WOZ bracket4_Snake(5),WOZ bracket4_Snake(6),WOZ bracket4_Snake(7),WOZ bracket4_Snake(6)(2),WOZ bracket4_Snake(7)(2),WOZ bracket4_Snake(6)(3),WOZ bracket4_Snake(7)(3)
;   profileName,MakerBot Replicator 2 HBP (modified)
;   profileVersion,2020-03-12 10:48:50
;   baseProfile,MakerBot Replicator 2(2)
;   printMaterial,PLA
;   printQuality,Medium
;   printExtruders,
;   extruderName,Primary Extruder
;   extruderToolheadNumber,0
;   extruderDiameter,0.4
;   extruderAutoWidth,0
;   extruderWidth,0.4
;   extrusionMultiplier,1
;   extruderUseRetract,1
;   extruderRetractionDistance,1.9
;   extruderExtraRestartDistance,0
;   extruderRetractionZLift,0.5
;   extruderRetractionSpeed,1200
;   extruderUseCoasting,0
;   extruderCoastingDistance,0.2
;   extruderUseWipe,0
;   extruderWipeDistance,5
;   primaryExtruder,0
;   layerHeight,0.2
;   topSolidLayers,3
;   bottomSolidLayers,3
;   perimeterOutlines,3
;   printPerimetersInsideOut,1
;   startPointOption,3
;   startPointOriginX,0
;   startPointOriginY,150
;   sequentialIslands,0
;   spiralVaseMode,0
;   firstLayerHeightPercentage,100
;   firstLayerWidthPercentage,115
;   firstLayerUnderspeed,0.5
;   useRaft,0
;   raftExtruder,0
;   raftTopLayers,2
;   raftBaseLayers,1
;   raftOffset,1
;   raftSeparationDistance,0.14
;   raftTopInfill,90
;   aboveRaftSpeedMultiplier,0.3
;   useSkirt,0
;   skirtExtruder,0
;   skirtLayers,1
;   skirtOutlines,5
;   skirtOffset,0
;   usePrimePillar,0
;   primePillarExtruder,999
;   primePillarWidth,12
;   primePillarLocation,7
;   primePillarSpeedMultiplier,1
;   useOozeShield,0
;   oozeShieldExtruder,999
;   oozeShieldOffset,2
;   oozeShieldOutlines,1
;   oozeShieldSidewallShape,1
;   oozeShieldSidewallAngle,30
;   oozeShieldSpeedMultiplier,1
;   infillExtruder,0
;   internalInfillPattern,Rectilinear
;   externalInfillPattern,Rectilinear
;   infillPercentage,15
;   outlineOverlapPercentage,25
;   infillExtrusionWidthPercentage,100
;   minInfillLength,5
;   infillLayerInterval,1
;   internalInfillAngles,45,-45
;   overlapInternalInfillAngles,0
;   externalInfillAngles,45,-45
;   generateSupport,0
;   supportExtruder,0
;   supportInfillPercentage,15
;   supportExtraInflation,0.5
;   supportBaseLayers,0
;   denseSupportExtruder,0
;   denseSupportLayers,2
;   denseSupportInfillPercentage,90
;   supportLayerInterval,1
;   supportHorizontalPartOffset,0.3
;   supportUpperSeparationLayers,1
;   supportLowerSeparationLayers,1
;   supportType,1
;   supportGridSpacing,2
;   maxOverhangAngle,45
;   supportAngles,45,-45
;   temperatureName,Primary Extruder,Heated Build Platform
;   temperatureNumber,0,0
;   temperatureSetpointCount,1,1
;   temperatureSetpointLayers,1,1
;   temperatureSetpointTemperatures,230,60
;   temperatureStabilizeAtStartup,1,1
;   temperatureHeatedBed,0,1
;   fanLayers,1,2
;   fanSpeeds,0,100
;   blipFanToFullPower,1
;   adjustSpeedForCooling,1
;   minSpeedLayerTime,15
;   minCoolingSpeedSlowdown,20
;   increaseFanForCooling,1
;   minFanLayerTime,45
;   maxCoolingFanSpeed,100
;   increaseFanForBridging,1
;   bridgingFanSpeed,100
;   use5D,1
;   relativeEdistances,1
;   allowEaxisZeroing,0
;   independentExtruderAxes,1
;   includeM10123,0
;   stickySupport,1
;   applyToolheadOffsets,0
;   gcodeXoffset,0
;   gcodeYoffset,0
;   gcodeZoffset,0
;   overrideMachineDefinition,1
;   machineTypeOverride,0
;   strokeXoverride,280
;   strokeYoverride,150
;   strokeZoverride,150
;   originOffsetXoverride,140
;   originOffsetYoverride,75
;   originOffsetZoverride,0
;   homeXdirOverride,1
;   homeYdirOverride,1
;   homeZdirOverride,-1
;   flipXoverride,1
;   flipYoverride,-1
;   flipZoverride,1
;   toolheadOffsets,0,0|0,0|0,0|0,0|0,0|0,0
;   overrideFirmwareConfiguration,1
;   firmwareTypeOverride,MakerBot/Sailfish Firmware
;   GPXconfigOverride,r2h
;   baudRateOverride,115200
;   overridePrinterModels,1
;   printerModelsOverride,MakerBot_Replicator2.stl
;   startingGcode,; **** Replicator 2 start.gcode ****,M73 P0 ; enable build progress,G162 X Y F3000 ; home XY maximum,G161 Z F1200 ; home Z minimum,G92 Z-5 ; set Z to -5,G1 Z0 ; move Z to 0,G161 Z F100 ; home Z slowly,M132 X Y Z A B ; recall home offsets,G1 X-145 Y-75 Z30 F9000 ; move to wait position off table,G130 X20 Y20 Z20 A20 B20 ; lower stepper Vrefs while heating,M126 S[fan_speed_pwm],M140 S[bed0_temperature] T0,M134 T0 ; stabilize bed temperature,M104 S[extruder0_temperature] T0,M133 T0 ; stabilize extruder temperature,G130 X127 Y127 Z40 A127 B127 ; default stepper Vrefs,G92 A0 ; zero extruder,G1 Z0.4 ; position nozzle,G1 E25 F300 ; purge nozzle,G1 X-140 Y-70 Z0.15 F1200 ; slow wipe,G1 X-135 Y-65 Z0.5 F1200 ; lift,G92 A0 ; zero extruder,M73 P1 ;@body (notify GPX body has started),; **** end of start.gcode ****
;   layerChangeGcode,
;   retractionGcode,
;   toolChangeGcode,
;   endingGcode,; **** Replicator 2 end.gcode ****,M73 P100 ; end build progress,G1 Z155 F1000 ; send Z axis to bottom of machine,M104 S0 T0 ; cool down extruder,M140 S0 T0 ; cool down HBP,M127 ; stop blower fan,G162 X Y F3000 ; home XY maximum,M18 ; disable stepper,M0 ; stop codes,M72 P1 ; play Ta-Da song,; **** end of end.gcode ****
;   exportFileFormat,gcode
;   celebration,0
;   celebrationSong,Random Song
;   postProcessing,
;   defaultSpeed,4800
;   outlineUnderspeed,0.5
;   solidInfillUnderspeed,1
;   supportUnderspeed,1
;   rapidXYspeed,9000
;   rapidZspeed,1200
;   minBridgingArea,50
;   bridgingExtraInflation,0
;   bridgingExtrusionMultiplier,1
;   bridgingSpeedMultiplier,0.8
;   useFixedBridgingAngle,0
;   fixedBridgingAngle,0
;   applyBridgingToPerimeters,0
;   filamentDiameters,1.75|1.75|1.75|1.75|1.75|1.75
;   filamentPricesPerKg,46|46|46|46|46|46
;   filamentDensities,1.25|1.25|1.25|1.25|1.25|1.25
;   useMinPrintHeight,0
;   minPrintHeight,0
;   useMaxPrintHeight,0
;   maxPrintHeight,4.84
;   useDiaphragm,0
;   diaphragmLayerInterval,20
;   robustSlicing,1
;   mergeAllIntoSolid,0
;   onlyRetractWhenCrossingOutline,0
;   retractBetweenLayers,0
;   useRetractionMinTravel,1
;   retractionMinTravel,7
;   retractWhileWiping,1
;   onlyWipeOutlines,1
;   avoidCrossingOutline,0
;   maxMovementDetourFactor,3
;   toolChangeRetractionDistance,12
;   toolChangeExtraRestartDistance,-0.5
;   toolChangeRetractionSpeed,600
;   externalThinWallType,0
;   internalThinWallType,0
;   thinWallAllowedOverlapPercentage,10
;   singleExtrusionMinLength,1
;   singleExtrusionMinPrintingWidthPercentage,50
;   singleExtrusionMaxPrintingWidthPercentage,200
;   singleExtrusionEndpointExtension,0.2
;   horizontalSizeCompensation,0
G90
M83
; **** Replicator 2 start.gcode ****
M73 P0 ; enable build progress
G162 X Y F3000 ; home XY maximum
G161 Z F1200 ; home Z minimum
G92 Z-5 ; set Z to -5
G1 Z0 ; move Z to 0
G161 Z F100 ; home Z slowly
M132 X Y Z A B ; recall home offsets
G1 X-145 Y-75 Z30 F9000 ; move to wait position off table
G130 X20 Y20 Z20 A20 B20 ; lower stepper Vrefs while heating
M127
M140 S60 T0
M134 T0 ; stabilize bed temperature
M104 S230 T0
M133 T0 ; stabilize extruder temperature
G130 X127 Y127 Z40 A127 B127 ; default stepper Vrefs
G92 A0 ; zero extruder
G1 Z0.4 ; position nozzle
G1 E25 F300 ; purge nozzle
G1 X-140 Y-70 Z0.15 F1200 ; slow wipe
G1 X-135 Y-65 Z0.5 F1200 ; lift
G92 A0 ; zero extruder
M73 P1 ;@body (notify GPX body has started)
; **** end of start.gcode ****
; process Process1
; layer 1, Z = 0.200
M135 T0
G1 E-1.9000 F1200
; feature inner perimeter
; tool H0.200 W0.460
G1 Z0.500 F1200
G1 X18.285 Y-3.650 F9000
G1 Z0.200 F1200
G1 E1.9000 F1200
G1 X18.285 Y-6.059 E0.0921 F1800
G1 X-26.023 Y-6.059 E1.6948
G1 X-26.023 Y-13.997 E0.3036
G1 X18.285 Y-13.997 E1.6948
G1 X18.285 Y-16.407 E0.0922
G1 X26.023 Y-16.407 E0.2960
G1 X26.023 Y-3.650 E0.4879
G1 X18.285 Y-3.650 E0.2960
G1 X17.825 Y-3.190 F9000
G1 X17.825 Y-5.599 E0.0921 F1800
G1 X-26.483 Y-5.599 E1.6948
G1 X-26.483 Y-14.457 E0.3388
G1 X17.825 Y-14.457 E1.6948
G1 X17.825 Y-16.867 E0.0922
G1 X26.483 Y-16.867 E0.3312
G1 X26.483 Y-3.190 E0.5231
G1 X17.825 Y-3.190 E0.3312
; feature outer perimeter
G1 X17.365 Y-2.730 F9000
G1 X17.365 Y-5.139 E0.0921 F1200
G1 X-26.943 Y-5.139 E1.6948
G1 X-26.943 Y-14.917 E0.3740
G1 X17.365 Y-14.917 E1.6948
G1 X17.365 Y-17.327 E0.0922
G1 X26.943 Y-17.327 E0.3664
G1 X26.943 Y-2.730 E0.5583
G1 X17.365 Y-2.730 E0.3664
G1 E-1.9000 F1200
; feature inner perimeter
G1 Z0.700 F1200
G1 X-12.378 Y-9.314 F9000
G1 Z0.200 F1200
G1 E1.9000 F1200
G1 X-12.317 Y-9.936 E0.0239 F1800
G1 X-12.378 Y-10.557 E0.0239
G1 X-12.559 Y-11.155 E0.0239
G1 X-12.854 Y-11.706 E0.0239
G1 X-13.250 Y-12.188 E0.0239
G1 X-13.733 Y-12.584 E0.0239
G1 X-14.283 Y-12.879 E0.0239
G1 X-14.881 Y-13.060 E0.0239
G1 X-15.502 Y-13.121 E0.0239
G1 X-16.124 Y-13.060 E0.0239
G1 X-16.721 Y-12.879 E0.0239
G1 X-17.272 Y-12.584 E0.0239
G1 X-17.755 Y-12.188 E0.0239
G1 X-18.151 Y-11.706 E0.0239
G1 X-18.445 Y-11.155 E0.0239
G1 X-18.627 Y-10.557 E0.0239
G1 X-18.686 Y-9.954 E0.0232
G1 X-18.627 Y-9.316 E0.0245
G1 X-18.445 Y-8.717 E0.0240
G1 X-18.151 Y-8.166 E0.0239
G1 X-17.755 Y-7.683 E0.0239
G1 X-17.272 Y-7.287 E0.0239
G1 X-16.721 Y-6.993 E0.0239
G1 X-16.124 Y-6.812 E0.0239
G1 X-15.502 Y-6.750 E0.0239
G1 X-14.881 Y-6.812 E0.0239
G1 X-14.283 Y-6.993 E0.0239
G1 X-13.733 Y-7.287 E0.0239
G1 X-13.250 Y-7.683 E0.0239
G1 X-12.854 Y-8.166 E0.0239
G1 X-12.559 Y-8.717 E0.0239
G1 X-12.378 Y-9.314 E0.0239
; feature outer perimeter
G1 X-12.832 Y-9.405 F9000
G1 X-12.779 Y-9.936 E0.0204 F1200
G1 X-12.832 Y-10.467 E0.0204
G1 X-12.987 Y-10.978 E0.0204
G1 X-13.238 Y-11.449 E0.0204
G1 X-13.577 Y-11.861 E0.0204
G1 X-13.990 Y-12.200 E0.0204
G1 X-14.460 Y-12.452 E0.0204
G1 X-14.971 Y-12.607 E0.0204
G1 X-15.502 Y-12.659 E0.0204
G1 X-16.034 Y-12.607 E0.0204
G1 X-16.545 Y-12.452 E0.0204
G1 X-17.015 Y-12.200 E0.0204
G1 X-17.428 Y-11.861 E0.0204
G1 X-17.767 Y-11.449 E0.0204
G1 X-18.018 Y-10.978 E0.0204
G1 X-18.173 Y-10.467 E0.0204
G1 X-18.224 Y-9.953 E0.0198
G1 X-18.174 Y-9.405 E0.0210
G1 X-18.018 Y-8.894 E0.0204
G1 X-17.767 Y-8.423 E0.0204
G1 X-17.428 Y-8.010 E0.0204
G1 X-17.015 Y-7.672 E0.0204
G1 X-16.545 Y-7.420 E0.0204
G1 X-16.034 Y-7.265 E0.0204
G1 X-15.502 Y-7.213 E0.0204
G1 X-14.971 Y-7.265 E0.0204
G1 X-14.460 Y-7.420 E0.0204
G1 X-13.990 Y-7.672 E0.0204
G1 X-13.577 Y-8.010 E0.0204
G1 X-13.238 Y-8.423 E0.0204
G1 X-12.987 Y-8.894 E0.0204
G1 X-12.832 Y-9.405 E0.0204
; feature inner perimeter
G1 X-11.925 Y-9.224 F9000
G1 X-11.855 Y-9.936 E0.0274 F1800
G1 X-11.925 Y-10.647 E0.0273
G1 X-12.132 Y-11.332 E0.0274
G1 X-12.470 Y-11.962 E0.0274
G1 X-12.923 Y-12.515 E0.0274
G1 X-13.476 Y-12.969 E0.0274
G1 X-14.107 Y-13.306 E0.0274
G1 X-14.791 Y-13.513 E0.0274
G1 X-15.502 Y-13.584 E0.0274
G1 X-16.214 Y-13.513 E0.0274
G1 X-16.898 Y-13.306 E0.0274
G1 X-17.529 Y-12.969 E0.0273
G1 X-18.082 Y-12.515 E0.0273
G1 X-18.535 Y-11.962 E0.0274
G1 X-18.777 Y-11.510 E0.0196
G1 X-19.188 Y-12.136 E0.0287
G1 X-19.611 Y-12.652 E0.0255
G1 X-20.167 Y-13.108 E0.0275
G1 X-20.800 Y-13.446 E0.0275
G1 X-21.488 Y-13.655 E0.0275
G1 X-22.203 Y-13.725 E0.0275
G1 X-22.918 Y-13.655 E0.0275
G1 X-23.605 Y-13.446 E0.0275
G1 X-24.239 Y-13.108 E0.0275
G1 X-24.794 Y-12.652 E0.0275
G1 X-25.250 Y-12.096 E0.0275
G1 X-25.589 Y-11.463 E0.0275
G1 X-25.785 Y-10.816 E0.0258
G1 X-25.918 Y-10.051 E0.0297
G1 X-25.784 Y-9.302 E0.0291
G1 X-25.589 Y-8.658 E0.0258
G1 X-25.250 Y-8.024 E0.0275
G1 X-24.794 Y-7.469 E0.0275
G1 X-24.236 Y-7.010 E0.0276
G1 X-23.586 Y-6.668 E0.0281
G1 X-22.918 Y-6.465 E0.0267
G1 X-22.221 Y-6.397 E0.0268
G1 X-21.480 Y-6.446 E0.0284
G1 X-20.783 Y-6.683 E0.0282
G1 X-20.167 Y-7.013 E0.0268
G1 X-19.611 Y-7.469 E0.0275
G1 X-19.155 Y-8.024 E0.0275
G1 X-18.875 Y-8.548 E0.0227
G1 X-18.872 Y-8.540 E0.0003
G1 X-18.535 Y-7.909 E0.0274
G1 X-18.082 Y-7.357 E0.0273
G1 X-17.529 Y-6.903 E0.0273
G1 X-16.898 Y-6.566 E0.0273
G1 X-16.214 Y-6.358 E0.0274
G1 X-15.502 Y-6.288 E0.0274
G1 X-14.791 Y-6.358 E0.0274
G1 X-14.107 Y-6.566 E0.0273
G1 X-13.476 Y-6.903 E0.0274
G1 X-12.923 Y-7.357 E0.0274
G1 X-12.470 Y-7.909 E0.0274
G1 X-12.132 Y-8.540 E0.0274
G1 X-11.925 Y-9.224 E0.0274
G1 E-1.9000 F1200
G1 Z0.700 F1200
G1 X-19.000 Y-10.060 F9000
G1 Z0.200 F1200
G1 E1.9000 F1200
G1 X-19.059 Y-10.657 E0.0229 F1800
G1 X-19.203 Y-11.320 E0.0259
G1 X-19.559 Y-11.864 E0.0249
G1 X-19.938 Y-12.325 E0.0228
G1 X-20.423 Y-12.723 E0.0240
G1 X-20.977 Y-13.019 E0.0240
G1 X-21.578 Y-13.201 E0.0240
G1 X-22.203 Y-13.263 E0.0240
G1 X-22.828 Y-13.201 E0.0240
G1 X-23.428 Y-13.019 E0.0240
G1 X-23.982 Y-12.723 E0.0240
G1 X-24.467 Y-12.325 E0.0240
G1 X-24.866 Y-11.840 E0.0240
G1 X-25.162 Y-11.286 E0.0240
G1 X-25.337 Y-10.709 E0.0230
G1 X-25.451 Y-10.052 E0.0255
G1 X-25.336 Y-9.409 E0.0250
G1 X-25.162 Y-8.834 E0.0230
G1 X-24.866 Y-8.281 E0.0240
G1 X-24.467 Y-7.795 E0.0240
G1 X-23.980 Y-7.396 E0.0241
G1 X-23.411 Y-7.096 E0.0246
G1 X-22.828 Y-6.919 E0.0233
G1 X-22.214 Y-6.858 E0.0236
G1 X-21.571 Y-6.901 E0.0246
G1 X-20.967 Y-7.106 E0.0244
G1 X-20.423 Y-7.397 E0.0236
G1 X-19.938 Y-7.795 E0.0240
G1 X-19.540 Y-8.281 E0.0240
G1 X-19.244 Y-8.834 E0.0240
G1 X-19.061 Y-9.435 E0.0240
G1 X-19.000 Y-10.060 E0.0240
; feature outer perimeter
G1 X-19.462 Y-10.060 F9000
G1 X-19.514 Y-10.586 E0.0202 F1200
G1 X-19.634 Y-11.139 E0.0217
G1 X-19.931 Y-11.591 E0.0207
G1 X-20.265 Y-11.998 E0.0202
G1 X-20.680 Y-12.339 E0.0206
G1 X-21.154 Y-12.592 E0.0205
G1 X-21.668 Y-12.748 E0.0205
G1 X-22.203 Y-12.801 E0.0206
G1 X-22.737 Y-12.748 E0.0205
G1 X-23.252 Y-12.592 E0.0205
G1 X-23.725 Y-12.339 E0.0206
G1 X-24.141 Y-11.998 E0.0205
G1 X-24.481 Y-11.583 E0.0205
G1 X-24.735 Y-11.109 E0.0205
G1 X-24.888 Y-10.603 E0.0202
G1 X-24.984 Y-10.053 E0.0213
G1 X-24.888 Y-9.517 E0.0208
G1 X-24.735 Y-9.011 E0.0202
G1 X-24.481 Y-8.538 E0.0205
G1 X-24.141 Y-8.122 E0.0205
G1 X-23.725 Y-7.781 E0.0206
G1 X-23.235 Y-7.523 E0.0212
G1 X-22.737 Y-7.372 E0.0199
G1 X-22.207 Y-7.320 E0.0204
G1 X-21.662 Y-7.356 E0.0209
G1 X-21.151 Y-7.530 E0.0207
G1 X-20.680 Y-7.781 E0.0204
G1 X-20.265 Y-8.122 E0.0205
G1 X-19.924 Y-8.538 E0.0205
G1 X-19.671 Y-9.011 E0.0205
G1 X-19.515 Y-9.525 E0.0205
G1 X-19.462 Y-10.060 E0.0205
; feature solid layer
G1 X-18.750 Y-12.245 F9000
G1 X-19.200 Y-12.695 E0.0244 F2400
G1 X-19.366 Y-12.897 E0.0100
G1 X-19.568 Y-13.063 E0.0100
G1 X-20.158 Y-13.652 E0.0319
G1 X-19.507 Y-13.652 E0.0249
G1 X-18.457 Y-12.602 E0.0568
G1 X-18.327 Y-12.760 E0.0078
G1 X-18.128 Y-12.924 E0.0098
G1 X-18.857 Y-13.652 E0.0394
G1 X-18.206 Y-13.652 E0.0249
G1 X-17.771 Y-13.217 E0.0236
G1 X-17.722 Y-13.257 E0.0024
G1 X-17.356 Y-13.453 E0.0159
G1 X-17.556 Y-13.652 E0.0108
G1 X-24.061 Y-13.652 F9000
G1 X-24.023 Y-13.614 E0.0021 F2400
G1 X-24.432 Y-13.396 E0.0177
G1 X-24.444 Y-13.385 E0.0006
G1 X-24.711 Y-13.652 E0.0144
G1 X-25.362 Y-13.652 E0.0249
G1 X-24.802 Y-13.092 E0.0303
G1 X-25.039 Y-12.897 E0.0118
G1 X-25.138 Y-12.777 E0.0059
G1 X-25.678 Y-13.318 E0.0293
G1 X-25.678 Y-12.668 E0.0249
G1 X-25.431 Y-12.420 E0.0134
G1 X-24.128 Y-6.564 F9000
G1 X-23.969 Y-6.404 E0.0086 F2400
G1 X-24.619 Y-6.404 E0.0249
G1 X-25.678 Y-7.463 E0.0573
G1 X-25.678 Y-6.813 E0.0249
G1 X-25.270 Y-6.404 E0.0221
G1 X-20.065 Y-6.404 F9000
G1 X-20.242 Y-6.581 E0.0096 F2400
G1 X-19.974 Y-6.724 E0.0116
G1 X-19.843 Y-6.832 E0.0065
G1 X-19.415 Y-6.404 E0.0231
G1 X-18.764 Y-6.404 E0.0249
G1 X-19.486 Y-7.125 E0.0390
G1 X-19.366 Y-7.223 E0.0059
G1 X-19.171 Y-7.461 E0.0118
G1 X-18.114 Y-6.404 E0.0572
G1 X-17.463 Y-6.404 E0.0249
G1 X-17.619 Y-6.560 E0.0084
G1 X-13.601 Y-6.445 F9000
G1 X-13.560 Y-6.404 E0.0022 F2400
G1 X-12.910 Y-6.404 E0.0249
G1 X-13.194 Y-6.688 E0.0154
G1 X-12.836 Y-6.982 E0.0177
G1 X-12.259 Y-6.404 E0.0312
G1 X-11.608 Y-6.404 E0.0249
G1 X-12.515 Y-7.310 E0.0490
G1 X-12.222 Y-7.668 E0.0177
G1 X-10.958 Y-6.404 E0.0684
G1 X-10.307 Y-6.404 E0.0249
G1 X-11.986 Y-8.083 E0.0908
G1 X-11.812 Y-8.407 E0.0141
G1 X-11.777 Y-8.524 E0.0047
G1 X-9.657 Y-6.404 E0.1147
G1 X-9.006 Y-6.404 E0.0249
G1 X-11.625 Y-9.023 E0.1417
G1 X-11.585 Y-9.157 E0.0053
