; G-Code generated by Simplify3D(R) Version 4.1.2
; Apr 6, 2020 at 12:16:15 PM
; Settings Summary
;   processName,Process1
;   applyToModels,WOZ bracket4_Snake,WOZ bracket4_Snake(2),WOZ bracket4_Snake(3),WOZ bracket4_Snake(4),WOZ bracket4_Snake(5),WOZ bracket4_Snake(6),WOZ bracket4_Snake(7),WOZ bracket4_Snake(6)(2),WOZ bracket4_Snake(7)(2)
;   profileName,MakerBot Replicator 2 HBP (modified)
;   profileVersion,2020-03-12 10:48:50
;   baseProfile,MakerBot Replicator 2(2)
;   printMaterial,PLA
;   printQuality,Medium
;   printExtruders,
;   extruderName,Primary Extruder
;   extruderToolheadNumber,0
;   extruderDiameter,0.4
;   extruderAutoWidth,0
;   extruderWidth,0.4
;   extrusionMultiplier,1
;   extruderUseRetract,1
;   extruderRetractionDistance,1.9
;   extruderExtraRestartDistance,0
;   extruderRetractionZLift,0.5
;   extruderRetractionSpeed,1200
;   extruderUseCoasting,0
;   extruderCoastingDistance,0.2
;   extruderUseWipe,0
;   extruderWipeDistance,5
;   primaryExtruder,0
;   layerHeight,0.2
;   topSolidLayers,3
;   bottomSolidLayers,3
;   perimeterOutlines,3
;   printPerimetersInsideOut,1
;   startPointOption,3
;   startPointOriginX,0
;   startPointOriginY,150
;   sequentialIslands,0
;   spiralVaseMode,0
;   firstLayerHeightPercentage,100
;   firstLayerWidthPercentage,115
;   firstLayerUnderspeed,0.5
;   useRaft,0
;   raftExtruder,0
;   raftTopLayers,2
;   raftBaseLayers,1
;   raftOffset,1
;   raftSeparationDistance,0.14
;   raftTopInfill,90
;   aboveRaftSpeedMultiplier,0.3
;   useSkirt,0
;   skirtExtruder,0
;   skirtLayers,1
;   skirtOutlines,5
;   skirtOffset,0
;   usePrimePillar,0
;   primePillarExtruder,999
;   primePillarWidth,12
;   primePillarLocation,7
;   primePillarSpeedMultiplier,1
;   useOozeShield,0
;   oozeShieldExtruder,999
;   oozeShieldOffset,2
;   oozeShieldOutlines,1
;   oozeShieldSidewallShape,1
;   oozeShieldSidewallAngle,30
;   oozeShieldSpeedMultiplier,1
;   infillExtruder,0
;   internalInfillPattern,Rectilinear
;   externalInfillPattern,Rectilinear
;   infillPercentage,15
;   outlineOverlapPercentage,25
;   infillExtrusionWidthPercentage,100
;   minInfillLength,5
;   infillLayerInterval,1
;   internalInfillAngles,45,-45
;   overlapInternalInfillAngles,0
;   externalInfillAngles,45,-45
;   generateSupport,0
;   supportExtruder,0
;   supportInfillPercentage,15
;   supportExtraInflation,0.5
;   supportBaseLayers,0
;   denseSupportExtruder,0
;   denseSupportLayers,2
;   denseSupportInfillPercentage,90
;   supportLayerInterval,1
;   supportHorizontalPartOffset,0.3
;   supportUpperSeparationLayers,1
;   supportLowerSeparationLayers,1
;   supportType,1
;   supportGridSpacing,2
;   maxOverhangAngle,45
;   supportAngles,45,-45
;   temperatureName,Primary Extruder,Heated Build Platform
;   temperatureNumber,0,0
;   temperatureSetpointCount,1,1
;   temperatureSetpointLayers,1,1
;   temperatureSetpointTemperatures,230,60
;   temperatureStabilizeAtStartup,1,1
;   temperatureHeatedBed,0,1
;   fanLayers,1,2
;   fanSpeeds,0,100
;   blipFanToFullPower,1
;   adjustSpeedForCooling,1
;   minSpeedLayerTime,15
;   minCoolingSpeedSlowdown,20
;   increaseFanForCooling,1
;   minFanLayerTime,45
;   maxCoolingFanSpeed,100
;   increaseFanForBridging,1
;   bridgingFanSpeed,100
;   use5D,1
;   relativeEdistances,1
;   allowEaxisZeroing,0
;   independentExtruderAxes,1
;   includeM10123,0
;   stickySupport,1
;   applyToolheadOffsets,0
;   gcodeXoffset,0
;   gcodeYoffset,0
;   gcodeZoffset,0
;   overrideMachineDefinition,1
;   machineTypeOverride,0
;   strokeXoverride,280
;   strokeYoverride,150
;   strokeZoverride,150
;   originOffsetXoverride,140
;   originOffsetYoverride,75
;   originOffsetZoverride,0
;   homeXdirOverride,1
;   homeYdirOverride,1
;   homeZdirOverride,-1
;   flipXoverride,1
;   flipYoverride,-1
;   flipZoverride,1
;   toolheadOffsets,0,0|0,0|0,0|0,0|0,0|0,0
;   overrideFirmwareConfiguration,1
;   firmwareTypeOverride,MakerBot/Sailfish Firmware
;   GPXconfigOverride,r2h
;   baudRateOverride,115200
;   overridePrinterModels,1
;   printerModelsOverride,MakerBot_Replicator2.stl
;   startingGcode,; **** Replicator 2 start.gcode ****,M73 P0 ; enable build progress,G162 X Y F3000 ; home XY maximum,G161 Z F1200 ; home Z minimum,G92 Z-5 ; set Z to -5,G1 Z0 ; move Z to 0,G161 Z F100 ; home Z slowly,M132 X Y Z A B ; recall home offsets,G1 X-145 Y-75 Z30 F9000 ; move to wait position off table,G130 X20 Y20 Z20 A20 B20 ; lower stepper Vrefs while heating,M126 S[fan_speed_pwm],M140 S[bed0_temperature] T0,M134 T0 ; stabilize bed temperature,M104 S[extruder0_temperature] T0,M133 T0 ; stabilize extruder temperature,G130 X127 Y127 Z40 A127 B127 ; default stepper Vrefs,G92 A0 ; zero extruder,G1 Z0.4 ; position nozzle,G1 E25 F300 ; purge nozzle,G1 X-140 Y-70 Z0.15 F1200 ; slow wipe,G1 X-135 Y-65 Z0.5 F1200 ; lift,G92 A0 ; zero extruder,M73 P1 ;@body (notify GPX body has started),; **** end of start.gcode ****
;   layerChangeGcode,
;   retractionGcode,
;   toolChangeGcode,
;   endingGcode,; **** Replicator 2 end.gcode ****,M73 P100 ; end build progress,G1 Z155 F1000 ; send Z axis to bottom of machine,M104 S0 T0 ; cool down extruder,M140 S0 T0 ; cool down HBP,M127 ; stop blower fan,G162 X Y F3000 ; home XY maximum,M18 ; disable stepper,M0 ; stop codes,M72 P1 ; play Ta-Da song,; **** end of end.gcode ****
;   exportFileFormat,gcode
;   celebration,0
;   celebrationSong,Random Song
;   postProcessing,
;   defaultSpeed,4800
;   outlineUnderspeed,0.5
;   solidInfillUnderspeed,1
;   supportUnderspeed,1
;   rapidXYspeed,9000
;   rapidZspeed,1200
;   minBridgingArea,50
;   bridgingExtraInflation,0
;   bridgingExtrusionMultiplier,1
;   bridgingSpeedMultiplier,0.8
;   useFixedBridgingAngle,0
;   fixedBridgingAngle,0
;   applyBridgingToPerimeters,0
;   filamentDiameters,1.75|1.75|1.75|1.75|1.75|1.75
;   filamentPricesPerKg,46|46|46|46|46|46
;   filamentDensities,1.25|1.25|1.25|1.25|1.25|1.25
;   useMinPrintHeight,0
;   minPrintHeight,0
;   useMaxPrintHeight,0
;   maxPrintHeight,4.84
;   useDiaphragm,0
;   diaphragmLayerInterval,20
;   robustSlicing,1
;   mergeAllIntoSolid,0
;   onlyRetractWhenCrossingOutline,0
;   retractBetweenLayers,0
;   useRetractionMinTravel,1
;   retractionMinTravel,7
;   retractWhileWiping,1
;   onlyWipeOutlines,1
;   avoidCrossingOutline,0
;   maxMovementDetourFactor,3
;   toolChangeRetractionDistance,12
;   toolChangeExtraRestartDistance,-0.5
;   toolChangeRetractionSpeed,600
;   externalThinWallType,0
;   internalThinWallType,0
;   thinWallAllowedOverlapPercentage,10
;   singleExtrusionMinLength,1
;   singleExtrusionMinPrintingWidthPercentage,50
;   singleExtrusionMaxPrintingWidthPercentage,200
;   singleExtrusionEndpointExtension,0.2
;   horizontalSizeCompensation,0
G90
M83
; **** Replicator 2 start.gcode ****
M73 P0 ; enable build progress
G162 X Y F3000 ; home XY maximum
G161 Z F1200 ; home Z minimum
G92 Z-5 ; set Z to -5
G1 Z0 ; move Z to 0
G161 Z F100 ; home Z slowly
M132 X Y Z A B ; recall home offsets
G1 X-145 Y-75 Z30 F9000 ; move to wait position off table
G130 X20 Y20 Z20 A20 B20 ; lower stepper Vrefs while heating
M127
M140 S60 T0
M134 T0 ; stabilize bed temperature
M104 S230 T0
M133 T0 ; stabilize extruder temperature
G130 X127 Y127 Z40 A127 B127 ; default stepper Vrefs
G92 A0 ; zero extruder
G1 Z0.4 ; position nozzle
G1 E25 F300 ; purge nozzle
G1 X-140 Y-70 Z0.15 F1200 ; slow wipe
G1 X-135 Y-65 Z0.5 F1200 ; lift
G92 A0 ; zero extruder
M73 P1 ;@body (notify GPX body has started)
; **** end of start.gcode ****
; process Process1
; layer 1, Z = 0.200
M135 T0
G1 E-1.9000 F1200
; feature inner perimeter
; tool H0.200 W0.460
G1 Z0.500 F1200
G1 X18.285 Y6.379 F9000
G1 Z0.200 F1200
G1 E1.9000 F1200
G1 X18.285 Y3.969 E0.0921 F1800
G1 X-26.023 Y3.969 E1.6948
G1 X-26.023 Y-3.969 E0.3036
G1 X18.285 Y-3.969 E1.6948
G1 X18.285 Y-6.379 E0.0922
G1 X26.023 Y-6.379 E0.2960
G1 X26.023 Y6.379 E0.4879
G1 X18.285 Y6.379 E0.2960
G1 X17.825 Y6.839 F9000
G1 X17.825 Y4.429 E0.0921 F1800
G1 X-26.483 Y4.429 E1.6948
G1 X-26.483 Y-4.429 E0.3388
G1 X17.825 Y-4.429 E1.6948
G1 X17.825 Y-6.839 E0.0922
G1 X26.483 Y-6.839 E0.3312
G1 X26.483 Y6.839 E0.5231
G1 X17.825 Y6.839 E0.3312
; feature outer perimeter
G1 X17.365 Y7.299 F9000
G1 X17.365 Y4.889 E0.0921 F1200
G1 X-26.943 Y4.889 E1.6948
G1 X-26.943 Y-4.889 E0.3740
G1 X17.365 Y-4.889 E1.6948
G1 X17.365 Y-7.299 E0.0922
G1 X26.943 Y-7.299 E0.3664
G1 X26.943 Y7.299 E0.5583
G1 X17.365 Y7.299 E0.3664
G1 E-1.9000 F1200
; feature inner perimeter
G1 Z0.700 F1200
G1 X-12.378 Y0.714 F9000
G1 Z0.200 F1200
G1 E1.9000 F1200
G1 X-12.317 Y0.093 E0.0239 F1800
G1 X-12.378 Y-0.529 E0.0239
G1 X-12.559 Y-1.126 E0.0239
G1 X-12.854 Y-1.677 E0.0239
G1 X-13.250 Y-2.160 E0.0239
G1 X-13.733 Y-2.556 E0.0239
G1 X-14.283 Y-2.850 E0.0239
G1 X-14.881 Y-3.032 E0.0239
G1 X-15.502 Y-3.093 E0.0239
G1 X-16.124 Y-3.032 E0.0239
G1 X-16.721 Y-2.850 E0.0239
G1 X-17.272 Y-2.556 E0.0239
G1 X-17.755 Y-2.160 E0.0239
G1 X-18.151 Y-1.677 E0.0239
G1 X-18.445 Y-1.126 E0.0239
G1 X-18.627 Y-0.529 E0.0239
G1 X-18.686 Y0.074 E0.0232
G1 X-18.627 Y0.712 E0.0245
G1 X-18.445 Y1.312 E0.0240
G1 X-18.151 Y1.862 E0.0239
G1 X-17.755 Y2.345 E0.0239
G1 X-17.272 Y2.741 E0.0239
G1 X-16.721 Y3.036 E0.0239
G1 X-16.124 Y3.217 E0.0239
G1 X-15.502 Y3.278 E0.0239
G1 X-14.881 Y3.217 E0.0239
G1 X-14.283 Y3.036 E0.0239
G1 X-13.733 Y2.741 E0.0239
G1 X-13.250 Y2.345 E0.0239
G1 X-12.854 Y1.862 E0.0239
G1 X-12.559 Y1.312 E0.0239
G1 X-12.378 Y0.714 E0.0239
; feature outer perimeter
G1 X-12.832 Y0.624 F9000
G1 X-12.779 Y0.093 E0.0204 F1200
G1 X-12.832 Y-0.439 E0.0204
G1 X-12.987 Y-0.949 E0.0204
G1 X-13.238 Y-1.420 E0.0204
G1 X-13.577 Y-1.833 E0.0204
G1 X-13.990 Y-2.172 E0.0204
G1 X-14.460 Y-2.423 E0.0204
G1 X-14.971 Y-2.578 E0.0204
G1 X-15.502 Y-2.631 E0.0204
G1 X-16.034 Y-2.578 E0.0204
G1 X-16.545 Y-2.423 E0.0204
G1 X-17.015 Y-2.172 E0.0204
G1 X-17.428 Y-1.833 E0.0204
G1 X-17.767 Y-1.420 E0.0204
G1 X-18.018 Y-0.949 E0.0204
G1 X-18.173 Y-0.439 E0.0204
G1 X-18.224 Y0.076 E0.0198
G1 X-18.174 Y0.623 E0.0210
G1 X-18.018 Y1.135 E0.0204
G1 X-17.767 Y1.606 E0.0204
G1 X-17.428 Y2.018 E0.0204
G1 X-17.015 Y2.357 E0.0204
G1 X-16.545 Y2.609 E0.0204
G1 X-16.034 Y2.764 E0.0204
G1 X-15.502 Y2.816 E0.0204
G1 X-14.971 Y2.764 E0.0204
G1 X-14.460 Y2.609 E0.0204
G1 X-13.990 Y2.357 E0.0204
G1 X-13.577 Y2.018 E0.0204
G1 X-13.238 Y1.606 E0.0204
G1 X-12.987 Y1.135 E0.0204
G1 X-12.832 Y0.624 E0.0204
; feature inner perimeter
G1 X-11.925 Y0.804 F9000
G1 X-11.855 Y0.093 E0.0274 F1800
G1 X-11.925 Y-0.619 E0.0273
G1 X-12.132 Y-1.303 E0.0274
G1 X-12.470 Y-1.934 E0.0274
G1 X-12.923 Y-2.487 E0.0273
G1 X-13.476 Y-2.940 E0.0274
G1 X-14.107 Y-3.277 E0.0274
G1 X-14.791 Y-3.485 E0.0274
G1 X-15.502 Y-3.555 E0.0274
G1 X-16.214 Y-3.485 E0.0274
G1 X-16.898 Y-3.277 E0.0274
G1 X-17.529 Y-2.940 E0.0273
G1 X-18.082 Y-2.487 E0.0273
G1 X-18.535 Y-1.934 E0.0274
G1 X-18.777 Y-1.481 E0.0196
G1 X-19.188 Y-2.108 E0.0287
G1 X-19.611 Y-2.623 E0.0255
G1 X-20.167 Y-3.079 E0.0275
G1 X-20.800 Y-3.418 E0.0275
G1 X-21.488 Y-3.626 E0.0275
G1 X-22.203 Y-3.697 E0.0275
G1 X-22.918 Y-3.626 E0.0275
G1 X-23.605 Y-3.418 E0.0275
G1 X-24.239 Y-3.079 E0.0275
G1 X-24.794 Y-2.623 E0.0275
G1 X-25.250 Y-2.068 E0.0275
G1 X-25.589 Y-1.434 E0.0275
G1 X-25.785 Y-0.787 E0.0258
G1 X-25.918 Y-0.023 E0.0297
G1 X-25.784 Y0.727 E0.0291
G1 X-25.589 Y1.371 E0.0258
G1 X-25.250 Y2.005 E0.0275
G1 X-24.794 Y2.560 E0.0275
G1 X-24.236 Y3.018 E0.0276
G1 X-23.586 Y3.360 E0.0281
G1 X-22.918 Y3.563 E0.0267
G1 X-22.221 Y3.632 E0.0268
G1 X-21.480 Y3.582 E0.0284
G1 X-20.783 Y3.345 E0.0282
G1 X-20.167 Y3.016 E0.0268
G1 X-19.611 Y2.560 E0.0275
G1 X-19.155 Y2.005 E0.0275
G1 X-18.875 Y1.480 E0.0227
G1 X-18.872 Y1.489 E0.0003
G1 X-18.535 Y2.119 E0.0274
G1 X-18.082 Y2.672 E0.0273
G1 X-17.529 Y3.126 E0.0274
G1 X-16.898 Y3.463 E0.0273
G1 X-16.214 Y3.670 E0.0274
G1 X-15.502 Y3.740 E0.0274
G1 X-14.791 Y3.670 E0.0274
G1 X-14.107 Y3.463 E0.0273
G1 X-13.476 Y3.126 E0.0274
G1 X-12.923 Y2.672 E0.0274
G1 X-12.470 Y2.119 E0.0274
G1 X-12.132 Y1.489 E0.0274
G1 X-11.925 Y0.804 E0.0274
G1 E-1.9000 F1200
G1 Z0.700 F1200
G1 X-19.000 Y-0.032 F9000
G1 Z0.200 F1200
G1 E1.9000 F1200
G1 X-19.059 Y-0.629 E0.0229 F1800
G1 X-19.203 Y-1.291 E0.0259
G1 X-19.559 Y-1.835 E0.0249
G1 X-19.938 Y-2.296 E0.0228
G1 X-20.423 Y-2.695 E0.0240
G1 X-20.977 Y-2.991 E0.0240
G1 X-21.578 Y-3.173 E0.0240
G1 X-22.203 Y-3.234 E0.0240
G1 X-22.828 Y-3.173 E0.0240
G1 X-23.428 Y-2.991 E0.0240
G1 X-23.982 Y-2.695 E0.0240
G1 X-24.467 Y-2.296 E0.0240
G1 X-24.866 Y-1.811 E0.0240
G1 X-25.162 Y-1.257 E0.0240
G1 X-25.337 Y-0.681 E0.0230
G1 X-25.451 Y-0.024 E0.0255
G1 X-25.336 Y0.619 E0.0250
G1 X-25.162 Y1.194 E0.0230
G1 X-24.866 Y1.748 E0.0240
G1 X-24.468 Y2.233 E0.0240
G1 X-23.980 Y2.633 E0.0241
G1 X-23.411 Y2.933 E0.0246
G1 X-22.828 Y3.110 E0.0233
G1 X-22.214 Y3.170 E0.0236
G1 X-21.571 Y3.127 E0.0246
G1 X-20.967 Y2.922 E0.0244
G1 X-20.423 Y2.631 E0.0236
G1 X-19.938 Y2.233 E0.0240
G1 X-19.540 Y1.748 E0.0240
G1 X-19.244 Y1.194 E0.0240
G1 X-19.061 Y0.593 E0.0240
G1 X-19.000 Y-0.032 E0.0240
; feature outer perimeter
G1 X-19.462 Y-0.032 F9000
G1 X-19.514 Y-0.557 E0.0202 F1200
G1 X-19.634 Y-1.110 E0.0217
G1 X-19.931 Y-1.562 E0.0207
G1 X-20.265 Y-1.970 E0.0202
G1 X-20.680 Y-2.310 E0.0206
G1 X-21.154 Y-2.564 E0.0205
G1 X-21.668 Y-2.720 E0.0205
G1 X-22.203 Y-2.772 E0.0206
G1 X-22.737 Y-2.720 E0.0205
G1 X-23.252 Y-2.564 E0.0205
G1 X-23.725 Y-2.310 E0.0206
G1 X-24.141 Y-1.970 E0.0205
G1 X-24.481 Y-1.554 E0.0205
G1 X-24.735 Y-1.080 E0.0205
G1 X-24.888 Y-0.574 E0.0202
G1 X-24.984 Y-0.025 E0.0213
G1 X-24.888 Y0.512 E0.0208
G1 X-24.735 Y1.017 E0.0202
G1 X-24.481 Y1.491 E0.0205
G1 X-24.141 Y1.906 E0.0205
G1 X-23.725 Y2.248 E0.0206
G1 X-23.235 Y2.505 E0.0212
G1 X-22.737 Y2.656 E0.0199
G1 X-22.207 Y2.709 E0.0204
G1 X-21.662 Y2.672 E0.0209
G1 X-21.151 Y2.499 E0.0207
G1 X-20.680 Y2.247 E0.0204
G1 X-20.265 Y1.906 E0.0205
G1 X-19.924 Y1.491 E0.0205
G1 X-19.671 Y1.017 E0.0205
G1 X-19.515 Y0.503 E0.0205
G1 X-19.462 Y-0.032 E0.0205
; feature solid layer
G1 X-18.628 Y-2.365 F9000
G1 X-19.887 Y-3.624 E0.0681 F2400
G1 X-19.237 Y-3.624 E0.0249
G1 X-18.335 Y-2.722 E0.0488
G1 X-18.327 Y-2.732 E0.0005
G1 X-17.979 Y-3.017 E0.0172
G1 X-18.586 Y-3.624 E0.0328
G1 X-17.936 Y-3.624 E0.0249
G1 X-17.603 Y-3.292 E0.0180
G1 X-17.179 Y-3.518 E0.0184
G1 X-17.285 Y-3.624 E0.0057
G1 X-19.049 Y2.419 F9000
G1 X-17.843 Y3.624 E0.0652 F2400
G1 X-18.494 Y3.624 E0.0249
G1 X-19.342 Y2.776 E0.0459
G1 X-19.366 Y2.805 E0.0014
G1 X-19.694 Y3.075 E0.0162
G1 X-19.144 Y3.624 E0.0297
G1 X-19.795 Y3.624 E0.0249
G1 X-20.066 Y3.353 E0.0147
G1 X-20.490 Y3.580 E0.0184
G1 X-20.446 Y3.624 E0.0024
G1 X-25.650 Y3.624 F9000
G1 X-25.678 Y3.596 E0.0015 F2400
G1 X-25.678 Y2.945 E0.0249
G1 X-24.999 Y3.624 E0.0367
G1 X-24.349 Y3.624 E0.0249
G1 X-25.678 Y2.295 E0.0719
G1 X-25.588 Y-2.168 F9000
G1 X-25.678 Y-2.259 E0.0049 F2400
G1 X-25.678 Y-2.910 E0.0249
G1 X-25.309 Y-2.540 E0.0200
G1 X-25.039 Y-2.868 E0.0162
G1 X-25.010 Y-2.892 E0.0014
G1 X-25.678 Y-3.560 E0.0361
G1 X-25.678 Y-3.624 E0.0024
G1 X-25.092 Y-3.624 E0.0224
G1 X-24.653 Y-3.185 E0.0237
G1 X-24.432 Y-3.367 E0.0110
G1 X-24.271 Y-3.453 E0.0070
G1 X-24.441 Y-3.624 E0.0092
G1 E-1.9000 F1200
G1 Z0.700 F1200
G1 X-13.290 Y3.624 F9000
G1 Z0.200 F1200
G1 E1.9000 F1200
G1 X-13.425 Y3.489 E0.0073 F2400
G1 X-13.283 Y3.414 E0.0061
G1 X-13.045 Y3.218 E0.0118
G1 X-12.639 Y3.624 E0.0220
G1 X-11.989 Y3.624 E0.0249
G1 X-12.688 Y2.925 E0.0378
G1 X-12.678 Y2.917 E0.0005
G1 X-12.393 Y2.570 E0.0172
G1 X-11.338 Y3.624 E0.0571
G1 X-10.687 Y3.624 E0.0249
G1 X-12.118 Y2.194 E0.0774
G1 X-11.892 Y1.770 E0.0184
G1 X-10.037 Y3.624 E0.1003
G1 X-9.386 Y3.624 E0.0249
G1 X-11.714 Y1.297 E0.1259
G1 X-11.585 Y0.872 E0.0170
G1 X-11.576 Y0.784 E0.0034
G1 X-8.736 Y3.624 E0.1536
G1 X-8.085 Y3.624 E0.0249
G1 X-11.518 Y0.192 E0.1857
G1 X-11.508 Y0.093 E0.0038
G1 X-11.567 Y-0.508 E0.0231
G1 X-7.435 Y3.624 E0.2235
G1 X-6.784 Y3.624 E0.0249
G1 X-11.798 Y-1.390 E0.2712
G1 X-11.812 Y-1.436 E0.0019
G1 X-12.181 Y-2.126 E0.0300
G1 X-12.678 Y-2.732 E0.0299
G1 X-13.283 Y-3.228 E0.0299
G1 X-13.974 Y-3.598 E0.0300
G1 X-14.020 Y-3.612 E0.0019
