; G-Code generated by Simplify3D(R) Version 4.1.2
; Apr 6, 2020 at 12:14:13 PM
; Settings Summary
;   processName,Process1
;   applyToModels,WoZ Fire Pot Flame,WoZ Fire Pot Flame(2),WoZ Fire Pot Flame(3),WoZ Fire Pot Flame(2)(2)
;   profileName,MakerBot Replicator 2 HBP (modified)
;   profileVersion,2020-03-12 10:48:50
;   baseProfile,MakerBot Replicator 2(2)
;   printMaterial,PLA
;   printQuality,Medium
;   printExtruders,
;   extruderName,Primary Extruder
;   extruderToolheadNumber,0
;   extruderDiameter,0.4
;   extruderAutoWidth,0
;   extruderWidth,0.4
;   extrusionMultiplier,1
;   extruderUseRetract,1
;   extruderRetractionDistance,1.9
;   extruderExtraRestartDistance,0
;   extruderRetractionZLift,0.5
;   extruderRetractionSpeed,1200
;   extruderUseCoasting,0
;   extruderCoastingDistance,0.2
;   extruderUseWipe,0
;   extruderWipeDistance,5
;   primaryExtruder,0
;   layerHeight,0.2
;   topSolidLayers,3
;   bottomSolidLayers,3
;   perimeterOutlines,3
;   printPerimetersInsideOut,1
;   startPointOption,3
;   startPointOriginX,0
;   startPointOriginY,150
;   sequentialIslands,0
;   spiralVaseMode,0
;   firstLayerHeightPercentage,100
;   firstLayerWidthPercentage,115
;   firstLayerUnderspeed,0.5
;   useRaft,0
;   raftExtruder,0
;   raftTopLayers,2
;   raftBaseLayers,1
;   raftOffset,1
;   raftSeparationDistance,0.14
;   raftTopInfill,90
;   aboveRaftSpeedMultiplier,0.3
;   useSkirt,0
;   skirtExtruder,0
;   skirtLayers,1
;   skirtOutlines,5
;   skirtOffset,0
;   usePrimePillar,0
;   primePillarExtruder,999
;   primePillarWidth,12
;   primePillarLocation,7
;   primePillarSpeedMultiplier,1
;   useOozeShield,0
;   oozeShieldExtruder,999
;   oozeShieldOffset,2
;   oozeShieldOutlines,1
;   oozeShieldSidewallShape,1
;   oozeShieldSidewallAngle,30
;   oozeShieldSpeedMultiplier,1
;   infillExtruder,0
;   internalInfillPattern,Rectilinear
;   externalInfillPattern,Rectilinear
;   infillPercentage,15
;   outlineOverlapPercentage,25
;   infillExtrusionWidthPercentage,100
;   minInfillLength,5
;   infillLayerInterval,1
;   internalInfillAngles,45,-45
;   overlapInternalInfillAngles,0
;   externalInfillAngles,45,-45
;   generateSupport,0
;   supportExtruder,0
;   supportInfillPercentage,15
;   supportExtraInflation,0.5
;   supportBaseLayers,0
;   denseSupportExtruder,0
;   denseSupportLayers,2
;   denseSupportInfillPercentage,90
;   supportLayerInterval,1
;   supportHorizontalPartOffset,0.3
;   supportUpperSeparationLayers,1
;   supportLowerSeparationLayers,1
;   supportType,1
;   supportGridSpacing,2
;   maxOverhangAngle,45
;   supportAngles,45,-45
;   temperatureName,Primary Extruder,Heated Build Platform
;   temperatureNumber,0,0
;   temperatureSetpointCount,1,1
;   temperatureSetpointLayers,1,1
;   temperatureSetpointTemperatures,230,60
;   temperatureStabilizeAtStartup,1,1
;   temperatureHeatedBed,0,1
;   fanLayers,1,2
;   fanSpeeds,0,100
;   blipFanToFullPower,1
;   adjustSpeedForCooling,1
;   minSpeedLayerTime,15
;   minCoolingSpeedSlowdown,20
;   increaseFanForCooling,1
;   minFanLayerTime,45
;   maxCoolingFanSpeed,100
;   increaseFanForBridging,1
;   bridgingFanSpeed,100
;   use5D,1
;   relativeEdistances,1
;   allowEaxisZeroing,0
;   independentExtruderAxes,1
;   includeM10123,0
;   stickySupport,1
;   applyToolheadOffsets,0
;   gcodeXoffset,0
;   gcodeYoffset,0
;   gcodeZoffset,0
;   overrideMachineDefinition,1
;   machineTypeOverride,0
;   strokeXoverride,280
;   strokeYoverride,150
;   strokeZoverride,150
;   originOffsetXoverride,140
;   originOffsetYoverride,75
;   originOffsetZoverride,0
;   homeXdirOverride,1
;   homeYdirOverride,1
;   homeZdirOverride,-1
;   flipXoverride,1
;   flipYoverride,-1
;   flipZoverride,1
;   toolheadOffsets,0,0|0,0|0,0|0,0|0,0|0,0
;   overrideFirmwareConfiguration,1
;   firmwareTypeOverride,MakerBot/Sailfish Firmware
;   GPXconfigOverride,r2h
;   baudRateOverride,115200
;   overridePrinterModels,1
;   printerModelsOverride,MakerBot_Replicator2.stl
;   startingGcode,; **** Replicator 2 start.gcode ****,M73 P0 ; enable build progress,G162 X Y F3000 ; home XY maximum,G161 Z F1200 ; home Z minimum,G92 Z-5 ; set Z to -5,G1 Z0 ; move Z to 0,G161 Z F100 ; home Z slowly,M132 X Y Z A B ; recall home offsets,G1 X-145 Y-75 Z30 F9000 ; move to wait position off table,G130 X20 Y20 Z20 A20 B20 ; lower stepper Vrefs while heating,M126 S[fan_speed_pwm],M140 S[bed0_temperature] T0,M134 T0 ; stabilize bed temperature,M104 S[extruder0_temperature] T0,M133 T0 ; stabilize extruder temperature,G130 X127 Y127 Z40 A127 B127 ; default stepper Vrefs,G92 A0 ; zero extruder,G1 Z0.4 ; position nozzle,G1 E25 F300 ; purge nozzle,G1 X-140 Y-70 Z0.15 F1200 ; slow wipe,G1 X-135 Y-65 Z0.5 F1200 ; lift,G92 A0 ; zero extruder,M73 P1 ;@body (notify GPX body has started),; **** end of start.gcode ****
;   layerChangeGcode,
;   retractionGcode,
;   toolChangeGcode,
;   endingGcode,; **** Replicator 2 end.gcode ****,M73 P100 ; end build progress,G1 Z155 F1000 ; send Z axis to bottom of machine,M104 S0 T0 ; cool down extruder,M140 S0 T0 ; cool down HBP,M127 ; stop blower fan,G162 X Y F3000 ; home XY maximum,M18 ; disable stepper,M0 ; stop codes,M72 P1 ; play Ta-Da song,; **** end of end.gcode ****
;   exportFileFormat,gcode
;   celebration,0
;   celebrationSong,Random Song
;   postProcessing,
;   defaultSpeed,4800
;   outlineUnderspeed,0.5
;   solidInfillUnderspeed,1
;   supportUnderspeed,1
;   rapidXYspeed,9000
;   rapidZspeed,1200
;   minBridgingArea,50
;   bridgingExtraInflation,0
;   bridgingExtrusionMultiplier,1
;   bridgingSpeedMultiplier,0.8
;   useFixedBridgingAngle,0
;   fixedBridgingAngle,0
;   applyBridgingToPerimeters,0
;   filamentDiameters,1.75|1.75|1.75|1.75|1.75|1.75
;   filamentPricesPerKg,46|46|46|46|46|46
;   filamentDensities,1.25|1.25|1.25|1.25|1.25|1.25
;   useMinPrintHeight,0
;   minPrintHeight,0
;   useMaxPrintHeight,0
;   maxPrintHeight,4.84
;   useDiaphragm,0
;   diaphragmLayerInterval,20
;   robustSlicing,1
;   mergeAllIntoSolid,0
;   onlyRetractWhenCrossingOutline,0
;   retractBetweenLayers,0
;   useRetractionMinTravel,1
;   retractionMinTravel,7
;   retractWhileWiping,1
;   onlyWipeOutlines,1
;   avoidCrossingOutline,0
;   maxMovementDetourFactor,3
;   toolChangeRetractionDistance,12
;   toolChangeExtraRestartDistance,-0.5
;   toolChangeRetractionSpeed,600
;   externalThinWallType,0
;   internalThinWallType,0
;   thinWallAllowedOverlapPercentage,10
;   singleExtrusionMinLength,1
;   singleExtrusionMinPrintingWidthPercentage,50
;   singleExtrusionMaxPrintingWidthPercentage,200
;   singleExtrusionEndpointExtension,0.2
;   horizontalSizeCompensation,0
G90
M83
; **** Replicator 2 start.gcode ****
M73 P0 ; enable build progress
G162 X Y F3000 ; home XY maximum
G161 Z F1200 ; home Z minimum
G92 Z-5 ; set Z to -5
G1 Z0 ; move Z to 0
G161 Z F100 ; home Z slowly
M132 X Y Z A B ; recall home offsets
G1 X-145 Y-75 Z30 F9000 ; move to wait position off table
G130 X20 Y20 Z20 A20 B20 ; lower stepper Vrefs while heating
M126 S170
M140 S60 T0
M134 T0 ; stabilize bed temperature
M104 S230 T0
M133 T0 ; stabilize extruder temperature
G130 X127 Y127 Z40 A127 B127 ; default stepper Vrefs
G92 A0 ; zero extruder
G1 Z0.4 ; position nozzle
G1 E25 F300 ; purge nozzle
G1 X-140 Y-70 Z0.15 F1200 ; slow wipe
G1 X-135 Y-65 Z0.5 F1200 ; lift
G92 A0 ; zero extruder
M73 P1 ;@body (notify GPX body has started)
; **** end of start.gcode ****
; process Process1
; layer 1, Z = 0.200
M135 T0
G1 E-1.9000 F1200
; feature inner perimeter
; tool H0.200 W0.460
G1 Z0.500 F1200
G1 X6.465 Y6.600 F9000
G1 Z0.200 F1200
G1 E1.9000 F1200
G1 X6.238 Y6.459 E0.0102 F1191
G1 X5.684 Y6.076 E0.0258
G1 X5.697 Y6.062 E0.0007
G1 X6.215 Y5.608 E0.0264
G1 X6.858 Y5.124 E0.0308
G1 X7.195 Y4.902 E0.0154
G1 X7.545 Y4.689 E0.0157
G1 X8.156 Y4.361 E0.0265
G1 X8.784 Y4.074 E0.0264
G1 X9.800 Y3.706 E0.0413
G1 X10.389 Y3.540 E0.0234
G1 X10.995 Y3.405 E0.0238
G1 X11.583 Y3.306 E0.0228
G1 X12.175 Y3.237 E0.0228
G1 X12.852 Y3.196 E0.0259
G1 X13.645 Y3.198 E0.0303
G1 X14.085 Y3.222 E0.0168
G1 X14.603 Y3.272 E0.0199
G1 X15.113 Y3.344 E0.0197
G1 X15.805 Y3.481 E0.0270
G1 X16.386 Y3.631 E0.0230
G1 X16.960 Y3.813 E0.0230
G1 X17.519 Y4.025 E0.0228
G1 X18.118 Y4.293 E0.0251
G1 X18.318 Y4.400 E0.0087
G1 X17.748 Y5.065 E0.0335
G1 X17.489 Y4.929 E0.0112
G1 X16.958 Y4.691 E0.0222
G1 X16.464 Y4.504 E0.0202
G1 X15.959 Y4.344 E0.0203
G1 X15.445 Y4.211 E0.0203
G1 X14.847 Y4.093 E0.0233
G1 X14.390 Y4.028 E0.0177
G1 X13.558 Y3.963 E0.0319
G1 X13.011 Y3.958 E0.0209
G1 X12.282 Y3.997 E0.0280
G1 X11.756 Y4.058 E0.0202
G1 X11.241 Y4.145 E0.0200
G1 X10.711 Y4.263 E0.0208
G1 X10.183 Y4.411 E0.0210
G1 X9.314 Y4.727 E0.0354
G1 X8.750 Y4.984 E0.0237
G1 X8.197 Y5.282 E0.0240
G1 X7.601 Y5.660 E0.0270
G1 X7.295 Y5.881 E0.0145
G1 X6.773 Y6.308 E0.0258
G1 X6.556 Y6.505 E0.0112
G1 X6.465 Y6.600 E0.0050
; feature outer perimeter
G1 X6.877 Y6.835 F9000
G1 X6.538 Y7.186 E0.0187 F794
G1 X5.986 Y6.844 E0.0248
G1 X4.971 Y6.142 E0.0472
G1 X5.382 Y5.727 E0.0223
G1 X5.925 Y5.251 E0.0276
G1 X6.593 Y4.748 E0.0320
G1 X6.949 Y4.513 E0.0163
G1 X7.317 Y4.289 E0.0165
G1 X7.952 Y3.949 E0.0275
G1 X8.610 Y3.648 E0.0277
G1 X9.659 Y3.267 E0.0427
G1 X10.276 Y3.094 E0.0245
G1 X10.907 Y2.954 E0.0247
G1 X11.518 Y2.851 E0.0237
G1 X12.135 Y2.779 E0.0237
G1 X12.839 Y2.736 E0.0270
G1 X13.658 Y2.738 E0.0313
G1 X14.120 Y2.763 E0.0177
G1 X14.658 Y2.815 E0.0207
G1 X15.190 Y2.891 E0.0205
G1 X15.907 Y3.032 E0.0280
G1 X16.513 Y3.189 E0.0239
G1 X17.112 Y3.379 E0.0240
G1 X17.694 Y3.599 E0.0238
G1 X18.320 Y3.880 E0.0262
G1 X18.982 Y4.233 E0.0287
G1 X19.034 Y4.272 E0.0025
G1 X18.094 Y5.369 E0.0553
G1 X17.873 Y5.658 E0.0139
G1 X17.773 Y5.598 E0.0045
G1 X17.287 Y5.343 E0.0210
G1 X16.783 Y5.116 E0.0212
G1 X16.313 Y4.938 E0.0192
G1 X15.832 Y4.786 E0.0193
G1 X15.343 Y4.660 E0.0193
G1 X14.770 Y4.546 E0.0224
G1 X14.339 Y4.485 E0.0166
G1 X13.539 Y4.423 E0.0307
G1 X13.021 Y4.419 E0.0198
G1 X12.320 Y4.456 E0.0269
G1 X11.821 Y4.514 E0.0192
G1 X11.330 Y4.597 E0.0190
G1 X10.824 Y4.709 E0.0198
G1 X10.324 Y4.850 E0.0199
G1 X9.488 Y5.153 E0.0340
G1 X8.955 Y5.396 E0.0224
G1 X8.430 Y5.679 E0.0228
G1 X7.859 Y6.041 E0.0259
G1 X7.575 Y6.246 E0.0134
G1 X7.074 Y6.656 E0.0248
G1 X6.877 Y6.835 E0.0102
G1 E-1.9000 F1200
; feature inner perimeter
G1 Z0.700 F1200
G1 X6.465 Y-6.758 F9000
G1 Z0.200 F1200
G1 E1.9000 F1200
G1 X6.238 Y-6.899 E0.0102 F1191
G1 X5.684 Y-7.282 E0.0258
G1 X5.697 Y-7.296 E0.0007
G1 X6.215 Y-7.750 E0.0264
G1 X6.858 Y-8.234 E0.0308
G1 X7.195 Y-8.456 E0.0154
G1 X7.546 Y-8.669 E0.0157
G1 X8.156 Y-8.997 E0.0265
G1 X8.784 Y-9.284 E0.0264
G1 X9.800 Y-9.652 E0.0413
G1 X10.389 Y-9.818 E0.0234
G1 X10.995 Y-9.953 E0.0238
G1 X11.583 Y-10.052 E0.0228
G1 X12.175 Y-10.120 E0.0228
G1 X12.852 Y-10.162 E0.0259
G1 X13.645 Y-10.160 E0.0303
G1 X14.085 Y-10.136 E0.0168
G1 X14.603 Y-10.086 E0.0199
G1 X15.113 Y-10.014 E0.0197
G1 X15.805 Y-9.877 E0.0270
G1 X16.386 Y-9.727 E0.0230
G1 X16.960 Y-9.545 E0.0230
G1 X17.519 Y-9.333 E0.0228
G1 X18.118 Y-9.065 E0.0251
G1 X18.318 Y-8.958 E0.0087
G1 X17.748 Y-8.293 E0.0335
G1 X17.489 Y-8.429 E0.0112
G1 X16.958 Y-8.667 E0.0222
G1 X16.464 Y-8.854 E0.0202
G1 X15.959 Y-9.014 E0.0203
G1 X15.445 Y-9.147 E0.0203
G1 X14.847 Y-9.265 E0.0233
G1 X14.390 Y-9.330 E0.0177
G1 X13.558 Y-9.395 E0.0319
G1 X13.011 Y-9.400 E0.0209
G1 X12.282 Y-9.361 E0.0280
G1 X11.756 Y-9.300 E0.0202
G1 X11.241 Y-9.213 E0.0200
G1 X10.711 Y-9.095 E0.0208
G1 X10.183 Y-8.947 E0.0210
G1 X9.314 Y-8.631 E0.0354
G1 X8.750 Y-8.374 E0.0237
G1 X8.197 Y-8.076 E0.0240
G1 X7.601 Y-7.698 E0.0270
G1 X7.295 Y-7.477 E0.0145
G1 X6.773 Y-7.050 E0.0258
G1 X6.556 Y-6.853 E0.0112
G1 X6.465 Y-6.758 E0.0050
; feature outer perimeter
G1 X6.877 Y-6.523 F9000
G1 X6.538 Y-6.172 E0.0187 F794
G1 X5.986 Y-6.514 E0.0248
G1 X4.971 Y-7.216 E0.0472
G1 X5.382 Y-7.631 E0.0223
G1 X5.925 Y-8.107 E0.0276
G1 X6.593 Y-8.610 E0.0320
G1 X6.948 Y-8.845 E0.0163
G1 X7.317 Y-9.069 E0.0165
G1 X7.952 Y-9.409 E0.0275
G1 X8.610 Y-9.710 E0.0277
G1 X9.659 Y-10.091 E0.0427
G1 X10.276 Y-10.264 E0.0245
G1 X10.907 Y-10.404 E0.0247
G1 X11.518 Y-10.507 E0.0237
G1 X12.135 Y-10.579 E0.0237
G1 X12.839 Y-10.622 E0.0270
G1 X13.658 Y-10.620 E0.0313
G1 X14.120 Y-10.595 E0.0177
G1 X14.658 Y-10.543 E0.0207
G1 X15.190 Y-10.467 E0.0205
G1 X15.907 Y-10.326 E0.0280
G1 X16.513 Y-10.169 E0.0239
G1 X17.112 Y-9.979 E0.0240
G1 X17.694 Y-9.759 E0.0238
G1 X18.320 Y-9.478 E0.0262
G1 X18.982 Y-9.125 E0.0287
G1 X19.034 Y-9.086 E0.0025
G1 X18.094 Y-7.989 E0.0553
G1 X17.873 Y-7.700 E0.0139
G1 X17.773 Y-7.760 E0.0045
G1 X17.287 Y-8.015 E0.0210
G1 X16.783 Y-8.242 E0.0212
G1 X16.313 Y-8.420 E0.0192
G1 X15.832 Y-8.572 E0.0193
G1 X15.343 Y-8.698 E0.0193
G1 X14.770 Y-8.812 E0.0224
G1 X14.339 Y-8.873 E0.0166
G1 X13.539 Y-8.935 E0.0307
G1 X13.021 Y-8.939 E0.0198
G1 X12.320 Y-8.902 E0.0269
G1 X11.821 Y-8.844 E0.0192
G1 X11.330 Y-8.761 E0.0190
G1 X10.824 Y-8.649 E0.0198
G1 X10.324 Y-8.508 E0.0199
G1 X9.488 Y-8.205 E0.0340
G1 X8.955 Y-7.962 E0.0224
G1 X8.430 Y-7.679 E0.0228
G1 X7.859 Y-7.317 E0.0259
G1 X7.575 Y-7.112 E0.0134
G1 X7.074 Y-6.702 E0.0248
G1 X6.877 Y-6.523 E0.0102
G1 E-1.9000 F1200
; feature inner perimeter
G1 Z0.700 F1200
G1 X-19.735 Y-6.758 F9000
G1 Z0.200 F1200
G1 E1.9000 F1200
G1 X-19.962 Y-6.899 E0.0102 F1191
G1 X-20.516 Y-7.282 E0.0258
G1 X-20.503 Y-7.296 E0.0007
G1 X-19.985 Y-7.750 E0.0264
G1 X-19.342 Y-8.234 E0.0308
G1 X-19.005 Y-8.456 E0.0154
G1 X-18.655 Y-8.669 E0.0157
G1 X-18.044 Y-8.997 E0.0265
G1 X-17.416 Y-9.284 E0.0264
G1 X-16.400 Y-9.652 E0.0413
G1 X-15.811 Y-9.818 E0.0234
G1 X-15.205 Y-9.953 E0.0238
G1 X-14.617 Y-10.052 E0.0228
G1 X-14.025 Y-10.120 E0.0228
G1 X-13.348 Y-10.162 E0.0259
G1 X-12.555 Y-10.160 E0.0303
G1 X-12.115 Y-10.136 E0.0168
G1 X-11.597 Y-10.086 E0.0199
G1 X-11.087 Y-10.014 E0.0197
G1 X-10.395 Y-9.877 E0.0270
G1 X-9.814 Y-9.727 E0.0230
G1 X-9.240 Y-9.545 E0.0230
G1 X-8.681 Y-9.333 E0.0228
G1 X-8.082 Y-9.065 E0.0251
G1 X-7.882 Y-8.958 E0.0087
G1 X-8.452 Y-8.293 E0.0335
G1 X-8.711 Y-8.429 E0.0112
G1 X-9.242 Y-8.667 E0.0222
G1 X-9.736 Y-8.854 E0.0202
G1 X-10.241 Y-9.014 E0.0203
G1 X-10.755 Y-9.147 E0.0203
G1 X-11.353 Y-9.265 E0.0233
G1 X-11.810 Y-9.330 E0.0177
G1 X-12.642 Y-9.395 E0.0319
G1 X-13.189 Y-9.400 E0.0209
G1 X-13.918 Y-9.361 E0.0280
G1 X-14.444 Y-9.300 E0.0202
G1 X-14.959 Y-9.213 E0.0200
G1 X-15.489 Y-9.095 E0.0208
G1 X-16.017 Y-8.947 E0.0210
G1 X-16.886 Y-8.631 E0.0354
G1 X-17.450 Y-8.374 E0.0237
G1 X-18.002 Y-8.076 E0.0240
G1 X-18.599 Y-7.698 E0.0270
G1 X-18.905 Y-7.477 E0.0145
G1 X-19.427 Y-7.050 E0.0258
G1 X-19.644 Y-6.853 E0.0112
G1 X-19.735 Y-6.758 E0.0050
; feature outer perimeter
G1 X-19.323 Y-6.523 F9000
G1 X-19.662 Y-6.172 E0.0187 F794
G1 X-20.214 Y-6.514 E0.0248
G1 X-21.229 Y-7.216 E0.0472
G1 X-20.818 Y-7.631 E0.0223
G1 X-20.275 Y-8.107 E0.0276
G1 X-19.607 Y-8.610 E0.0320
G1 X-19.251 Y-8.845 E0.0163
G1 X-18.883 Y-9.069 E0.0165
G1 X-18.248 Y-9.409 E0.0275
G1 X-17.590 Y-9.710 E0.0277
G1 X-16.541 Y-10.091 E0.0427
G1 X-15.924 Y-10.264 E0.0245
G1 X-15.293 Y-10.404 E0.0247
G1 X-14.682 Y-10.507 E0.0237
G1 X-14.065 Y-10.579 E0.0237
G1 X-13.361 Y-10.622 E0.0270
G1 X-12.542 Y-10.620 E0.0313
G1 X-12.080 Y-10.595 E0.0177
G1 X-11.542 Y-10.543 E0.0207
G1 X-11.010 Y-10.467 E0.0205
G1 X-10.293 Y-10.326 E0.0280
G1 X-9.687 Y-10.169 E0.0239
G1 X-9.088 Y-9.979 E0.0240
G1 X-8.506 Y-9.759 E0.0238
G1 X-7.880 Y-9.478 E0.0262
G1 X-7.218 Y-9.125 E0.0287
G1 X-7.166 Y-9.086 E0.0025
G1 X-8.106 Y-7.989 E0.0553
G1 X-8.327 Y-7.700 E0.0139
G1 X-8.427 Y-7.760 E0.0045
G1 X-8.913 Y-8.015 E0.0210
G1 X-9.417 Y-8.242 E0.0212
G1 X-9.887 Y-8.420 E0.0192
G1 X-10.368 Y-8.572 E0.0193
G1 X-10.857 Y-8.698 E0.0193
G1 X-11.430 Y-8.812 E0.0224
G1 X-11.861 Y-8.873 E0.0166
G1 X-12.661 Y-8.935 E0.0307
G1 X-13.179 Y-8.939 E0.0198
G1 X-13.880 Y-8.902 E0.0269
G1 X-14.379 Y-8.844 E0.0192
G1 X-14.870 Y-8.761 E0.0190
G1 X-15.376 Y-8.649 E0.0198
G1 X-15.876 Y-8.508 E0.0199
G1 X-16.712 Y-8.205 E0.0340
G1 X-17.245 Y-7.962 E0.0224
G1 X-17.770 Y-7.679 E0.0228
G1 X-18.341 Y-7.317 E0.0259
G1 X-18.625 Y-7.112 E0.0134
G1 X-19.126 Y-6.702 E0.0248
G1 X-19.323 Y-6.523 E0.0102
G1 E-1.9000 F1200
; feature inner perimeter
G1 Z0.700 F1200
