; G-Code generated by Simplify3D(R) Version 4.1.2
; Apr 6, 2020 at 12:14:23 PM
; Settings Summary
;   processName,Process1
;   applyToModels,WoZ Fire Pot Flame,WoZ Fire Pot Flame(2),WoZ Fire Pot Flame(3),WoZ Fire Pot Flame(2)(2),WoZ Fire Pot Flame(4),WoZ Fire Pot Flame(2)(3),WoZ Fire Pot Flame(3)(2),WoZ Fire Pot Flame(2)(2)(2)
;   profileName,MakerBot Replicator 2 HBP (modified)
;   profileVersion,2020-03-12 10:48:50
;   baseProfile,MakerBot Replicator 2(2)
;   printMaterial,PLA
;   printQuality,Medium
;   printExtruders,
;   extruderName,Primary Extruder
;   extruderToolheadNumber,0
;   extruderDiameter,0.4
;   extruderAutoWidth,0
;   extruderWidth,0.4
;   extrusionMultiplier,1
;   extruderUseRetract,1
;   extruderRetractionDistance,1.9
;   extruderExtraRestartDistance,0
;   extruderRetractionZLift,0.5
;   extruderRetractionSpeed,1200
;   extruderUseCoasting,0
;   extruderCoastingDistance,0.2
;   extruderUseWipe,0
;   extruderWipeDistance,5
;   primaryExtruder,0
;   layerHeight,0.2
;   topSolidLayers,3
;   bottomSolidLayers,3
;   perimeterOutlines,3
;   printPerimetersInsideOut,1
;   startPointOption,3
;   startPointOriginX,0
;   startPointOriginY,150
;   sequentialIslands,0
;   spiralVaseMode,0
;   firstLayerHeightPercentage,100
;   firstLayerWidthPercentage,115
;   firstLayerUnderspeed,0.5
;   useRaft,0
;   raftExtruder,0
;   raftTopLayers,2
;   raftBaseLayers,1
;   raftOffset,1
;   raftSeparationDistance,0.14
;   raftTopInfill,90
;   aboveRaftSpeedMultiplier,0.3
;   useSkirt,0
;   skirtExtruder,0
;   skirtLayers,1
;   skirtOutlines,5
;   skirtOffset,0
;   usePrimePillar,0
;   primePillarExtruder,999
;   primePillarWidth,12
;   primePillarLocation,7
;   primePillarSpeedMultiplier,1
;   useOozeShield,0
;   oozeShieldExtruder,999
;   oozeShieldOffset,2
;   oozeShieldOutlines,1
;   oozeShieldSidewallShape,1
;   oozeShieldSidewallAngle,30
;   oozeShieldSpeedMultiplier,1
;   infillExtruder,0
;   internalInfillPattern,Rectilinear
;   externalInfillPattern,Rectilinear
;   infillPercentage,15
;   outlineOverlapPercentage,25
;   infillExtrusionWidthPercentage,100
;   minInfillLength,5
;   infillLayerInterval,1
;   internalInfillAngles,45,-45
;   overlapInternalInfillAngles,0
;   externalInfillAngles,45,-45
;   generateSupport,0
;   supportExtruder,0
;   supportInfillPercentage,15
;   supportExtraInflation,0.5
;   supportBaseLayers,0
;   denseSupportExtruder,0
;   denseSupportLayers,2
;   denseSupportInfillPercentage,90
;   supportLayerInterval,1
;   supportHorizontalPartOffset,0.3
;   supportUpperSeparationLayers,1
;   supportLowerSeparationLayers,1
;   supportType,1
;   supportGridSpacing,2
;   maxOverhangAngle,45
;   supportAngles,45,-45
;   temperatureName,Primary Extruder,Heated Build Platform
;   temperatureNumber,0,0
;   temperatureSetpointCount,1,1
;   temperatureSetpointLayers,1,1
;   temperatureSetpointTemperatures,230,60
;   temperatureStabilizeAtStartup,1,1
;   temperatureHeatedBed,0,1
;   fanLayers,1,2
;   fanSpeeds,0,100
;   blipFanToFullPower,1
;   adjustSpeedForCooling,1
;   minSpeedLayerTime,15
;   minCoolingSpeedSlowdown,20
;   increaseFanForCooling,1
;   minFanLayerTime,45
;   maxCoolingFanSpeed,100
;   increaseFanForBridging,1
;   bridgingFanSpeed,100
;   use5D,1
;   relativeEdistances,1
;   allowEaxisZeroing,0
;   independentExtruderAxes,1
;   includeM10123,0
;   stickySupport,1
;   applyToolheadOffsets,0
;   gcodeXoffset,0
;   gcodeYoffset,0
;   gcodeZoffset,0
;   overrideMachineDefinition,1
;   machineTypeOverride,0
;   strokeXoverride,280
;   strokeYoverride,150
;   strokeZoverride,150
;   originOffsetXoverride,140
;   originOffsetYoverride,75
;   originOffsetZoverride,0
;   homeXdirOverride,1
;   homeYdirOverride,1
;   homeZdirOverride,-1
;   flipXoverride,1
;   flipYoverride,-1
;   flipZoverride,1
;   toolheadOffsets,0,0|0,0|0,0|0,0|0,0|0,0
;   overrideFirmwareConfiguration,1
;   firmwareTypeOverride,MakerBot/Sailfish Firmware
;   GPXconfigOverride,r2h
;   baudRateOverride,115200
;   overridePrinterModels,1
;   printerModelsOverride,MakerBot_Replicator2.stl
;   startingGcode,; **** Replicator 2 start.gcode ****,M73 P0 ; enable build progress,G162 X Y F3000 ; home XY maximum,G161 Z F1200 ; home Z minimum,G92 Z-5 ; set Z to -5,G1 Z0 ; move Z to 0,G161 Z F100 ; home Z slowly,M132 X Y Z A B ; recall home offsets,G1 X-145 Y-75 Z30 F9000 ; move to wait position off table,G130 X20 Y20 Z20 A20 B20 ; lower stepper Vrefs while heating,M126 S[fan_speed_pwm],M140 S[bed0_temperature] T0,M134 T0 ; stabilize bed temperature,M104 S[extruder0_temperature] T0,M133 T0 ; stabilize extruder temperature,G130 X127 Y127 Z40 A127 B127 ; default stepper Vrefs,G92 A0 ; zero extruder,G1 Z0.4 ; position nozzle,G1 E25 F300 ; purge nozzle,G1 X-140 Y-70 Z0.15 F1200 ; slow wipe,G1 X-135 Y-65 Z0.5 F1200 ; lift,G92 A0 ; zero extruder,M73 P1 ;@body (notify GPX body has started),; **** end of start.gcode ****
;   layerChangeGcode,
;   retractionGcode,
;   toolChangeGcode,
;   endingGcode,; **** Replicator 2 end.gcode ****,M73 P100 ; end build progress,G1 Z155 F1000 ; send Z axis to bottom of machine,M104 S0 T0 ; cool down extruder,M140 S0 T0 ; cool down HBP,M127 ; stop blower fan,G162 X Y F3000 ; home XY maximum,M18 ; disable stepper,M0 ; stop codes,M72 P1 ; play Ta-Da song,; **** end of end.gcode ****
;   exportFileFormat,gcode
;   celebration,0
;   celebrationSong,Random Song
;   postProcessing,
;   defaultSpeed,4800
;   outlineUnderspeed,0.5
;   solidInfillUnderspeed,1
;   supportUnderspeed,1
;   rapidXYspeed,9000
;   rapidZspeed,1200
;   minBridgingArea,50
;   bridgingExtraInflation,0
;   bridgingExtrusionMultiplier,1
;   bridgingSpeedMultiplier,0.8
;   useFixedBridgingAngle,0
;   fixedBridgingAngle,0
;   applyBridgingToPerimeters,0
;   filamentDiameters,1.75|1.75|1.75|1.75|1.75|1.75
;   filamentPricesPerKg,46|46|46|46|46|46
;   filamentDensities,1.25|1.25|1.25|1.25|1.25|1.25
;   useMinPrintHeight,0
;   minPrintHeight,0
;   useMaxPrintHeight,0
;   maxPrintHeight,4.84
;   useDiaphragm,0
;   diaphragmLayerInterval,20
;   robustSlicing,1
;   mergeAllIntoSolid,0
;   onlyRetractWhenCrossingOutline,0
;   retractBetweenLayers,0
;   useRetractionMinTravel,1
;   retractionMinTravel,7
;   retractWhileWiping,1
;   onlyWipeOutlines,1
;   avoidCrossingOutline,0
;   maxMovementDetourFactor,3
;   toolChangeRetractionDistance,12
;   toolChangeExtraRestartDistance,-0.5
;   toolChangeRetractionSpeed,600
;   externalThinWallType,0
;   internalThinWallType,0
;   thinWallAllowedOverlapPercentage,10
;   singleExtrusionMinLength,1
;   singleExtrusionMinPrintingWidthPercentage,50
;   singleExtrusionMaxPrintingWidthPercentage,200
;   singleExtrusionEndpointExtension,0.2
;   horizontalSizeCompensation,0
G90
M83
; **** Replicator 2 start.gcode ****
M73 P0 ; enable build progress
G162 X Y F3000 ; home XY maximum
G161 Z F1200 ; home Z minimum
G92 Z-5 ; set Z to -5
G1 Z0 ; move Z to 0
G161 Z F100 ; home Z slowly
M132 X Y Z A B ; recall home offsets
G1 X-145 Y-75 Z30 F9000 ; move to wait position off table
G130 X20 Y20 Z20 A20 B20 ; lower stepper Vrefs while heating
M126 S143
M140 S60 T0
M134 T0 ; stabilize bed temperature
M104 S230 T0
M133 T0 ; stabilize extruder temperature
G130 X127 Y127 Z40 A127 B127 ; default stepper Vrefs
G92 A0 ; zero extruder
G1 Z0.4 ; position nozzle
G1 E25 F300 ; purge nozzle
G1 X-140 Y-70 Z0.15 F1200 ; slow wipe
G1 X-135 Y-65 Z0.5 F1200 ; lift
G92 A0 ; zero extruder
M73 P1 ;@body (notify GPX body has started)
; **** end of start.gcode ****
; process Process1
; layer 1, Z = 0.200
M135 T0
G1 E-1.9000 F1200
; feature inner perimeter
; tool H0.200 W0.460
G1 Z0.500 F1200
G1 X-6.635 Y-0.079 F9000
G1 Z0.200 F1200
G1 E1.9000 F1200
G1 X-6.862 Y-0.220 E0.0102 F1800
G1 X-7.416 Y-0.603 E0.0258
G1 X-7.403 Y-0.617 E0.0007
G1 X-6.885 Y-1.071 E0.0264
G1 X-6.242 Y-1.555 E0.0308
G1 X-5.905 Y-1.777 E0.0154
G1 X-5.555 Y-1.990 E0.0157
G1 X-4.944 Y-2.318 E0.0265
G1 X-4.316 Y-2.605 E0.0264
G1 X-3.300 Y-2.973 E0.0413
G1 X-2.711 Y-3.139 E0.0234
G1 X-2.105 Y-3.274 E0.0238
G1 X-1.517 Y-3.373 E0.0228
G1 X-0.925 Y-3.441 E0.0228
G1 X-0.248 Y-3.483 E0.0259
G1 X0.545 Y-3.481 E0.0303
G1 X0.985 Y-3.457 E0.0168
G1 X1.503 Y-3.407 E0.0199
G1 X2.013 Y-3.335 E0.0197
G1 X2.705 Y-3.198 E0.0270
G1 X3.286 Y-3.048 E0.0230
G1 X3.860 Y-2.866 E0.0230
G1 X4.419 Y-2.654 E0.0228
G1 X5.018 Y-2.386 E0.0251
G1 X5.218 Y-2.279 E0.0087
G1 X4.648 Y-1.614 E0.0335
G1 X4.389 Y-1.750 E0.0112
G1 X3.858 Y-1.988 E0.0222
G1 X3.364 Y-2.175 E0.0202
G1 X2.859 Y-2.335 E0.0203
G1 X2.345 Y-2.468 E0.0203
G1 X1.747 Y-2.586 E0.0233
G1 X1.290 Y-2.651 E0.0177
G1 X0.458 Y-2.716 E0.0319
G1 X-0.089 Y-2.721 E0.0209
G1 X-0.818 Y-2.682 E0.0280
G1 X-1.344 Y-2.621 E0.0202
G1 X-1.859 Y-2.534 E0.0200
G1 X-2.389 Y-2.416 E0.0208
G1 X-2.917 Y-2.268 E0.0210
G1 X-3.786 Y-1.952 E0.0354
G1 X-4.350 Y-1.695 E0.0237
G1 X-4.902 Y-1.397 E0.0240
G1 X-5.499 Y-1.019 E0.0270
G1 X-5.805 Y-0.798 E0.0145
G1 X-6.327 Y-0.371 E0.0258
G1 X-6.544 Y-0.174 E0.0112
G1 X-6.635 Y-0.079 E0.0050
; feature outer perimeter
G1 X-6.223 Y0.156 F9000
G1 X-6.562 Y0.507 E0.0187 F1200
G1 X-7.114 Y0.165 E0.0248
G1 X-8.129 Y-0.537 E0.0472
G1 X-7.718 Y-0.952 E0.0223
G1 X-7.175 Y-1.428 E0.0276
G1 X-6.507 Y-1.931 E0.0320
G1 X-6.152 Y-2.166 E0.0163
G1 X-5.783 Y-2.390 E0.0165
G1 X-5.148 Y-2.730 E0.0275
G1 X-4.490 Y-3.031 E0.0277
G1 X-3.441 Y-3.412 E0.0427
G1 X-2.824 Y-3.585 E0.0245
G1 X-2.193 Y-3.725 E0.0247
G1 X-1.582 Y-3.828 E0.0237
G1 X-0.965 Y-3.900 E0.0237
G1 X-0.261 Y-3.943 E0.0270
G1 X0.558 Y-3.941 E0.0313
G1 X1.020 Y-3.916 E0.0177
G1 X1.558 Y-3.864 E0.0207
G1 X2.090 Y-3.788 E0.0205
G1 X2.807 Y-3.647 E0.0280
G1 X3.413 Y-3.490 E0.0239
G1 X4.012 Y-3.300 E0.0240
G1 X4.594 Y-3.080 E0.0238
G1 X5.220 Y-2.799 E0.0262
G1 X5.882 Y-2.446 E0.0287
G1 X5.934 Y-2.407 E0.0025
G1 X4.994 Y-1.310 E0.0553
G1 X4.773 Y-1.021 E0.0139
G1 X4.673 Y-1.081 E0.0045
G1 X4.187 Y-1.336 E0.0210
G1 X3.683 Y-1.563 E0.0212
G1 X3.213 Y-1.741 E0.0192
G1 X2.732 Y-1.893 E0.0193
G1 X2.243 Y-2.019 E0.0193
G1 X1.670 Y-2.133 E0.0224
G1 X1.239 Y-2.194 E0.0166
G1 X0.439 Y-2.256 E0.0307
G1 X-0.079 Y-2.260 E0.0198
G1 X-0.780 Y-2.223 E0.0269
G1 X-1.279 Y-2.165 E0.0192
G1 X-1.770 Y-2.082 E0.0190
G1 X-2.276 Y-1.970 E0.0198
G1 X-2.776 Y-1.829 E0.0199
G1 X-3.612 Y-1.526 E0.0340
G1 X-4.145 Y-1.283 E0.0224
G1 X-4.670 Y-1.000 E0.0228
G1 X-5.241 Y-0.638 E0.0259
G1 X-5.525 Y-0.433 E0.0134
G1 X-6.026 Y-0.023 E0.0248
G1 X-6.223 Y0.156 E0.0102
G1 E-1.9000 F1200
; feature inner perimeter
G1 Z0.700 F1200
G1 X-6.635 Y13.279 F9000
G1 Z0.200 F1200
G1 E1.9000 F1200
G1 X-6.862 Y13.138 E0.0102 F1800
G1 X-7.416 Y12.755 E0.0258
G1 X-7.403 Y12.741 E0.0007
G1 X-6.885 Y12.287 E0.0264
G1 X-6.242 Y11.803 E0.0308
G1 X-5.905 Y11.581 E0.0154
G1 X-5.554 Y11.368 E0.0157
G1 X-4.944 Y11.040 E0.0265
G1 X-4.316 Y10.753 E0.0264
G1 X-3.300 Y10.385 E0.0413
G1 X-2.711 Y10.219 E0.0234
G1 X-2.105 Y10.084 E0.0238
G1 X-1.517 Y9.985 E0.0228
G1 X-0.925 Y9.916 E0.0228
G1 X-0.248 Y9.875 E0.0259
G1 X0.545 Y9.877 E0.0303
G1 X0.985 Y9.901 E0.0168
G1 X1.503 Y9.951 E0.0199
G1 X2.013 Y10.023 E0.0197
G1 X2.705 Y10.160 E0.0270
G1 X3.286 Y10.310 E0.0230
G1 X3.861 Y10.492 E0.0230
G1 X4.418 Y10.704 E0.0228
G1 X5.018 Y10.972 E0.0251
G1 X5.218 Y11.079 E0.0087
G1 X4.648 Y11.744 E0.0335
G1 X4.389 Y11.608 E0.0112
G1 X3.858 Y11.370 E0.0222
G1 X3.364 Y11.183 E0.0202
G1 X2.859 Y11.023 E0.0203
G1 X2.345 Y10.890 E0.0203
G1 X1.747 Y10.772 E0.0233
G1 X1.290 Y10.707 E0.0177
G1 X0.458 Y10.642 E0.0319
G1 X-0.089 Y10.637 E0.0209
G1 X-0.818 Y10.676 E0.0280
G1 X-1.344 Y10.737 E0.0202
G1 X-1.859 Y10.824 E0.0200
G1 X-2.389 Y10.942 E0.0208
G1 X-2.917 Y11.090 E0.0210
G1 X-3.786 Y11.406 E0.0354
G1 X-4.350 Y11.663 E0.0237
G1 X-4.902 Y11.961 E0.0240
G1 X-5.499 Y12.339 E0.0270
G1 X-5.805 Y12.560 E0.0145
G1 X-6.327 Y12.987 E0.0258
G1 X-6.544 Y13.184 E0.0112
G1 X-6.635 Y13.279 E0.0050
; feature outer perimeter
G1 X-6.223 Y13.514 F9000
G1 X-6.562 Y13.865 E0.0187 F1200
G1 X-7.114 Y13.523 E0.0248
G1 X-8.129 Y12.821 E0.0472
G1 X-7.718 Y12.406 E0.0223
G1 X-7.175 Y11.930 E0.0276
G1 X-6.507 Y11.427 E0.0320
G1 X-6.152 Y11.192 E0.0163
G1 X-5.783 Y10.968 E0.0165
G1 X-5.148 Y10.628 E0.0275
G1 X-4.490 Y10.327 E0.0277
G1 X-3.441 Y9.946 E0.0427
G1 X-2.824 Y9.773 E0.0245
G1 X-2.193 Y9.633 E0.0247
G1 X-1.582 Y9.530 E0.0237
G1 X-0.965 Y9.458 E0.0237
G1 X-0.261 Y9.415 E0.0270
G1 X0.558 Y9.417 E0.0313
G1 X1.020 Y9.442 E0.0177
G1 X1.558 Y9.494 E0.0207
G1 X2.090 Y9.570 E0.0205
G1 X2.807 Y9.711 E0.0280
G1 X3.413 Y9.868 E0.0239
G1 X4.012 Y10.058 E0.0240
G1 X4.594 Y10.278 E0.0238
G1 X5.220 Y10.559 E0.0262
G1 X5.882 Y10.912 E0.0287
G1 X5.934 Y10.951 E0.0025
G1 X4.994 Y12.048 E0.0553
G1 X4.773 Y12.337 E0.0139
G1 X4.673 Y12.277 E0.0045
G1 X4.187 Y12.022 E0.0210
G1 X3.683 Y11.795 E0.0212
G1 X3.213 Y11.617 E0.0192
G1 X2.732 Y11.465 E0.0193
G1 X2.243 Y11.339 E0.0193
G1 X1.670 Y11.225 E0.0224
G1 X1.239 Y11.164 E0.0166
G1 X0.439 Y11.102 E0.0307
G1 X-0.079 Y11.098 E0.0198
G1 X-0.780 Y11.135 E0.0269
G1 X-1.279 Y11.193 E0.0192
G1 X-1.770 Y11.276 E0.0190
G1 X-2.276 Y11.388 E0.0198
G1 X-2.776 Y11.529 E0.0199
G1 X-3.612 Y11.832 E0.0340
G1 X-4.145 Y12.075 E0.0224
G1 X-4.670 Y12.358 E0.0228
G1 X-5.241 Y12.720 E0.0259
G1 X-5.525 Y12.925 E0.0134
G1 X-6.026 Y13.335 E0.0248
G1 X-6.223 Y13.514 E0.0102
G1 E-1.9000 F1200
; feature inner perimeter
G1 Z0.700 F1200
G1 X-21.552 Y11.744 F9000
G1 Z0.200 F1200
G1 E1.9000 F1200
G1 X-21.811 Y11.608 E0.0112 F1800
G1 X-22.342 Y11.370 E0.0222
G1 X-22.836 Y11.183 E0.0202
G1 X-23.341 Y11.023 E0.0203
G1 X-23.855 Y10.890 E0.0203
G1 X-24.453 Y10.772 E0.0233
G1 X-24.910 Y10.707 E0.0177
G1 X-25.742 Y10.642 E0.0319
G1 X-26.289 Y10.637 E0.0209
G1 X-27.018 Y10.676 E0.0280
G1 X-27.544 Y10.737 E0.0202
G1 X-28.059 Y10.824 E0.0200
G1 X-28.589 Y10.942 E0.0208
G1 X-29.117 Y11.090 E0.0210
G1 X-29.986 Y11.406 E0.0354
G1 X-30.550 Y11.663 E0.0237
G1 X-31.102 Y11.961 E0.0240
G1 X-31.699 Y12.339 E0.0270
G1 X-32.005 Y12.560 E0.0145
G1 X-32.527 Y12.987 E0.0258
G1 X-32.744 Y13.184 E0.0112
G1 X-32.835 Y13.279 E0.0050
G1 X-33.062 Y13.138 E0.0102
G1 X-33.616 Y12.755 E0.0258
G1 X-33.603 Y12.741 E0.0007
G1 X-33.085 Y12.287 E0.0264
G1 X-32.442 Y11.803 E0.0308
G1 X-32.105 Y11.581 E0.0154
G1 X-31.755 Y11.368 E0.0157
G1 X-31.144 Y11.040 E0.0265
G1 X-30.516 Y10.753 E0.0264
G1 X-29.500 Y10.385 E0.0413
G1 X-28.911 Y10.219 E0.0234
G1 X-28.305 Y10.084 E0.0238
G1 X-27.717 Y9.985 E0.0228
G1 X-27.125 Y9.916 E0.0228
G1 X-26.448 Y9.875 E0.0259
G1 X-25.655 Y9.877 E0.0303
G1 X-25.215 Y9.901 E0.0168
G1 X-24.697 Y9.951 E0.0199
G1 X-24.187 Y10.023 E0.0197
G1 X-23.495 Y10.160 E0.0270
G1 X-22.914 Y10.310 E0.0230
G1 X-22.339 Y10.492 E0.0230
G1 X-21.782 Y10.704 E0.0228
G1 X-21.182 Y10.972 E0.0251
G1 X-20.982 Y11.079 E0.0087
G1 X-21.552 Y11.744 E0.0335
; feature outer perimeter
G1 X-21.206 Y12.048 F9000
G1 X-21.427 Y12.337 E0.0139 F1200
G1 X-21.527 Y12.277 E0.0045
G1 X-22.013 Y12.022 E0.0210
G1 X-22.517 Y11.795 E0.0212
G1 X-22.987 Y11.617 E0.0192
G1 X-23.468 Y11.465 E0.0193
G1 X-23.957 Y11.339 E0.0193
G1 X-24.530 Y11.225 E0.0224
G1 X-24.961 Y11.164 E0.0166
G1 X-25.761 Y11.102 E0.0307
G1 X-26.279 Y11.098 E0.0198
G1 X-26.980 Y11.135 E0.0269
G1 X-27.479 Y11.193 E0.0192
G1 X-27.970 Y11.276 E0.0190
G1 X-28.476 Y11.388 E0.0198
G1 X-28.976 Y11.529 E0.0199
G1 X-29.812 Y11.832 E0.0340
G1 X-30.345 Y12.075 E0.0224
G1 X-30.870 Y12.358 E0.0228
G1 X-31.441 Y12.720 E0.0259
G1 X-31.725 Y12.925 E0.0134
G1 X-32.226 Y13.335 E0.0248
G1 X-32.423 Y13.514 E0.0102
G1 X-32.762 Y13.865 E0.0187
G1 X-33.314 Y13.523 E0.0248
G1 X-34.329 Y12.821 E0.0472
G1 X-33.918 Y12.406 E0.0223
G1 X-33.375 Y11.930 E0.0276
G1 X-32.707 Y11.427 E0.0320
G1 X-32.352 Y11.192 E0.0163
G1 X-31.983 Y10.968 E0.0165
G1 X-31.348 Y10.628 E0.0275
G1 X-30.690 Y10.327 E0.0277
G1 X-29.641 Y9.946 E0.0427
G1 X-29.024 Y9.773 E0.0245
G1 X-28.393 Y9.633 E0.0247
G1 X-27.782 Y9.530 E0.0237
G1 X-27.165 Y9.458 E0.0237
G1 X-26.461 Y9.415 E0.0270
G1 X-25.642 Y9.417 E0.0313
G1 X-25.180 Y9.442 E0.0177
G1 X-24.642 Y9.494 E0.0207
G1 X-24.110 Y9.570 E0.0205
G1 X-23.393 Y9.711 E0.0280
G1 X-22.787 Y9.868 E0.0239
G1 X-22.188 Y10.058 E0.0240
G1 X-21.606 Y10.278 E0.0238
G1 X-20.980 Y10.559 E0.0262
