; G-Code generated by Simplify3D(R) Version 4.1.2
; Apr 6, 2020 at 12:13:27 PM
; Settings Summary
;   processName,Process1
;   applyToModels,WoZ Fire Pot,WoZ Fire Pot(2),WoZ Fire Pot(3),WoZ Fire Pot(2)(2)
;   profileName,MakerBot Replicator 2 HBP (modified)
;   profileVersion,2020-03-12 10:48:50
;   baseProfile,MakerBot Replicator 2(2)
;   printMaterial,PLA
;   printQuality,Medium
;   printExtruders,
;   extruderName,Primary Extruder
;   extruderToolheadNumber,0
;   extruderDiameter,0.4
;   extruderAutoWidth,0
;   extruderWidth,0.4
;   extrusionMultiplier,1
;   extruderUseRetract,1
;   extruderRetractionDistance,1.9
;   extruderExtraRestartDistance,0
;   extruderRetractionZLift,0.5
;   extruderRetractionSpeed,1200
;   extruderUseCoasting,0
;   extruderCoastingDistance,0.2
;   extruderUseWipe,0
;   extruderWipeDistance,5
;   primaryExtruder,0
;   layerHeight,0.2
;   topSolidLayers,3
;   bottomSolidLayers,3
;   perimeterOutlines,3
;   printPerimetersInsideOut,1
;   startPointOption,3
;   startPointOriginX,0
;   startPointOriginY,150
;   sequentialIslands,0
;   spiralVaseMode,0
;   firstLayerHeightPercentage,100
;   firstLayerWidthPercentage,115
;   firstLayerUnderspeed,0.5
;   useRaft,0
;   raftExtruder,0
;   raftTopLayers,2
;   raftBaseLayers,1
;   raftOffset,1
;   raftSeparationDistance,0.14
;   raftTopInfill,90
;   aboveRaftSpeedMultiplier,0.3
;   useSkirt,0
;   skirtExtruder,0
;   skirtLayers,1
;   skirtOutlines,5
;   skirtOffset,0
;   usePrimePillar,0
;   primePillarExtruder,999
;   primePillarWidth,12
;   primePillarLocation,7
;   primePillarSpeedMultiplier,1
;   useOozeShield,0
;   oozeShieldExtruder,999
;   oozeShieldOffset,2
;   oozeShieldOutlines,1
;   oozeShieldSidewallShape,1
;   oozeShieldSidewallAngle,30
;   oozeShieldSpeedMultiplier,1
;   infillExtruder,0
;   internalInfillPattern,Rectilinear
;   externalInfillPattern,Rectilinear
;   infillPercentage,15
;   outlineOverlapPercentage,25
;   infillExtrusionWidthPercentage,100
;   minInfillLength,5
;   infillLayerInterval,1
;   internalInfillAngles,45,-45
;   overlapInternalInfillAngles,0
;   externalInfillAngles,45,-45
;   generateSupport,1
;   supportExtruder,0
;   supportInfillPercentage,15
;   supportExtraInflation,0.5
;   supportBaseLayers,0
;   denseSupportExtruder,0
;   denseSupportLayers,2
;   denseSupportInfillPercentage,90
;   supportLayerInterval,1
;   supportHorizontalPartOffset,0.3
;   supportUpperSeparationLayers,1
;   supportLowerSeparationLayers,1
;   supportType,1
;   supportGridSpacing,2
;   maxOverhangAngle,45
;   supportAngles,45,-45
;   temperatureName,Primary Extruder,Heated Build Platform
;   temperatureNumber,0,0
;   temperatureSetpointCount,1,1
;   temperatureSetpointLayers,1,1
;   temperatureSetpointTemperatures,230,60
;   temperatureStabilizeAtStartup,1,1
;   temperatureHeatedBed,0,1
;   fanLayers,1,2
;   fanSpeeds,0,100
;   blipFanToFullPower,1
;   adjustSpeedForCooling,1
;   minSpeedLayerTime,15
;   minCoolingSpeedSlowdown,20
;   increaseFanForCooling,1
;   minFanLayerTime,45
;   maxCoolingFanSpeed,100
;   increaseFanForBridging,1
;   bridgingFanSpeed,100
;   use5D,1
;   relativeEdistances,1
;   allowEaxisZeroing,0
;   independentExtruderAxes,1
;   includeM10123,0
;   stickySupport,1
;   applyToolheadOffsets,0
;   gcodeXoffset,0
;   gcodeYoffset,0
;   gcodeZoffset,0
;   overrideMachineDefinition,1
;   machineTypeOverride,0
;   strokeXoverride,280
;   strokeYoverride,150
;   strokeZoverride,150
;   originOffsetXoverride,140
;   originOffsetYoverride,75
;   originOffsetZoverride,0
;   homeXdirOverride,1
;   homeYdirOverride,1
;   homeZdirOverride,-1
;   flipXoverride,1
;   flipYoverride,-1
;   flipZoverride,1
;   toolheadOffsets,0,0|0,0|0,0|0,0|0,0|0,0
;   overrideFirmwareConfiguration,1
;   firmwareTypeOverride,MakerBot/Sailfish Firmware
;   GPXconfigOverride,r2h
;   baudRateOverride,115200
;   overridePrinterModels,1
;   printerModelsOverride,MakerBot_Replicator2.stl
;   startingGcode,; **** Replicator 2 start.gcode ****,M73 P0 ; enable build progress,G162 X Y F3000 ; home XY maximum,G161 Z F1200 ; home Z minimum,G92 Z-5 ; set Z to -5,G1 Z0 ; move Z to 0,G161 Z F100 ; home Z slowly,M132 X Y Z A B ; recall home offsets,G1 X-145 Y-75 Z30 F9000 ; move to wait position off table,G130 X20 Y20 Z20 A20 B20 ; lower stepper Vrefs while heating,M126 S[fan_speed_pwm],M140 S[bed0_temperature] T0,M134 T0 ; stabilize bed temperature,M104 S[extruder0_temperature] T0,M133 T0 ; stabilize extruder temperature,G130 X127 Y127 Z40 A127 B127 ; default stepper Vrefs,G92 A0 ; zero extruder,G1 Z0.4 ; position nozzle,G1 E25 F300 ; purge nozzle,G1 X-140 Y-70 Z0.15 F1200 ; slow wipe,G1 X-135 Y-65 Z0.5 F1200 ; lift,G92 A0 ; zero extruder,M73 P1 ;@body (notify GPX body has started),; **** end of start.gcode ****
;   layerChangeGcode,
;   retractionGcode,
;   toolChangeGcode,
;   endingGcode,; **** Replicator 2 end.gcode ****,M73 P100 ; end build progress,G1 Z155 F1000 ; send Z axis to bottom of machine,M104 S0 T0 ; cool down extruder,M140 S0 T0 ; cool down HBP,M127 ; stop blower fan,G162 X Y F3000 ; home XY maximum,M18 ; disable stepper,M0 ; stop codes,M72 P1 ; play Ta-Da song,; **** end of end.gcode ****
;   exportFileFormat,gcode
;   celebration,0
;   celebrationSong,Random Song
;   postProcessing,
;   defaultSpeed,4800
;   outlineUnderspeed,0.5
;   solidInfillUnderspeed,1
;   supportUnderspeed,1
;   rapidXYspeed,9000
;   rapidZspeed,1200
;   minBridgingArea,50
;   bridgingExtraInflation,0
;   bridgingExtrusionMultiplier,1
;   bridgingSpeedMultiplier,0.8
;   useFixedBridgingAngle,0
;   fixedBridgingAngle,0
;   applyBridgingToPerimeters,0
;   filamentDiameters,1.75|1.75|1.75|1.75|1.75|1.75
;   filamentPricesPerKg,46|46|46|46|46|46
;   filamentDensities,1.25|1.25|1.25|1.25|1.25|1.25
;   useMinPrintHeight,0
;   minPrintHeight,0
;   useMaxPrintHeight,0
;   maxPrintHeight,4.84
;   useDiaphragm,0
;   diaphragmLayerInterval,20
;   robustSlicing,1
;   mergeAllIntoSolid,0
;   onlyRetractWhenCrossingOutline,0
;   retractBetweenLayers,0
;   useRetractionMinTravel,1
;   retractionMinTravel,7
;   retractWhileWiping,1
;   onlyWipeOutlines,1
;   avoidCrossingOutline,0
;   maxMovementDetourFactor,3
;   toolChangeRetractionDistance,12
;   toolChangeExtraRestartDistance,-0.5
;   toolChangeRetractionSpeed,600
;   externalThinWallType,0
;   internalThinWallType,0
;   thinWallAllowedOverlapPercentage,10
;   singleExtrusionMinLength,1
;   singleExtrusionMinPrintingWidthPercentage,50
;   singleExtrusionMaxPrintingWidthPercentage,200
;   singleExtrusionEndpointExtension,0.2
;   horizontalSizeCompensation,0
G90
M83
; **** Replicator 2 start.gcode ****
M73 P0 ; enable build progress
G162 X Y F3000 ; home XY maximum
G161 Z F1200 ; home Z minimum
G92 Z-5 ; set Z to -5
G1 Z0 ; move Z to 0
G161 Z F100 ; home Z slowly
M132 X Y Z A B ; recall home offsets
G1 X-145 Y-75 Z30 F9000 ; move to wait position off table
G130 X20 Y20 Z20 A20 B20 ; lower stepper Vrefs while heating
M127
M140 S60 T0
M134 T0 ; stabilize bed temperature
M104 S230 T0
M133 T0 ; stabilize extruder temperature
G130 X127 Y127 Z40 A127 B127 ; default stepper Vrefs
G92 A0 ; zero extruder
G1 Z0.4 ; position nozzle
G1 E25 F300 ; purge nozzle
G1 X-140 Y-70 Z0.15 F1200 ; slow wipe
G1 X-135 Y-65 Z0.5 F1200 ; lift
G92 A0 ; zero extruder
M73 P1 ;@body (notify GPX body has started)
; **** end of start.gcode ****
; process Process1
; layer 1, Z = 0.200
M135 T0
G1 E-1.9000 F1200
; feature inner perimeter
; tool H0.200 W0.460
G1 Z0.500 F1200
G1 X0.000 Y-3.651 F9000
G1 Z0.200 F1200
G1 E1.9000 F1200
G1 X-0.672 Y-3.676 E0.0257 F1800
G1 X-0.980 Y-3.705 E0.0118
G1 X-1.645 Y-3.805 E0.0257
G1 X-2.291 Y-3.952 E0.0253
G1 X-2.933 Y-4.150 E0.0257
G1 X-3.233 Y-4.262 E0.0123
G1 X-3.529 Y-4.384 E0.0122
G1 X-4.135 Y-4.676 E0.0257
G1 X-4.717 Y-5.013 E0.0257
G1 X-4.976 Y-5.182 E0.0118
G1 X-5.517 Y-5.581 E0.0257
G1 X-6.022 Y-6.016 E0.0255
G1 X-6.365 Y-6.354 E0.0184
G1 X-6.705 Y-6.725 E0.0193
G1 X-7.120 Y-7.245 E0.0254
G1 X-7.499 Y-7.801 E0.0257
G1 X-7.658 Y-8.066 E0.0118
G1 X-7.978 Y-8.670 E0.0261
G1 X-8.111 Y-8.961 E0.0122
G1 X-8.234 Y-9.257 E0.0123
G1 X-8.456 Y-9.892 E0.0257
G1 X-8.627 Y-10.531 E0.0253
G1 X-8.752 Y-11.192 E0.0257
G1 X-8.793 Y-11.499 E0.0118
G1 X-8.844 Y-12.180 E0.0261
G1 X-8.850 Y-12.489 E0.0118
G1 X-8.824 Y-13.161 E0.0257
G1 X-8.749 Y-13.830 E0.0257
G1 X-8.697 Y-14.134 E0.0118
G1 X-8.548 Y-14.791 E0.0257
G1 X-8.353 Y-15.423 E0.0253
G1 X-8.107 Y-16.049 E0.0257
G1 X-7.973 Y-16.340 E0.0123
G1 X-7.829 Y-16.626 E0.0122
G1 X-7.487 Y-17.217 E0.0261
G1 X-7.318 Y-17.476 E0.0118
G1 X-6.918 Y-18.017 E0.0257
G1 X-6.480 Y-18.527 E0.0257
G1 X-6.258 Y-18.758 E0.0122
G1 X-6.027 Y-18.980 E0.0123
G1 X-5.509 Y-19.426 E0.0261
G1 X-5.264 Y-19.614 E0.0118
G1 X-4.708 Y-19.993 E0.0257
G1 X-4.135 Y-20.324 E0.0253
G1 X-3.539 Y-20.611 E0.0253
G1 X-2.913 Y-20.857 E0.0257
G1 X-2.619 Y-20.953 E0.0118
G1 X-1.969 Y-21.127 E0.0257
G1 X-1.308 Y-21.252 E0.0257
G1 X-0.991 Y-21.294 E0.0122
G1 X-0.672 Y-21.324 E0.0123
G1 X0.000 Y-21.349 E0.0257
G1 X0.661 Y-21.324 E0.0253
G1 X1.330 Y-21.249 E0.0257
G1 X1.635 Y-21.197 E0.0118
G1 X2.291 Y-21.048 E0.0257
G1 X2.933 Y-20.849 E0.0257
G1 X3.233 Y-20.738 E0.0123
G1 X3.532 Y-20.614 E0.0124
G1 X3.997 Y-20.393 E0.0197
G1 X4.431 Y-20.160 E0.0188
G1 X4.702 Y-19.997 E0.0121
G1 X5.111 Y-19.722 E0.0188
G1 X5.515 Y-19.421 E0.0193
G1 X6.027 Y-18.980 E0.0259
G1 X6.250 Y-18.765 E0.0118
G1 X6.707 Y-18.272 E0.0257
G1 X7.127 Y-17.747 E0.0257
G1 X7.306 Y-17.494 E0.0118
G1 X7.669 Y-16.915 E0.0261
G1 X7.824 Y-16.635 E0.0122
G1 X7.968 Y-16.350 E0.0122
G1 X8.237 Y-15.733 E0.0257
G1 X8.456 Y-15.108 E0.0253
G1 X8.630 Y-14.459 E0.0257
G1 X8.693 Y-14.156 E0.0118
G1 X8.794 Y-13.491 E0.0257
G1 X8.843 Y-12.831 E0.0253
G1 X8.843 Y-12.159 E0.0257
G1 X8.825 Y-11.838 E0.0123
G1 X8.795 Y-11.520 E0.0122
G1 X8.693 Y-10.844 E0.0261
G1 X8.630 Y-10.541 E0.0118
G1 X8.456 Y-9.892 E0.0257
G1 X8.237 Y-9.267 E0.0253
G1 X7.969 Y-8.651 E0.0257
G1 X7.829 Y-8.374 E0.0118
G1 X7.493 Y-7.792 E0.0257
G1 X7.114 Y-7.236 E0.0257
G1 X6.923 Y-6.988 E0.0120
G1 X6.605 Y-6.612 E0.0188
G1 X6.260 Y-6.245 E0.0193
G1 X5.772 Y-5.793 E0.0254
G1 X5.255 Y-5.380 E0.0253
G1 X4.699 Y-5.001 E0.0257
G1 X4.434 Y-4.841 E0.0118
G1 X3.840 Y-4.527 E0.0257
G1 X3.223 Y-4.258 E0.0257
G1 X2.933 Y-4.151 E0.0118
G1 X2.280 Y-3.949 E0.0261
G1 X1.969 Y-3.872 E0.0122
G1 X1.656 Y-3.807 E0.0122
G1 X0.980 Y-3.705 E0.0261
G1 X0.672 Y-3.676 E0.0118
G1 X0.000 Y-3.651 E0.0257
G1 X0.000 Y-3.190 F9000
G1 X-0.702 Y-3.217 E0.0269 F1800
G1 X-1.036 Y-3.248 E0.0128
G1 X-1.731 Y-3.353 E0.0269
G1 X-2.410 Y-3.508 E0.0266
G1 X-3.081 Y-3.715 E0.0269
G1 X-3.401 Y-3.834 E0.0131
G1 X-3.717 Y-3.964 E0.0131
G1 X-4.350 Y-4.269 E0.0269
G1 X-4.959 Y-4.621 E0.0269
G1 X-5.239 Y-4.804 E0.0128
G1 X-5.804 Y-5.222 E0.0269
G1 X-6.334 Y-5.677 E0.0267
G1 X-6.696 Y-6.034 E0.0194
G1 X-7.055 Y-6.426 E0.0203
G1 X-7.490 Y-6.972 E0.0267
G1 X-7.886 Y-7.552 E0.0269
G1 X-8.059 Y-7.839 E0.0128
G1 X-8.391 Y-8.466 E0.0271
G1 X-8.533 Y-8.777 E0.0131
G1 X-8.664 Y-9.093 E0.0131
G1 X-8.896 Y-9.756 E0.0269
G1 X-9.076 Y-10.428 E0.0266
G1 X-9.207 Y-11.119 E0.0269
G1 X-9.251 Y-11.451 E0.0128
G1 X-9.303 Y-12.158 E0.0271
G1 X-9.310 Y-12.493 E0.0128
G1 X-9.283 Y-13.196 E0.0269
G1 X-9.205 Y-13.894 E0.0269
G1 X-9.149 Y-14.224 E0.0128
G1 X-8.992 Y-14.910 E0.0269
G1 X-8.787 Y-15.575 E0.0266
G1 X-8.530 Y-16.229 E0.0269
G1 X-8.388 Y-16.539 E0.0131
G1 X-8.234 Y-16.845 E0.0131
G1 X-7.879 Y-17.458 E0.0271
G1 X-7.696 Y-17.739 E0.0128
G1 X-7.278 Y-18.305 E0.0269
G1 X-6.820 Y-18.837 E0.0269
G1 X-6.583 Y-19.083 E0.0131
G1 X-6.337 Y-19.320 E0.0131
G1 X-5.799 Y-19.783 E0.0271
G1 X-5.533 Y-19.987 E0.0128
G1 X-4.953 Y-20.383 E0.0269
G1 X-4.350 Y-20.731 E0.0266
G1 X-3.723 Y-21.033 E0.0266
G1 X-3.069 Y-21.289 E0.0269
G1 X-2.750 Y-21.394 E0.0128
G1 X-2.072 Y-21.576 E0.0269
G1 X-1.381 Y-21.707 E0.0269
G1 X-1.043 Y-21.751 E0.0131
G1 X-0.702 Y-21.783 E0.0131
G1 X0.000 Y-21.810 E0.0269
G1 X0.696 Y-21.783 E0.0266
G1 X1.394 Y-21.705 E0.0269
G1 X1.724 Y-21.649 E0.0128
G1 X2.410 Y-21.492 E0.0269
G1 X3.081 Y-21.285 E0.0269
G1 X3.401 Y-21.166 E0.0131
G1 X3.719 Y-21.035 E0.0131
G1 X4.205 Y-20.804 E0.0206
G1 X4.659 Y-20.560 E0.0197
G1 X4.949 Y-20.385 E0.0130
G1 X5.377 Y-20.098 E0.0197
G1 X5.803 Y-19.780 E0.0203
G1 X6.337 Y-19.320 E0.0270
G1 X6.578 Y-19.088 E0.0128
G1 X7.056 Y-18.573 E0.0269
G1 X7.494 Y-18.023 E0.0269
G1 X7.689 Y-17.750 E0.0128
G1 X8.066 Y-17.149 E0.0271
G1 X8.231 Y-16.850 E0.0131
G1 X8.385 Y-16.545 E0.0131
G1 X8.666 Y-15.901 E0.0269
G1 X8.896 Y-15.244 E0.0266
G1 X9.078 Y-14.565 E0.0269
G1 X9.146 Y-14.237 E0.0128
G1 X9.251 Y-13.542 E0.0269
G1 X9.303 Y-12.848 E0.0266
G1 X9.303 Y-12.146 E0.0269
G1 X9.284 Y-11.804 E0.0131
G1 X9.252 Y-11.464 E0.0131
G1 X9.146 Y-10.763 E0.0271
G1 X9.078 Y-10.435 E0.0128
G1 X8.896 Y-9.756 E0.0269
G1 X8.666 Y-9.099 E0.0266
G1 X8.385 Y-8.455 E0.0269
G1 X8.234 Y-8.156 E0.0128
G1 X7.883 Y-7.547 E0.0269
G1 X7.487 Y-6.966 E0.0269
G1 X7.281 Y-6.699 E0.0129
G1 X6.948 Y-6.306 E0.0197
G1 X6.584 Y-5.918 E0.0203
G1 X6.073 Y-5.444 E0.0267
G1 X5.528 Y-5.010 E0.0266
G1 X4.948 Y-4.614 E0.0269
G1 X4.661 Y-4.441 E0.0128
G1 X4.039 Y-4.112 E0.0269
G1 X3.395 Y-3.831 E0.0269
G1 X3.081 Y-3.715 E0.0128
G1 X2.403 Y-3.506 E0.0271
G1 X2.072 Y-3.424 E0.0131
G1 X1.737 Y-3.354 E0.0131
G1 X1.036 Y-3.248 E0.0271
G1 X0.702 Y-3.217 E0.0128
G1 X0.000 Y-3.190 E0.0269
; feature outer perimeter
G1 X0.000 Y-2.730 F9000
G1 X-0.732 Y-2.758 E0.0280 F1200
G1 X-1.092 Y-2.791 E0.0138
G1 X-1.816 Y-2.900 E0.0280
G1 X-2.529 Y-3.063 E0.0279
G1 X-3.229 Y-3.279 E0.0280
G1 X-3.569 Y-3.405 E0.0139
G1 X-3.905 Y-3.544 E0.0139
G1 X-4.565 Y-3.862 E0.0280
G1 X-5.200 Y-4.229 E0.0280
G1 X-5.502 Y-4.426 E0.0138
G1 X-6.091 Y-4.862 E0.0280
G1 X-6.646 Y-5.339 E0.0280
G1 X-7.027 Y-5.715 E0.0205
G1 X-7.405 Y-6.127 E0.0214
G1 X-7.861 Y-6.699 E0.0280
G1 X-8.274 Y-7.304 E0.0280
G1 X-8.460 Y-7.613 E0.0138
G1 X-8.803 Y-8.263 E0.0281
G1 X-8.955 Y-8.593 E0.0139
G1 X-9.094 Y-8.929 E0.0139
G1 X-9.336 Y-9.620 E0.0280
G1 X-9.525 Y-10.326 E0.0279
G1 X-9.661 Y-11.046 E0.0280
G1 X-9.708 Y-11.404 E0.0138
G1 X-9.763 Y-12.137 E0.0281
G1 X-9.770 Y-12.498 E0.0138
G1 X-9.742 Y-13.230 E0.0280
G1 X-9.660 Y-13.958 E0.0280
G1 X-9.600 Y-14.314 E0.0138
G1 X-9.437 Y-15.029 E0.0280
G1 X-9.222 Y-15.727 E0.0279
G1 X-8.954 Y-16.409 E0.0280
G1 X-8.802 Y-16.739 E0.0139
G1 X-8.639 Y-17.063 E0.0139
G1 X-8.271 Y-17.700 E0.0281
G1 X-8.074 Y-18.002 E0.0138
G1 X-7.638 Y-18.591 E0.0280
G1 X-7.160 Y-19.147 E0.0280
G1 X-6.908 Y-19.408 E0.0139
G1 X-6.647 Y-19.660 E0.0139
G1 X-6.090 Y-20.140 E0.0281
G1 X-5.803 Y-20.360 E0.0138
G1 X-5.198 Y-20.772 E0.0280
G1 X-4.565 Y-21.138 E0.0279
G1 X-3.907 Y-21.455 E0.0279
G1 X-3.225 Y-21.722 E0.0280
G1 X-2.882 Y-21.835 E0.0138
G1 X-2.174 Y-22.025 E0.0280
G1 X-1.454 Y-22.161 E0.0280
G1 X-1.094 Y-22.209 E0.0139
G1 X-0.732 Y-22.242 E0.0139
G1 X0.000 Y-22.270 E0.0280
G1 X0.730 Y-22.243 E0.0279
G1 X1.458 Y-22.160 E0.0280
G1 X1.814 Y-22.100 E0.0138
G1 X2.529 Y-21.937 E0.0280
G1 X3.229 Y-21.721 E0.0280
G1 X3.569 Y-21.595 E0.0139
G1 X3.905 Y-21.455 E0.0139
G1 X4.413 Y-21.215 E0.0215
G1 X4.886 Y-20.960 E0.0206
G1 X5.197 Y-20.773 E0.0139
G1 X5.643 Y-20.473 E0.0206
G1 X6.091 Y-20.139 E0.0214
G1 X6.647 Y-19.660 E0.0281
G1 X6.907 Y-19.410 E0.0138
G1 X7.405 Y-18.873 E0.0280
G1 X7.862 Y-18.300 E0.0280
G1 X8.071 Y-18.005 E0.0138
G1 X8.462 Y-17.383 E0.0281
G1 X8.638 Y-17.065 E0.0139
G1 X8.801 Y-16.741 E0.0139
G1 X9.095 Y-16.069 E0.0280
G1 X9.336 Y-15.380 E0.0279
G1 X9.525 Y-14.672 E0.0280
G1 X9.599 Y-14.318 E0.0138
G1 X9.708 Y-13.594 E0.0280
G1 X9.763 Y-12.865 E0.0279
G1 X9.763 Y-12.133 E0.0280
G1 X9.743 Y-11.770 E0.0139
G1 X9.709 Y-11.408 E0.0139
G1 X9.599 Y-10.682 E0.0281
G1 X9.525 Y-10.328 E0.0138
G1 X9.336 Y-9.620 E0.0280
G1 X9.095 Y-8.931 E0.0279
G1 X8.801 Y-8.259 E0.0280
G1 X8.639 Y-7.937 E0.0138
G1 X8.272 Y-7.302 E0.0280
G1 X7.860 Y-6.697 E0.0280
G1 X7.639 Y-6.410 E0.0138
G1 X7.291 Y-6.000 E0.0206
G1 X6.909 Y-5.592 E0.0214
G1 X6.373 Y-5.095 E0.0280
G1 X5.801 Y-4.639 E0.0279
G1 X5.196 Y-4.226 E0.0280
G1 X4.887 Y-4.040 E0.0138
G1 X4.239 Y-3.698 E0.0280
G1 X3.567 Y-3.405 E0.0280
G1 X3.229 Y-3.279 E0.0138
