; G-Code generated by Simplify3D(R) Version 4.1.2
; Apr 2, 2020 at 3:01:38 PM
; Settings Summary
;   processName,Process1
;   applyToModels,CoffinJV
;   profileName,MakerBot Replicator 2 HBP (modified)
;   profileVersion,2020-03-12 10:48:50
;   baseProfile,MakerBot Replicator 2(2)
;   printMaterial,PLA
;   printQuality,Medium
;   printExtruders,
;   extruderName,Primary Extruder
;   extruderToolheadNumber,0
;   extruderDiameter,0.4
;   extruderAutoWidth,0
;   extruderWidth,0.4
;   extrusionMultiplier,1
;   extruderUseRetract,1
;   extruderRetractionDistance,1.9
;   extruderExtraRestartDistance,0
;   extruderRetractionZLift,0.5
;   extruderRetractionSpeed,1200
;   extruderUseCoasting,0
;   extruderCoastingDistance,0.2
;   extruderUseWipe,0
;   extruderWipeDistance,5
;   primaryExtruder,0
;   layerHeight,0.2
;   topSolidLayers,3
;   bottomSolidLayers,3
;   perimeterOutlines,2
;   printPerimetersInsideOut,1
;   startPointOption,3
;   startPointOriginX,0
;   startPointOriginY,150
;   sequentialIslands,0
;   spiralVaseMode,0
;   firstLayerHeightPercentage,100
;   firstLayerWidthPercentage,115
;   firstLayerUnderspeed,0.5
;   useRaft,0
;   raftExtruder,0
;   raftTopLayers,2
;   raftBaseLayers,1
;   raftOffset,1
;   raftSeparationDistance,0.14
;   raftTopInfill,90
;   aboveRaftSpeedMultiplier,0.3
;   useSkirt,0
;   skirtExtruder,0
;   skirtLayers,1
;   skirtOutlines,5
;   skirtOffset,0
;   usePrimePillar,0
;   primePillarExtruder,999
;   primePillarWidth,12
;   primePillarLocation,7
;   primePillarSpeedMultiplier,1
;   useOozeShield,0
;   oozeShieldExtruder,999
;   oozeShieldOffset,2
;   oozeShieldOutlines,1
;   oozeShieldSidewallShape,1
;   oozeShieldSidewallAngle,30
;   oozeShieldSpeedMultiplier,1
;   infillExtruder,0
;   internalInfillPattern,Rectilinear
;   externalInfillPattern,Rectilinear
;   infillPercentage,15
;   outlineOverlapPercentage,25
;   infillExtrusionWidthPercentage,100
;   minInfillLength,5
;   infillLayerInterval,1
;   internalInfillAngles,45,-45
;   overlapInternalInfillAngles,0
;   externalInfillAngles,45,-45
;   generateSupport,0
;   supportExtruder,0
;   supportInfillPercentage,30
;   supportExtraInflation,0.5
;   supportBaseLayers,0
;   denseSupportExtruder,0
;   denseSupportLayers,2
;   denseSupportInfillPercentage,90
;   supportLayerInterval,1
;   supportHorizontalPartOffset,0.3
;   supportUpperSeparationLayers,1
;   supportLowerSeparationLayers,1
;   supportType,1
;   supportGridSpacing,2
;   maxOverhangAngle,45
;   supportAngles,45,-45
;   temperatureName,Primary Extruder,Heated Build Platform
;   temperatureNumber,0,0
;   temperatureSetpointCount,1,1
;   temperatureSetpointLayers,1,1
;   temperatureSetpointTemperatures,230,60
;   temperatureStabilizeAtStartup,1,1
;   temperatureHeatedBed,0,1
;   fanLayers,1,2
;   fanSpeeds,0,100
;   blipFanToFullPower,1
;   adjustSpeedForCooling,1
;   minSpeedLayerTime,15
;   minCoolingSpeedSlowdown,20
;   increaseFanForCooling,1
;   minFanLayerTime,45
;   maxCoolingFanSpeed,100
;   increaseFanForBridging,1
;   bridgingFanSpeed,100
;   use5D,1
;   relativeEdistances,1
;   allowEaxisZeroing,0
;   independentExtruderAxes,1
;   includeM10123,0
;   stickySupport,1
;   applyToolheadOffsets,0
;   gcodeXoffset,0
;   gcodeYoffset,0
;   gcodeZoffset,0
;   overrideMachineDefinition,1
;   machineTypeOverride,0
;   strokeXoverride,280
;   strokeYoverride,150
;   strokeZoverride,150
;   originOffsetXoverride,140
;   originOffsetYoverride,75
;   originOffsetZoverride,0
;   homeXdirOverride,1
;   homeYdirOverride,1
;   homeZdirOverride,-1
;   flipXoverride,1
;   flipYoverride,-1
;   flipZoverride,1
;   toolheadOffsets,0,0|0,0|0,0|0,0|0,0|0,0
;   overrideFirmwareConfiguration,1
;   firmwareTypeOverride,MakerBot/Sailfish Firmware
;   GPXconfigOverride,r2h
;   baudRateOverride,115200
;   overridePrinterModels,1
;   printerModelsOverride,MakerBot_Replicator2.stl
;   startingGcode,; **** Replicator 2 start.gcode ****,M73 P0 ; enable build progress,G162 X Y F3000 ; home XY maximum,G161 Z F1200 ; home Z minimum,G92 Z-5 ; set Z to -5,G1 Z0 ; move Z to 0,G161 Z F100 ; home Z slowly,M132 X Y Z A B ; recall home offsets,G1 X-145 Y-75 Z30 F9000 ; move to wait position off table,G130 X20 Y20 Z20 A20 B20 ; lower stepper Vrefs while heating,M126 S[fan_speed_pwm],M140 S[bed0_temperature] T0,M134 T0 ; stabilize bed temperature,M104 S[extruder0_temperature] T0,M133 T0 ; stabilize extruder temperature,G130 X127 Y127 Z40 A127 B127 ; default stepper Vrefs,G92 A0 ; zero extruder,G1 Z0.4 ; position nozzle,G1 E25 F300 ; purge nozzle,G1 X-140 Y-70 Z0.15 F1200 ; slow wipe,G1 X-135 Y-65 Z0.5 F1200 ; lift,G92 A0 ; zero extruder,M73 P1 ;@body (notify GPX body has started),; **** end of start.gcode ****
;   layerChangeGcode,
;   retractionGcode,
;   toolChangeGcode,
;   endingGcode,; **** Replicator 2 end.gcode ****,M73 P100 ; end build progress,G1 Z155 F1000 ; send Z axis to bottom of machine,M104 S0 T0 ; cool down extruder,M140 S0 T0 ; cool down HBP,M127 ; stop blower fan,G162 X Y F3000 ; home XY maximum,M18 ; disable stepper,M0 ; stop codes,M72 P1 ; play Ta-Da song,; **** end of end.gcode ****
;   exportFileFormat,gcode
;   celebration,0
;   celebrationSong,Random Song
;   postProcessing,
;   defaultSpeed,4800
;   outlineUnderspeed,0.5
;   solidInfillUnderspeed,1
;   supportUnderspeed,1
;   rapidXYspeed,9000
;   rapidZspeed,1200
;   minBridgingArea,50
;   bridgingExtraInflation,0
;   bridgingExtrusionMultiplier,1
;   bridgingSpeedMultiplier,0.8
;   useFixedBridgingAngle,0
;   fixedBridgingAngle,0
;   applyBridgingToPerimeters,0
;   filamentDiameters,1.75|1.75|1.75|1.75|1.75|1.75
;   filamentPricesPerKg,46|46|46|46|46|46
;   filamentDensities,1.25|1.25|1.25|1.25|1.25|1.25
;   useMinPrintHeight,0
;   minPrintHeight,0
;   useMaxPrintHeight,0
;   maxPrintHeight,4.84
;   useDiaphragm,0
;   diaphragmLayerInterval,20
;   robustSlicing,1
;   mergeAllIntoSolid,0
;   onlyRetractWhenCrossingOutline,0
;   retractBetweenLayers,0
;   useRetractionMinTravel,1
;   retractionMinTravel,7
;   retractWhileWiping,1
;   onlyWipeOutlines,1
;   avoidCrossingOutline,0
;   maxMovementDetourFactor,3
;   toolChangeRetractionDistance,12
;   toolChangeExtraRestartDistance,-0.5
;   toolChangeRetractionSpeed,600
;   externalThinWallType,0
;   internalThinWallType,0
;   thinWallAllowedOverlapPercentage,10
;   singleExtrusionMinLength,1
;   singleExtrusionMinPrintingWidthPercentage,50
;   singleExtrusionMaxPrintingWidthPercentage,200
;   singleExtrusionEndpointExtension,0.2
;   horizontalSizeCompensation,0
G90
M83
; **** Replicator 2 start.gcode ****
M73 P0 ; enable build progress
G162 X Y F3000 ; home XY maximum
G161 Z F1200 ; home Z minimum
G92 Z-5 ; set Z to -5
G1 Z0 ; move Z to 0
G161 Z F100 ; home Z slowly
M132 X Y Z A B ; recall home offsets
G1 X-145 Y-75 Z30 F9000 ; move to wait position off table
G130 X20 Y20 Z20 A20 B20 ; lower stepper Vrefs while heating
M127
M140 S60 T0
M134 T0 ; stabilize bed temperature
M104 S230 T0
M133 T0 ; stabilize extruder temperature
G130 X127 Y127 Z40 A127 B127 ; default stepper Vrefs
G92 A0 ; zero extruder
G1 Z0.4 ; position nozzle
G1 E25 F300 ; purge nozzle
G1 X-140 Y-70 Z0.15 F1200 ; slow wipe
G1 X-135 Y-65 Z0.5 F1200 ; lift
G92 A0 ; zero extruder
M73 P1 ;@body (notify GPX body has started)
; **** end of start.gcode ****
; process Process1
; layer 1, Z = 0.200
M135 T0
G1 E-1.9000 F1200
; feature inner perimeter
; tool H0.200 W0.460
G1 Z0.500 F1200
G1 X8.729 Y44.700 F9000
G1 Z0.200 F1200
G1 E1.9000 F1200
G1 X-8.729 Y44.700 E0.6678 F1800
G1 X-21.978 Y16.287 E1.1991
G1 X-11.491 Y-44.700 E2.3670
G1 X11.490 Y-44.700 E0.8790
G1 X21.978 Y16.284 E2.3669
G1 X8.729 Y44.700 E1.1992
; feature outer perimeter
G1 X9.022 Y45.160 F9000
G1 X-9.022 Y45.160 E0.6902 F1200
G1 X-22.456 Y16.351 E1.2158
G1 X-11.878 Y-45.160 E2.3873
G1 X11.878 Y-45.160 E0.9087
G1 X22.456 Y16.348 E2.3872
G1 X9.022 Y45.160 E1.2159
G1 E-1.9000 F1200
; feature solid layer
G1 Z0.700 F1200
G1 X-8.338 Y44.355 F9000
G1 Z0.200 F1200
G1 E1.9000 F1200
G1 X-8.659 Y44.034 E0.0174 F2400
G1 X-9.228 Y42.815 E0.0514
G1 X-7.688 Y44.355 E0.0833
G1 X-7.037 Y44.355 E0.0249
G1 X-9.796 Y41.597 E0.1492
G1 X-10.364 Y40.378 E0.0514
G1 X-6.387 Y44.355 E0.2152
G1 X-5.736 Y44.355 E0.0249
G1 X-10.933 Y39.159 E0.2811
G1 X-11.501 Y37.940 E0.0514
G1 X-5.086 Y44.355 E0.3470
G1 X-4.435 Y44.355 E0.0249
G1 X-12.070 Y36.721 E0.4130
G1 X-12.638 Y35.502 E0.0514
G1 X-3.785 Y44.355 E0.4789
G1 X-3.134 Y44.355 E0.0249
G1 X-13.206 Y34.283 E0.5448
G1 X-13.775 Y33.064 E0.0514
G1 X-2.484 Y44.355 E0.6108
G1 X-1.833 Y44.355 E0.0249
G1 X-14.343 Y31.845 E0.6767
G1 X-14.912 Y30.626 E0.0514
G1 X-1.182 Y44.355 E0.7426
G1 X-0.532 Y44.355 E0.0249
G1 X-15.480 Y29.407 E0.8086
G1 X-16.048 Y28.188 E0.0514
G1 X0.119 Y44.355 E0.8745
G1 X0.769 Y44.355 E0.0249
G1 X-16.617 Y26.969 E0.9404
G1 X-17.185 Y25.750 E0.0514
G1 X1.420 Y44.355 E1.0064
G1 X2.070 Y44.355 E0.0249
G1 X-17.754 Y24.531 E1.0723
G1 X-18.322 Y23.312 E0.0514
G1 X2.721 Y44.355 E1.1383
G1 X3.371 Y44.355 E0.0249
G1 X-18.890 Y22.094 E1.2042
G1 X-19.459 Y20.875 E0.0514
G1 X4.022 Y44.355 E1.2701
G1 X4.672 Y44.355 E0.0249
G1 X-20.027 Y19.656 E1.3361
G1 X-20.596 Y18.437 E0.0514
G1 X5.323 Y44.355 E1.4020
G1 X5.973 Y44.355 E0.0249
G1 X-21.164 Y17.218 E1.4679
G1 X-21.620 Y16.239 E0.0413
G1 X-21.601 Y16.130 E0.0043
G1 X6.624 Y44.355 E1.5268
G1 X7.275 Y44.355 E0.0249
G1 X-21.506 Y15.575 E1.5568
G1 X-21.410 Y15.020 E0.0215
G1 X7.925 Y44.355 E1.5868
G1 X8.509 Y44.355 E0.0223
G1 X8.530 Y44.310 E0.0019
G1 X-21.315 Y14.465 E1.6144
G1 X-21.219 Y13.910 E0.0215
G1 X8.737 Y43.866 E1.6204
G1 X8.944 Y43.423 E0.0187
G1 X-21.124 Y13.354 E1.6265
G1 X-21.029 Y12.799 E0.0215
G1 X9.151 Y42.979 E1.6325
G1 X9.358 Y42.535 E0.0187
G1 X-20.933 Y12.244 E1.6385
G1 X-20.838 Y11.689 E0.0215
G1 X9.565 Y42.092 E1.6445
G1 X9.772 Y41.648 E0.0187
G1 X-20.742 Y11.134 E1.6506
G1 X-20.647 Y10.579 E0.0215
G1 X9.979 Y41.204 E1.6566
G1 X10.185 Y40.761 E0.0187
G1 X-20.551 Y10.024 E1.6626
G1 X-20.456 Y9.469 E0.0215
G1 X10.392 Y40.317 E1.6686
G1 X10.599 Y39.873 E0.0187
G1 X-20.360 Y8.914 E1.6747
G1 X-20.265 Y8.359 E0.0215
G1 X10.806 Y39.430 E1.6807
G1 X11.013 Y38.986 E0.0187
G1 X-20.169 Y7.804 E1.6867
G1 X-20.074 Y7.249 E0.0215
G1 X11.220 Y38.542 E1.6928
G1 X11.427 Y38.099 E0.0187
G1 X-19.979 Y6.694 E1.6988
G1 X-19.883 Y6.138 E0.0215
G1 X11.633 Y37.655 E1.7048
G1 X11.840 Y37.211 E0.0187
G1 X-19.788 Y5.583 E1.7108
G1 X-19.692 Y5.028 E0.0215
G1 X12.047 Y36.768 E1.7169
G1 X12.254 Y36.324 E0.0187
G1 X-19.597 Y4.473 E1.7229
G1 X-19.501 Y3.918 E0.0215
G1 X12.461 Y35.880 E1.7289
G1 X12.668 Y35.437 E0.0187
G1 X-19.406 Y3.363 E1.7349
G1 X-19.310 Y2.808 E0.0215
G1 X12.875 Y34.993 E1.7410
G1 X13.082 Y34.549 E0.0187
G1 X-19.215 Y2.253 E1.7470
G1 X-19.119 Y1.698 E0.0215
G1 X13.288 Y34.106 E1.7530
G1 X13.495 Y33.662 E0.0187
G1 X-19.024 Y1.143 E1.7590
G1 X-18.929 Y0.588 E0.0215
G1 X13.702 Y33.218 E1.7651
G1 X13.909 Y32.775 E0.0187
G1 X-18.833 Y0.033 E1.7711
G1 X-18.738 Y-0.523 E0.0215
G1 X14.116 Y32.331 E1.7771
G1 X14.323 Y31.887 E0.0187
G1 X-18.642 Y-1.078 E1.7832
G1 X-18.547 Y-1.633 E0.0215
G1 X14.530 Y31.444 E1.7892
G1 X14.737 Y31.000 E0.0187
G1 X-18.451 Y-2.188 E1.7952
G1 X-18.356 Y-2.743 E0.0215
G1 X14.943 Y30.556 E1.8012
G1 X15.150 Y30.113 E0.0187
G1 X-18.260 Y-3.298 E1.8073
G1 X-18.165 Y-3.853 E0.0215
G1 X15.357 Y29.669 E1.8133
G1 X15.564 Y29.225 E0.0187
G1 X-18.069 Y-4.408 E1.8193
G1 X-17.974 Y-4.963 E0.0215
G1 X15.771 Y28.782 E1.8253
G1 X15.978 Y28.338 E0.0187
G1 X-17.878 Y-5.518 E1.8314
G1 X-17.783 Y-6.073 E0.0215
G1 X16.185 Y27.894 E1.8374
G1 X16.391 Y27.451 E0.0187
G1 X-17.688 Y-6.628 E1.8434
G1 X-17.592 Y-7.184 E0.0215
G1 X16.598 Y27.007 E1.8494
G1 X16.805 Y26.563 E0.0187
G1 X-17.497 Y-7.739 E1.8555
G1 X-17.401 Y-8.294 E0.0215
G1 X17.012 Y26.120 E1.8615
G1 X17.219 Y25.676 E0.0187
G1 X-17.306 Y-8.849 E1.8675
G1 X-17.210 Y-9.404 E0.0215
G1 X17.426 Y25.232 E1.8736
G1 X17.633 Y24.789 E0.0187
G1 X-17.115 Y-9.959 E1.8796
G1 X-17.019 Y-10.514 E0.0215
G1 X17.840 Y24.345 E1.8856
G1 X18.046 Y23.901 E0.0187
G1 X-16.924 Y-11.069 E1.8916
G1 X-16.828 Y-11.624 E0.0215
G1 X18.253 Y23.458 E1.8977
G1 X18.460 Y23.014 E0.0187
G1 X-16.733 Y-12.179 E1.9037
G1 X-16.638 Y-12.734 E0.0215
G1 X18.667 Y22.570 E1.9097
G1 X18.874 Y22.127 E0.0187
G1 X-16.542 Y-13.289 E1.9157
G1 X-16.447 Y-13.845 E0.0215
G1 X19.081 Y21.683 E1.9218
G1 X19.288 Y21.239 E0.0187
G1 X-16.351 Y-14.400 E1.9278
G1 X-16.256 Y-14.955 E0.0215
G1 X19.494 Y20.796 E1.9338
G1 X19.701 Y20.352 E0.0187
G1 X-16.160 Y-15.510 E1.9398
G1 X-16.065 Y-16.065 E0.0215
G1 X19.908 Y19.908 E1.9459
G1 X20.115 Y19.465 E0.0187
G1 X-15.969 Y-16.620 E1.9519
G1 X-15.874 Y-17.175 E0.0215
G1 X20.322 Y19.021 E1.9579
G1 X20.529 Y18.577 E0.0187
G1 X-15.778 Y-17.730 E1.9639
G1 X-15.683 Y-18.285 E0.0215
G1 X20.736 Y18.134 E1.9700
G1 X20.943 Y17.690 E0.0187
G1 X-15.588 Y-18.840 E1.9760
G1 X-15.492 Y-19.395 E0.0215
G1 X21.149 Y17.246 E1.9820
G1 X21.356 Y16.802 E0.0187
G1 X-15.397 Y-19.950 E1.9881
G1 X-15.301 Y-20.505 E0.0215
G1 X21.563 Y16.359 E1.9941
G1 X21.620 Y16.237 E0.0052
G1 X21.522 Y15.667 E0.0221
G1 X-15.206 Y-21.061 E1.9867
G1 X-15.110 Y-21.616 E0.0215
G1 X21.387 Y14.882 E1.9742
G1 X21.252 Y14.096 E0.0305
G1 X-15.015 Y-22.171 E1.9618
G1 X-14.919 Y-22.726 E0.0215
G1 X21.117 Y13.310 E1.9493
G1 X20.982 Y12.525 E0.0305
G1 X-14.824 Y-23.281 E1.9368
G1 X-14.728 Y-23.836 E0.0215
G1 X20.847 Y11.739 E1.9243
G1 X20.712 Y10.953 E0.0305
G1 X-14.633 Y-24.391 E1.9119
G1 X-14.538 Y-24.946 E0.0215
G1 X20.576 Y10.168 E1.8994
G1 X20.441 Y9.382 E0.0305
G1 X-14.442 Y-25.501 E1.8869
G1 X-14.347 Y-26.056 E0.0215
G1 X20.306 Y8.597 E1.8745
G1 X20.171 Y7.811 E0.0305
G1 X-14.251 Y-26.611 E1.8620
G1 X-14.156 Y-27.166 E0.0215
G1 X20.036 Y7.025 E1.8495
G1 X19.901 Y6.240 E0.0305
G1 X-14.060 Y-27.722 E1.8370
G1 X-13.965 Y-28.277 E0.0215
G1 X19.766 Y5.454 E1.8246
G1 X19.631 Y4.668 E0.0305
G1 X-13.869 Y-28.832 E1.8121
G1 X-13.774 Y-29.387 E0.0215
G1 X19.496 Y3.883 E1.7996
G1 X19.360 Y3.097 E0.0305
G1 X-13.678 Y-29.942 E1.7872
G1 X-13.583 Y-30.497 E0.0215
G1 X19.225 Y2.311 E1.7747
G1 X19.090 Y1.526 E0.0305
G1 X-13.487 Y-31.052 E1.7622
G1 X-13.392 Y-31.607 E0.0215
G1 X18.955 Y0.740 E1.7497
G1 X18.820 Y-0.046 E0.0305
G1 X-13.297 Y-32.162 E1.7373
G1 X-13.201 Y-32.717 E0.0215
G1 X18.685 Y-0.831 E1.7248
G1 X18.550 Y-1.617 E0.0305
G1 X-13.106 Y-33.272 E1.7123
G1 X-13.010 Y-33.827 E0.0215
G1 X18.415 Y-2.403 E1.6998
G1 X18.280 Y-3.188 E0.0305
G1 X-12.915 Y-34.383 E1.6874
G1 X-12.819 Y-34.938 E0.0215
G1 X18.144 Y-3.974 E1.6749
G1 X18.009 Y-4.760 E0.0305
G1 X-12.724 Y-35.493 E1.6624
G1 X-12.628 Y-36.048 E0.0215
G1 X17.874 Y-5.545 E1.6500
G1 X17.739 Y-6.331 E0.0305
G1 X-12.533 Y-36.603 E1.6375
G1 X-12.437 Y-37.158 E0.0215
G1 X17.604 Y-7.117 E1.6250
G1 X17.469 Y-7.902 E0.0305
G1 X-12.342 Y-37.713 E1.6125
G1 X-12.247 Y-38.268 E0.0215
G1 X17.334 Y-8.688 E1.6001
G1 X17.199 Y-9.473 E0.0305
G1 X-12.151 Y-38.823 E1.5876
G1 X-12.056 Y-39.378 E0.0215
G1 X17.064 Y-10.259 E1.5751
G1 X16.928 Y-11.045 E0.0305
G1 X-11.960 Y-39.933 E1.5627
G1 X-11.865 Y-40.488 E0.0215
G1 X16.793 Y-11.830 E1.5502
G1 X16.658 Y-12.616 E0.0305
G1 X-11.769 Y-41.044 E1.5377
G1 X-11.674 Y-41.599 E0.0215
G1 X16.523 Y-13.402 E1.5252
G1 X16.388 Y-14.187 E0.0305
G1 X-11.578 Y-42.154 E1.5128
G1 X-11.483 Y-42.709 E0.0215
G1 X16.253 Y-14.973 E1.5003
G1 X16.118 Y-15.759 E0.0305
G1 X-11.387 Y-43.264 E1.4878
G1 X-11.292 Y-43.819 E0.0215
G1 X15.983 Y-16.544 E1.4753
G1 X15.847 Y-17.330 E0.0305
G1 X-11.178 Y-44.355 E1.4619
G1 X-10.527 Y-44.355 E0.0249
G1 X15.712 Y-18.116 E1.4194
G1 X15.577 Y-18.901 E0.0305
G1 X-9.877 Y-44.355 E1.3769
G1 X-9.226 Y-44.355 E0.0249
G1 X15.442 Y-19.687 E1.3344
G1 X15.307 Y-20.473 E0.0305
G1 X-8.576 Y-44.355 E1.2919
G1 X-7.925 Y-44.355 E0.0249
G1 X15.172 Y-21.258 E1.2494
G1 X15.037 Y-22.044 E0.0305
G1 X-7.275 Y-44.355 E1.2069
G1 X-6.624 Y-44.355 E0.0249
G1 X14.902 Y-22.830 E1.1644
G1 X14.767 Y-23.615 E0.0305
G1 X-5.973 Y-44.355 E1.1219
G1 X-5.323 Y-44.355 E0.0249
G1 X14.631 Y-24.401 E1.0794
G1 X14.496 Y-25.187 E0.0305
G1 X-4.672 Y-44.355 E1.0369
G1 X-4.022 Y-44.355 E0.0249
G1 X14.361 Y-25.972 E0.9944
