; G-Code generated by Simplify3D(R) Version 4.1.2
; Apr 2, 2020 at 4:11:42 PM
; Settings Summary
;   processName,Process1
;   applyToModels,Fuel brkt prem
;   profileName,MakerBot Replicator 2 HBP (modified)
;   profileVersion,2020-03-12 10:48:50
;   baseProfile,MakerBot Replicator 2(2)
;   printMaterial,PLA
;   printQuality,Medium
;   printExtruders,
;   extruderName,Primary Extruder
;   extruderToolheadNumber,0
;   extruderDiameter,0.4
;   extruderAutoWidth,0
;   extruderWidth,0.4
;   extrusionMultiplier,1
;   extruderUseRetract,1
;   extruderRetractionDistance,1.9
;   extruderExtraRestartDistance,0
;   extruderRetractionZLift,0.5
;   extruderRetractionSpeed,1200
;   extruderUseCoasting,0
;   extruderCoastingDistance,0.2
;   extruderUseWipe,0
;   extruderWipeDistance,5
;   primaryExtruder,0
;   layerHeight,0.2
;   topSolidLayers,3
;   bottomSolidLayers,3
;   perimeterOutlines,2
;   printPerimetersInsideOut,1
;   startPointOption,3
;   startPointOriginX,0
;   startPointOriginY,150
;   sequentialIslands,0
;   spiralVaseMode,0
;   firstLayerHeightPercentage,100
;   firstLayerWidthPercentage,115
;   firstLayerUnderspeed,0.5
;   useRaft,0
;   raftExtruder,0
;   raftTopLayers,2
;   raftBaseLayers,1
;   raftOffset,1
;   raftSeparationDistance,0.14
;   raftTopInfill,90
;   aboveRaftSpeedMultiplier,0.3
;   useSkirt,0
;   skirtExtruder,0
;   skirtLayers,1
;   skirtOutlines,5
;   skirtOffset,0
;   usePrimePillar,0
;   primePillarExtruder,999
;   primePillarWidth,12
;   primePillarLocation,7
;   primePillarSpeedMultiplier,1
;   useOozeShield,0
;   oozeShieldExtruder,999
;   oozeShieldOffset,2
;   oozeShieldOutlines,1
;   oozeShieldSidewallShape,1
;   oozeShieldSidewallAngle,30
;   oozeShieldSpeedMultiplier,1
;   infillExtruder,0
;   internalInfillPattern,Rectilinear
;   externalInfillPattern,Rectilinear
;   infillPercentage,15
;   outlineOverlapPercentage,25
;   infillExtrusionWidthPercentage,100
;   minInfillLength,5
;   infillLayerInterval,1
;   internalInfillAngles,45,-45
;   overlapInternalInfillAngles,0
;   externalInfillAngles,45,-45
;   generateSupport,1
;   supportExtruder,0
;   supportInfillPercentage,30
;   supportExtraInflation,0.5
;   supportBaseLayers,0
;   denseSupportExtruder,0
;   denseSupportLayers,2
;   denseSupportInfillPercentage,90
;   supportLayerInterval,1
;   supportHorizontalPartOffset,0.3
;   supportUpperSeparationLayers,1
;   supportLowerSeparationLayers,1
;   supportType,1
;   supportGridSpacing,2
;   maxOverhangAngle,45
;   supportAngles,45,-45
;   temperatureName,Primary Extruder,Heated Build Platform
;   temperatureNumber,0,0
;   temperatureSetpointCount,1,1
;   temperatureSetpointLayers,1,1
;   temperatureSetpointTemperatures,230,60
;   temperatureStabilizeAtStartup,1,1
;   temperatureHeatedBed,0,1
;   fanLayers,1,2
;   fanSpeeds,0,100
;   blipFanToFullPower,1
;   adjustSpeedForCooling,1
;   minSpeedLayerTime,15
;   minCoolingSpeedSlowdown,20
;   increaseFanForCooling,1
;   minFanLayerTime,45
;   maxCoolingFanSpeed,100
;   increaseFanForBridging,1
;   bridgingFanSpeed,100
;   use5D,1
;   relativeEdistances,1
;   allowEaxisZeroing,0
;   independentExtruderAxes,1
;   includeM10123,0
;   stickySupport,1
;   applyToolheadOffsets,0
;   gcodeXoffset,0
;   gcodeYoffset,0
;   gcodeZoffset,0
;   overrideMachineDefinition,1
;   machineTypeOverride,0
;   strokeXoverride,280
;   strokeYoverride,150
;   strokeZoverride,150
;   originOffsetXoverride,140
;   originOffsetYoverride,75
;   originOffsetZoverride,0
;   homeXdirOverride,1
;   homeYdirOverride,1
;   homeZdirOverride,-1
;   flipXoverride,1
;   flipYoverride,-1
;   flipZoverride,1
;   toolheadOffsets,0,0|0,0|0,0|0,0|0,0|0,0
;   overrideFirmwareConfiguration,1
;   firmwareTypeOverride,MakerBot/Sailfish Firmware
;   GPXconfigOverride,r2h
;   baudRateOverride,115200
;   overridePrinterModels,1
;   printerModelsOverride,MakerBot_Replicator2.stl
;   startingGcode,; **** Replicator 2 start.gcode ****,M73 P0 ; enable build progress,G162 X Y F3000 ; home XY maximum,G161 Z F1200 ; home Z minimum,G92 Z-5 ; set Z to -5,G1 Z0 ; move Z to 0,G161 Z F100 ; home Z slowly,M132 X Y Z A B ; recall home offsets,G1 X-145 Y-75 Z30 F9000 ; move to wait position off table,G130 X20 Y20 Z20 A20 B20 ; lower stepper Vrefs while heating,M126 S[fan_speed_pwm],M140 S[bed0_temperature] T0,M134 T0 ; stabilize bed temperature,M104 S[extruder0_temperature] T0,M133 T0 ; stabilize extruder temperature,G130 X127 Y127 Z40 A127 B127 ; default stepper Vrefs,G92 A0 ; zero extruder,G1 Z0.4 ; position nozzle,G1 E25 F300 ; purge nozzle,G1 X-140 Y-70 Z0.15 F1200 ; slow wipe,G1 X-135 Y-65 Z0.5 F1200 ; lift,G92 A0 ; zero extruder,M73 P1 ;@body (notify GPX body has started),; **** end of start.gcode ****
;   layerChangeGcode,
;   retractionGcode,
;   toolChangeGcode,
;   endingGcode,; **** Replicator 2 end.gcode ****,M73 P100 ; end build progress,G1 Z155 F1000 ; send Z axis to bottom of machine,M104 S0 T0 ; cool down extruder,M140 S0 T0 ; cool down HBP,M127 ; stop blower fan,G162 X Y F3000 ; home XY maximum,M18 ; disable stepper,M0 ; stop codes,M72 P1 ; play Ta-Da song,; **** end of end.gcode ****
;   exportFileFormat,gcode
;   celebration,0
;   celebrationSong,Random Song
;   postProcessing,
;   defaultSpeed,4800
;   outlineUnderspeed,0.5
;   solidInfillUnderspeed,1
;   supportUnderspeed,1
;   rapidXYspeed,9000
;   rapidZspeed,1200
;   minBridgingArea,50
;   bridgingExtraInflation,0
;   bridgingExtrusionMultiplier,1
;   bridgingSpeedMultiplier,0.8
;   useFixedBridgingAngle,0
;   fixedBridgingAngle,0
;   applyBridgingToPerimeters,0
;   filamentDiameters,1.75|1.75|1.75|1.75|1.75|1.75
;   filamentPricesPerKg,46|46|46|46|46|46
;   filamentDensities,1.25|1.25|1.25|1.25|1.25|1.25
;   useMinPrintHeight,0
;   minPrintHeight,0
;   useMaxPrintHeight,0
;   maxPrintHeight,4.84
;   useDiaphragm,0
;   diaphragmLayerInterval,20
;   robustSlicing,1
;   mergeAllIntoSolid,0
;   onlyRetractWhenCrossingOutline,0
;   retractBetweenLayers,0
;   useRetractionMinTravel,1
;   retractionMinTravel,7
;   retractWhileWiping,1
;   onlyWipeOutlines,1
;   avoidCrossingOutline,0
;   maxMovementDetourFactor,3
;   toolChangeRetractionDistance,12
;   toolChangeExtraRestartDistance,-0.5
;   toolChangeRetractionSpeed,600
;   externalThinWallType,0
;   internalThinWallType,0
;   thinWallAllowedOverlapPercentage,10
;   singleExtrusionMinLength,1
;   singleExtrusionMinPrintingWidthPercentage,50
;   singleExtrusionMaxPrintingWidthPercentage,200
;   singleExtrusionEndpointExtension,0.2
;   horizontalSizeCompensation,0
G90
M83
; **** Replicator 2 start.gcode ****
M73 P0 ; enable build progress
G162 X Y F3000 ; home XY maximum
G161 Z F1200 ; home Z minimum
G92 Z-5 ; set Z to -5
G1 Z0 ; move Z to 0
G161 Z F100 ; home Z slowly
M132 X Y Z A B ; recall home offsets
G1 X-145 Y-75 Z30 F9000 ; move to wait position off table
G130 X20 Y20 Z20 A20 B20 ; lower stepper Vrefs while heating
M127
M140 S60 T0
M134 T0 ; stabilize bed temperature
M104 S230 T0
M133 T0 ; stabilize extruder temperature
G130 X127 Y127 Z40 A127 B127 ; default stepper Vrefs
G92 A0 ; zero extruder
G1 Z0.4 ; position nozzle
G1 E25 F300 ; purge nozzle
G1 X-140 Y-70 Z0.15 F1200 ; slow wipe
G1 X-135 Y-65 Z0.5 F1200 ; lift
G92 A0 ; zero extruder
M73 P1 ;@body (notify GPX body has started)
; **** end of start.gcode ****
; process Process1
; layer 1, Z = 0.200
M135 T0
G1 E-1.9000 F1200
; feature inner perimeter
; tool H0.200 W0.460
G1 Z0.500 F1200
G1 X0.721 Y36.460 F9000
G1 Z0.200 F1200
G1 E1.9000 F1200
G1 X-13.710 Y36.460 E0.5520 F1800
G1 X-13.710 Y-36.451 E2.7888
G1 X0.734 Y-36.460 E0.5525
G1 X0.716 Y-20.693 E0.6031
G1 X13.710 Y-20.693 E0.4970
G1 X13.710 Y20.702 E1.5833
G1 X0.716 Y20.702 E0.4970
G1 X0.721 Y36.460 E0.6027
; feature outer perimeter
G1 X1.181 Y36.920 F9000
G1 X-14.170 Y36.920 E0.5872 F1200
G1 X-14.170 Y-36.911 E2.8240
G1 X1.194 Y-36.920 E0.5877
G1 X1.176 Y-21.153 E0.6031
G1 X14.170 Y-21.153 E0.4970
G1 X14.170 Y21.162 E1.6185
G1 X1.176 Y21.162 E0.4970
G1 X1.181 Y36.920 E0.6027
G1 E-1.9000 F1200
; feature inner perimeter
G1 Z0.700 F1200
G1 X-5.305 Y32.311 F9000
G1 Z0.200 F1200
G1 E1.9000 F1200
G1 X-5.107 Y31.969 E0.0151 F1800
G1 X-5.012 Y31.758 E0.0089
G1 X-4.885 Y31.385 E0.0151
G1 X-4.832 Y31.159 E0.0089
G1 X-4.779 Y30.757 E0.0155
G1 X-4.779 Y30.351 E0.0155
G1 X-4.802 Y30.120 E0.0088
G1 X-4.878 Y29.736 E0.0150
G1 X-4.946 Y29.512 E0.0090
G1 X-5.097 Y29.147 E0.0151
G1 X-5.201 Y28.953 E0.0084
G1 X-5.317 Y28.766 E0.0084
G1 X-5.558 Y28.453 E0.0151
G1 X-5.716 Y28.283 E0.0089
G1 X-6.021 Y28.016 E0.0155
G1 X-6.359 Y27.790 E0.0155
G1 X-6.553 Y27.687 E0.0084
G1 X-6.754 Y27.596 E0.0084
G1 X-7.127 Y27.469 E0.0151
G1 X-7.353 Y27.417 E0.0089
G1 X-7.744 Y27.365 E0.0151
G1 X-7.976 Y27.357 E0.0089
G1 X-8.370 Y27.383 E0.0151
G1 X-8.598 Y27.421 E0.0089
G1 X-8.990 Y27.526 E0.0155
G1 X-9.366 Y27.681 E0.0155
G1 X-9.560 Y27.785 E0.0084
G1 X-9.747 Y27.901 E0.0084
G1 X-10.069 Y28.149 E0.0155
G1 X-10.365 Y28.444 E0.0160
G1 X-10.618 Y28.775 E0.0159
G1 X-10.822 Y29.127 E0.0155
G1 X-10.917 Y29.337 E0.0089
G1 X-11.048 Y29.722 E0.0155
G1 X-11.127 Y30.120 E0.0155
G1 X-11.150 Y30.351 E0.0089
G1 X-11.150 Y30.745 E0.0151
G1 X-11.127 Y30.976 E0.0089
G1 X-11.050 Y31.363 E0.0151
G1 X-10.983 Y31.584 E0.0088
G1 X-10.833 Y31.946 E0.0150
G1 X-10.728 Y32.143 E0.0085
G1 X-10.612 Y32.330 E0.0084
G1 X-10.371 Y32.643 E0.0151
G1 X-10.213 Y32.812 E0.0089
G1 X-9.908 Y33.080 E0.0155
G1 X-9.570 Y33.305 E0.0155
G1 X-9.376 Y33.409 E0.0084
G1 X-9.174 Y33.500 E0.0084
G1 X-8.801 Y33.627 E0.0151
G1 X-8.576 Y33.679 E0.0089
G1 X-8.184 Y33.731 E0.0151
G1 X-7.953 Y33.738 E0.0089
G1 X-7.559 Y33.713 E0.0151
G1 X-7.331 Y33.675 E0.0089
G1 X-6.949 Y33.573 E0.0151
G1 X-6.733 Y33.491 E0.0089
G1 X-6.379 Y33.317 E0.0151
G1 X-6.182 Y33.194 E0.0089
G1 X-5.860 Y32.947 E0.0155
G1 X-5.577 Y32.665 E0.0153
G1 X-5.433 Y32.491 E0.0087
G1 X-5.305 Y32.311 E0.0085
; feature outer perimeter
G1 X-5.692 Y32.061 F9000
G1 X-5.517 Y31.759 E0.0134 F1200
G1 X-5.440 Y31.589 E0.0071
G1 X-5.327 Y31.258 E0.0134
G1 X-5.285 Y31.077 E0.0071
G1 X-5.239 Y30.726 E0.0135
G1 X-5.239 Y30.373 E0.0135
G1 X-5.257 Y30.188 E0.0071
G1 X-5.325 Y29.848 E0.0133
G1 X-5.380 Y29.667 E0.0072
G1 X-5.513 Y29.344 E0.0134
G1 X-5.599 Y29.183 E0.0070
G1 X-5.696 Y29.028 E0.0070
G1 X-5.909 Y28.751 E0.0134
G1 X-6.036 Y28.614 E0.0071
G1 X-6.302 Y28.382 E0.0135
G1 X-6.596 Y28.186 E0.0135
G1 X-6.757 Y28.100 E0.0070
G1 X-6.923 Y28.024 E0.0070
G1 X-7.254 Y27.912 E0.0134
G1 X-7.435 Y27.870 E0.0071
G1 X-7.782 Y27.824 E0.0134
G1 X-7.968 Y27.818 E0.0071
G1 X-8.317 Y27.841 E0.0134
G1 X-8.501 Y27.871 E0.0071
G1 X-8.842 Y27.963 E0.0135
G1 X-9.169 Y28.098 E0.0135
G1 X-9.330 Y28.184 E0.0070
G1 X-9.485 Y28.280 E0.0070
G1 X-9.765 Y28.495 E0.0135
G1 X-10.018 Y28.748 E0.0137
G1 X-10.235 Y29.031 E0.0136
G1 X-10.412 Y29.337 E0.0135
G1 X-10.489 Y29.507 E0.0071
G1 X-10.602 Y29.841 E0.0135
G1 X-10.671 Y30.188 E0.0135
G1 X-10.690 Y30.373 E0.0071
G1 X-10.690 Y30.723 E0.0134
G1 X-10.671 Y30.908 E0.0071
G1 X-10.603 Y31.251 E0.0134
G1 X-10.549 Y31.429 E0.0071
G1 X-10.416 Y31.749 E0.0133
G1 X-10.329 Y31.913 E0.0071
G1 X-10.233 Y32.068 E0.0070
G1 X-10.020 Y32.345 E0.0134
G1 X-9.893 Y32.481 E0.0071
G1 X-9.627 Y32.714 E0.0135
G1 X-9.333 Y32.910 E0.0135
G1 X-9.172 Y32.996 E0.0070
G1 X-9.005 Y33.072 E0.0070
G1 X-8.675 Y33.184 E0.0134
G1 X-8.493 Y33.226 E0.0071
G1 X-8.147 Y33.272 E0.0134
G1 X-7.961 Y33.278 E0.0071
G1 X-7.612 Y33.255 E0.0134
G1 X-7.428 Y33.225 E0.0071
G1 X-7.090 Y33.134 E0.0134
G1 X-6.916 Y33.069 E0.0071
G1 X-6.602 Y32.914 E0.0134
G1 X-6.444 Y32.816 E0.0071
G1 X-6.164 Y32.601 E0.0135
G1 X-5.918 Y32.356 E0.0133
G1 X-5.798 Y32.210 E0.0072
G1 X-5.692 Y32.061 E0.0070
G1 E-1.9000 F1200
; feature inner perimeter
G1 Z0.700 F1200
G1 X-7.964 Y-27.322 F9000
G1 Z0.200 F1200
G1 E1.9000 F1200
G1 X-7.559 Y-27.348 E0.0155 F1800
G1 X-7.342 Y-27.384 E0.0084
G1 X-7.127 Y-27.434 E0.0084
G1 X-6.743 Y-27.564 E0.0155
G1 X-6.379 Y-27.744 E0.0155
G1 X-6.192 Y-27.860 E0.0084
G1 X-6.013 Y-27.988 E0.0084
G1 X-5.707 Y-28.256 E0.0155
G1 X-5.439 Y-28.561 E0.0155
G1 X-5.311 Y-28.740 E0.0084
G1 X-5.195 Y-28.927 E0.0084
G1 X-5.015 Y-29.291 E0.0155
G1 X-4.885 Y-29.676 E0.0155
G1 X-4.832 Y-29.901 E0.0088
G1 X-4.781 Y-30.286 E0.0148
G1 X-4.773 Y-30.512 E0.0087
G1 X-4.781 Y-30.733 E0.0085
G1 X-4.832 Y-31.124 E0.0151
G1 X-4.885 Y-31.350 E0.0089
G1 X-5.015 Y-31.734 E0.0155
G1 X-5.193 Y-32.096 E0.0154
G1 X-5.311 Y-32.285 E0.0085
G1 X-5.439 Y-32.464 E0.0084
G1 X-5.707 Y-32.769 E0.0155
G1 X-6.013 Y-33.037 E0.0155
G1 X-6.192 Y-33.165 E0.0084
G1 X-6.379 Y-33.281 E0.0084
G1 X-6.733 Y-33.456 E0.0151
G1 X-6.949 Y-33.538 E0.0089
G1 X-7.331 Y-33.640 E0.0151
G1 X-7.559 Y-33.677 E0.0089
G1 X-7.964 Y-33.704 E0.0155
G1 X-8.370 Y-33.677 E0.0155
G1 X-8.598 Y-33.640 E0.0088
G1 X-8.973 Y-33.539 E0.0149
G1 X-9.185 Y-33.460 E0.0086
G1 X-9.387 Y-33.369 E0.0085
G1 X-9.728 Y-33.172 E0.0151
G1 X-9.916 Y-33.037 E0.0089
G1 X-10.213 Y-32.777 E0.0151
G1 X-10.371 Y-32.608 E0.0089
G1 X-10.618 Y-32.286 E0.0155
G1 X-10.822 Y-31.934 E0.0155
G1 X-10.917 Y-31.723 E0.0088
G1 X-11.043 Y-31.352 E0.0150
G1 X-11.094 Y-31.135 E0.0085
G1 X-11.130 Y-30.918 E0.0084
G1 X-11.156 Y-30.513 E0.0155
G1 X-11.130 Y-30.107 E0.0155
G1 X-11.091 Y-29.873 E0.0091
G1 X-10.956 Y-29.404 E0.0187
G1 X-10.825 Y-29.098 E0.0127
G1 X-10.624 Y-28.750 E0.0154
G1 X-10.489 Y-28.561 E0.0089
G1 X-10.221 Y-28.256 E0.0155
G1 X-9.916 Y-27.988 E0.0155
G1 X-9.737 Y-27.860 E0.0084
G1 X-9.550 Y-27.744 E0.0084
G1 X-9.196 Y-27.569 E0.0151
G1 X-8.979 Y-27.488 E0.0089
G1 X-8.598 Y-27.386 E0.0151
G1 X-8.370 Y-27.348 E0.0089
G1 X-7.964 Y-27.322 E0.0155
; feature outer perimeter
G1 X-7.964 Y-27.783 F9000
G1 X-7.612 Y-27.806 E0.0135 F1200
G1 X-7.432 Y-27.835 E0.0070
G1 X-7.254 Y-27.877 E0.0070
G1 X-6.919 Y-27.990 E0.0135
G1 X-6.602 Y-28.147 E0.0135
G1 X-6.447 Y-28.243 E0.0070
G1 X-6.299 Y-28.349 E0.0070
G1 X-6.033 Y-28.582 E0.0135
G1 X-5.800 Y-28.848 E0.0135
G1 X-5.694 Y-28.996 E0.0070
G1 X-5.597 Y-29.151 E0.0070
G1 X-5.441 Y-29.468 E0.0135
G1 X-5.327 Y-29.803 E0.0135
G1 X-5.285 Y-29.984 E0.0071
G1 X-5.240 Y-30.324 E0.0131
G1 X-5.234 Y-30.512 E0.0072
G1 X-5.240 Y-30.695 E0.0070
G1 X-5.285 Y-31.042 E0.0134
G1 X-5.327 Y-31.223 E0.0071
G1 X-5.441 Y-31.558 E0.0135
G1 X-5.596 Y-31.872 E0.0134
G1 X-5.694 Y-32.029 E0.0071
G1 X-5.800 Y-32.178 E0.0070
G1 X-6.033 Y-32.443 E0.0135
G1 X-6.299 Y-32.676 E0.0135
G1 X-6.447 Y-32.783 E0.0070
G1 X-6.602 Y-32.879 E0.0070
G1 X-6.916 Y-33.033 E0.0134
G1 X-7.090 Y-33.099 E0.0071
G1 X-7.428 Y-33.190 E0.0134
G1 X-7.612 Y-33.220 E0.0071
G1 X-7.964 Y-33.243 E0.0135
G1 X-8.317 Y-33.220 E0.0135
G1 X-8.501 Y-33.190 E0.0071
G1 X-8.833 Y-33.101 E0.0131
G1 X-9.009 Y-33.035 E0.0072
G1 X-9.176 Y-32.959 E0.0070
G1 X-9.478 Y-32.785 E0.0133
G1 X-9.630 Y-32.676 E0.0071
G1 X-9.893 Y-32.446 E0.0134
G1 X-10.020 Y-32.310 E0.0071
G1 X-10.235 Y-32.030 E0.0135
G1 X-10.412 Y-31.724 E0.0135
G1 X-10.489 Y-31.554 E0.0071
G1 X-10.600 Y-31.226 E0.0133
G1 X-10.643 Y-31.045 E0.0071
G1 X-10.672 Y-30.865 E0.0070
G1 X-10.695 Y-30.513 E0.0135
G1 X-10.672 Y-30.160 E0.0135
G1 X-10.642 Y-29.974 E0.0072
G1 X-10.522 Y-29.558 E0.0166
G1 X-10.413 Y-29.304 E0.0106
G1 X-10.237 Y-28.999 E0.0135
G1 X-10.129 Y-28.848 E0.0071
G1 X-9.896 Y-28.582 E0.0135
G1 X-9.630 Y-28.349 E0.0135
G1 X-9.481 Y-28.243 E0.0070
G1 X-9.327 Y-28.147 E0.0070
G1 X-9.013 Y-27.992 E0.0134
G1 X-8.838 Y-27.926 E0.0071
G1 X-8.501 Y-27.836 E0.0134
G1 X-8.317 Y-27.806 E0.0071
G1 X-7.964 Y-27.783 E0.0135
; feature solid layer
G1 X-6.960 Y-27.127 F9000
G1 X13.365 Y-6.802 E1.0994 F2400
G1 X13.365 Y-6.151 E0.0249
G1 X-7.493 Y-27.009 E1.1283
G1 X-7.520 Y-27.005 E0.0010
G1 X-7.964 Y-26.976 E0.0170
G1 X-8.120 Y-26.986 E0.0060
G1 X13.365 Y-5.501 E1.1622
G1 X13.365 Y-4.850 E0.0249
G1 X-8.892 Y-27.108 E1.2040
G1 X-9.084 Y-27.159 E0.0076
G1 X-9.333 Y-27.252 E0.0102
G1 X-9.718 Y-27.442 E0.0164
G1 X-9.929 Y-27.573 E0.0095
G1 X-10.131 Y-27.718 E0.0095
G1 X-10.314 Y-27.878 E0.0093
G1 X13.365 Y-4.200 E1.2808
G1 E-1.9000 F1200
G1 Z0.700 F1200
G1 X12.829 Y-20.348 F9000
G1 Z0.200 F1200
G1 E1.9000 F1200
G1 X13.365 Y-19.812 E0.0290 F2400
G1 X13.365 Y-19.162 E0.0249
