; G-Code generated by Simplify3D(R) Version 4.1.2
; Apr 2, 2020 at 4:11:16 PM
; Settings Summary
;   processName,Process1
;   applyToModels,Fuel brkt pro
;   profileName,MakerBot Replicator 2 HBP (modified)
;   profileVersion,2020-03-12 10:48:50
;   baseProfile,MakerBot Replicator 2(2)
;   printMaterial,PLA
;   printQuality,Medium
;   printExtruders,
;   extruderName,Primary Extruder
;   extruderToolheadNumber,0
;   extruderDiameter,0.4
;   extruderAutoWidth,0
;   extruderWidth,0.4
;   extrusionMultiplier,1
;   extruderUseRetract,1
;   extruderRetractionDistance,1.9
;   extruderExtraRestartDistance,0
;   extruderRetractionZLift,0.5
;   extruderRetractionSpeed,1200
;   extruderUseCoasting,0
;   extruderCoastingDistance,0.2
;   extruderUseWipe,0
;   extruderWipeDistance,5
;   primaryExtruder,0
;   layerHeight,0.2
;   topSolidLayers,3
;   bottomSolidLayers,3
;   perimeterOutlines,2
;   printPerimetersInsideOut,1
;   startPointOption,3
;   startPointOriginX,0
;   startPointOriginY,150
;   sequentialIslands,0
;   spiralVaseMode,0
;   firstLayerHeightPercentage,100
;   firstLayerWidthPercentage,115
;   firstLayerUnderspeed,0.5
;   useRaft,0
;   raftExtruder,0
;   raftTopLayers,2
;   raftBaseLayers,1
;   raftOffset,1
;   raftSeparationDistance,0.14
;   raftTopInfill,90
;   aboveRaftSpeedMultiplier,0.3
;   useSkirt,0
;   skirtExtruder,0
;   skirtLayers,1
;   skirtOutlines,5
;   skirtOffset,0
;   usePrimePillar,0
;   primePillarExtruder,999
;   primePillarWidth,12
;   primePillarLocation,7
;   primePillarSpeedMultiplier,1
;   useOozeShield,0
;   oozeShieldExtruder,999
;   oozeShieldOffset,2
;   oozeShieldOutlines,1
;   oozeShieldSidewallShape,1
;   oozeShieldSidewallAngle,30
;   oozeShieldSpeedMultiplier,1
;   infillExtruder,0
;   internalInfillPattern,Rectilinear
;   externalInfillPattern,Rectilinear
;   infillPercentage,15
;   outlineOverlapPercentage,25
;   infillExtrusionWidthPercentage,100
;   minInfillLength,5
;   infillLayerInterval,1
;   internalInfillAngles,45,-45
;   overlapInternalInfillAngles,0
;   externalInfillAngles,45,-45
;   generateSupport,1
;   supportExtruder,0
;   supportInfillPercentage,30
;   supportExtraInflation,0.5
;   supportBaseLayers,0
;   denseSupportExtruder,0
;   denseSupportLayers,2
;   denseSupportInfillPercentage,90
;   supportLayerInterval,1
;   supportHorizontalPartOffset,0.3
;   supportUpperSeparationLayers,1
;   supportLowerSeparationLayers,1
;   supportType,1
;   supportGridSpacing,2
;   maxOverhangAngle,45
;   supportAngles,45,-45
;   temperatureName,Primary Extruder,Heated Build Platform
;   temperatureNumber,0,0
;   temperatureSetpointCount,1,1
;   temperatureSetpointLayers,1,1
;   temperatureSetpointTemperatures,230,60
;   temperatureStabilizeAtStartup,1,1
;   temperatureHeatedBed,0,1
;   fanLayers,1,2
;   fanSpeeds,0,100
;   blipFanToFullPower,1
;   adjustSpeedForCooling,1
;   minSpeedLayerTime,15
;   minCoolingSpeedSlowdown,20
;   increaseFanForCooling,1
;   minFanLayerTime,45
;   maxCoolingFanSpeed,100
;   increaseFanForBridging,1
;   bridgingFanSpeed,100
;   use5D,1
;   relativeEdistances,1
;   allowEaxisZeroing,0
;   independentExtruderAxes,1
;   includeM10123,0
;   stickySupport,1
;   applyToolheadOffsets,0
;   gcodeXoffset,0
;   gcodeYoffset,0
;   gcodeZoffset,0
;   overrideMachineDefinition,1
;   machineTypeOverride,0
;   strokeXoverride,280
;   strokeYoverride,150
;   strokeZoverride,150
;   originOffsetXoverride,140
;   originOffsetYoverride,75
;   originOffsetZoverride,0
;   homeXdirOverride,1
;   homeYdirOverride,1
;   homeZdirOverride,-1
;   flipXoverride,1
;   flipYoverride,-1
;   flipZoverride,1
;   toolheadOffsets,0,0|0,0|0,0|0,0|0,0|0,0
;   overrideFirmwareConfiguration,1
;   firmwareTypeOverride,MakerBot/Sailfish Firmware
;   GPXconfigOverride,r2h
;   baudRateOverride,115200
;   overridePrinterModels,1
;   printerModelsOverride,MakerBot_Replicator2.stl
;   startingGcode,; **** Replicator 2 start.gcode ****,M73 P0 ; enable build progress,G162 X Y F3000 ; home XY maximum,G161 Z F1200 ; home Z minimum,G92 Z-5 ; set Z to -5,G1 Z0 ; move Z to 0,G161 Z F100 ; home Z slowly,M132 X Y Z A B ; recall home offsets,G1 X-145 Y-75 Z30 F9000 ; move to wait position off table,G130 X20 Y20 Z20 A20 B20 ; lower stepper Vrefs while heating,M126 S[fan_speed_pwm],M140 S[bed0_temperature] T0,M134 T0 ; stabilize bed temperature,M104 S[extruder0_temperature] T0,M133 T0 ; stabilize extruder temperature,G130 X127 Y127 Z40 A127 B127 ; default stepper Vrefs,G92 A0 ; zero extruder,G1 Z0.4 ; position nozzle,G1 E25 F300 ; purge nozzle,G1 X-140 Y-70 Z0.15 F1200 ; slow wipe,G1 X-135 Y-65 Z0.5 F1200 ; lift,G92 A0 ; zero extruder,M73 P1 ;@body (notify GPX body has started),; **** end of start.gcode ****
;   layerChangeGcode,
;   retractionGcode,
;   toolChangeGcode,
;   endingGcode,; **** Replicator 2 end.gcode ****,M73 P100 ; end build progress,G1 Z155 F1000 ; send Z axis to bottom of machine,M104 S0 T0 ; cool down extruder,M140 S0 T0 ; cool down HBP,M127 ; stop blower fan,G162 X Y F3000 ; home XY maximum,M18 ; disable stepper,M0 ; stop codes,M72 P1 ; play Ta-Da song,; **** end of end.gcode ****
;   exportFileFormat,gcode
;   celebration,0
;   celebrationSong,Random Song
;   postProcessing,
;   defaultSpeed,4800
;   outlineUnderspeed,0.5
;   solidInfillUnderspeed,1
;   supportUnderspeed,1
;   rapidXYspeed,9000
;   rapidZspeed,1200
;   minBridgingArea,50
;   bridgingExtraInflation,0
;   bridgingExtrusionMultiplier,1
;   bridgingSpeedMultiplier,0.8
;   useFixedBridgingAngle,0
;   fixedBridgingAngle,0
;   applyBridgingToPerimeters,0
;   filamentDiameters,1.75|1.75|1.75|1.75|1.75|1.75
;   filamentPricesPerKg,46|46|46|46|46|46
;   filamentDensities,1.25|1.25|1.25|1.25|1.25|1.25
;   useMinPrintHeight,0
;   minPrintHeight,0
;   useMaxPrintHeight,0
;   maxPrintHeight,4.84
;   useDiaphragm,0
;   diaphragmLayerInterval,20
;   robustSlicing,1
;   mergeAllIntoSolid,0
;   onlyRetractWhenCrossingOutline,0
;   retractBetweenLayers,0
;   useRetractionMinTravel,1
;   retractionMinTravel,7
;   retractWhileWiping,1
;   onlyWipeOutlines,1
;   avoidCrossingOutline,0
;   maxMovementDetourFactor,3
;   toolChangeRetractionDistance,12
;   toolChangeExtraRestartDistance,-0.5
;   toolChangeRetractionSpeed,600
;   externalThinWallType,0
;   internalThinWallType,0
;   thinWallAllowedOverlapPercentage,10
;   singleExtrusionMinLength,1
;   singleExtrusionMinPrintingWidthPercentage,50
;   singleExtrusionMaxPrintingWidthPercentage,200
;   singleExtrusionEndpointExtension,0.2
;   horizontalSizeCompensation,0
G90
M83
; **** Replicator 2 start.gcode ****
M73 P0 ; enable build progress
G162 X Y F3000 ; home XY maximum
G161 Z F1200 ; home Z minimum
G92 Z-5 ; set Z to -5
G1 Z0 ; move Z to 0
G161 Z F100 ; home Z slowly
M132 X Y Z A B ; recall home offsets
G1 X-145 Y-75 Z30 F9000 ; move to wait position off table
G130 X20 Y20 Z20 A20 B20 ; lower stepper Vrefs while heating
M127
M140 S60 T0
M134 T0 ; stabilize bed temperature
M104 S230 T0
M133 T0 ; stabilize extruder temperature
G130 X127 Y127 Z40 A127 B127 ; default stepper Vrefs
G92 A0 ; zero extruder
G1 Z0.4 ; position nozzle
G1 E25 F300 ; purge nozzle
G1 X-140 Y-70 Z0.15 F1200 ; slow wipe
G1 X-135 Y-65 Z0.5 F1200 ; lift
G92 A0 ; zero extruder
M73 P1 ;@body (notify GPX body has started)
; **** end of start.gcode ****
; process Process1
; layer 1, Z = 0.200
M135 T0
G1 E-1.9000 F1200
; feature inner perimeter
; tool H0.200 W0.460
G1 Z0.500 F1200
G1 X7.205 Y36.457 F9000
G1 Z0.200 F1200
G1 E1.9000 F1200
G1 X-7.205 Y36.455 E0.5512 F1800
G1 X-7.205 Y-36.451 E2.7886
G1 X7.205 Y-36.459 E0.5512
G1 X7.205 Y36.457 E2.7890
; feature outer perimeter
G1 X7.665 Y36.917 F9000
G1 X-7.665 Y36.915 E0.5864 F1200
G1 X-7.665 Y-36.911 E2.8238
G1 X7.665 Y-36.920 E0.5864
G1 X7.665 Y36.917 E2.8242
G1 E-1.9000 F1200
; feature inner perimeter
G1 Z0.700 F1200
G1 X1.192 Y32.318 F9000
G1 Z0.200 F1200
G1 E1.9000 F1200
G1 X1.487 Y31.766 E0.0239 F1800
G1 X1.669 Y31.167 E0.0239
G1 X1.730 Y30.544 E0.0239
G1 X1.669 Y29.921 E0.0239
G1 X1.487 Y29.322 E0.0239
G1 X1.192 Y28.770 E0.0239
G1 X0.795 Y28.286 E0.0239
G1 X0.340 Y27.912 E0.0225
G1 X-0.237 Y27.595 E0.0252
G1 X-0.840 Y27.412 E0.0241
G1 X-1.463 Y27.350 E0.0239
G1 X-2.086 Y27.412 E0.0239
G1 X-2.685 Y27.594 E0.0239
G1 X-3.238 Y27.889 E0.0239
G1 X-3.721 Y28.286 E0.0239
G1 X-4.119 Y28.770 E0.0239
G1 X-4.414 Y29.322 E0.0239
G1 X-4.595 Y29.921 E0.0239
G1 X-4.657 Y30.544 E0.0239
G1 X-4.595 Y31.167 E0.0239
G1 X-4.414 Y31.766 E0.0239
G1 X-4.119 Y32.318 E0.0239
G1 X-3.721 Y32.802 E0.0239
G1 X-3.238 Y33.199 E0.0239
G1 X-2.685 Y33.494 E0.0239
G1 X-2.086 Y33.676 E0.0239
G1 X-1.463 Y33.737 E0.0239
G1 X-0.840 Y33.676 E0.0239
G1 X-0.241 Y33.494 E0.0239
G1 X0.311 Y33.199 E0.0239
G1 X0.795 Y32.802 E0.0239
G1 X1.192 Y32.318 E0.0239
; feature outer perimeter
G1 X0.807 Y32.061 F9000
G1 X1.060 Y31.589 E0.0205 F1200
G1 X1.215 Y31.077 E0.0205
G1 X1.268 Y30.544 E0.0205
G1 X1.215 Y30.011 E0.0205
G1 X1.060 Y29.499 E0.0205
G1 X0.807 Y29.026 E0.0205
G1 X0.468 Y28.613 E0.0205
G1 X0.081 Y28.295 E0.0192
G1 X-0.417 Y28.021 E0.0217
G1 X-0.931 Y27.865 E0.0205
G1 X-1.463 Y27.813 E0.0205
G1 X-1.996 Y27.865 E0.0205
G1 X-2.509 Y28.021 E0.0205
G1 X-2.981 Y28.273 E0.0205
G1 X-3.395 Y28.613 E0.0205
G1 X-3.734 Y29.026 E0.0205
G1 X-3.987 Y29.499 E0.0205
G1 X-4.142 Y30.011 E0.0205
G1 X-4.194 Y30.544 E0.0205
G1 X-4.142 Y31.077 E0.0205
G1 X-3.987 Y31.589 E0.0205
G1 X-3.734 Y32.061 E0.0205
G1 X-3.395 Y32.475 E0.0205
G1 X-2.981 Y32.815 E0.0205
G1 X-2.509 Y33.067 E0.0205
G1 X-1.996 Y33.222 E0.0205
G1 X-1.463 Y33.275 E0.0205
G1 X-0.931 Y33.222 E0.0205
G1 X-0.418 Y33.067 E0.0205
G1 X0.054 Y32.815 E0.0205
G1 X0.468 Y32.475 E0.0205
G1 X0.807 Y32.061 E0.0205
G1 E-1.9000 F1200
; feature inner perimeter
G1 Z0.700 F1200
G1 X-1.463 Y-27.320 F9000
G1 Z0.200 F1200
G1 E1.9000 F1200
G1 X-0.840 Y-27.382 E0.0239 F1800
G1 X-0.241 Y-27.563 E0.0239
G1 X0.311 Y-27.859 E0.0239
G1 X0.795 Y-28.256 E0.0239
G1 X1.192 Y-28.740 E0.0239
G1 X1.487 Y-29.292 E0.0239
G1 X1.669 Y-29.891 E0.0239
G1 X1.730 Y-30.514 E0.0239
G1 X1.669 Y-31.137 E0.0239
G1 X1.487 Y-31.736 E0.0239
G1 X1.192 Y-32.288 E0.0239
G1 X0.795 Y-32.772 E0.0239
G1 X0.311 Y-33.169 E0.0239
G1 X-0.241 Y-33.464 E0.0239
G1 X-0.804 Y-33.635 E0.0225
G1 X-1.459 Y-33.707 E0.0252
G1 X-2.086 Y-33.646 E0.0241
G1 X-2.685 Y-33.464 E0.0239
G1 X-3.238 Y-33.169 E0.0239
G1 X-3.721 Y-32.772 E0.0239
G1 X-4.119 Y-32.288 E0.0239
G1 X-4.414 Y-31.736 E0.0239
G1 X-4.595 Y-31.137 E0.0239
G1 X-4.657 Y-30.514 E0.0239
G1 X-4.595 Y-29.891 E0.0239
G1 X-4.414 Y-29.292 E0.0239
G1 X-4.119 Y-28.740 E0.0239
G1 X-3.721 Y-28.256 E0.0239
G1 X-3.238 Y-27.859 E0.0239
G1 X-2.685 Y-27.563 E0.0239
G1 X-2.086 Y-27.382 E0.0239
G1 X-1.463 Y-27.320 E0.0239
; feature outer perimeter
G1 X-1.463 Y-27.783 F9000
G1 X-0.931 Y-27.835 E0.0205 F1200
G1 X-0.418 Y-27.990 E0.0205
G1 X0.054 Y-28.243 E0.0205
G1 X0.468 Y-28.582 E0.0205
G1 X0.807 Y-28.996 E0.0205
G1 X1.060 Y-29.469 E0.0205
G1 X1.215 Y-29.981 E0.0205
G1 X1.268 Y-30.514 E0.0205
G1 X1.215 Y-31.047 E0.0205
G1 X1.060 Y-31.559 E0.0205
G1 X0.807 Y-32.031 E0.0205
G1 X0.468 Y-32.445 E0.0205
G1 X0.054 Y-32.785 E0.0205
G1 X-0.418 Y-33.037 E0.0205
G1 X-0.897 Y-33.182 E0.0192
G1 X-1.462 Y-33.245 E0.0217
G1 X-1.996 Y-33.192 E0.0205
G1 X-2.509 Y-33.037 E0.0205
G1 X-2.981 Y-32.785 E0.0205
G1 X-3.395 Y-32.445 E0.0205
G1 X-3.734 Y-32.031 E0.0205
G1 X-3.987 Y-31.559 E0.0205
G1 X-4.142 Y-31.047 E0.0205
G1 X-4.194 Y-30.514 E0.0205
G1 X-4.142 Y-29.981 E0.0205
G1 X-3.987 Y-29.469 E0.0205
G1 X-3.734 Y-28.996 E0.0205
G1 X-3.395 Y-28.582 E0.0205
G1 X-2.981 Y-28.243 E0.0205
G1 X-2.509 Y-27.990 E0.0205
G1 X-1.996 Y-27.835 E0.0205
G1 X-1.463 Y-27.783 E0.0205
; feature solid layer
G1 X-3.822 Y-27.892 F9000
G1 X6.860 Y-17.210 E0.5778 F2400
G1 X6.860 Y-17.861 E0.0249
G1 X-2.394 Y-27.115 E0.5006
G1 X-2.154 Y-27.042 E0.0096
G1 X-1.618 Y-26.989 E0.0206
G1 X6.860 Y-18.511 E0.4586
G1 X6.860 Y-19.162 E0.0249
G1 X-0.998 Y-27.020 E0.4251
G1 X-0.773 Y-27.042 E0.0087
G1 X-0.463 Y-27.136 E0.0124
G1 X6.860 Y-19.812 E0.3961
G1 X6.860 Y-20.463 E0.0249
G1 X0.014 Y-27.309 E0.3703
G1 X0.438 Y-27.535 E0.0184
G1 X6.860 Y-21.113 E0.3474
G1 X6.860 Y-21.764 E0.0249
G1 X0.805 Y-27.818 E0.3275
G1 X1.040 Y-28.011 E0.0116
G1 X1.141 Y-28.134 E0.0061
G1 X6.860 Y-22.414 E0.3094
G1 X6.860 Y-23.065 E0.0249
G1 X1.434 Y-28.491 E0.2935
G1 X1.480 Y-28.547 E0.0028
G1 X1.671 Y-28.904 E0.0155
G1 X6.860 Y-23.715 E0.2807
G1 X6.860 Y-24.366 E0.0249
G1 X1.868 Y-29.358 E0.2700
G1 X2.009 Y-29.823 E0.0186
G1 X2.013 Y-29.864 E0.0016
G1 X6.860 Y-25.016 E0.2622
G1 X6.860 Y-25.667 E0.0249
G1 X2.071 Y-30.456 E0.2591
G1 X2.077 Y-30.514 E0.0022
G1 X2.012 Y-31.165 E0.0250
G1 X6.860 Y-26.318 E0.2622
G1 X6.860 Y-26.968 E0.0249
G1 X1.632 Y-32.196 E0.2828
G1 X6.821 Y-36.114 F9000
G1 X6.860 Y-36.076 E0.0021 F2400
G1 X6.860 Y-35.425 E0.0249
G1 X6.171 Y-36.114 E0.0373
G1 X5.521 Y-36.113 E0.0249
G1 X6.860 Y-34.775 E0.0724
G1 X6.860 Y-34.124 E0.0249
G1 X4.871 Y-36.113 E0.1076
G1 X4.221 Y-36.113 E0.0249
G1 X6.860 Y-33.473 E0.1428
G1 X6.860 Y-32.823 E0.0249
G1 X3.571 Y-36.112 E0.1779
G1 X2.920 Y-36.112 E0.0249
G1 X6.860 Y-32.172 E0.2131
G1 X6.860 Y-31.522 E0.0249
G1 X2.270 Y-36.112 E0.2483
G1 X1.620 Y-36.111 E0.0249
G1 X6.860 Y-30.871 E0.2834
G1 X6.860 Y-30.221 E0.0249
G1 X0.970 Y-36.111 E0.3186
G1 X0.320 Y-36.110 E0.0249
G1 X6.860 Y-29.570 E0.3538
G1 X6.860 Y-28.920 E0.0249
G1 X-0.330 Y-36.110 E0.3889
G1 X-0.981 Y-36.110 E0.0249
G1 X6.860 Y-28.269 E0.4241
G1 X6.860 Y-27.619 E0.0249
G1 X-1.631 Y-36.109 E0.4593
G1 X-2.281 Y-36.109 E0.0249
G1 X0.219 Y-33.609 E0.1352
G1 X-0.109 Y-33.784 E0.0142
G1 X-0.735 Y-33.974 E0.0250
G1 X-0.804 Y-33.982 E0.0027
G1 X-2.931 Y-36.109 E0.1150
G1 X-3.581 Y-36.108 E0.0249
G1 X-1.521 Y-34.048 E0.1114
G1 X-2.113 Y-33.990 E0.0228
G1 X-4.231 Y-36.108 E0.1146
G1 X-4.882 Y-36.107 E0.0249
G1 X-2.619 Y-33.845 E0.1224
G1 X-2.818 Y-33.784 E0.0080
G1 X-3.073 Y-33.648 E0.0110
G1 X-5.532 Y-36.107 E0.1330
G1 X-6.182 Y-36.107 E0.0249
G1 X-3.486 Y-33.411 E0.1458
G1 X-3.844 Y-33.118 E0.0177
G1 X-6.832 Y-36.106 E0.1617
G1 X-6.860 Y-36.106 E0.0011
G1 X-6.860 Y-35.484 E0.0238
G1 X-4.159 Y-32.783 E0.1461
G1 X-4.407 Y-32.480 E0.0149
G1 X-4.442 Y-32.415 E0.0028
G1 X-6.860 Y-34.833 E0.1308
G1 X-6.860 Y-34.183 E0.0249
G1 X-4.668 Y-31.991 E0.1185
G1 X-4.734 Y-31.868 E0.0053
G1 X-4.842 Y-31.514 E0.0142
G1 X-6.860 Y-33.532 E0.1092
G1 X-6.860 Y-32.882 E0.0249
G1 X-4.958 Y-30.979 E0.1029
G1 X-5.003 Y-30.514 E0.0179
G1 X-4.988 Y-30.359 E0.0059
G1 X-6.860 Y-32.231 E0.1012
G1 X-6.860 Y-31.580 E0.0249
G1 X-4.863 Y-29.583 E0.1080
G1 X-4.734 Y-29.159 E0.0169
G1 X-4.407 Y-28.547 E0.0265
G1 X-4.085 Y-28.155 E0.0194
G1 X-6.860 Y-30.930 E0.1501
G1 X-6.860 Y-30.279 E0.0249
G1 X6.860 Y-16.559 E0.7421
G1 X6.860 Y-15.909 E0.0249
G1 X-6.860 Y-29.629 E0.7421
G1 X-6.860 Y-28.978 E0.0249
G1 X6.860 Y-15.258 E0.7421
G1 X6.860 Y-14.608 E0.0249
G1 X-6.860 Y-28.328 E0.7421
G1 X-6.860 Y-27.677 E0.0249
G1 X6.860 Y-13.957 E0.7421
G1 X6.860 Y-13.307 E0.0249
G1 X-6.860 Y-27.027 E0.7421
G1 X-6.860 Y-26.376 E0.0249
G1 X6.860 Y-12.656 E0.7421
G1 X6.860 Y-12.006 E0.0249
G1 X-6.860 Y-25.726 E0.7421
G1 X-6.860 Y-25.075 E0.0249
G1 X6.860 Y-11.355 E0.7421
G1 X6.860 Y-10.705 E0.0249
G1 X-6.860 Y-24.425 E0.7421
G1 X-6.860 Y-23.774 E0.0249
G1 X6.860 Y-10.054 E0.7421
G1 X6.860 Y-9.404 E0.0249
G1 X-6.860 Y-23.123 E0.7421
G1 X-6.860 Y-22.473 E0.0249
G1 X6.860 Y-8.753 E0.7421
G1 X6.860 Y-8.102 E0.0249
G1 X-6.860 Y-21.822 E0.7421
G1 X-6.860 Y-21.172 E0.0249
G1 X6.860 Y-7.452 E0.7421
G1 X6.860 Y-6.801 E0.0249
G1 X-6.860 Y-20.521 E0.7421
G1 X-6.860 Y-19.871 E0.0249
G1 X6.860 Y-6.151 E0.7421
G1 X6.860 Y-5.500 E0.0249
G1 X-6.860 Y-19.220 E0.7421
G1 X-6.860 Y-18.570 E0.0249
G1 X6.860 Y-4.850 E0.7421
G1 X6.860 Y-4.199 E0.0249
G1 X-6.860 Y-17.919 E0.7421
G1 X-6.860 Y-17.269 E0.0249
G1 X6.860 Y-3.549 E0.7421
G1 X6.860 Y-2.898 E0.0249
G1 X-6.860 Y-16.618 E0.7421
G1 X-6.860 Y-15.968 E0.0249
G1 X6.860 Y-2.248 E0.7421
G1 X6.860 Y-1.597 E0.0249
G1 X-6.860 Y-15.317 E0.7421
G1 X-6.860 Y-14.666 E0.0249
G1 X6.860 Y-0.947 E0.7421
G1 X6.860 Y-0.296 E0.0249
G1 X-6.860 Y-14.016 E0.7421
G1 X-6.860 Y-13.365 E0.0249
