; G-Code generated by Simplify3D(R) Version 4.1.2
; Apr 2, 2020 at 6:21:22 PM
; Settings Summary
;   processName,Process1
;   applyToModels,SpeakerV2R1Body,speaker bracket 2,speaker bracket,SpeakerV2R1Body(2)
;   profileName,MakerBot Replicator 2 HBP (modified)
;   profileVersion,2020-03-12 10:48:50
;   baseProfile,MakerBot Replicator 2(2)
;   printMaterial,PLA
;   printQuality,Medium
;   printExtruders,
;   extruderName,Primary Extruder
;   extruderToolheadNumber,0
;   extruderDiameter,0.4
;   extruderAutoWidth,0
;   extruderWidth,0.4
;   extrusionMultiplier,1
;   extruderUseRetract,1
;   extruderRetractionDistance,1.9
;   extruderExtraRestartDistance,0
;   extruderRetractionZLift,0.5
;   extruderRetractionSpeed,1200
;   extruderUseCoasting,0
;   extruderCoastingDistance,0.2
;   extruderUseWipe,0
;   extruderWipeDistance,5
;   primaryExtruder,0
;   layerHeight,0.2
;   topSolidLayers,3
;   bottomSolidLayers,3
;   perimeterOutlines,2
;   printPerimetersInsideOut,1
;   startPointOption,3
;   startPointOriginX,0
;   startPointOriginY,150
;   sequentialIslands,0
;   spiralVaseMode,0
;   firstLayerHeightPercentage,100
;   firstLayerWidthPercentage,115
;   firstLayerUnderspeed,0.5
;   useRaft,0
;   raftExtruder,0
;   raftTopLayers,2
;   raftBaseLayers,1
;   raftOffset,1
;   raftSeparationDistance,0.14
;   raftTopInfill,90
;   aboveRaftSpeedMultiplier,0.3
;   useSkirt,0
;   skirtExtruder,0
;   skirtLayers,1
;   skirtOutlines,10
;   skirtOffset,0
;   usePrimePillar,0
;   primePillarExtruder,999
;   primePillarWidth,12
;   primePillarLocation,7
;   primePillarSpeedMultiplier,1
;   useOozeShield,0
;   oozeShieldExtruder,999
;   oozeShieldOffset,2
;   oozeShieldOutlines,1
;   oozeShieldSidewallShape,1
;   oozeShieldSidewallAngle,30
;   oozeShieldSpeedMultiplier,1
;   infillExtruder,0
;   internalInfillPattern,Rectilinear
;   externalInfillPattern,Rectilinear
;   infillPercentage,15
;   outlineOverlapPercentage,25
;   infillExtrusionWidthPercentage,100
;   minInfillLength,5
;   infillLayerInterval,1
;   internalInfillAngles,45,-45
;   overlapInternalInfillAngles,0
;   externalInfillAngles,45,-45
;   generateSupport,1
;   supportExtruder,0
;   supportInfillPercentage,30
;   supportExtraInflation,0.5
;   supportBaseLayers,0
;   denseSupportExtruder,0
;   denseSupportLayers,2
;   denseSupportInfillPercentage,90
;   supportLayerInterval,1
;   supportHorizontalPartOffset,0.3
;   supportUpperSeparationLayers,1
;   supportLowerSeparationLayers,1
;   supportType,1
;   supportGridSpacing,2
;   maxOverhangAngle,45
;   supportAngles,45,-45
;   temperatureName,Primary Extruder,Heated Build Platform
;   temperatureNumber,0,0
;   temperatureSetpointCount,1,1
;   temperatureSetpointLayers,1,1
;   temperatureSetpointTemperatures,230,60
;   temperatureStabilizeAtStartup,1,1
;   temperatureHeatedBed,0,1
;   fanLayers,1,2
;   fanSpeeds,0,100
;   blipFanToFullPower,1
;   adjustSpeedForCooling,1
;   minSpeedLayerTime,15
;   minCoolingSpeedSlowdown,20
;   increaseFanForCooling,1
;   minFanLayerTime,45
;   maxCoolingFanSpeed,100
;   increaseFanForBridging,1
;   bridgingFanSpeed,100
;   use5D,1
;   relativeEdistances,1
;   allowEaxisZeroing,0
;   independentExtruderAxes,1
;   includeM10123,0
;   stickySupport,1
;   applyToolheadOffsets,0
;   gcodeXoffset,0
;   gcodeYoffset,0
;   gcodeZoffset,0
;   overrideMachineDefinition,1
;   machineTypeOverride,0
;   strokeXoverride,280
;   strokeYoverride,150
;   strokeZoverride,150
;   originOffsetXoverride,140
;   originOffsetYoverride,75
;   originOffsetZoverride,0
;   homeXdirOverride,1
;   homeYdirOverride,1
;   homeZdirOverride,-1
;   flipXoverride,1
;   flipYoverride,-1
;   flipZoverride,1
;   toolheadOffsets,0,0|0,0|0,0|0,0|0,0|0,0
;   overrideFirmwareConfiguration,1
;   firmwareTypeOverride,MakerBot/Sailfish Firmware
;   GPXconfigOverride,r2h
;   baudRateOverride,115200
;   overridePrinterModels,1
;   printerModelsOverride,MakerBot_Replicator2.stl
;   startingGcode,; **** Replicator 2 start.gcode ****,M73 P0 ; enable build progress,G162 X Y F3000 ; home XY maximum,G161 Z F1200 ; home Z minimum,G92 Z-5 ; set Z to -5,G1 Z0 ; move Z to 0,G161 Z F100 ; home Z slowly,M132 X Y Z A B ; recall home offsets,G1 X-145 Y-75 Z30 F9000 ; move to wait position off table,G130 X20 Y20 Z20 A20 B20 ; lower stepper Vrefs while heating,M126 S[fan_speed_pwm],M140 S[bed0_temperature] T0,M134 T0 ; stabilize bed temperature,M104 S[extruder0_temperature] T0,M133 T0 ; stabilize extruder temperature,G130 X127 Y127 Z40 A127 B127 ; default stepper Vrefs,G92 A0 ; zero extruder,G1 Z0.4 ; position nozzle,G1 E25 F300 ; purge nozzle,G1 X-140 Y-70 Z0.15 F1200 ; slow wipe,G1 X-135 Y-65 Z0.5 F1200 ; lift,G92 A0 ; zero extruder,M73 P1 ;@body (notify GPX body has started),; **** end of start.gcode ****
;   layerChangeGcode,
;   retractionGcode,
;   toolChangeGcode,
;   endingGcode,; **** Replicator 2 end.gcode ****,M73 P100 ; end build progress,G1 Z155 F1000 ; send Z axis to bottom of machine,M104 S0 T0 ; cool down extruder,M140 S0 T0 ; cool down HBP,M127 ; stop blower fan,G162 X Y F3000 ; home XY maximum,M18 ; disable stepper,M0 ; stop codes,M72 P1 ; play Ta-Da song,; **** end of end.gcode ****
;   exportFileFormat,gcode
;   celebration,0
;   celebrationSong,Random Song
;   postProcessing,
;   defaultSpeed,4800
;   outlineUnderspeed,0.5
;   solidInfillUnderspeed,1
;   supportUnderspeed,1
;   rapidXYspeed,9000
;   rapidZspeed,1200
;   minBridgingArea,50
;   bridgingExtraInflation,0
;   bridgingExtrusionMultiplier,1
;   bridgingSpeedMultiplier,0.8
;   useFixedBridgingAngle,0
;   fixedBridgingAngle,0
;   applyBridgingToPerimeters,0
;   filamentDiameters,1.75|1.75|1.75|1.75|1.75|1.75
;   filamentPricesPerKg,46|46|46|46|46|46
;   filamentDensities,1.25|1.25|1.25|1.25|1.25|1.25
;   useMinPrintHeight,0
;   minPrintHeight,0
;   useMaxPrintHeight,0
;   maxPrintHeight,4.84
;   useDiaphragm,0
;   diaphragmLayerInterval,20
;   robustSlicing,1
;   mergeAllIntoSolid,0
;   onlyRetractWhenCrossingOutline,0
;   retractBetweenLayers,0
;   useRetractionMinTravel,1
;   retractionMinTravel,7
;   retractWhileWiping,1
;   onlyWipeOutlines,1
;   avoidCrossingOutline,0
;   maxMovementDetourFactor,3
;   toolChangeRetractionDistance,12
;   toolChangeExtraRestartDistance,-0.5
;   toolChangeRetractionSpeed,600
;   externalThinWallType,0
;   internalThinWallType,0
;   thinWallAllowedOverlapPercentage,10
;   singleExtrusionMinLength,1
;   singleExtrusionMinPrintingWidthPercentage,50
;   singleExtrusionMaxPrintingWidthPercentage,200
;   singleExtrusionEndpointExtension,0.2
;   horizontalSizeCompensation,0
G90
M83
; **** Replicator 2 start.gcode ****
M73 P0 ; enable build progress
G162 X Y F3000 ; home XY maximum
G161 Z F1200 ; home Z minimum
G92 Z-5 ; set Z to -5
G1 Z0 ; move Z to 0
G161 Z F100 ; home Z slowly
M132 X Y Z A B ; recall home offsets
G1 X-145 Y-75 Z30 F9000 ; move to wait position off table
G130 X20 Y20 Z20 A20 B20 ; lower stepper Vrefs while heating
M127
M140 S60 T0
M134 T0 ; stabilize bed temperature
M104 S230 T0
M133 T0 ; stabilize extruder temperature
G130 X127 Y127 Z40 A127 B127 ; default stepper Vrefs
G92 A0 ; zero extruder
G1 Z0.4 ; position nozzle
G1 E25 F300 ; purge nozzle
G1 X-140 Y-70 Z0.15 F1200 ; slow wipe
G1 X-135 Y-65 Z0.5 F1200 ; lift
G92 A0 ; zero extruder
M73 P1 ;@body (notify GPX body has started)
; **** end of start.gcode ****
; process Process1
; layer 1, Z = 0.200
M135 T0
G1 E-1.9000 F1200
; feature inner perimeter
; tool H0.200 W0.460
G1 Z0.500 F1200
G1 X4.276 Y10.506 F9000
G1 Z0.200 F1200
G1 E1.9000 F1200
G1 X4.276 Y-21.506 E1.2244 F1800
G1 X46.984 Y-21.506 E1.6336
G1 X46.984 Y10.506 E1.2244
G1 X4.276 Y10.506 E1.6336
; feature outer perimeter
G1 X3.816 Y10.966 F9000
G1 X3.816 Y-21.966 E1.2596 F1200
G1 X47.444 Y-21.966 E1.6688
G1 X47.444 Y10.966 E1.2596
G1 X3.816 Y10.966 E1.6688
; feature solid layer
G1 X4.709 Y10.161 F9000
G1 X4.621 Y10.072 E0.0048 F2400
G1 X4.621 Y9.422 E0.0249
G1 X5.360 Y10.161 E0.0400
G1 X6.010 Y10.161 E0.0249
G1 X4.621 Y8.771 E0.0752
G1 X4.621 Y8.121 E0.0249
G1 X6.661 Y10.161 E0.1104
G1 X7.311 Y10.161 E0.0249
G1 X4.621 Y7.470 E0.1455
G1 X4.621 Y6.820 E0.0249
G1 X7.962 Y10.161 E0.1807
G1 X8.613 Y10.161 E0.0249
G1 X4.621 Y6.169 E0.2159
G1 X4.621 Y5.519 E0.0249
G1 X9.263 Y10.161 E0.2511
G1 X9.914 Y10.161 E0.0249
G1 X4.621 Y4.868 E0.2863
G1 X4.621 Y4.218 E0.0249
G1 X10.564 Y10.161 E0.3215
G1 X11.215 Y10.161 E0.0249
G1 X4.621 Y3.567 E0.3567
G1 X4.621 Y2.916 E0.0249
G1 X11.865 Y10.161 E0.3919
G1 X12.516 Y10.161 E0.0249
G1 X4.621 Y2.266 E0.4271
G1 X4.621 Y1.615 E0.0249
G1 X13.166 Y10.161 E0.4623
G1 X13.817 Y10.161 E0.0249
G1 X4.621 Y0.965 E0.4974
G1 X4.621 Y0.314 E0.0249
G1 X14.467 Y10.161 E0.5326
G1 X15.118 Y10.161 E0.0249
G1 X4.621 Y-0.336 E0.5678
G1 X4.621 Y-0.987 E0.0249
G1 X15.768 Y10.161 E0.6030
G1 X16.419 Y10.161 E0.0249
G1 X4.621 Y-1.637 E0.6382
G1 X4.621 Y-2.288 E0.0249
G1 X17.070 Y10.161 E0.6734
G1 X17.720 Y10.161 E0.0249
G1 X4.621 Y-2.938 E0.7086
G1 X4.621 Y-3.589 E0.0249
G1 X18.371 Y10.161 E0.7438
G1 X19.021 Y10.161 E0.0249
G1 X4.621 Y-4.239 E0.7790
G1 X4.621 Y-4.890 E0.0249
G1 X19.672 Y10.161 E0.8141
G1 X20.322 Y10.161 E0.0249
G1 X4.621 Y-5.541 E0.8493
G1 X4.621 Y-6.191 E0.0249
G1 X20.973 Y10.161 E0.8845
G1 X21.623 Y10.161 E0.0249
G1 X4.621 Y-6.842 E0.9197
G1 X4.621 Y-7.492 E0.0249
G1 X22.274 Y10.161 E0.9549
G1 X22.924 Y10.161 E0.0249
G1 X4.621 Y-8.143 E0.9901
G1 X4.621 Y-8.793 E0.0249
G1 X23.575 Y10.161 E1.0253
G1 X24.225 Y10.161 E0.0249
G1 X4.621 Y-9.444 E1.0605
G1 X4.621 Y-10.094 E0.0249
G1 X24.876 Y10.161 E1.0957
G1 X25.527 Y10.161 E0.0249
G1 X4.621 Y-10.745 E1.1308
G1 X4.621 Y-11.395 E0.0249
G1 X26.177 Y10.161 E1.1660
G1 X26.828 Y10.161 E0.0249
G1 X4.621 Y-12.046 E1.2012
G1 X4.621 Y-12.696 E0.0249
G1 X27.478 Y10.161 E1.2364
G1 X28.129 Y10.161 E0.0249
G1 X4.621 Y-13.347 E1.2716
G1 X4.621 Y-13.998 E0.0249
G1 X28.779 Y10.161 E1.3068
G1 X29.430 Y10.161 E0.0249
G1 X4.621 Y-14.648 E1.3420
G1 X4.621 Y-15.299 E0.0249
G1 X30.080 Y10.161 E1.3772
G1 X30.731 Y10.161 E0.0249
G1 X4.621 Y-15.949 E1.4124
G1 X4.621 Y-16.600 E0.0249
G1 X31.381 Y10.161 E1.4476
G1 X32.032 Y10.161 E0.0249
G1 X4.621 Y-17.250 E1.4827
G1 X4.621 Y-17.901 E0.0249
G1 X32.682 Y10.161 E1.5179
G1 X33.333 Y10.161 E0.0249
G1 X4.621 Y-18.551 E1.5531
G1 X4.621 Y-19.202 E0.0249
G1 X33.984 Y10.161 E1.5883
G1 X34.634 Y10.161 E0.0249
G1 X4.621 Y-19.852 E1.6235
G1 X4.621 Y-20.503 E0.0249
G1 X35.285 Y10.161 E1.6587
G1 X35.935 Y10.161 E0.0249
G1 X4.621 Y-21.153 E1.6939
G1 X4.621 Y-21.161 E0.0003
G1 X5.264 Y-21.161 E0.0246
G1 X36.586 Y10.161 E1.6943
G1 X37.236 Y10.161 E0.0249
G1 X5.914 Y-21.161 E1.6943
G1 X6.565 Y-21.161 E0.0249
G1 X37.887 Y10.161 E1.6943
G1 X38.537 Y10.161 E0.0249
G1 X7.215 Y-21.161 E1.6943
G1 X7.866 Y-21.161 E0.0249
G1 X39.188 Y10.161 E1.6943
G1 X39.838 Y10.161 E0.0249
G1 X8.517 Y-21.161 E1.6943
G1 X9.167 Y-21.161 E0.0249
G1 X40.489 Y10.161 E1.6943
G1 X41.139 Y10.161 E0.0249
G1 X9.818 Y-21.161 E1.6943
G1 X10.468 Y-21.161 E0.0249
G1 X41.790 Y10.161 E1.6943
G1 X42.441 Y10.161 E0.0249
G1 X11.119 Y-21.161 E1.6943
G1 X11.769 Y-21.161 E0.0249
G1 X43.091 Y10.161 E1.6943
G1 X43.742 Y10.161 E0.0249
G1 X12.420 Y-21.161 E1.6943
G1 X13.070 Y-21.161 E0.0249
G1 X44.392 Y10.161 E1.6943
G1 X45.043 Y10.161 E0.0249
G1 X13.721 Y-21.161 E1.6943
G1 X14.371 Y-21.161 E0.0249
G1 X45.693 Y10.161 E1.6943
G1 X46.344 Y10.161 E0.0249
G1 X15.022 Y-21.161 E1.6943
G1 X15.672 Y-21.161 E0.0249
G1 X46.639 Y9.806 E1.6751
G1 X46.639 Y9.155 E0.0249
G1 X16.323 Y-21.161 E1.6399
G1 X16.974 Y-21.161 E0.0249
G1 X46.639 Y8.505 E1.6047
G1 X46.639 Y7.854 E0.0249
G1 X17.624 Y-21.161 E1.5695
G1 X18.275 Y-21.161 E0.0249
G1 X46.639 Y7.204 E1.5343
G1 X46.639 Y6.553 E0.0249
G1 X18.925 Y-21.161 E1.4991
G1 X19.576 Y-21.161 E0.0249
G1 X46.639 Y5.903 E1.4639
G1 X46.639 Y5.252 E0.0249
G1 X20.226 Y-21.161 E1.4287
G1 X20.877 Y-21.161 E0.0249
G1 X46.639 Y4.602 E1.3936
G1 X46.639 Y3.951 E0.0249
G1 X21.527 Y-21.161 E1.3584
G1 X22.178 Y-21.161 E0.0249
G1 X46.639 Y3.300 E1.3232
G1 X46.639 Y2.650 E0.0249
G1 X22.828 Y-21.161 E1.2880
G1 X23.479 Y-21.161 E0.0249
G1 X46.639 Y1.999 E1.2528
G1 X46.639 Y1.349 E0.0249
G1 X24.129 Y-21.161 E1.2176
G1 X24.780 Y-21.161 E0.0249
G1 X46.639 Y0.698 E1.1824
G1 X46.639 Y0.048 E0.0249
G1 X25.431 Y-21.161 E1.1472
G1 X26.081 Y-21.161 E0.0249
G1 X46.639 Y-0.603 E1.1120
G1 X46.639 Y-1.253 E0.0249
G1 X26.732 Y-21.161 E1.0769
G1 X27.382 Y-21.161 E0.0249
G1 X46.639 Y-1.904 E1.0417
G1 X46.639 Y-2.554 E0.0249
G1 X28.033 Y-21.161 E1.0065
G1 X28.683 Y-21.161 E0.0249
G1 X46.639 Y-3.205 E0.9713
G1 X46.639 Y-3.855 E0.0249
G1 X29.334 Y-21.161 E0.9361
G1 X29.984 Y-21.161 E0.0249
G1 X46.639 Y-4.506 E0.9009
G1 X46.639 Y-5.157 E0.0249
G1 X30.635 Y-21.161 E0.8657
G1 X31.285 Y-21.161 E0.0249
G1 X46.639 Y-5.807 E0.8305
G1 X46.639 Y-6.458 E0.0249
G1 X31.936 Y-21.161 E0.7953
G1 X32.586 Y-21.161 E0.0249
G1 X46.639 Y-7.108 E0.7602
G1 X46.639 Y-7.759 E0.0249
G1 X33.237 Y-21.161 E0.7250
G1 X33.888 Y-21.161 E0.0249
G1 X46.639 Y-8.409 E0.6898
G1 X46.639 Y-9.060 E0.0249
G1 X34.538 Y-21.161 E0.6546
G1 X35.189 Y-21.161 E0.0249
G1 X46.639 Y-9.710 E0.6194
G1 X46.639 Y-10.361 E0.0249
G1 X35.839 Y-21.161 E0.5842
G1 X36.490 Y-21.161 E0.0249
G1 X46.639 Y-11.011 E0.5490
G1 X46.639 Y-11.662 E0.0249
G1 X37.140 Y-21.161 E0.5138
G1 X37.791 Y-21.161 E0.0249
G1 X46.639 Y-12.312 E0.4786
G1 X46.639 Y-12.963 E0.0249
G1 X38.441 Y-21.161 E0.4434
G1 X39.092 Y-21.161 E0.0249
G1 X46.639 Y-13.614 E0.4083
G1 X46.639 Y-14.264 E0.0249
G1 X39.742 Y-21.161 E0.3731
G1 X40.393 Y-21.161 E0.0249
G1 X46.639 Y-14.915 E0.3379
G1 X46.639 Y-15.565 E0.0249
G1 X41.043 Y-21.161 E0.3027
G1 X41.694 Y-21.161 E0.0249
G1 X46.639 Y-16.216 E0.2675
G1 X46.639 Y-16.866 E0.0249
G1 X42.345 Y-21.161 E0.2323
G1 X42.995 Y-21.161 E0.0249
G1 X46.639 Y-17.517 E0.1971
G1 X46.639 Y-18.167 E0.0249
G1 X43.646 Y-21.161 E0.1619
G1 X44.296 Y-21.161 E0.0249
G1 X46.639 Y-18.818 E0.1267
G1 X46.639 Y-19.468 E0.0249
G1 X44.947 Y-21.161 E0.0916
G1 X45.597 Y-21.161 E0.0249
G1 X46.639 Y-20.119 E0.0564
G1 X46.639 Y-20.769 E0.0249
G1 X46.248 Y-21.161 E0.0212
G1 E-1.9000 F1200
; feature inner perimeter
G1 Z0.700 F1200
G1 X-15.070 Y29.304 F9000
G1 Z0.200 F1200
G1 E1.9000 F1200
G1 X-15.070 Y20.708 E0.3288 F1800
G1 X28.540 Y20.708 E1.6681
G1 X28.540 Y29.304 E0.3288
G1 X-15.070 Y29.304 E1.6681
; feature outer perimeter
G1 X-15.530 Y29.764 F9000
G1 X-15.530 Y20.248 E0.3640 F1200
G1 X29.000 Y20.248 E1.7032
G1 X29.000 Y29.764 E0.3640
G1 X-15.530 Y29.764 E1.7032
; feature solid layer
G1 X-14.725 Y28.458 F9000
G1 X-14.224 Y28.959 E0.0271 F2400
G1 X-13.574 Y28.959 E0.0249
G1 X-14.725 Y27.807 E0.0623
G1 X-14.725 Y27.157 E0.0249
G1 X-12.923 Y28.959 E0.0975
G1 X-12.273 Y28.959 E0.0249
G1 X-14.725 Y26.506 E0.1327
G1 X-14.725 Y25.856 E0.0249
G1 X-11.622 Y28.959 E0.1678
G1 X-10.971 Y28.959 E0.0249
G1 X-14.725 Y25.205 E0.2030
G1 X-14.725 Y24.555 E0.0249
G1 X-10.321 Y28.959 E0.2382
G1 X-9.670 Y28.959 E0.0249
G1 X-14.725 Y23.904 E0.2734
G1 X-14.725 Y23.254 E0.0249
G1 X-9.020 Y28.959 E0.3086
G1 X-8.369 Y28.959 E0.0249
G1 X-14.725 Y22.603 E0.3438
G1 X-14.725 Y21.952 E0.0249
G1 X-7.719 Y28.959 E0.3790
G1 X-7.068 Y28.959 E0.0249
G1 X-14.725 Y21.302 E0.4142
G1 X-14.725 Y21.053 E0.0095
G1 X-14.323 Y21.053 E0.0154
G1 X-6.418 Y28.959 E0.4276
G1 X-5.767 Y28.959 E0.0249
G1 X-13.673 Y21.053 E0.4276
G1 X-13.022 Y21.053 E0.0249
G1 X-5.117 Y28.959 E0.4276
G1 X-4.466 Y28.959 E0.0249
G1 X-12.372 Y21.053 E0.4276
G1 X-11.721 Y21.053 E0.0249
G1 X-3.816 Y28.959 E0.4276
G1 X-3.165 Y28.959 E0.0249
G1 X-11.071 Y21.053 E0.4276
G1 X-10.420 Y21.053 E0.0249
G1 X-2.514 Y28.959 E0.4276
G1 X-1.864 Y28.959 E0.0249
G1 X-9.770 Y21.053 E0.4276
G1 X-9.119 Y21.053 E0.0249
G1 X-1.213 Y28.959 E0.4276
G1 X-0.563 Y28.959 E0.0249
G1 X-8.469 Y21.053 E0.4276
G1 X-7.818 Y21.053 E0.0249
G1 X0.088 Y28.959 E0.4276
G1 X0.738 Y28.959 E0.0249
G1 X-7.167 Y21.053 E0.4276
G1 X-6.517 Y21.053 E0.0249
G1 X1.389 Y28.959 E0.4276
G1 X2.039 Y28.959 E0.0249
G1 X-5.866 Y21.053 E0.4276
G1 X-5.216 Y21.053 E0.0249
G1 X2.690 Y28.959 E0.4276
G1 X3.340 Y28.959 E0.0249
G1 X-4.565 Y21.053 E0.4276
G1 X-3.915 Y21.053 E0.0249
