; G-Code generated by Simplify3D(R) Version 4.1.2
; Apr 2, 2020 at 6:22:03 PM
; Settings Summary
;   processName,Process1
;   applyToModels,speaker frame,speaker knobs,speaker frame(2),speaker knobs(2)
;   profileName,MakerBot Replicator 2 HBP (modified)
;   profileVersion,2020-03-12 10:48:50
;   baseProfile,MakerBot Replicator 2(2)
;   printMaterial,PLA
;   printQuality,Medium
;   printExtruders,
;   extruderName,Primary Extruder
;   extruderToolheadNumber,0
;   extruderDiameter,0.4
;   extruderAutoWidth,0
;   extruderWidth,0.4
;   extrusionMultiplier,1
;   extruderUseRetract,1
;   extruderRetractionDistance,1.9
;   extruderExtraRestartDistance,0
;   extruderRetractionZLift,0.5
;   extruderRetractionSpeed,1200
;   extruderUseCoasting,0
;   extruderCoastingDistance,0.2
;   extruderUseWipe,0
;   extruderWipeDistance,5
;   primaryExtruder,0
;   layerHeight,0.2
;   topSolidLayers,3
;   bottomSolidLayers,3
;   perimeterOutlines,2
;   printPerimetersInsideOut,1
;   startPointOption,3
;   startPointOriginX,0
;   startPointOriginY,150
;   sequentialIslands,0
;   spiralVaseMode,0
;   firstLayerHeightPercentage,100
;   firstLayerWidthPercentage,115
;   firstLayerUnderspeed,0.5
;   useRaft,0
;   raftExtruder,0
;   raftTopLayers,2
;   raftBaseLayers,1
;   raftOffset,1
;   raftSeparationDistance,0.14
;   raftTopInfill,90
;   aboveRaftSpeedMultiplier,0.3
;   useSkirt,0
;   skirtExtruder,0
;   skirtLayers,1
;   skirtOutlines,10
;   skirtOffset,0
;   usePrimePillar,0
;   primePillarExtruder,999
;   primePillarWidth,12
;   primePillarLocation,7
;   primePillarSpeedMultiplier,1
;   useOozeShield,0
;   oozeShieldExtruder,999
;   oozeShieldOffset,2
;   oozeShieldOutlines,1
;   oozeShieldSidewallShape,1
;   oozeShieldSidewallAngle,30
;   oozeShieldSpeedMultiplier,1
;   infillExtruder,0
;   internalInfillPattern,Rectilinear
;   externalInfillPattern,Rectilinear
;   infillPercentage,15
;   outlineOverlapPercentage,25
;   infillExtrusionWidthPercentage,100
;   minInfillLength,5
;   infillLayerInterval,1
;   internalInfillAngles,45,-45
;   overlapInternalInfillAngles,0
;   externalInfillAngles,45,-45
;   generateSupport,1
;   supportExtruder,0
;   supportInfillPercentage,30
;   supportExtraInflation,0.5
;   supportBaseLayers,0
;   denseSupportExtruder,0
;   denseSupportLayers,2
;   denseSupportInfillPercentage,90
;   supportLayerInterval,1
;   supportHorizontalPartOffset,0.3
;   supportUpperSeparationLayers,1
;   supportLowerSeparationLayers,1
;   supportType,1
;   supportGridSpacing,2
;   maxOverhangAngle,45
;   supportAngles,45,-45
;   temperatureName,Primary Extruder,Heated Build Platform
;   temperatureNumber,0,0
;   temperatureSetpointCount,1,1
;   temperatureSetpointLayers,1,1
;   temperatureSetpointTemperatures,230,60
;   temperatureStabilizeAtStartup,1,1
;   temperatureHeatedBed,0,1
;   fanLayers,1,2
;   fanSpeeds,0,100
;   blipFanToFullPower,1
;   adjustSpeedForCooling,1
;   minSpeedLayerTime,15
;   minCoolingSpeedSlowdown,20
;   increaseFanForCooling,1
;   minFanLayerTime,45
;   maxCoolingFanSpeed,100
;   increaseFanForBridging,1
;   bridgingFanSpeed,100
;   use5D,1
;   relativeEdistances,1
;   allowEaxisZeroing,0
;   independentExtruderAxes,1
;   includeM10123,0
;   stickySupport,1
;   applyToolheadOffsets,0
;   gcodeXoffset,0
;   gcodeYoffset,0
;   gcodeZoffset,0
;   overrideMachineDefinition,1
;   machineTypeOverride,0
;   strokeXoverride,280
;   strokeYoverride,150
;   strokeZoverride,150
;   originOffsetXoverride,140
;   originOffsetYoverride,75
;   originOffsetZoverride,0
;   homeXdirOverride,1
;   homeYdirOverride,1
;   homeZdirOverride,-1
;   flipXoverride,1
;   flipYoverride,-1
;   flipZoverride,1
;   toolheadOffsets,0,0|0,0|0,0|0,0|0,0|0,0
;   overrideFirmwareConfiguration,1
;   firmwareTypeOverride,MakerBot/Sailfish Firmware
;   GPXconfigOverride,r2h
;   baudRateOverride,115200
;   overridePrinterModels,1
;   printerModelsOverride,MakerBot_Replicator2.stl
;   startingGcode,; **** Replicator 2 start.gcode ****,M73 P0 ; enable build progress,G162 X Y F3000 ; home XY maximum,G161 Z F1200 ; home Z minimum,G92 Z-5 ; set Z to -5,G1 Z0 ; move Z to 0,G161 Z F100 ; home Z slowly,M132 X Y Z A B ; recall home offsets,G1 X-145 Y-75 Z30 F9000 ; move to wait position off table,G130 X20 Y20 Z20 A20 B20 ; lower stepper Vrefs while heating,M126 S[fan_speed_pwm],M140 S[bed0_temperature] T0,M134 T0 ; stabilize bed temperature,M104 S[extruder0_temperature] T0,M133 T0 ; stabilize extruder temperature,G130 X127 Y127 Z40 A127 B127 ; default stepper Vrefs,G92 A0 ; zero extruder,G1 Z0.4 ; position nozzle,G1 E25 F300 ; purge nozzle,G1 X-140 Y-70 Z0.15 F1200 ; slow wipe,G1 X-135 Y-65 Z0.5 F1200 ; lift,G92 A0 ; zero extruder,M73 P1 ;@body (notify GPX body has started),; **** end of start.gcode ****
;   layerChangeGcode,
;   retractionGcode,
;   toolChangeGcode,
;   endingGcode,; **** Replicator 2 end.gcode ****,M73 P100 ; end build progress,G1 Z155 F1000 ; send Z axis to bottom of machine,M104 S0 T0 ; cool down extruder,M140 S0 T0 ; cool down HBP,M127 ; stop blower fan,G162 X Y F3000 ; home XY maximum,M18 ; disable stepper,M0 ; stop codes,M72 P1 ; play Ta-Da song,; **** end of end.gcode ****
;   exportFileFormat,gcode
;   celebration,0
;   celebrationSong,Random Song
;   postProcessing,
;   defaultSpeed,4800
;   outlineUnderspeed,0.5
;   solidInfillUnderspeed,1
;   supportUnderspeed,1
;   rapidXYspeed,9000
;   rapidZspeed,1200
;   minBridgingArea,50
;   bridgingExtraInflation,0
;   bridgingExtrusionMultiplier,1
;   bridgingSpeedMultiplier,0.8
;   useFixedBridgingAngle,0
;   fixedBridgingAngle,0
;   applyBridgingToPerimeters,0
;   filamentDiameters,1.75|1.75|1.75|1.75|1.75|1.75
;   filamentPricesPerKg,46|46|46|46|46|46
;   filamentDensities,1.25|1.25|1.25|1.25|1.25|1.25
;   useMinPrintHeight,0
;   minPrintHeight,0
;   useMaxPrintHeight,0
;   maxPrintHeight,4.84
;   useDiaphragm,0
;   diaphragmLayerInterval,20
;   robustSlicing,1
;   mergeAllIntoSolid,0
;   onlyRetractWhenCrossingOutline,0
;   retractBetweenLayers,0
;   useRetractionMinTravel,1
;   retractionMinTravel,7
;   retractWhileWiping,1
;   onlyWipeOutlines,1
;   avoidCrossingOutline,0
;   maxMovementDetourFactor,3
;   toolChangeRetractionDistance,12
;   toolChangeExtraRestartDistance,-0.5
;   toolChangeRetractionSpeed,600
;   externalThinWallType,0
;   internalThinWallType,0
;   thinWallAllowedOverlapPercentage,10
;   singleExtrusionMinLength,1
;   singleExtrusionMinPrintingWidthPercentage,50
;   singleExtrusionMaxPrintingWidthPercentage,200
;   singleExtrusionEndpointExtension,0.2
;   horizontalSizeCompensation,0
G90
M83
; **** Replicator 2 start.gcode ****
M73 P0 ; enable build progress
G162 X Y F3000 ; home XY maximum
G161 Z F1200 ; home Z minimum
G92 Z-5 ; set Z to -5
G1 Z0 ; move Z to 0
G161 Z F100 ; home Z slowly
M132 X Y Z A B ; recall home offsets
G1 X-145 Y-75 Z30 F9000 ; move to wait position off table
G130 X20 Y20 Z20 A20 B20 ; lower stepper Vrefs while heating
M127
M140 S60 T0
M134 T0 ; stabilize bed temperature
M104 S230 T0
M133 T0 ; stabilize extruder temperature
G130 X127 Y127 Z40 A127 B127 ; default stepper Vrefs
G92 A0 ; zero extruder
G1 Z0.4 ; position nozzle
G1 E25 F300 ; purge nozzle
G1 X-140 Y-70 Z0.15 F1200 ; slow wipe
G1 X-135 Y-65 Z0.5 F1200 ; lift
G92 A0 ; zero extruder
M73 P1 ;@body (notify GPX body has started)
; **** end of start.gcode ****
; process Process1
; layer 1, Z = 0.200
M135 T0
G1 E-1.9000 F1200
; feature inner perimeter
; tool H0.200 W0.460
G1 Z0.500 F1200
G1 X-12.135 Y19.875 F9000
G1 Z0.200 F1200
G1 E1.9000 F1200
G1 X-12.135 Y-19.875 E1.5204 F1800
G1 X33.611 Y-19.875 E1.7497
G1 X33.611 Y19.875 E1.5204
G1 X-12.135 Y19.875 E1.7497
; feature outer perimeter
G1 X-12.595 Y20.335 F9000
G1 X-12.595 Y-20.335 E1.5556 F1200
G1 X34.071 Y-20.335 E1.7849
G1 X34.071 Y20.335 E1.5556
G1 X-12.595 Y20.335 E1.7849
; feature inner perimeter
G1 X-10.667 Y17.685 F9000
G1 X31.509 Y17.685 E1.6132 F1800
G1 X31.509 Y-17.855 E1.3594
G1 X-10.667 Y-17.855 E1.6132
G1 X-10.667 Y17.685 E1.3594
; feature outer perimeter
G1 X-10.207 Y17.225 F9000
G1 X31.049 Y17.225 E1.5780 F1200
G1 X31.049 Y-17.395 E1.3242
G1 X-10.207 Y-17.395 E1.5780
G1 X-10.207 Y17.225 E1.3242
; feature solid layer
G1 X-10.594 Y18.030 F9000
G1 X-9.094 Y19.530 E0.0811 F2400
G1 X-8.443 Y19.530 E0.0249
G1 X-9.943 Y18.030 E0.0811
G1 X-9.293 Y18.030 E0.0249
G1 X-7.793 Y19.530 E0.0811
G1 X-7.142 Y19.530 E0.0249
G1 X-8.642 Y18.030 E0.0811
G1 X-7.991 Y18.030 E0.0249
G1 X-6.492 Y19.530 E0.0811
G1 X-5.841 Y19.530 E0.0249
G1 X-7.341 Y18.030 E0.0811
G1 X-6.690 Y18.030 E0.0249
G1 X-5.191 Y19.530 E0.0811
G1 X-4.540 Y19.530 E0.0249
G1 X-6.040 Y18.030 E0.0811
G1 X-5.389 Y18.030 E0.0249
G1 X-3.890 Y19.530 E0.0811
G1 X-3.239 Y19.530 E0.0249
G1 X-4.739 Y18.030 E0.0811
G1 X-4.088 Y18.030 E0.0249
G1 X-2.589 Y19.530 E0.0811
G1 X-1.938 Y19.530 E0.0249
G1 X-3.438 Y18.030 E0.0811
G1 X-2.787 Y18.030 E0.0249
G1 X-1.287 Y19.530 E0.0811
G1 X-0.637 Y19.530 E0.0249
G1 X-2.137 Y18.030 E0.0811
G1 X-1.486 Y18.030 E0.0249
G1 X0.014 Y19.530 E0.0811
G1 X0.664 Y19.530 E0.0249
G1 X-0.836 Y18.030 E0.0811
G1 X-0.185 Y18.030 E0.0249
G1 X1.315 Y19.530 E0.0811
G1 X1.965 Y19.530 E0.0249
G1 X0.466 Y18.030 E0.0811
G1 X1.116 Y18.030 E0.0249
G1 X2.616 Y19.530 E0.0811
G1 X3.266 Y19.530 E0.0249
G1 X1.767 Y18.030 E0.0811
G1 X2.417 Y18.030 E0.0249
G1 X3.917 Y19.530 E0.0811
G1 X4.567 Y19.530 E0.0249
G1 X3.068 Y18.030 E0.0811
G1 X3.718 Y18.030 E0.0249
G1 X5.218 Y19.530 E0.0811
G1 X5.868 Y19.530 E0.0249
G1 X4.369 Y18.030 E0.0811
G1 X5.019 Y18.030 E0.0249
G1 X6.519 Y19.530 E0.0811
G1 X7.170 Y19.530 E0.0249
G1 X5.670 Y18.030 E0.0811
G1 X6.320 Y18.030 E0.0249
G1 X7.820 Y19.530 E0.0811
G1 X8.471 Y19.530 E0.0249
G1 X6.971 Y18.030 E0.0811
G1 X7.621 Y18.030 E0.0249
G1 X9.121 Y19.530 E0.0811
G1 X9.772 Y19.530 E0.0249
G1 X8.272 Y18.030 E0.0811
G1 X8.923 Y18.030 E0.0249
G1 X10.422 Y19.530 E0.0811
G1 X11.073 Y19.530 E0.0249
G1 X9.573 Y18.030 E0.0811
G1 X10.224 Y18.030 E0.0249
G1 X11.723 Y19.530 E0.0811
G1 X12.374 Y19.530 E0.0249
G1 X10.874 Y18.030 E0.0811
G1 X11.525 Y18.030 E0.0249
G1 X13.024 Y19.530 E0.0811
G1 X13.675 Y19.530 E0.0249
G1 X12.175 Y18.030 E0.0811
G1 X12.826 Y18.030 E0.0249
G1 X14.326 Y19.530 E0.0811
G1 X14.976 Y19.530 E0.0249
G1 X13.476 Y18.030 E0.0811
G1 X14.127 Y18.030 E0.0249
G1 X15.627 Y19.530 E0.0811
G1 X16.277 Y19.530 E0.0249
G1 X14.777 Y18.030 E0.0811
G1 X15.428 Y18.030 E0.0249
G1 X16.928 Y19.530 E0.0811
G1 X17.578 Y19.530 E0.0249
G1 X16.078 Y18.030 E0.0811
G1 X16.729 Y18.030 E0.0249
G1 X18.229 Y19.530 E0.0811
G1 X18.879 Y19.530 E0.0249
G1 X17.380 Y18.030 E0.0811
G1 X18.030 Y18.030 E0.0249
G1 X19.530 Y19.530 E0.0811
G1 X20.180 Y19.530 E0.0249
G1 X18.681 Y18.030 E0.0811
G1 X19.331 Y18.030 E0.0249
G1 X20.831 Y19.530 E0.0811
G1 X21.481 Y19.530 E0.0249
G1 X19.982 Y18.030 E0.0811
G1 X20.632 Y18.030 E0.0249
G1 X22.132 Y19.530 E0.0811
G1 X22.783 Y19.530 E0.0249
G1 X21.283 Y18.030 E0.0811
G1 X21.933 Y18.030 E0.0249
G1 X23.433 Y19.530 E0.0811
G1 X24.084 Y19.530 E0.0249
G1 X22.584 Y18.030 E0.0811
G1 X23.234 Y18.030 E0.0249
G1 X24.734 Y19.530 E0.0811
G1 X25.385 Y19.530 E0.0249
G1 X23.885 Y18.030 E0.0811
G1 X24.536 Y18.030 E0.0249
G1 X26.035 Y19.530 E0.0811
G1 X26.686 Y19.530 E0.0249
G1 X25.186 Y18.030 E0.0811
G1 X25.837 Y18.030 E0.0249
G1 X27.336 Y19.530 E0.0811
G1 X27.987 Y19.530 E0.0249
G1 X26.487 Y18.030 E0.0811
G1 X27.138 Y18.030 E0.0249
G1 X28.637 Y19.530 E0.0811
G1 X29.288 Y19.530 E0.0249
G1 X27.788 Y18.030 E0.0811
G1 X28.439 Y18.030 E0.0249
G1 X29.938 Y19.530 E0.0811
G1 X30.589 Y19.530 E0.0249
G1 X29.089 Y18.030 E0.0811
G1 X29.740 Y18.030 E0.0249
G1 X31.240 Y19.530 E0.0811
G1 X31.890 Y19.530 E0.0249
G1 X30.390 Y18.030 E0.0811
G1 X31.041 Y18.030 E0.0249
G1 X32.541 Y19.530 E0.0811
G1 X33.191 Y19.530 E0.0249
G1 X31.691 Y18.030 E0.0811
G1 X31.854 Y18.030 E0.0062
G1 X31.854 Y17.542 E0.0187
G1 X33.266 Y18.954 E0.0764
G1 X33.266 Y18.303 E0.0249
G1 X31.854 Y16.891 E0.0764
G1 X31.854 Y16.241 E0.0249
G1 X33.266 Y17.653 E0.0764
G1 X33.266 Y17.002 E0.0249
G1 X31.854 Y15.590 E0.0764
G1 X31.854 Y14.940 E0.0249
G1 X33.266 Y16.352 E0.0764
G1 X33.266 Y15.701 E0.0249
G1 X31.854 Y14.289 E0.0764
G1 X31.854 Y13.639 E0.0249
G1 X33.266 Y15.051 E0.0764
G1 X33.266 Y14.400 E0.0249
G1 X31.854 Y12.988 E0.0764
G1 X31.854 Y12.338 E0.0249
G1 X33.266 Y13.750 E0.0764
G1 X33.266 Y13.099 E0.0249
G1 X31.854 Y11.687 E0.0764
G1 X31.854 Y11.037 E0.0249
G1 X33.266 Y12.449 E0.0764
G1 X33.266 Y11.798 E0.0249
G1 X31.854 Y10.386 E0.0764
G1 X31.854 Y9.735 E0.0249
G1 X33.266 Y11.147 E0.0764
G1 X33.266 Y10.497 E0.0249
G1 X31.854 Y9.085 E0.0764
G1 X31.854 Y8.434 E0.0249
G1 X33.266 Y9.846 E0.0764
G1 X33.266 Y9.196 E0.0249
G1 X31.854 Y7.784 E0.0764
G1 X31.854 Y7.133 E0.0249
G1 X33.266 Y8.545 E0.0764
G1 X33.266 Y7.895 E0.0249
G1 X31.854 Y6.483 E0.0764
G1 X31.854 Y5.832 E0.0249
G1 X33.266 Y7.244 E0.0764
G1 X33.266 Y6.594 E0.0249
G1 X31.854 Y5.182 E0.0764
G1 X31.854 Y4.531 E0.0249
G1 X33.266 Y5.943 E0.0764
G1 X33.266 Y5.293 E0.0249
G1 X31.854 Y3.881 E0.0764
G1 X31.854 Y3.230 E0.0249
G1 X33.266 Y4.642 E0.0764
G1 X33.266 Y3.992 E0.0249
G1 X31.854 Y2.580 E0.0764
G1 X31.854 Y1.929 E0.0249
G1 X33.266 Y3.341 E0.0764
G1 X33.266 Y2.690 E0.0249
G1 X31.854 Y1.278 E0.0764
G1 X31.854 Y0.628 E0.0249
G1 X33.266 Y2.040 E0.0764
G1 X33.266 Y1.389 E0.0249
G1 X31.854 Y-0.023 E0.0764
G1 X31.854 Y-0.673 E0.0249
G1 X33.266 Y0.739 E0.0764
G1 X33.266 Y0.088 E0.0249
G1 X31.854 Y-1.324 E0.0764
G1 X31.854 Y-1.974 E0.0249
G1 X33.266 Y-0.562 E0.0764
G1 X33.266 Y-1.213 E0.0249
G1 X31.854 Y-2.625 E0.0764
G1 X31.854 Y-3.275 E0.0249
G1 X33.266 Y-1.863 E0.0764
G1 X33.266 Y-2.514 E0.0249
G1 X31.854 Y-3.926 E0.0764
G1 X31.854 Y-4.576 E0.0249
G1 X33.266 Y-3.164 E0.0764
G1 X33.266 Y-3.815 E0.0249
G1 X31.854 Y-5.227 E0.0764
G1 X31.854 Y-5.877 E0.0249
G1 X33.266 Y-4.465 E0.0764
G1 X33.266 Y-5.116 E0.0249
G1 X31.854 Y-6.528 E0.0764
G1 X31.854 Y-7.179 E0.0249
G1 X33.266 Y-5.767 E0.0764
G1 X33.266 Y-6.417 E0.0249
G1 X31.854 Y-7.829 E0.0764
G1 X31.854 Y-8.480 E0.0249
G1 X33.266 Y-7.068 E0.0764
G1 X33.266 Y-7.718 E0.0249
G1 X31.854 Y-9.130 E0.0764
G1 X31.854 Y-9.781 E0.0249
G1 X33.266 Y-8.369 E0.0764
G1 X33.266 Y-9.019 E0.0249
G1 X31.854 Y-10.431 E0.0764
G1 X31.854 Y-11.082 E0.0249
G1 X33.266 Y-9.670 E0.0764
G1 X33.266 Y-10.320 E0.0249
G1 X31.854 Y-11.732 E0.0764
G1 X31.854 Y-12.383 E0.0249
G1 X33.266 Y-10.971 E0.0764
G1 X33.266 Y-11.621 E0.0249
G1 X31.854 Y-13.033 E0.0764
G1 X31.854 Y-13.684 E0.0249
G1 X33.266 Y-12.272 E0.0764
G1 X33.266 Y-12.922 E0.0249
G1 X31.854 Y-14.334 E0.0764
G1 X31.854 Y-14.985 E0.0249
G1 X33.266 Y-13.573 E0.0764
G1 X33.266 Y-14.224 E0.0249
G1 X31.854 Y-15.636 E0.0764
G1 X31.854 Y-16.286 E0.0249
G1 X33.266 Y-14.874 E0.0764
G1 X33.266 Y-15.525 E0.0249
G1 X31.854 Y-16.937 E0.0764
G1 X33.164 Y-19.530 F9000
G1 X33.266 Y-19.428 E0.0055 F2400
G1 X33.266 Y-18.777 E0.0249
G1 X32.513 Y-19.530 E0.0407
G1 X31.863 Y-19.530 E0.0249
G1 X33.266 Y-18.127 E0.0759
G1 X33.266 Y-17.476 E0.0249
G1 X31.212 Y-19.530 E0.1111
G1 X30.562 Y-19.530 E0.0249
G1 X33.266 Y-16.826 E0.1463
G1 X33.266 Y-16.175 E0.0249
G1 X31.854 Y-17.587 E0.0764
G1 X31.854 Y-18.200 E0.0234
G1 X31.241 Y-18.200 E0.0234
G1 X29.911 Y-19.530 E0.0719
G1 X29.261 Y-19.530 E0.0249
G1 X30.590 Y-18.200 E0.0719
G1 X29.940 Y-18.200 E0.0249
G1 X28.610 Y-19.530 E0.0719
G1 X27.960 Y-19.530 E0.0249
G1 X29.289 Y-18.200 E0.0719
G1 X28.639 Y-18.200 E0.0249
G1 X27.309 Y-19.530 E0.0719
G1 X26.658 Y-19.530 E0.0249
G1 X27.988 Y-18.200 E0.0719
G1 X27.337 Y-18.200 E0.0249
G1 X26.008 Y-19.530 E0.0719
G1 X25.357 Y-19.530 E0.0249
G1 X26.687 Y-18.200 E0.0719
G1 X26.036 Y-18.200 E0.0249
G1 X24.707 Y-19.530 E0.0719
G1 X24.056 Y-19.530 E0.0249
G1 X25.386 Y-18.200 E0.0719
G1 X24.735 Y-18.200 E0.0249
G1 X23.406 Y-19.530 E0.0719
G1 X22.755 Y-19.530 E0.0249
G1 X24.085 Y-18.200 E0.0719
G1 X23.434 Y-18.200 E0.0249
G1 X22.105 Y-19.530 E0.0719
G1 X21.454 Y-19.530 E0.0249
G1 X22.784 Y-18.200 E0.0719
G1 X22.133 Y-18.200 E0.0249
G1 X20.804 Y-19.530 E0.0719
G1 X20.153 Y-19.530 E0.0249
G1 X21.483 Y-18.200 E0.0719
G1 X20.832 Y-18.200 E0.0249
G1 X19.503 Y-19.530 E0.0719
G1 X18.852 Y-19.530 E0.0249
