; G-Code generated by Simplify3D(R) Version 4.1.2
; Apr 3, 2020 at 4:26:56 PM
; Settings Summary
;   processName,Process1
;   applyToModels,SpeakerV2R1Fill,SpeakerV2R1Fill(2)
;   profileName,MakerBot Replicator 2 HBP (modified)
;   profileVersion,2020-03-12 10:48:50
;   baseProfile,MakerBot Replicator 2(2)
;   printMaterial,PLA
;   printQuality,Medium
;   printExtruders,
;   extruderName,Primary Extruder
;   extruderToolheadNumber,0
;   extruderDiameter,0.4
;   extruderAutoWidth,0
;   extruderWidth,0.4
;   extrusionMultiplier,1
;   extruderUseRetract,1
;   extruderRetractionDistance,1.9
;   extruderExtraRestartDistance,0
;   extruderRetractionZLift,0.5
;   extruderRetractionSpeed,1200
;   extruderUseCoasting,0
;   extruderCoastingDistance,0.2
;   extruderUseWipe,0
;   extruderWipeDistance,5
;   primaryExtruder,0
;   layerHeight,0.2
;   topSolidLayers,3
;   bottomSolidLayers,3
;   perimeterOutlines,2
;   printPerimetersInsideOut,1
;   startPointOption,3
;   startPointOriginX,0
;   startPointOriginY,150
;   sequentialIslands,0
;   spiralVaseMode,0
;   firstLayerHeightPercentage,100
;   firstLayerWidthPercentage,115
;   firstLayerUnderspeed,0.5
;   useRaft,0
;   raftExtruder,0
;   raftTopLayers,2
;   raftBaseLayers,1
;   raftOffset,1
;   raftSeparationDistance,0.14
;   raftTopInfill,90
;   aboveRaftSpeedMultiplier,0.3
;   useSkirt,0
;   skirtExtruder,0
;   skirtLayers,1
;   skirtOutlines,10
;   skirtOffset,0
;   usePrimePillar,0
;   primePillarExtruder,999
;   primePillarWidth,12
;   primePillarLocation,7
;   primePillarSpeedMultiplier,1
;   useOozeShield,0
;   oozeShieldExtruder,999
;   oozeShieldOffset,2
;   oozeShieldOutlines,1
;   oozeShieldSidewallShape,1
;   oozeShieldSidewallAngle,30
;   oozeShieldSpeedMultiplier,1
;   infillExtruder,0
;   internalInfillPattern,Rectilinear
;   externalInfillPattern,Rectilinear
;   infillPercentage,15
;   outlineOverlapPercentage,25
;   infillExtrusionWidthPercentage,100
;   minInfillLength,5
;   infillLayerInterval,1
;   internalInfillAngles,45,-45
;   overlapInternalInfillAngles,0
;   externalInfillAngles,45,-45
;   generateSupport,0
;   supportExtruder,0
;   supportInfillPercentage,30
;   supportExtraInflation,0.5
;   supportBaseLayers,0
;   denseSupportExtruder,0
;   denseSupportLayers,2
;   denseSupportInfillPercentage,90
;   supportLayerInterval,1
;   supportHorizontalPartOffset,0.3
;   supportUpperSeparationLayers,1
;   supportLowerSeparationLayers,1
;   supportType,1
;   supportGridSpacing,2
;   maxOverhangAngle,45
;   supportAngles,45,-45
;   temperatureName,Primary Extruder,Heated Build Platform
;   temperatureNumber,0,0
;   temperatureSetpointCount,1,1
;   temperatureSetpointLayers,1,1
;   temperatureSetpointTemperatures,230,60
;   temperatureStabilizeAtStartup,1,1
;   temperatureHeatedBed,0,1
;   fanLayers,1,2
;   fanSpeeds,0,100
;   blipFanToFullPower,1
;   adjustSpeedForCooling,1
;   minSpeedLayerTime,15
;   minCoolingSpeedSlowdown,20
;   increaseFanForCooling,1
;   minFanLayerTime,45
;   maxCoolingFanSpeed,100
;   increaseFanForBridging,1
;   bridgingFanSpeed,100
;   use5D,1
;   relativeEdistances,1
;   allowEaxisZeroing,0
;   independentExtruderAxes,1
;   includeM10123,0
;   stickySupport,1
;   applyToolheadOffsets,0
;   gcodeXoffset,0
;   gcodeYoffset,0
;   gcodeZoffset,0
;   overrideMachineDefinition,1
;   machineTypeOverride,0
;   strokeXoverride,280
;   strokeYoverride,150
;   strokeZoverride,150
;   originOffsetXoverride,140
;   originOffsetYoverride,75
;   originOffsetZoverride,0
;   homeXdirOverride,1
;   homeYdirOverride,1
;   homeZdirOverride,-1
;   flipXoverride,1
;   flipYoverride,-1
;   flipZoverride,1
;   toolheadOffsets,0,0|0,0|0,0|0,0|0,0|0,0
;   overrideFirmwareConfiguration,1
;   firmwareTypeOverride,MakerBot/Sailfish Firmware
;   GPXconfigOverride,r2h
;   baudRateOverride,115200
;   overridePrinterModels,1
;   printerModelsOverride,MakerBot_Replicator2.stl
;   startingGcode,; **** Replicator 2 start.gcode ****,M73 P0 ; enable build progress,G162 X Y F3000 ; home XY maximum,G161 Z F1200 ; home Z minimum,G92 Z-5 ; set Z to -5,G1 Z0 ; move Z to 0,G161 Z F100 ; home Z slowly,M132 X Y Z A B ; recall home offsets,G1 X-145 Y-75 Z30 F9000 ; move to wait position off table,G130 X20 Y20 Z20 A20 B20 ; lower stepper Vrefs while heating,M126 S[fan_speed_pwm],M140 S[bed0_temperature] T0,M134 T0 ; stabilize bed temperature,M104 S[extruder0_temperature] T0,M133 T0 ; stabilize extruder temperature,G130 X127 Y127 Z40 A127 B127 ; default stepper Vrefs,G92 A0 ; zero extruder,G1 Z0.4 ; position nozzle,G1 E25 F300 ; purge nozzle,G1 X-140 Y-70 Z0.15 F1200 ; slow wipe,G1 X-135 Y-65 Z0.5 F1200 ; lift,G92 A0 ; zero extruder,M73 P1 ;@body (notify GPX body has started),; **** end of start.gcode ****
;   layerChangeGcode,
;   retractionGcode,
;   toolChangeGcode,
;   endingGcode,; **** Replicator 2 end.gcode ****,M73 P100 ; end build progress,G1 Z155 F1000 ; send Z axis to bottom of machine,M104 S0 T0 ; cool down extruder,M140 S0 T0 ; cool down HBP,M127 ; stop blower fan,G162 X Y F3000 ; home XY maximum,M18 ; disable stepper,M0 ; stop codes,M72 P1 ; play Ta-Da song,; **** end of end.gcode ****
;   exportFileFormat,gcode
;   celebration,0
;   celebrationSong,Random Song
;   postProcessing,
;   defaultSpeed,4800
;   outlineUnderspeed,0.5
;   solidInfillUnderspeed,1
;   supportUnderspeed,1
;   rapidXYspeed,9000
;   rapidZspeed,1200
;   minBridgingArea,50
;   bridgingExtraInflation,0
;   bridgingExtrusionMultiplier,1
;   bridgingSpeedMultiplier,0.8
;   useFixedBridgingAngle,0
;   fixedBridgingAngle,0
;   applyBridgingToPerimeters,0
;   filamentDiameters,1.75|1.75|1.75|1.75|1.75|1.75
;   filamentPricesPerKg,46|46|46|46|46|46
;   filamentDensities,1.25|1.25|1.25|1.25|1.25|1.25
;   useMinPrintHeight,0
;   minPrintHeight,0
;   useMaxPrintHeight,0
;   maxPrintHeight,4.84
;   useDiaphragm,0
;   diaphragmLayerInterval,20
;   robustSlicing,1
;   mergeAllIntoSolid,0
;   onlyRetractWhenCrossingOutline,0
;   retractBetweenLayers,0
;   useRetractionMinTravel,1
;   retractionMinTravel,7
;   retractWhileWiping,1
;   onlyWipeOutlines,1
;   avoidCrossingOutline,0
;   maxMovementDetourFactor,3
;   toolChangeRetractionDistance,12
;   toolChangeExtraRestartDistance,-0.5
;   toolChangeRetractionSpeed,600
;   externalThinWallType,0
;   internalThinWallType,0
;   thinWallAllowedOverlapPercentage,10
;   singleExtrusionMinLength,1
;   singleExtrusionMinPrintingWidthPercentage,50
;   singleExtrusionMaxPrintingWidthPercentage,200
;   singleExtrusionEndpointExtension,0.2
;   horizontalSizeCompensation,0
G90
M83
; **** Replicator 2 start.gcode ****
M73 P0 ; enable build progress
G162 X Y F3000 ; home XY maximum
G161 Z F1200 ; home Z minimum
G92 Z-5 ; set Z to -5
G1 Z0 ; move Z to 0
G161 Z F100 ; home Z slowly
M132 X Y Z A B ; recall home offsets
G1 X-145 Y-75 Z30 F9000 ; move to wait position off table
G130 X20 Y20 Z20 A20 B20 ; lower stepper Vrefs while heating
M127
M140 S60 T0
M134 T0 ; stabilize bed temperature
M104 S230 T0
M133 T0 ; stabilize extruder temperature
G130 X127 Y127 Z40 A127 B127 ; default stepper Vrefs
G92 A0 ; zero extruder
G1 Z0.4 ; position nozzle
G1 E25 F300 ; purge nozzle
G1 X-140 Y-70 Z0.15 F1200 ; slow wipe
G1 X-135 Y-65 Z0.5 F1200 ; lift
G92 A0 ; zero extruder
M73 P1 ;@body (notify GPX body has started)
; **** end of start.gcode ****
; process Process1
; layer 1, Z = 0.200
M135 T0
G1 E-1.9000 F1200
; feature inner perimeter
; tool H0.200 W0.460
G1 Z0.500 F1200
G1 X-3.190 Y21.268 F9000
G1 Z0.200 F1200
G1 E1.9000 F1200
G1 X-39.459 Y21.268 E1.3873 F1800
G1 X-39.459 Y-21.268 E1.6270
G1 X-3.190 Y-21.268 E1.3873
G1 X-3.190 Y21.268 E1.6270
; feature outer perimeter
G1 X-2.730 Y21.728 F9000
G1 X-39.919 Y21.728 E1.4225 F1200
G1 X-39.919 Y-21.728 E1.6622
G1 X-2.730 Y-21.728 E1.4225
G1 X-2.730 Y21.728 E1.6622
G1 E-1.9000 F1200
; feature inner perimeter
G1 Z0.700 F1200
G1 X-15.080 Y7.341 F9000
G1 Z0.200 F1200
G1 E1.9000 F1200
G1 X-13.990 Y5.990 E0.0664 F1800
G1 X-13.181 Y4.449 E0.0666
G1 X-12.682 Y2.778 E0.0667
G1 X-12.514 Y1.039 E0.0668
G1 X-12.682 Y-0.698 E0.0668
G1 X-13.181 Y-2.369 E0.0667
G1 X-13.990 Y-3.910 E0.0666
G1 X-15.080 Y-5.262 E0.0664
G1 X-16.410 Y-6.372 E0.0663
G1 X-17.919 Y-7.192 E0.0657
G1 X-19.576 Y-7.707 E0.0664
G1 X-21.291 Y-7.879 E0.0659
G1 X-23.005 Y-7.707 E0.0659
G1 X-24.653 Y-7.198 E0.0660
G1 X-26.171 Y-6.372 E0.0661
G1 X-27.501 Y-5.262 E0.0663
G1 X-28.592 Y-3.910 E0.0664
G1 X-29.401 Y-2.369 E0.0666
G1 X-29.899 Y-0.698 E0.0667
G1 X-30.067 Y1.039 E0.0668
G1 X-29.899 Y2.778 E0.0668
G1 X-29.401 Y4.449 E0.0667
G1 X-28.592 Y5.990 E0.0666
G1 X-27.501 Y7.342 E0.0664
G1 X-26.171 Y8.452 E0.0663
G1 X-24.653 Y9.277 E0.0661
G1 X-23.005 Y9.786 E0.0660
G1 X-21.291 Y9.959 E0.0659
G1 X-19.576 Y9.786 E0.0659
G1 X-17.929 Y9.278 E0.0659
G1 X-16.410 Y8.452 E0.0661
G1 X-15.080 Y7.341 E0.0663
; feature outer perimeter
G1 X-15.410 Y7.017 F9000
G1 X-14.376 Y5.736 E0.0630 F1200
G1 X-13.609 Y4.274 E0.0632
G1 X-13.136 Y2.689 E0.0633
G1 X-12.976 Y1.039 E0.0634
G1 X-13.136 Y-0.609 E0.0634
G1 X-13.609 Y-2.194 E0.0633
G1 X-14.376 Y-3.657 E0.0632
G1 X-15.410 Y-4.938 E0.0630
G1 X-16.670 Y-5.990 E0.0628
G1 X-18.098 Y-6.766 E0.0622
G1 X-19.668 Y-7.254 E0.0629
G1 X-21.291 Y-7.416 E0.0624
G1 X-22.914 Y-7.254 E0.0624
G1 X-24.474 Y-6.772 E0.0625
G1 X-25.911 Y-5.990 E0.0626
G1 X-27.172 Y-4.938 E0.0628
G1 X-28.205 Y-3.657 E0.0630
G1 X-28.973 Y-2.194 E0.0632
G1 X-29.446 Y-0.609 E0.0633
G1 X-29.605 Y1.039 E0.0634
G1 X-29.446 Y2.689 E0.0634
G1 X-28.973 Y4.274 E0.0633
G1 X-28.205 Y5.736 E0.0632
G1 X-27.172 Y7.017 E0.0630
G1 X-25.911 Y8.070 E0.0628
G1 X-24.474 Y8.851 E0.0626
G1 X-22.914 Y9.333 E0.0624
G1 X-21.291 Y9.496 E0.0624
G1 X-19.668 Y9.333 E0.0624
G1 X-18.108 Y8.851 E0.0624
G1 X-16.670 Y8.070 E0.0626
G1 X-15.410 Y7.017 E0.0628
G1 E-1.9000 F1200
; feature solid layer
G1 Z0.700 F1200
G1 X-12.840 Y-2.431 F9000
G1 Z0.200 F1200
G1 E1.9000 F1200
G1 X-3.535 Y6.874 E0.5033 F2400
G1 X-3.535 Y7.524 E0.0249
G1 X-12.563 Y-1.504 E0.4883
G1 X-12.342 Y-0.765 E0.0295
G1 X-12.328 Y-0.618 E0.0056
G1 X-3.535 Y8.175 E0.4756
G1 X-3.535 Y8.825 E0.0249
G1 X-12.258 Y0.102 E0.4719
G1 X-12.188 Y0.822 E0.0277
G1 X-3.535 Y9.476 E0.4681
G1 X-3.535 Y10.126 E0.0249
G1 X-12.207 Y1.454 E0.4691
G1 X-12.265 Y2.047 E0.0228
G1 X-3.535 Y10.777 E0.4722
G1 X-3.535 Y11.427 E0.0249
G1 X-12.322 Y2.640 E0.4753
G1 X-12.342 Y2.845 E0.0079
G1 X-12.440 Y3.173 E0.0131
G1 X-3.535 Y12.078 E0.4817
G1 X-3.535 Y12.728 E0.0249
G1 X-12.590 Y3.674 E0.4898
G1 X-12.739 Y4.175 E0.0200
G1 X-3.535 Y13.379 E0.4979
G1 X-3.535 Y14.030 E0.0249
G1 X-12.903 Y4.661 E0.5067
G1 X-13.127 Y5.088 E0.0184
G1 X-3.535 Y14.680 E0.5189
G1 X-3.535 Y15.331 E0.0249
G1 X-13.351 Y5.515 E0.5310
G1 X-13.575 Y5.941 E0.0184
G1 X-3.535 Y15.981 E0.5431
G1 X-3.535 Y16.632 E0.0249
G1 X-13.828 Y6.339 E0.5568
G1 X-14.118 Y6.699 E0.0177
G1 X-3.535 Y17.282 E0.5725
G1 X-3.535 Y17.933 E0.0249
G1 X-14.409 Y7.059 E0.5882
G1 X-14.699 Y7.419 E0.0177
G1 X-3.535 Y18.583 E0.6039
G1 X-3.535 Y19.234 E0.0249
G1 X-15.024 Y7.744 E0.6215
G1 X-15.379 Y8.040 E0.0177
G1 X-3.535 Y19.884 E0.6407
G1 X-3.535 Y20.535 E0.0249
G1 X-15.733 Y8.336 E0.6598
G1 X-16.088 Y8.633 E0.0177
G1 X-3.797 Y20.923 E0.6648
G1 X-4.448 Y20.923 E0.0249
G1 X-16.485 Y8.886 E0.6511
G1 X-16.907 Y9.115 E0.0183
G1 X-5.098 Y20.923 E0.6388
G1 X-5.749 Y20.923 E0.0249
G1 X-17.328 Y9.344 E0.6264
G1 X-17.750 Y9.573 E0.0183
G1 X-6.399 Y20.923 E0.6140
G1 X-7.050 Y20.923 E0.0249
G1 X-18.239 Y9.734 E0.6052
G1 X-18.736 Y9.888 E0.0199
G1 X-7.700 Y20.923 E0.5969
G1 X-8.351 Y20.923 E0.0249
G1 X-19.233 Y10.041 E0.5886
G1 X-19.507 Y10.126 E0.0110
G1 X-19.772 Y10.152 E0.0102
G1 X-9.001 Y20.923 E0.5826
G1 X-9.652 Y20.923 E0.0249
G1 X-20.363 Y10.212 E0.5794
G1 X-20.954 Y10.271 E0.0227
G1 X-10.303 Y20.923 E0.5762
G1 X-10.953 Y20.923 E0.0249
G1 X-21.602 Y10.274 E0.5760
G1 X-22.326 Y10.201 E0.0278
G1 X-11.604 Y20.923 E0.5800
G1 X-12.254 Y20.923 E0.0249
G1 X-23.049 Y10.128 E0.5839
G1 X-23.074 Y10.126 E0.0010
G1 X-23.982 Y9.846 E0.0364
G1 X-12.905 Y20.923 E0.5992
G1 X-13.555 Y20.923 E0.0249
G1 X-24.993 Y9.485 E0.6187
G1 E-1.9000 F1200
G1 Z0.700 F1200
G1 X-38.926 Y20.923 F9000
G1 Z0.200 F1200
G1 E1.9000 F1200
G1 X-39.114 Y20.735 E0.0102 F2400
G1 X-39.114 Y20.085 E0.0249
G1 X-38.276 Y20.923 E0.0453
G1 X-37.625 Y20.923 E0.0249
G1 X-39.114 Y19.434 E0.0805
G1 X-39.114 Y18.784 E0.0249
G1 X-36.975 Y20.923 E0.1157
G1 X-36.324 Y20.923 E0.0249
G1 X-39.114 Y18.133 E0.1509
G1 X-39.114 Y17.483 E0.0249
G1 X-35.674 Y20.923 E0.1861
G1 X-35.023 Y20.923 E0.0249
G1 X-39.114 Y16.832 E0.2213
G1 X-39.114 Y16.182 E0.0249
G1 X-34.372 Y20.923 E0.2565
G1 X-33.722 Y20.923 E0.0249
G1 X-39.114 Y15.531 E0.2917
G1 X-39.114 Y14.881 E0.0249
G1 X-33.071 Y20.923 E0.3269
G1 X-32.421 Y20.923 E0.0249
G1 X-39.114 Y14.230 E0.3621
G1 X-39.114 Y13.580 E0.0249
G1 X-31.770 Y20.923 E0.3972
G1 X-31.120 Y20.923 E0.0249
G1 X-39.114 Y12.929 E0.4324
G1 X-39.114 Y12.278 E0.0249
G1 X-30.469 Y20.923 E0.4676
G1 X-29.819 Y20.923 E0.0249
G1 X-39.114 Y11.628 E0.5028
G1 X-39.114 Y10.977 E0.0249
G1 X-29.168 Y20.923 E0.5380
G1 X-28.518 Y20.923 E0.0249
G1 X-39.114 Y10.327 E0.5732
G1 X-39.114 Y9.676 E0.0249
G1 X-27.867 Y20.923 E0.6084
G1 X-27.217 Y20.923 E0.0249
G1 X-39.114 Y9.026 E0.6436
G1 X-39.114 Y8.375 E0.0249
G1 X-26.566 Y20.923 E0.6788
G1 X-25.915 Y20.923 E0.0249
G1 X-39.114 Y7.725 E0.7139
G1 X-39.114 Y7.074 E0.0249
G1 X-25.265 Y20.923 E0.7491
G1 X-24.614 Y20.923 E0.0249
G1 X-39.114 Y6.424 E0.7843
G1 X-39.114 Y5.773 E0.0249
G1 X-23.964 Y20.923 E0.8195
G1 X-23.313 Y20.923 E0.0249
G1 X-39.114 Y5.123 E0.8547
G1 X-39.114 Y4.472 E0.0249
G1 X-22.663 Y20.923 E0.8899
G1 X-22.012 Y20.923 E0.0249
G1 X-39.114 Y3.821 E0.9251
G1 X-39.114 Y3.171 E0.0249
G1 X-21.362 Y20.923 E0.9603
G1 X-20.711 Y20.923 E0.0249
G1 X-39.114 Y2.520 E0.9955
G1 X-39.114 Y1.870 E0.0249
G1 X-20.061 Y20.923 E1.0306
G1 X-19.410 Y20.923 E0.0249
G1 X-39.114 Y1.219 E1.0658
G1 X-39.114 Y0.569 E0.0249
G1 X-18.760 Y20.923 E1.1010
G1 X-18.109 Y20.923 E0.0249
G1 X-39.114 Y-0.082 E1.1362
G1 X-39.114 Y-0.732 E0.0249
G1 X-17.458 Y20.923 E1.1714
G1 X-16.808 Y20.923 E0.0249
G1 X-39.114 Y-1.383 E1.2066
G1 X-39.114 Y-2.033 E0.0249
G1 X-16.157 Y20.923 E1.2418
G1 X-15.507 Y20.923 E0.0249
G1 X-39.114 Y-2.684 E1.2770
G1 X-39.114 Y-3.334 E0.0249
G1 X-14.856 Y20.923 E1.3122
G1 X-14.206 Y20.923 E0.0249
G1 X-26.515 Y8.614 E0.6659
G1 X-27.748 Y7.585 E0.0614
G1 X-28.600 Y6.529 E0.0519
G1 X-39.114 Y-3.985 E0.5687
G1 X-39.114 Y-4.636 E0.0249
G1 X-29.525 Y4.953 E0.5187
G1 X-29.722 Y4.579 E0.0161
G1 X-29.923 Y3.905 E0.0269
G1 X-39.114 Y-5.286 E0.4972
G1 X-39.114 Y-5.937 E0.0249
G1 X-30.200 Y2.978 E0.4822
G1 X-30.240 Y2.844 E0.0053
G1 X-30.299 Y2.228 E0.0237
G1 X-39.114 Y-6.587 E0.4768
G1 X-39.114 Y-7.238 E0.0249
G1 X-30.368 Y1.508 E0.4731
G1 X-30.413 Y1.039 E0.0180
G1 X-30.393 Y0.832 E0.0080
G1 X-39.114 Y-7.888 E0.4717
G1 X-39.114 Y-8.539 E0.0249
G1 X-30.336 Y0.239 E0.4748
G1 X-30.279 Y-0.354 E0.0228
G1 X-39.114 Y-9.189 E0.4779
G1 X-39.114 Y-9.840 E0.0249
G1 X-30.193 Y-0.919 E0.4825
G1 X-30.044 Y-1.420 E0.0200
G1 X-39.114 Y-10.490 E0.4906
G1 X-39.114 Y-11.141 E0.0249
G1 X-29.894 Y-1.921 E0.4987
G1 X-29.745 Y-2.422 E0.0200
G1 X-39.114 Y-11.791 E0.5068
G1 X-39.114 Y-12.442 E0.0249
G1 X-29.532 Y-2.860 E0.5183
G1 X-29.308 Y-3.287 E0.0184
G1 X-39.114 Y-13.093 E0.5304
G1 X-39.114 Y-13.743 E0.0249
G1 X-29.084 Y-3.713 E0.5425
G1 X-28.881 Y-4.101 E0.0167
G1 X-28.854 Y-4.134 E0.0016
G1 X-39.114 Y-14.394 E0.5550
G1 X-39.114 Y-15.044 E0.0249
G1 X-28.564 Y-4.494 E0.5707
G1 X-28.273 Y-4.854 E0.0177
G1 X-39.114 Y-15.695 E0.5864
G1 X-39.114 Y-16.345 E0.0249
G1 X-27.983 Y-5.214 E0.6021
G1 X-27.748 Y-5.505 E0.0143
G1 X-27.680 Y-5.562 E0.0034
G1 X-39.114 Y-16.996 E0.6185
G1 X-39.114 Y-17.646 E0.0249
G1 X-27.326 Y-5.858 E0.6377
G1 X-26.971 Y-6.154 E0.0177
G1 X-39.114 Y-18.297 E0.6569
G1 X-39.114 Y-18.947 E0.0249
G1 X-26.616 Y-6.450 E0.6760
G1 X-26.366 Y-6.659 E0.0125
G1 X-26.242 Y-6.726 E0.0054
G1 X-39.114 Y-19.598 E0.6963
G1 X-39.114 Y-20.248 E0.0249
G1 X-25.821 Y-6.955 E0.7191
G1 X-25.399 Y-7.184 E0.0183
G1 X-39.114 Y-20.899 E0.7419
G1 X-39.114 Y-20.923 E0.0009
G1 X-38.488 Y-20.923 E0.0240
