; G-Code generated by Simplify3D(R) Version 4.1.2
; Apr 2, 2020 at 1:54:54 PM
; Settings Summary
;   processName,Process1
;   applyToModels,Donut Heaven V1R2JV
;   profileName,MakerBot Replicator 2 HBP (modified)
;   profileVersion,2020-03-12 10:48:50
;   baseProfile,MakerBot Replicator 2(2)
;   printMaterial,PLA
;   printQuality,Medium
;   printExtruders,
;   extruderName,Primary Extruder
;   extruderToolheadNumber,0
;   extruderDiameter,0.4
;   extruderAutoWidth,0
;   extruderWidth,0.4
;   extrusionMultiplier,1
;   extruderUseRetract,1
;   extruderRetractionDistance,1.9
;   extruderExtraRestartDistance,0
;   extruderRetractionZLift,0.5
;   extruderRetractionSpeed,1200
;   extruderUseCoasting,0
;   extruderCoastingDistance,0.2
;   extruderUseWipe,0
;   extruderWipeDistance,5
;   primaryExtruder,0
;   layerHeight,0.2
;   topSolidLayers,3
;   bottomSolidLayers,3
;   perimeterOutlines,2
;   printPerimetersInsideOut,1
;   startPointOption,3
;   startPointOriginX,0
;   startPointOriginY,150
;   sequentialIslands,0
;   spiralVaseMode,0
;   firstLayerHeightPercentage,100
;   firstLayerWidthPercentage,115
;   firstLayerUnderspeed,0.5
;   useRaft,0
;   raftExtruder,0
;   raftTopLayers,2
;   raftBaseLayers,1
;   raftOffset,1
;   raftSeparationDistance,0.14
;   raftTopInfill,90
;   aboveRaftSpeedMultiplier,0.3
;   useSkirt,0
;   skirtExtruder,0
;   skirtLayers,1
;   skirtOutlines,5
;   skirtOffset,0
;   usePrimePillar,0
;   primePillarExtruder,999
;   primePillarWidth,12
;   primePillarLocation,7
;   primePillarSpeedMultiplier,1
;   useOozeShield,0
;   oozeShieldExtruder,999
;   oozeShieldOffset,2
;   oozeShieldOutlines,1
;   oozeShieldSidewallShape,1
;   oozeShieldSidewallAngle,30
;   oozeShieldSpeedMultiplier,1
;   infillExtruder,0
;   internalInfillPattern,Rectilinear
;   externalInfillPattern,Rectilinear
;   infillPercentage,15
;   outlineOverlapPercentage,25
;   infillExtrusionWidthPercentage,100
;   minInfillLength,5
;   infillLayerInterval,1
;   internalInfillAngles,45,-45
;   overlapInternalInfillAngles,0
;   externalInfillAngles,45,-45
;   generateSupport,1
;   supportExtruder,0
;   supportInfillPercentage,30
;   supportExtraInflation,0.5
;   supportBaseLayers,0
;   denseSupportExtruder,0
;   denseSupportLayers,2
;   denseSupportInfillPercentage,90
;   supportLayerInterval,1
;   supportHorizontalPartOffset,0.3
;   supportUpperSeparationLayers,1
;   supportLowerSeparationLayers,1
;   supportType,1
;   supportGridSpacing,2
;   maxOverhangAngle,45
;   supportAngles,45,-45
;   temperatureName,Primary Extruder,Heated Build Platform
;   temperatureNumber,0,0
;   temperatureSetpointCount,1,1
;   temperatureSetpointLayers,1,1
;   temperatureSetpointTemperatures,230,60
;   temperatureStabilizeAtStartup,1,1
;   temperatureHeatedBed,0,1
;   fanLayers,1,2
;   fanSpeeds,0,100
;   blipFanToFullPower,1
;   adjustSpeedForCooling,1
;   minSpeedLayerTime,15
;   minCoolingSpeedSlowdown,20
;   increaseFanForCooling,1
;   minFanLayerTime,45
;   maxCoolingFanSpeed,100
;   increaseFanForBridging,1
;   bridgingFanSpeed,100
;   use5D,1
;   relativeEdistances,1
;   allowEaxisZeroing,0
;   independentExtruderAxes,1
;   includeM10123,0
;   stickySupport,1
;   applyToolheadOffsets,0
;   gcodeXoffset,0
;   gcodeYoffset,0
;   gcodeZoffset,0
;   overrideMachineDefinition,1
;   machineTypeOverride,0
;   strokeXoverride,280
;   strokeYoverride,150
;   strokeZoverride,150
;   originOffsetXoverride,140
;   originOffsetYoverride,75
;   originOffsetZoverride,0
;   homeXdirOverride,1
;   homeYdirOverride,1
;   homeZdirOverride,-1
;   flipXoverride,1
;   flipYoverride,-1
;   flipZoverride,1
;   toolheadOffsets,0,0|0,0|0,0|0,0|0,0|0,0
;   overrideFirmwareConfiguration,1
;   firmwareTypeOverride,MakerBot/Sailfish Firmware
;   GPXconfigOverride,r2h
;   baudRateOverride,115200
;   overridePrinterModels,1
;   printerModelsOverride,MakerBot_Replicator2.stl
;   startingGcode,; **** Replicator 2 start.gcode ****,M73 P0 ; enable build progress,G162 X Y F3000 ; home XY maximum,G161 Z F1200 ; home Z minimum,G92 Z-5 ; set Z to -5,G1 Z0 ; move Z to 0,G161 Z F100 ; home Z slowly,M132 X Y Z A B ; recall home offsets,G1 X-145 Y-75 Z30 F9000 ; move to wait position off table,G130 X20 Y20 Z20 A20 B20 ; lower stepper Vrefs while heating,M126 S[fan_speed_pwm],M140 S[bed0_temperature] T0,M134 T0 ; stabilize bed temperature,M104 S[extruder0_temperature] T0,M133 T0 ; stabilize extruder temperature,G130 X127 Y127 Z40 A127 B127 ; default stepper Vrefs,G92 A0 ; zero extruder,G1 Z0.4 ; position nozzle,G1 E25 F300 ; purge nozzle,G1 X-140 Y-70 Z0.15 F1200 ; slow wipe,G1 X-135 Y-65 Z0.5 F1200 ; lift,G92 A0 ; zero extruder,M73 P1 ;@body (notify GPX body has started),; **** end of start.gcode ****
;   layerChangeGcode,
;   retractionGcode,
;   toolChangeGcode,
;   endingGcode,; **** Replicator 2 end.gcode ****,M73 P100 ; end build progress,G1 Z155 F1000 ; send Z axis to bottom of machine,M104 S0 T0 ; cool down extruder,M140 S0 T0 ; cool down HBP,M127 ; stop blower fan,G162 X Y F3000 ; home XY maximum,M18 ; disable stepper,M0 ; stop codes,M72 P1 ; play Ta-Da song,; **** end of end.gcode ****
;   exportFileFormat,gcode
;   celebration,0
;   celebrationSong,Random Song
;   postProcessing,
;   defaultSpeed,4800
;   outlineUnderspeed,0.5
;   solidInfillUnderspeed,1
;   supportUnderspeed,1
;   rapidXYspeed,9000
;   rapidZspeed,1200
;   minBridgingArea,50
;   bridgingExtraInflation,0
;   bridgingExtrusionMultiplier,1
;   bridgingSpeedMultiplier,0.8
;   useFixedBridgingAngle,0
;   fixedBridgingAngle,0
;   applyBridgingToPerimeters,0
;   filamentDiameters,1.75|1.75|1.75|1.75|1.75|1.75
;   filamentPricesPerKg,46|46|46|46|46|46
;   filamentDensities,1.25|1.25|1.25|1.25|1.25|1.25
;   useMinPrintHeight,0
;   minPrintHeight,0
;   useMaxPrintHeight,0
;   maxPrintHeight,4.84
;   useDiaphragm,0
;   diaphragmLayerInterval,20
;   robustSlicing,1
;   mergeAllIntoSolid,0
;   onlyRetractWhenCrossingOutline,0
;   retractBetweenLayers,0
;   useRetractionMinTravel,1
;   retractionMinTravel,7
;   retractWhileWiping,1
;   onlyWipeOutlines,1
;   avoidCrossingOutline,0
;   maxMovementDetourFactor,3
;   toolChangeRetractionDistance,12
;   toolChangeExtraRestartDistance,-0.5
;   toolChangeRetractionSpeed,600
;   externalThinWallType,0
;   internalThinWallType,0
;   thinWallAllowedOverlapPercentage,10
;   singleExtrusionMinLength,1
;   singleExtrusionMinPrintingWidthPercentage,50
;   singleExtrusionMaxPrintingWidthPercentage,200
;   singleExtrusionEndpointExtension,0.2
;   horizontalSizeCompensation,0
G90
M83
; **** Replicator 2 start.gcode ****
M73 P0 ; enable build progress
G162 X Y F3000 ; home XY maximum
G161 Z F1200 ; home Z minimum
G92 Z-5 ; set Z to -5
G1 Z0 ; move Z to 0
G161 Z F100 ; home Z slowly
M132 X Y Z A B ; recall home offsets
G1 X-145 Y-75 Z30 F9000 ; move to wait position off table
G130 X20 Y20 Z20 A20 B20 ; lower stepper Vrefs while heating
M127
M140 S60 T0
M134 T0 ; stabilize bed temperature
M104 S230 T0
M133 T0 ; stabilize extruder temperature
G130 X127 Y127 Z40 A127 B127 ; default stepper Vrefs
G92 A0 ; zero extruder
G1 Z0.4 ; position nozzle
G1 E25 F300 ; purge nozzle
G1 X-140 Y-70 Z0.15 F1200 ; slow wipe
G1 X-135 Y-65 Z0.5 F1200 ; lift
G92 A0 ; zero extruder
M73 P1 ;@body (notify GPX body has started)
; **** end of start.gcode ****
; process Process1
; layer 1, Z = 0.200
M135 T0
G1 E-1.9000 F1200
; feature inner perimeter
; tool H0.200 W0.460
G1 Z0.500 F1200
G1 X69.711 Y25.073 F9000
G1 Z0.200 F1200
G1 E1.9000 F1200
G1 X-69.711 Y25.073 E5.3328 F1800
G1 X-69.711 Y-25.073 E1.9180
G1 X69.711 Y-25.073 E5.3328
G1 X69.711 Y25.073 E1.9180
; feature outer perimeter
G1 X70.171 Y25.533 F9000
G1 X-70.171 Y25.533 E5.3680 F1200
G1 X-70.171 Y-25.533 E1.9532
G1 X70.171 Y-25.533 E5.3680
G1 X70.171 Y25.533 E1.9532
; feature inner perimeter
G1 X69.587 Y24.953 F9000
G1 X69.587 Y-23.443 E1.8511 F1800
G1 X-69.587 Y-23.443 E5.3233
G1 X-69.587 Y24.953 E1.8511
G1 X69.587 Y24.953 E5.3233
; feature outer perimeter
G1 X69.127 Y24.493 F9000
G1 X69.127 Y-22.983 E1.8159 F1200
G1 X-69.127 Y-22.983 E5.2881
G1 X-69.127 Y24.493 E1.8159
G1 X69.127 Y24.493 E5.2881
G1 E-1.9000 F1200
; feature solid layer
G1 Z0.700 F1200
G1 X68.950 Y-24.728 F9000
G1 Z0.200 F1200
G1 E1.9000 F1200
G1 X69.366 Y-24.311 E0.0225 F2400
G1 X69.366 Y-23.788 E0.0200
G1 X69.239 Y-23.788 E0.0049
G1 X68.299 Y-24.728 E0.0508
G1 X67.649 Y-24.728 E0.0249
G1 X68.588 Y-23.788 E0.0508
G1 X67.938 Y-23.788 E0.0249
G1 X66.998 Y-24.728 E0.0508
G1 X66.348 Y-24.728 E0.0249
G1 X67.287 Y-23.788 E0.0508
G1 X66.637 Y-23.788 E0.0249
G1 X65.697 Y-24.728 E0.0508
G1 X65.047 Y-24.728 E0.0249
G1 X65.986 Y-23.788 E0.0508
G1 X65.336 Y-23.788 E0.0249
G1 X64.396 Y-24.728 E0.0508
G1 X63.746 Y-24.728 E0.0249
G1 X64.685 Y-23.788 E0.0508
G1 X64.035 Y-23.788 E0.0249
G1 X63.095 Y-24.728 E0.0508
G1 X62.445 Y-24.728 E0.0249
G1 X63.384 Y-23.788 E0.0508
G1 X62.734 Y-23.788 E0.0249
G1 X61.794 Y-24.728 E0.0508
G1 X61.143 Y-24.728 E0.0249
G1 X62.083 Y-23.788 E0.0508
G1 X61.433 Y-23.788 E0.0249
G1 X60.493 Y-24.728 E0.0508
G1 X59.842 Y-24.728 E0.0249
G1 X60.782 Y-23.788 E0.0508
G1 X60.131 Y-23.788 E0.0249
G1 X59.192 Y-24.728 E0.0508
G1 X58.541 Y-24.728 E0.0249
G1 X59.481 Y-23.788 E0.0508
G1 X58.830 Y-23.788 E0.0249
G1 X57.891 Y-24.728 E0.0508
G1 X57.240 Y-24.728 E0.0249
G1 X58.180 Y-23.788 E0.0508
G1 X57.529 Y-23.788 E0.0249
G1 X56.590 Y-24.728 E0.0508
G1 X55.939 Y-24.728 E0.0249
G1 X56.879 Y-23.788 E0.0508
G1 X56.228 Y-23.788 E0.0249
G1 X55.289 Y-24.728 E0.0508
G1 X54.638 Y-24.728 E0.0249
G1 X55.578 Y-23.788 E0.0508
G1 X54.927 Y-23.788 E0.0249
G1 X53.988 Y-24.728 E0.0508
G1 X53.337 Y-24.728 E0.0249
G1 X54.277 Y-23.788 E0.0508
G1 X53.626 Y-23.788 E0.0249
G1 X52.686 Y-24.728 E0.0508
G1 X52.036 Y-24.728 E0.0249
G1 X52.976 Y-23.788 E0.0508
G1 X52.325 Y-23.788 E0.0249
G1 X51.385 Y-24.728 E0.0508
G1 X50.735 Y-24.728 E0.0249
G1 X51.674 Y-23.788 E0.0508
G1 X51.024 Y-23.788 E0.0249
G1 X50.084 Y-24.728 E0.0508
G1 X49.434 Y-24.728 E0.0249
G1 X50.373 Y-23.788 E0.0508
G1 X49.723 Y-23.788 E0.0249
G1 X48.783 Y-24.728 E0.0508
G1 X48.133 Y-24.728 E0.0249
G1 X49.072 Y-23.788 E0.0508
G1 X48.422 Y-23.788 E0.0249
G1 X47.482 Y-24.728 E0.0508
G1 X46.832 Y-24.728 E0.0249
G1 X47.771 Y-23.788 E0.0508
G1 X47.121 Y-23.788 E0.0249
G1 X46.181 Y-24.728 E0.0508
G1 X45.531 Y-24.728 E0.0249
G1 X46.470 Y-23.788 E0.0508
G1 X45.820 Y-23.788 E0.0249
G1 X44.880 Y-24.728 E0.0508
G1 X44.229 Y-24.728 E0.0249
G1 X45.169 Y-23.788 E0.0508
G1 X44.519 Y-23.788 E0.0249
G1 X43.579 Y-24.728 E0.0508
G1 X42.928 Y-24.728 E0.0249
G1 X43.868 Y-23.788 E0.0508
G1 X43.217 Y-23.788 E0.0249
G1 X42.278 Y-24.728 E0.0508
G1 X41.627 Y-24.728 E0.0249
G1 X42.567 Y-23.788 E0.0508
G1 X41.916 Y-23.788 E0.0249
G1 X40.977 Y-24.728 E0.0508
G1 X40.326 Y-24.728 E0.0249
G1 X41.266 Y-23.788 E0.0508
G1 X40.615 Y-23.788 E0.0249
G1 X39.676 Y-24.728 E0.0508
G1 X39.025 Y-24.728 E0.0249
G1 X39.965 Y-23.788 E0.0508
G1 X39.314 Y-23.788 E0.0249
G1 X38.375 Y-24.728 E0.0508
G1 X37.724 Y-24.728 E0.0249
G1 X38.664 Y-23.788 E0.0508
G1 X38.013 Y-23.788 E0.0249
G1 X37.074 Y-24.728 E0.0508
G1 X36.423 Y-24.728 E0.0249
G1 X37.363 Y-23.788 E0.0508
G1 X36.712 Y-23.788 E0.0249
G1 X35.772 Y-24.728 E0.0508
G1 X35.122 Y-24.728 E0.0249
G1 X36.062 Y-23.788 E0.0508
G1 X35.411 Y-23.788 E0.0249
G1 X34.471 Y-24.728 E0.0508
G1 X33.821 Y-24.728 E0.0249
G1 X34.760 Y-23.788 E0.0508
G1 X34.110 Y-23.788 E0.0249
G1 X33.170 Y-24.728 E0.0508
G1 X32.520 Y-24.728 E0.0249
G1 X33.459 Y-23.788 E0.0508
G1 X32.809 Y-23.788 E0.0249
G1 X31.869 Y-24.728 E0.0508
G1 X31.219 Y-24.728 E0.0249
G1 X32.158 Y-23.788 E0.0508
G1 X31.508 Y-23.788 E0.0249
G1 X30.568 Y-24.728 E0.0508
G1 X29.918 Y-24.728 E0.0249
G1 X30.857 Y-23.788 E0.0508
G1 X30.207 Y-23.788 E0.0249
G1 X29.267 Y-24.728 E0.0508
G1 X28.617 Y-24.728 E0.0249
G1 X29.556 Y-23.788 E0.0508
G1 X28.906 Y-23.788 E0.0249
G1 X27.966 Y-24.728 E0.0508
G1 X27.315 Y-24.728 E0.0249
G1 X28.255 Y-23.788 E0.0508
G1 X27.605 Y-23.788 E0.0249
G1 X26.665 Y-24.728 E0.0508
G1 X26.014 Y-24.728 E0.0249
G1 X26.954 Y-23.788 E0.0508
G1 X26.303 Y-23.788 E0.0249
G1 X25.364 Y-24.728 E0.0508
G1 X24.713 Y-24.728 E0.0249
G1 X25.653 Y-23.788 E0.0508
G1 X25.002 Y-23.788 E0.0249
G1 X24.063 Y-24.728 E0.0508
G1 X23.412 Y-24.728 E0.0249
G1 X24.352 Y-23.788 E0.0508
G1 X23.701 Y-23.788 E0.0249
G1 X22.762 Y-24.728 E0.0508
G1 X22.111 Y-24.728 E0.0249
G1 X23.051 Y-23.788 E0.0508
G1 X22.400 Y-23.788 E0.0249
G1 X21.461 Y-24.728 E0.0508
G1 X20.810 Y-24.728 E0.0249
G1 X21.750 Y-23.788 E0.0508
G1 X21.099 Y-23.788 E0.0249
G1 X20.160 Y-24.728 E0.0508
G1 X19.509 Y-24.728 E0.0249
G1 X20.449 Y-23.788 E0.0508
G1 X19.798 Y-23.788 E0.0249
G1 X18.858 Y-24.728 E0.0508
G1 X18.208 Y-24.728 E0.0249
G1 X19.148 Y-23.788 E0.0508
G1 X18.497 Y-23.788 E0.0249
G1 X17.557 Y-24.728 E0.0508
G1 X16.907 Y-24.728 E0.0249
G1 X17.846 Y-23.788 E0.0508
G1 X17.196 Y-23.788 E0.0249
G1 X16.256 Y-24.728 E0.0508
G1 X15.606 Y-24.728 E0.0249
G1 X16.545 Y-23.788 E0.0508
G1 X15.895 Y-23.788 E0.0249
G1 X14.955 Y-24.728 E0.0508
G1 X14.305 Y-24.728 E0.0249
G1 X15.244 Y-23.788 E0.0508
G1 X14.594 Y-23.788 E0.0249
G1 X13.654 Y-24.728 E0.0508
G1 X13.004 Y-24.728 E0.0249
G1 X13.943 Y-23.788 E0.0508
G1 X13.293 Y-23.788 E0.0249
G1 X12.353 Y-24.728 E0.0508
G1 X11.703 Y-24.728 E0.0249
G1 X12.642 Y-23.788 E0.0508
G1 X11.992 Y-23.788 E0.0249
G1 X11.052 Y-24.728 E0.0508
G1 X10.401 Y-24.728 E0.0249
G1 X11.341 Y-23.788 E0.0508
G1 X10.691 Y-23.788 E0.0249
G1 X9.751 Y-24.728 E0.0508
G1 X9.100 Y-24.728 E0.0249
G1 X10.040 Y-23.788 E0.0508
G1 X9.389 Y-23.788 E0.0249
G1 X8.450 Y-24.728 E0.0508
G1 X7.799 Y-24.728 E0.0249
G1 X8.739 Y-23.788 E0.0508
G1 X8.088 Y-23.788 E0.0249
G1 X7.149 Y-24.728 E0.0508
G1 X6.498 Y-24.728 E0.0249
G1 X7.438 Y-23.788 E0.0508
G1 X6.787 Y-23.788 E0.0249
G1 X5.848 Y-24.728 E0.0508
G1 X5.197 Y-24.728 E0.0249
G1 X6.137 Y-23.788 E0.0508
G1 X5.486 Y-23.788 E0.0249
G1 X4.547 Y-24.728 E0.0508
G1 X3.896 Y-24.728 E0.0249
G1 X4.836 Y-23.788 E0.0508
G1 X4.185 Y-23.788 E0.0249
G1 X3.246 Y-24.728 E0.0508
G1 X2.595 Y-24.728 E0.0249
G1 X3.535 Y-23.788 E0.0508
G1 X2.884 Y-23.788 E0.0249
G1 X1.944 Y-24.728 E0.0508
G1 X1.294 Y-24.728 E0.0249
G1 X2.234 Y-23.788 E0.0508
G1 X1.583 Y-23.788 E0.0249
G1 X0.643 Y-24.728 E0.0508
G1 X-0.007 Y-24.728 E0.0249
G1 X0.932 Y-23.788 E0.0508
G1 X0.282 Y-23.788 E0.0249
G1 X-0.658 Y-24.728 E0.0508
G1 X-1.308 Y-24.728 E0.0249
G1 X-0.369 Y-23.788 E0.0508
G1 X-1.019 Y-23.788 E0.0249
G1 X-1.959 Y-24.728 E0.0508
G1 X-2.609 Y-24.728 E0.0249
G1 X-1.670 Y-23.788 E0.0508
G1 X-2.320 Y-23.788 E0.0249
G1 X-3.260 Y-24.728 E0.0508
G1 X-3.910 Y-24.728 E0.0249
G1 X-2.971 Y-23.788 E0.0508
G1 X-3.621 Y-23.788 E0.0249
G1 X-4.561 Y-24.728 E0.0508
G1 X-5.211 Y-24.728 E0.0249
G1 X-4.272 Y-23.788 E0.0508
G1 X-4.922 Y-23.788 E0.0249
G1 X-5.862 Y-24.728 E0.0508
G1 X-6.513 Y-24.728 E0.0249
G1 X-5.573 Y-23.788 E0.0508
G1 X-6.223 Y-23.788 E0.0249
G1 X-7.163 Y-24.728 E0.0508
G1 X-7.814 Y-24.728 E0.0249
G1 X-6.874 Y-23.788 E0.0508
G1 X-7.525 Y-23.788 E0.0249
G1 X-8.464 Y-24.728 E0.0508
G1 X-9.115 Y-24.728 E0.0249
G1 X-8.175 Y-23.788 E0.0508
G1 X-8.826 Y-23.788 E0.0249
G1 X-9.765 Y-24.728 E0.0508
G1 X-10.416 Y-24.728 E0.0249
G1 X-9.476 Y-23.788 E0.0508
G1 X-10.127 Y-23.788 E0.0249
G1 X-11.066 Y-24.728 E0.0508
G1 X-11.717 Y-24.728 E0.0249
G1 X-10.777 Y-23.788 E0.0508
G1 X-11.428 Y-23.788 E0.0249
G1 X-12.367 Y-24.728 E0.0508
G1 X-13.018 Y-24.728 E0.0249
G1 X-12.078 Y-23.788 E0.0508
G1 X-12.729 Y-23.788 E0.0249
G1 X-13.668 Y-24.728 E0.0508
G1 X-14.319 Y-24.728 E0.0249
G1 X-13.379 Y-23.788 E0.0508
G1 X-14.030 Y-23.788 E0.0249
G1 X-14.970 Y-24.728 E0.0508
G1 X-15.620 Y-24.728 E0.0249
G1 X-14.680 Y-23.788 E0.0508
G1 X-15.331 Y-23.788 E0.0249
G1 X-16.271 Y-24.728 E0.0508
G1 X-16.921 Y-24.728 E0.0249
G1 X-15.982 Y-23.788 E0.0508
G1 X-16.632 Y-23.788 E0.0249
G1 X-17.572 Y-24.728 E0.0508
G1 X-18.222 Y-24.728 E0.0249
G1 X-17.283 Y-23.788 E0.0508
G1 X-17.933 Y-23.788 E0.0249
G1 X-18.873 Y-24.728 E0.0508
G1 X-19.523 Y-24.728 E0.0249
G1 X-18.584 Y-23.788 E0.0508
G1 X-19.234 Y-23.788 E0.0249
G1 X-20.174 Y-24.728 E0.0508
G1 X-20.824 Y-24.728 E0.0249
