; G-Code generated by Simplify3D(R) Version 4.1.2
; Apr 2, 2020 at 1:55:38 PM
; Settings Summary
;   processName,Process1
;   applyToModels,DH sign
;   profileName,MakerBot Replicator 2 HBP (modified)
;   profileVersion,2020-03-12 10:48:50
;   baseProfile,MakerBot Replicator 2(2)
;   printMaterial,PLA
;   printQuality,Medium
;   printExtruders,
;   extruderName,Primary Extruder
;   extruderToolheadNumber,0
;   extruderDiameter,0.4
;   extruderAutoWidth,0
;   extruderWidth,0.4
;   extrusionMultiplier,1
;   extruderUseRetract,1
;   extruderRetractionDistance,1.9
;   extruderExtraRestartDistance,0
;   extruderRetractionZLift,0.5
;   extruderRetractionSpeed,1200
;   extruderUseCoasting,0
;   extruderCoastingDistance,0.2
;   extruderUseWipe,0
;   extruderWipeDistance,5
;   primaryExtruder,0
;   layerHeight,0.2
;   topSolidLayers,3
;   bottomSolidLayers,3
;   perimeterOutlines,2
;   printPerimetersInsideOut,1
;   startPointOption,3
;   startPointOriginX,0
;   startPointOriginY,150
;   sequentialIslands,0
;   spiralVaseMode,0
;   firstLayerHeightPercentage,100
;   firstLayerWidthPercentage,115
;   firstLayerUnderspeed,0.5
;   useRaft,0
;   raftExtruder,0
;   raftTopLayers,2
;   raftBaseLayers,1
;   raftOffset,1
;   raftSeparationDistance,0.14
;   raftTopInfill,90
;   aboveRaftSpeedMultiplier,0.3
;   useSkirt,0
;   skirtExtruder,0
;   skirtLayers,1
;   skirtOutlines,5
;   skirtOffset,0
;   usePrimePillar,0
;   primePillarExtruder,999
;   primePillarWidth,12
;   primePillarLocation,7
;   primePillarSpeedMultiplier,1
;   useOozeShield,0
;   oozeShieldExtruder,999
;   oozeShieldOffset,2
;   oozeShieldOutlines,1
;   oozeShieldSidewallShape,1
;   oozeShieldSidewallAngle,30
;   oozeShieldSpeedMultiplier,1
;   infillExtruder,0
;   internalInfillPattern,Rectilinear
;   externalInfillPattern,Rectilinear
;   infillPercentage,15
;   outlineOverlapPercentage,25
;   infillExtrusionWidthPercentage,100
;   minInfillLength,5
;   infillLayerInterval,1
;   internalInfillAngles,45,-45
;   overlapInternalInfillAngles,0
;   externalInfillAngles,45,-45
;   generateSupport,1
;   supportExtruder,0
;   supportInfillPercentage,30
;   supportExtraInflation,0.5
;   supportBaseLayers,0
;   denseSupportExtruder,0
;   denseSupportLayers,2
;   denseSupportInfillPercentage,90
;   supportLayerInterval,1
;   supportHorizontalPartOffset,0.3
;   supportUpperSeparationLayers,1
;   supportLowerSeparationLayers,1
;   supportType,1
;   supportGridSpacing,2
;   maxOverhangAngle,45
;   supportAngles,45,-45
;   temperatureName,Primary Extruder,Heated Build Platform
;   temperatureNumber,0,0
;   temperatureSetpointCount,1,1
;   temperatureSetpointLayers,1,1
;   temperatureSetpointTemperatures,230,60
;   temperatureStabilizeAtStartup,1,1
;   temperatureHeatedBed,0,1
;   fanLayers,1,2
;   fanSpeeds,0,100
;   blipFanToFullPower,1
;   adjustSpeedForCooling,1
;   minSpeedLayerTime,15
;   minCoolingSpeedSlowdown,20
;   increaseFanForCooling,1
;   minFanLayerTime,45
;   maxCoolingFanSpeed,100
;   increaseFanForBridging,1
;   bridgingFanSpeed,100
;   use5D,1
;   relativeEdistances,1
;   allowEaxisZeroing,0
;   independentExtruderAxes,1
;   includeM10123,0
;   stickySupport,1
;   applyToolheadOffsets,0
;   gcodeXoffset,0
;   gcodeYoffset,0
;   gcodeZoffset,0
;   overrideMachineDefinition,1
;   machineTypeOverride,0
;   strokeXoverride,280
;   strokeYoverride,150
;   strokeZoverride,150
;   originOffsetXoverride,140
;   originOffsetYoverride,75
;   originOffsetZoverride,0
;   homeXdirOverride,1
;   homeYdirOverride,1
;   homeZdirOverride,-1
;   flipXoverride,1
;   flipYoverride,-1
;   flipZoverride,1
;   toolheadOffsets,0,0|0,0|0,0|0,0|0,0|0,0
;   overrideFirmwareConfiguration,1
;   firmwareTypeOverride,MakerBot/Sailfish Firmware
;   GPXconfigOverride,r2h
;   baudRateOverride,115200
;   overridePrinterModels,1
;   printerModelsOverride,MakerBot_Replicator2.stl
;   startingGcode,; **** Replicator 2 start.gcode ****,M73 P0 ; enable build progress,G162 X Y F3000 ; home XY maximum,G161 Z F1200 ; home Z minimum,G92 Z-5 ; set Z to -5,G1 Z0 ; move Z to 0,G161 Z F100 ; home Z slowly,M132 X Y Z A B ; recall home offsets,G1 X-145 Y-75 Z30 F9000 ; move to wait position off table,G130 X20 Y20 Z20 A20 B20 ; lower stepper Vrefs while heating,M126 S[fan_speed_pwm],M140 S[bed0_temperature] T0,M134 T0 ; stabilize bed temperature,M104 S[extruder0_temperature] T0,M133 T0 ; stabilize extruder temperature,G130 X127 Y127 Z40 A127 B127 ; default stepper Vrefs,G92 A0 ; zero extruder,G1 Z0.4 ; position nozzle,G1 E25 F300 ; purge nozzle,G1 X-140 Y-70 Z0.15 F1200 ; slow wipe,G1 X-135 Y-65 Z0.5 F1200 ; lift,G92 A0 ; zero extruder,M73 P1 ;@body (notify GPX body has started),; **** end of start.gcode ****
;   layerChangeGcode,
;   retractionGcode,
;   toolChangeGcode,
;   endingGcode,; **** Replicator 2 end.gcode ****,M73 P100 ; end build progress,G1 Z155 F1000 ; send Z axis to bottom of machine,M104 S0 T0 ; cool down extruder,M140 S0 T0 ; cool down HBP,M127 ; stop blower fan,G162 X Y F3000 ; home XY maximum,M18 ; disable stepper,M0 ; stop codes,M72 P1 ; play Ta-Da song,; **** end of end.gcode ****
;   exportFileFormat,gcode
;   celebration,0
;   celebrationSong,Random Song
;   postProcessing,
;   defaultSpeed,4800
;   outlineUnderspeed,0.5
;   solidInfillUnderspeed,1
;   supportUnderspeed,1
;   rapidXYspeed,9000
;   rapidZspeed,1200
;   minBridgingArea,50
;   bridgingExtraInflation,0
;   bridgingExtrusionMultiplier,1
;   bridgingSpeedMultiplier,0.8
;   useFixedBridgingAngle,0
;   fixedBridgingAngle,0
;   applyBridgingToPerimeters,0
;   filamentDiameters,1.75|1.75|1.75|1.75|1.75|1.75
;   filamentPricesPerKg,46|46|46|46|46|46
;   filamentDensities,1.25|1.25|1.25|1.25|1.25|1.25
;   useMinPrintHeight,0
;   minPrintHeight,0
;   useMaxPrintHeight,0
;   maxPrintHeight,4.84
;   useDiaphragm,0
;   diaphragmLayerInterval,20
;   robustSlicing,1
;   mergeAllIntoSolid,0
;   onlyRetractWhenCrossingOutline,0
;   retractBetweenLayers,0
;   useRetractionMinTravel,1
;   retractionMinTravel,7
;   retractWhileWiping,1
;   onlyWipeOutlines,1
;   avoidCrossingOutline,0
;   maxMovementDetourFactor,3
;   toolChangeRetractionDistance,12
;   toolChangeExtraRestartDistance,-0.5
;   toolChangeRetractionSpeed,600
;   externalThinWallType,0
;   internalThinWallType,0
;   thinWallAllowedOverlapPercentage,10
;   singleExtrusionMinLength,1
;   singleExtrusionMinPrintingWidthPercentage,50
;   singleExtrusionMaxPrintingWidthPercentage,200
;   singleExtrusionEndpointExtension,0.2
;   horizontalSizeCompensation,0
G90
M83
; **** Replicator 2 start.gcode ****
M73 P0 ; enable build progress
G162 X Y F3000 ; home XY maximum
G161 Z F1200 ; home Z minimum
G92 Z-5 ; set Z to -5
G1 Z0 ; move Z to 0
G161 Z F100 ; home Z slowly
M132 X Y Z A B ; recall home offsets
G1 X-145 Y-75 Z30 F9000 ; move to wait position off table
G130 X20 Y20 Z20 A20 B20 ; lower stepper Vrefs while heating
M127
M140 S60 T0
M134 T0 ; stabilize bed temperature
M104 S230 T0
M133 T0 ; stabilize extruder temperature
G130 X127 Y127 Z40 A127 B127 ; default stepper Vrefs
G92 A0 ; zero extruder
G1 Z0.4 ; position nozzle
G1 E25 F300 ; purge nozzle
G1 X-140 Y-70 Z0.15 F1200 ; slow wipe
G1 X-135 Y-65 Z0.5 F1200 ; lift
G92 A0 ; zero extruder
M73 P1 ;@body (notify GPX body has started)
; **** end of start.gcode ****
; process Process1
; layer 1, Z = 0.200
M135 T0
G1 E-1.9000 F1200
; feature inner perimeter
; tool H0.200 W0.460
G1 Z0.500 F1200
G1 X33.060 Y5.810 F9000
G1 Z0.200 F1200
G1 E1.9000 F1200
G1 X-33.060 Y5.810 E2.5290 F1800
G1 X-33.060 Y-5.810 E0.4445
G1 X33.060 Y-5.810 E2.5290
G1 X33.060 Y5.810 E0.4445
; feature outer perimeter
G1 X33.520 Y6.270 F9000
G1 X-33.520 Y6.270 E2.5642 F1200
G1 X-33.520 Y-6.270 E0.4796
G1 X33.520 Y-6.270 E2.5642
G1 X33.520 Y6.270 E0.4796
G1 E-1.9000 F1200
; feature solid layer
G1 Z0.700 F1200
G1 X32.266 Y-5.465 F9000
G1 Z0.200 F1200
G1 E1.9000 F1200
G1 X32.715 Y-5.016 E0.0243 F2400
G1 X32.715 Y-4.366 E0.0249
G1 X31.616 Y-5.465 E0.0595
G1 X30.965 Y-5.465 E0.0249
G1 X32.715 Y-3.715 E0.0947
G1 X32.715 Y-3.065 E0.0249
G1 X30.315 Y-5.465 E0.1298
G1 X29.664 Y-5.465 E0.0249
G1 X32.715 Y-2.414 E0.1650
G1 X32.715 Y-1.764 E0.0249
G1 X29.014 Y-5.465 E0.2002
G1 X28.363 Y-5.465 E0.0249
G1 X32.715 Y-1.113 E0.2354
G1 X32.715 Y-0.462 E0.0249
G1 X27.712 Y-5.465 E0.2706
G1 X27.062 Y-5.465 E0.0249
G1 X32.715 Y0.188 E0.3058
G1 X32.715 Y0.839 E0.0249
G1 X26.411 Y-5.465 E0.3410
G1 X25.761 Y-5.465 E0.0249
G1 X32.715 Y1.489 E0.3762
G1 X32.715 Y2.140 E0.0249
G1 X25.110 Y-5.465 E0.4114
G1 X24.460 Y-5.465 E0.0249
G1 X32.715 Y2.790 E0.4465
G1 X32.715 Y3.441 E0.0249
G1 X23.809 Y-5.465 E0.4817
G1 X23.159 Y-5.465 E0.0249
G1 X32.715 Y4.091 E0.5169
G1 X32.715 Y4.742 E0.0249
G1 X22.508 Y-5.465 E0.5521
G1 X21.858 Y-5.465 E0.0249
G1 X32.715 Y5.392 E0.5873
G1 X32.715 Y5.465 E0.0028
G1 X32.137 Y5.465 E0.0221
G1 X21.207 Y-5.465 E0.5912
G1 X20.557 Y-5.465 E0.0249
G1 X31.487 Y5.465 E0.5912
G1 X30.836 Y5.465 E0.0249
G1 X19.906 Y-5.465 E0.5912
G1 X19.255 Y-5.465 E0.0249
G1 X30.185 Y5.465 E0.5912
G1 X29.535 Y5.465 E0.0249
G1 X18.605 Y-5.465 E0.5912
G1 X17.954 Y-5.465 E0.0249
G1 X28.884 Y5.465 E0.5912
G1 X28.234 Y5.465 E0.0249
G1 X17.304 Y-5.465 E0.5912
G1 X16.653 Y-5.465 E0.0249
G1 X27.583 Y5.465 E0.5912
G1 X26.933 Y5.465 E0.0249
G1 X16.003 Y-5.465 E0.5912
G1 X15.352 Y-5.465 E0.0249
G1 X26.282 Y5.465 E0.5912
G1 X25.632 Y5.465 E0.0249
G1 X14.702 Y-5.465 E0.5912
G1 X14.051 Y-5.465 E0.0249
G1 X24.981 Y5.465 E0.5912
G1 X24.331 Y5.465 E0.0249
G1 X13.401 Y-5.465 E0.5912
G1 X12.750 Y-5.465 E0.0249
G1 X23.680 Y5.465 E0.5912
G1 X23.030 Y5.465 E0.0249
G1 X12.100 Y-5.465 E0.5912
G1 X11.449 Y-5.465 E0.0249
G1 X22.379 Y5.465 E0.5912
G1 X21.728 Y5.465 E0.0249
G1 X10.798 Y-5.465 E0.5912
G1 X10.148 Y-5.465 E0.0249
G1 X21.078 Y5.465 E0.5912
G1 X20.427 Y5.465 E0.0249
G1 X9.497 Y-5.465 E0.5912
G1 X8.847 Y-5.465 E0.0249
G1 X19.777 Y5.465 E0.5912
G1 X19.126 Y5.465 E0.0249
G1 X8.196 Y-5.465 E0.5912
G1 X7.546 Y-5.465 E0.0249
G1 X18.476 Y5.465 E0.5912
G1 X17.825 Y5.465 E0.0249
G1 X6.895 Y-5.465 E0.5912
G1 X6.245 Y-5.465 E0.0249
G1 X17.175 Y5.465 E0.5912
G1 X16.524 Y5.465 E0.0249
G1 X5.594 Y-5.465 E0.5912
G1 X4.944 Y-5.465 E0.0249
G1 X15.874 Y5.465 E0.5912
G1 X15.223 Y5.465 E0.0249
G1 X4.293 Y-5.465 E0.5912
G1 X3.643 Y-5.465 E0.0249
G1 X14.573 Y5.465 E0.5912
G1 X13.922 Y5.465 E0.0249
G1 X2.992 Y-5.465 E0.5912
G1 X2.341 Y-5.465 E0.0249
G1 X13.271 Y5.465 E0.5912
G1 X12.621 Y5.465 E0.0249
G1 X1.691 Y-5.465 E0.5912
G1 X1.040 Y-5.465 E0.0249
G1 X11.970 Y5.465 E0.5912
G1 X11.320 Y5.465 E0.0249
G1 X0.390 Y-5.465 E0.5912
G1 X-0.261 Y-5.465 E0.0249
G1 X10.669 Y5.465 E0.5912
G1 X10.019 Y5.465 E0.0249
G1 X-0.911 Y-5.465 E0.5912
G1 X-1.562 Y-5.465 E0.0249
G1 X9.368 Y5.465 E0.5912
G1 X8.718 Y5.465 E0.0249
G1 X-2.212 Y-5.465 E0.5912
G1 X-2.863 Y-5.465 E0.0249
G1 X8.067 Y5.465 E0.5912
G1 X7.417 Y5.465 E0.0249
G1 X-3.513 Y-5.465 E0.5912
G1 X-4.164 Y-5.465 E0.0249
G1 X6.766 Y5.465 E0.5912
G1 X6.116 Y5.465 E0.0249
G1 X-4.814 Y-5.465 E0.5912
G1 X-5.465 Y-5.465 E0.0249
G1 X5.465 Y5.465 E0.5912
G1 X4.814 Y5.465 E0.0249
G1 X-6.116 Y-5.465 E0.5912
G1 X-6.766 Y-5.465 E0.0249
G1 X4.164 Y5.465 E0.5912
G1 X3.513 Y5.465 E0.0249
G1 X-7.417 Y-5.465 E0.5912
G1 X-8.067 Y-5.465 E0.0249
G1 X2.863 Y5.465 E0.5912
G1 X2.212 Y5.465 E0.0249
G1 X-8.718 Y-5.465 E0.5912
G1 X-9.368 Y-5.465 E0.0249
G1 X1.562 Y5.465 E0.5912
G1 X0.911 Y5.465 E0.0249
G1 X-10.019 Y-5.465 E0.5912
G1 X-10.669 Y-5.465 E0.0249
G1 X0.261 Y5.465 E0.5912
G1 X-0.390 Y5.465 E0.0249
G1 X-11.320 Y-5.465 E0.5912
G1 X-11.970 Y-5.465 E0.0249
G1 X-1.040 Y5.465 E0.5912
G1 X-1.691 Y5.465 E0.0249
G1 X-12.621 Y-5.465 E0.5912
G1 X-13.271 Y-5.465 E0.0249
G1 X-2.341 Y5.465 E0.5912
G1 X-2.992 Y5.465 E0.0249
G1 X-13.922 Y-5.465 E0.5912
G1 X-14.573 Y-5.465 E0.0249
G1 X-3.643 Y5.465 E0.5912
G1 X-4.293 Y5.465 E0.0249
G1 X-15.223 Y-5.465 E0.5912
G1 X-15.874 Y-5.465 E0.0249
G1 X-4.944 Y5.465 E0.5912
G1 X-5.594 Y5.465 E0.0249
G1 X-16.524 Y-5.465 E0.5912
G1 X-17.175 Y-5.465 E0.0249
G1 X-6.245 Y5.465 E0.5912
G1 X-6.895 Y5.465 E0.0249
G1 X-17.825 Y-5.465 E0.5912
G1 X-18.476 Y-5.465 E0.0249
G1 X-7.546 Y5.465 E0.5912
G1 X-8.196 Y5.465 E0.0249
G1 X-19.126 Y-5.465 E0.5912
G1 X-19.777 Y-5.465 E0.0249
G1 X-8.847 Y5.465 E0.5912
G1 X-9.497 Y5.465 E0.0249
G1 X-20.427 Y-5.465 E0.5912
G1 X-21.078 Y-5.465 E0.0249
G1 X-10.148 Y5.465 E0.5912
G1 X-10.798 Y5.465 E0.0249
G1 X-21.728 Y-5.465 E0.5912
G1 X-22.379 Y-5.465 E0.0249
G1 X-11.449 Y5.465 E0.5912
G1 X-12.100 Y5.465 E0.0249
G1 X-23.030 Y-5.465 E0.5912
G1 X-23.680 Y-5.465 E0.0249
G1 X-12.750 Y5.465 E0.5912
G1 X-13.401 Y5.465 E0.0249
G1 X-24.331 Y-5.465 E0.5912
G1 X-24.981 Y-5.465 E0.0249
G1 X-14.051 Y5.465 E0.5912
G1 X-14.702 Y5.465 E0.0249
G1 X-25.632 Y-5.465 E0.5912
G1 X-26.282 Y-5.465 E0.0249
G1 X-15.352 Y5.465 E0.5912
G1 X-16.003 Y5.465 E0.0249
G1 X-26.933 Y-5.465 E0.5912
G1 X-27.583 Y-5.465 E0.0249
G1 X-16.653 Y5.465 E0.5912
G1 X-17.304 Y5.465 E0.0249
G1 X-28.234 Y-5.465 E0.5912
G1 X-28.884 Y-5.465 E0.0249
G1 X-17.954 Y5.465 E0.5912
G1 X-18.605 Y5.465 E0.0249
G1 X-29.535 Y-5.465 E0.5912
G1 X-30.185 Y-5.465 E0.0249
G1 X-19.255 Y5.465 E0.5912
G1 X-19.906 Y5.465 E0.0249
G1 X-30.836 Y-5.465 E0.5912
G1 X-31.487 Y-5.465 E0.0249
G1 X-20.557 Y5.465 E0.5912
G1 X-21.207 Y5.465 E0.0249
G1 X-32.137 Y-5.465 E0.5912
G1 X-32.715 Y-5.465 E0.0221
G1 X-32.715 Y-5.392 E0.0028
G1 X-21.858 Y5.465 E0.5873
G1 X-22.508 Y5.465 E0.0249
G1 X-32.715 Y-4.742 E0.5521
G1 X-32.715 Y-4.091 E0.0249
G1 X-23.159 Y5.465 E0.5169
G1 X-23.809 Y5.465 E0.0249
G1 X-32.715 Y-3.441 E0.4817
G1 X-32.715 Y-2.790 E0.0249
G1 X-24.460 Y5.465 E0.4465
G1 X-25.110 Y5.465 E0.0249
G1 X-32.715 Y-2.140 E0.4114
G1 X-32.715 Y-1.489 E0.0249
G1 X-25.761 Y5.465 E0.3762
G1 X-26.411 Y5.465 E0.0249
G1 X-32.715 Y-0.839 E0.3410
G1 X-32.715 Y-0.188 E0.0249
G1 X-27.062 Y5.465 E0.3058
G1 X-27.712 Y5.465 E0.0249
G1 X-32.715 Y0.462 E0.2706
G1 X-32.715 Y1.113 E0.0249
G1 X-28.363 Y5.465 E0.2354
G1 X-29.014 Y5.465 E0.0249
G1 X-32.715 Y1.764 E0.2002
G1 X-32.715 Y2.414 E0.0249
G1 X-29.664 Y5.465 E0.1650
G1 X-30.315 Y5.465 E0.0249
G1 X-32.715 Y3.065 E0.1298
G1 X-32.715 Y3.715 E0.0249
G1 X-30.965 Y5.465 E0.0947
G1 X-31.616 Y5.465 E0.0249
G1 X-32.715 Y4.366 E0.0595
G1 X-32.715 Y5.016 E0.0249
G1 X-32.266 Y5.465 E0.0243
G1 E-1.9000 F1200
; layer 2, Z = 0.400
M126 S255
; feature inner perimeter
; tool H0.200 W0.400
G1 Z0.700 F1200
G1 X33.150 Y5.900 F9000
G1 Z0.400 F1200
G1 E1.9000 F1200
G1 X-33.150 Y5.900 E2.2051 F3600
G1 X-33.150 Y-5.900 E0.3925
G1 X33.150 Y-5.900 E2.2051
G1 X33.150 Y5.900 E0.3925
; feature outer perimeter
G1 X33.550 Y6.300 F9000
G1 X-33.550 Y6.300 E2.2318 F2400
G1 X-33.550 Y-6.300 E0.4191
G1 X33.550 Y-6.300 E2.2318
G1 X33.550 Y6.300 E0.4191
; feature solid layer
G1 X32.850 Y5.051 F9000
G1 X32.301 Y5.600 E0.0258 F4800
G1 X31.735 Y5.600 E0.0188
G1 X32.850 Y4.485 E0.0524
G1 X32.850 Y3.920 E0.0188
G1 X31.170 Y5.600 E0.0790
G1 X30.604 Y5.600 E0.0188
G1 X32.850 Y3.354 E0.1056
G1 X32.850 Y2.788 E0.0188
G1 X30.038 Y5.600 E0.1323
G1 X29.473 Y5.600 E0.0188
G1 X32.850 Y2.223 E0.1589
G1 X32.850 Y1.657 E0.0188
G1 X28.907 Y5.600 E0.1855
G1 X28.341 Y5.600 E0.0188
G1 X32.850 Y1.091 E0.2121
G1 X32.850 Y0.525 E0.0188
G1 X27.775 Y5.600 E0.2387
G1 X27.210 Y5.600 E0.0188
G1 X32.850 Y-0.040 E0.2653
G1 X32.850 Y-0.606 E0.0188
G1 X26.644 Y5.600 E0.2919
G1 X26.078 Y5.600 E0.0188
G1 X32.850 Y-1.172 E0.3185
G1 X32.850 Y-1.737 E0.0188
G1 X25.513 Y5.600 E0.3451
G1 X24.947 Y5.600 E0.0188
G1 X32.850 Y-2.303 E0.3717
G1 X32.850 Y-2.869 E0.0188
G1 X24.381 Y5.600 E0.3983
G1 X23.816 Y5.600 E0.0188
G1 X32.850 Y-3.434 E0.4249
G1 X32.850 Y-4.000 E0.0188
G1 X23.250 Y5.600 E0.4516
G1 X22.684 Y5.600 E0.0188
G1 X32.850 Y-4.566 E0.4782
G1 X32.850 Y-5.131 E0.0188
G1 X22.119 Y5.600 E0.5048
G1 X21.553 Y5.600 E0.0188
G1 X32.753 Y-5.600 E0.5268
G1 X32.187 Y-5.600 E0.0188
G1 X20.987 Y5.600 E0.5268
G1 X20.422 Y5.600 E0.0188
G1 X31.622 Y-5.600 E0.5268
G1 X31.056 Y-5.600 E0.0188
G1 X19.856 Y5.600 E0.5268
G1 X19.290 Y5.600 E0.0188
G1 X30.490 Y-5.600 E0.5268
G1 X29.925 Y-5.600 E0.0188
G1 X18.725 Y5.600 E0.5268
G1 X18.159 Y5.600 E0.0188
G1 X29.359 Y-5.600 E0.5268
