; G-Code generated by Simplify3D(R) Version 4.1.2
; Apr 2, 2020 at 2:46:04 PM
; Settings Summary
;   processName,Process1
;   applyToModels,key cover Top,key cover Bottom
;   profileName,MakerBot Replicator 2 HBP (modified)
;   profileVersion,2020-03-12 10:48:50
;   baseProfile,MakerBot Replicator 2(2)
;   printMaterial,PLA
;   printQuality,Medium
;   printExtruders,
;   extruderName,Primary Extruder
;   extruderToolheadNumber,0
;   extruderDiameter,0.4
;   extruderAutoWidth,0
;   extruderWidth,0.4
;   extrusionMultiplier,1
;   extruderUseRetract,1
;   extruderRetractionDistance,1.9
;   extruderExtraRestartDistance,0
;   extruderRetractionZLift,0.5
;   extruderRetractionSpeed,1200
;   extruderUseCoasting,0
;   extruderCoastingDistance,0.2
;   extruderUseWipe,0
;   extruderWipeDistance,5
;   primaryExtruder,0
;   layerHeight,0.2
;   topSolidLayers,3
;   bottomSolidLayers,3
;   perimeterOutlines,2
;   printPerimetersInsideOut,1
;   startPointOption,3
;   startPointOriginX,0
;   startPointOriginY,150
;   sequentialIslands,0
;   spiralVaseMode,0
;   firstLayerHeightPercentage,100
;   firstLayerWidthPercentage,115
;   firstLayerUnderspeed,0.5
;   useRaft,0
;   raftExtruder,0
;   raftTopLayers,2
;   raftBaseLayers,1
;   raftOffset,1
;   raftSeparationDistance,0.14
;   raftTopInfill,90
;   aboveRaftSpeedMultiplier,0.3
;   useSkirt,0
;   skirtExtruder,0
;   skirtLayers,1
;   skirtOutlines,5
;   skirtOffset,0
;   usePrimePillar,0
;   primePillarExtruder,999
;   primePillarWidth,12
;   primePillarLocation,7
;   primePillarSpeedMultiplier,1
;   useOozeShield,0
;   oozeShieldExtruder,999
;   oozeShieldOffset,2
;   oozeShieldOutlines,1
;   oozeShieldSidewallShape,1
;   oozeShieldSidewallAngle,30
;   oozeShieldSpeedMultiplier,1
;   infillExtruder,0
;   internalInfillPattern,Rectilinear
;   externalInfillPattern,Rectilinear
;   infillPercentage,15
;   outlineOverlapPercentage,25
;   infillExtrusionWidthPercentage,100
;   minInfillLength,5
;   infillLayerInterval,1
;   internalInfillAngles,45,-45
;   overlapInternalInfillAngles,0
;   externalInfillAngles,45,-45
;   generateSupport,1
;   supportExtruder,0
;   supportInfillPercentage,30
;   supportExtraInflation,0.5
;   supportBaseLayers,0
;   denseSupportExtruder,0
;   denseSupportLayers,2
;   denseSupportInfillPercentage,90
;   supportLayerInterval,1
;   supportHorizontalPartOffset,0.3
;   supportUpperSeparationLayers,1
;   supportLowerSeparationLayers,1
;   supportType,1
;   supportGridSpacing,2
;   maxOverhangAngle,45
;   supportAngles,45,-45
;   temperatureName,Primary Extruder,Heated Build Platform
;   temperatureNumber,0,0
;   temperatureSetpointCount,1,1
;   temperatureSetpointLayers,1,1
;   temperatureSetpointTemperatures,230,60
;   temperatureStabilizeAtStartup,1,1
;   temperatureHeatedBed,0,1
;   fanLayers,1,2
;   fanSpeeds,0,100
;   blipFanToFullPower,1
;   adjustSpeedForCooling,1
;   minSpeedLayerTime,15
;   minCoolingSpeedSlowdown,20
;   increaseFanForCooling,1
;   minFanLayerTime,45
;   maxCoolingFanSpeed,100
;   increaseFanForBridging,1
;   bridgingFanSpeed,100
;   use5D,1
;   relativeEdistances,1
;   allowEaxisZeroing,0
;   independentExtruderAxes,1
;   includeM10123,0
;   stickySupport,1
;   applyToolheadOffsets,0
;   gcodeXoffset,0
;   gcodeYoffset,0
;   gcodeZoffset,0
;   overrideMachineDefinition,1
;   machineTypeOverride,0
;   strokeXoverride,280
;   strokeYoverride,150
;   strokeZoverride,150
;   originOffsetXoverride,140
;   originOffsetYoverride,75
;   originOffsetZoverride,0
;   homeXdirOverride,1
;   homeYdirOverride,1
;   homeZdirOverride,-1
;   flipXoverride,1
;   flipYoverride,-1
;   flipZoverride,1
;   toolheadOffsets,0,0|0,0|0,0|0,0|0,0|0,0
;   overrideFirmwareConfiguration,1
;   firmwareTypeOverride,MakerBot/Sailfish Firmware
;   GPXconfigOverride,r2h
;   baudRateOverride,115200
;   overridePrinterModels,1
;   printerModelsOverride,MakerBot_Replicator2.stl
;   startingGcode,; **** Replicator 2 start.gcode ****,M73 P0 ; enable build progress,G162 X Y F3000 ; home XY maximum,G161 Z F1200 ; home Z minimum,G92 Z-5 ; set Z to -5,G1 Z0 ; move Z to 0,G161 Z F100 ; home Z slowly,M132 X Y Z A B ; recall home offsets,G1 X-145 Y-75 Z30 F9000 ; move to wait position off table,G130 X20 Y20 Z20 A20 B20 ; lower stepper Vrefs while heating,M126 S[fan_speed_pwm],M140 S[bed0_temperature] T0,M134 T0 ; stabilize bed temperature,M104 S[extruder0_temperature] T0,M133 T0 ; stabilize extruder temperature,G130 X127 Y127 Z40 A127 B127 ; default stepper Vrefs,G92 A0 ; zero extruder,G1 Z0.4 ; position nozzle,G1 E25 F300 ; purge nozzle,G1 X-140 Y-70 Z0.15 F1200 ; slow wipe,G1 X-135 Y-65 Z0.5 F1200 ; lift,G92 A0 ; zero extruder,M73 P1 ;@body (notify GPX body has started),; **** end of start.gcode ****
;   layerChangeGcode,
;   retractionGcode,
;   toolChangeGcode,
;   endingGcode,; **** Replicator 2 end.gcode ****,M73 P100 ; end build progress,G1 Z155 F1000 ; send Z axis to bottom of machine,M104 S0 T0 ; cool down extruder,M140 S0 T0 ; cool down HBP,M127 ; stop blower fan,G162 X Y F3000 ; home XY maximum,M18 ; disable stepper,M0 ; stop codes,M72 P1 ; play Ta-Da song,; **** end of end.gcode ****
;   exportFileFormat,gcode
;   celebration,0
;   celebrationSong,Random Song
;   postProcessing,
;   defaultSpeed,4800
;   outlineUnderspeed,0.5
;   solidInfillUnderspeed,1
;   supportUnderspeed,1
;   rapidXYspeed,9000
;   rapidZspeed,1200
;   minBridgingArea,50
;   bridgingExtraInflation,0
;   bridgingExtrusionMultiplier,1
;   bridgingSpeedMultiplier,0.8
;   useFixedBridgingAngle,0
;   fixedBridgingAngle,0
;   applyBridgingToPerimeters,0
;   filamentDiameters,1.75|1.75|1.75|1.75|1.75|1.75
;   filamentPricesPerKg,46|46|46|46|46|46
;   filamentDensities,1.25|1.25|1.25|1.25|1.25|1.25
;   useMinPrintHeight,0
;   minPrintHeight,0
;   useMaxPrintHeight,0
;   maxPrintHeight,4.84
;   useDiaphragm,0
;   diaphragmLayerInterval,20
;   robustSlicing,1
;   mergeAllIntoSolid,0
;   onlyRetractWhenCrossingOutline,0
;   retractBetweenLayers,0
;   useRetractionMinTravel,1
;   retractionMinTravel,7
;   retractWhileWiping,1
;   onlyWipeOutlines,1
;   avoidCrossingOutline,0
;   maxMovementDetourFactor,3
;   toolChangeRetractionDistance,12
;   toolChangeExtraRestartDistance,-0.5
;   toolChangeRetractionSpeed,600
;   externalThinWallType,0
;   internalThinWallType,0
;   thinWallAllowedOverlapPercentage,10
;   singleExtrusionMinLength,1
;   singleExtrusionMinPrintingWidthPercentage,50
;   singleExtrusionMaxPrintingWidthPercentage,200
;   singleExtrusionEndpointExtension,0.2
;   horizontalSizeCompensation,0
G90
M83
; **** Replicator 2 start.gcode ****
M73 P0 ; enable build progress
G162 X Y F3000 ; home XY maximum
G161 Z F1200 ; home Z minimum
G92 Z-5 ; set Z to -5
G1 Z0 ; move Z to 0
G161 Z F100 ; home Z slowly
M132 X Y Z A B ; recall home offsets
G1 X-145 Y-75 Z30 F9000 ; move to wait position off table
G130 X20 Y20 Z20 A20 B20 ; lower stepper Vrefs while heating
M127
M140 S60 T0
M134 T0 ; stabilize bed temperature
M104 S230 T0
M133 T0 ; stabilize extruder temperature
G130 X127 Y127 Z40 A127 B127 ; default stepper Vrefs
G92 A0 ; zero extruder
G1 Z0.4 ; position nozzle
G1 E25 F300 ; purge nozzle
G1 X-140 Y-70 Z0.15 F1200 ; slow wipe
G1 X-135 Y-65 Z0.5 F1200 ; lift
G92 A0 ; zero extruder
M73 P1 ;@body (notify GPX body has started)
; **** end of start.gcode ****
; process Process1
; layer 1, Z = 0.200
M135 T0
G1 E-1.9000 F1200
; feature inner perimeter
; tool H0.200 W0.460
G1 Z0.500 F1200
G1 X14.737 Y14.042 F9000
G1 Z0.200 F1200
G1 E1.9000 F1200
G1 X12.049 Y13.227 E0.1074 F1800
G1 X9.572 Y11.903 E0.1074
G1 X7.400 Y10.121 E0.1074
G1 X5.619 Y7.949 E0.1074
G1 X4.295 Y5.472 E0.1074
G1 X3.479 Y2.784 E0.1074
G1 X3.204 Y-0.011 E0.1074
G1 X3.479 Y-2.806 E0.1074
G1 X4.295 Y-5.494 E0.1074
G1 X5.619 Y-7.971 E0.1074
G1 X7.400 Y-10.142 E0.1074
G1 X9.572 Y-11.924 E0.1074
G1 X12.049 Y-13.248 E0.1074
G1 X14.737 Y-14.064 E0.1074
G1 X17.532 Y-14.339 E0.1074
G1 X20.327 Y-14.064 E0.1074
G1 X23.015 Y-13.248 E0.1074
G1 X25.492 Y-11.924 E0.1074
G1 X27.663 Y-10.142 E0.1074
G1 X29.445 Y-7.971 E0.1074
G1 X30.769 Y-5.494 E0.1074
G1 X31.143 Y-4.262 E0.0493
G1 X31.143 Y4.240 E0.3252
G1 X30.769 Y5.472 E0.0493
G1 X29.445 Y7.949 E0.1074
G1 X27.663 Y10.121 E0.1074
G1 X25.492 Y11.903 E0.1074
G1 X23.015 Y13.227 E0.1074
G1 X20.327 Y14.042 E0.1074
G1 X17.532 Y14.317 E0.1074
G1 X14.737 Y14.042 E0.1074
; feature outer perimeter
G1 X14.647 Y14.495 F9000
G1 X11.872 Y13.654 E0.1109 F1200
G1 X9.315 Y12.287 E0.1109
G1 X7.074 Y10.448 E0.1109
G1 X5.234 Y8.206 E0.1109
G1 X3.867 Y5.649 E0.1109
G1 X3.026 Y2.875 E0.1109
G1 X2.742 Y-0.011 E0.1109
G1 X3.026 Y-2.896 E0.1109
G1 X3.867 Y-5.671 E0.1109
G1 X5.234 Y-8.228 E0.1109
G1 X7.074 Y-10.469 E0.1109
G1 X9.315 Y-12.308 E0.1109
G1 X11.872 Y-13.675 E0.1109
G1 X14.646 Y-14.517 E0.1109
G1 X17.532 Y-14.801 E0.1109
G1 X20.417 Y-14.517 E0.1109
G1 X23.192 Y-13.675 E0.1109
G1 X25.749 Y-12.308 E0.1109
G1 X27.990 Y-10.469 E0.1109
G1 X29.830 Y-8.228 E0.1109
G1 X31.196 Y-5.671 E0.1109
G1 X31.603 Y-4.330 E0.0536
G1 X31.603 Y4.308 E0.3304
G1 X31.196 Y5.649 E0.0536
G1 X29.830 Y8.206 E0.1109
G1 X27.990 Y10.448 E0.1109
G1 X25.749 Y12.287 E0.1109
G1 X23.192 Y13.654 E0.1109
G1 X20.417 Y14.495 E0.1109
G1 X17.532 Y14.779 E0.1109
G1 X14.647 Y14.495 E0.1109
; feature solid layer
G1 X9.198 Y11.150 F9000
G1 X6.371 Y8.323 E0.1529 F2400
G1 X5.907 Y7.757 E0.0280
G1 X5.276 Y6.577 E0.0512
G1 X10.944 Y12.245 E0.3066
G1 X12.181 Y12.906 E0.0537
G1 X12.288 Y12.939 E0.0043
G1 X4.582 Y5.233 E0.4168
G1 X4.299 Y4.299 E0.0373
G1 X13.222 Y13.222 E0.4827
G1 X14.156 Y13.505 E0.0373
G1 X4.016 Y3.365 E0.5485
G1 X3.819 Y2.717 E0.0259
G1 X3.797 Y2.496 E0.0085
G1 X15.025 Y13.724 E0.6073
G1 X15.746 Y13.795 E0.0277
G1 X3.726 Y1.775 E0.6502
G1 X3.655 Y1.053 E0.0277
G1 X16.468 Y13.866 E0.6931
G1 X17.190 Y13.937 E0.0277
G1 X3.584 Y0.332 E0.7359
G1 X3.551 Y-0.011 E0.0132
G1 X3.581 Y-0.322 E0.0120
G1 X17.843 Y13.940 E0.7715
G1 X18.435 Y13.882 E0.0228
G1 X3.639 Y-0.914 E0.8003
G1 X3.698 Y-1.506 E0.0228
G1 X19.028 Y13.823 E0.8292
G1 X19.620 Y13.765 E0.0228
G1 X3.756 Y-2.099 E0.8581
G1 X3.814 Y-2.691 E0.0228
G1 X20.212 Y13.707 E0.8870
G1 X20.259 Y13.702 E0.0018
G1 X20.719 Y13.563 E0.0184
G1 X3.958 Y-3.197 E0.9066
G1 X4.110 Y-3.697 E0.0200
G1 X21.218 Y13.411 E0.9254
G1 X21.717 Y13.260 E0.0200
G1 X4.261 Y-4.196 E0.9442
G1 X4.413 Y-4.695 E0.0200
G1 X22.216 Y13.108 E0.9630
G1 X22.715 Y12.957 E0.0200
G1 X4.564 Y-5.194 E0.9818
G1 X4.615 Y-5.361 E0.0067
G1 X4.765 Y-5.643 E0.0122
G1 X23.164 Y12.756 E0.9952
G1 X23.588 Y12.529 E0.0184
G1 X4.992 Y-6.067 E1.0059
G1 X5.219 Y-6.491 E0.0184
G1 X24.012 Y12.302 E1.0166
G1 X24.436 Y12.076 E0.0184
G1 X5.445 Y-6.915 E1.0273
G1 X5.672 Y-7.339 E0.0184
G1 X24.860 Y11.849 E1.0379
G1 X25.284 Y11.623 E0.0184
G1 X5.898 Y-7.763 E1.0486
G1 X5.907 Y-7.778 E0.0007
G1 X6.189 Y-8.123 E0.0170
G1 X25.644 Y11.332 E1.0523
G1 X26.001 Y11.039 E0.0177
G1 X6.482 Y-8.480 E1.0558
G1 X6.776 Y-8.837 E0.0177
G1 X26.358 Y10.745 E1.0593
G1 X26.716 Y10.452 E0.0177
G1 X7.069 Y-9.195 E1.0627
G1 X7.362 Y-9.552 E0.0177
G1 X27.073 Y10.159 E1.0662
G1 X27.418 Y9.876 E0.0171
G1 X27.428 Y9.864 E0.0006
G1 X7.658 Y-9.907 E1.0694
G1 X8.015 Y-10.200 E0.0177
G1 X27.721 Y9.506 E1.0660
G1 X28.015 Y9.149 E0.0177
G1 X8.372 Y-10.493 E1.0625
G1 X8.730 Y-10.787 E0.0177
G1 X28.308 Y8.792 E1.0590
G1 X28.601 Y8.434 E0.0177
G1 X9.087 Y-11.080 E1.0556
G1 X9.444 Y-11.373 E0.0177
G1 X28.894 Y8.077 E1.0521
G1 X29.157 Y7.757 E0.0158
G1 X29.181 Y7.713 E0.0019
G1 X9.808 Y-11.659 E1.0479
G1 X10.232 Y-11.886 E0.0184
G1 X29.407 Y7.289 E1.0372
G1 X29.634 Y6.865 E0.0184
G1 X10.656 Y-12.113 E1.0265
G1 X11.080 Y-12.339 E0.0184
G1 X29.860 Y6.441 E1.0159
G1 X30.087 Y6.017 E0.0184
G1 X11.504 Y-12.566 E1.0052
G1 X11.928 Y-12.792 E0.0184
G1 X30.314 Y5.593 E0.9945
G1 X30.449 Y5.340 E0.0110
G1 X30.510 Y5.139 E0.0080
G1 X12.382 Y-12.989 E0.9806
G1 X12.881 Y-13.140 E0.0200
G1 X30.661 Y4.640 E0.9618
G1 X30.798 Y4.189 E0.0180
G1 X30.798 Y4.126 E0.0024
G1 X13.380 Y-13.292 E0.9422
G1 X13.880 Y-13.443 E0.0200
G1 X30.798 Y3.475 E0.9152
G1 X30.798 Y2.825 E0.0249
G1 X14.379 Y-13.594 E0.8882
G1 X14.804 Y-13.724 E0.0170
G1 X14.892 Y-13.732 E0.0034
G1 X30.798 Y2.174 E0.8604
G1 X30.798 Y1.524 E0.0249
G1 X15.484 Y-13.790 E0.8284
G1 X16.076 Y-13.849 E0.0228
G1 X30.798 Y0.873 E0.7964
G1 X30.798 Y0.223 E0.0249
G1 X16.668 Y-13.907 E0.7643
G1 X17.260 Y-13.965 E0.0228
G1 X30.798 Y-0.428 E0.7323
G1 X30.798 Y-1.078 E0.0249
G1 X17.923 Y-13.954 E0.6965
G1 X18.644 Y-13.883 E0.0277
G1 X30.798 Y-1.729 E0.6574
G1 X30.798 Y-2.379 E0.0249
G1 X19.366 Y-13.812 E0.6184
G1 X20.088 Y-13.740 E0.0277
G1 X30.798 Y-3.030 E0.5794
G1 X30.798 Y-3.680 E0.0249
G1 X20.971 Y-13.508 E0.5316
G1 X21.905 Y-13.224 E0.0373
G1 X30.746 Y-4.384 E0.4782
G1 X30.462 Y-5.317 E0.0373
G1 X22.838 Y-12.941 E0.4124
G1 X22.882 Y-12.928 E0.0018
G1 X24.214 Y-12.216 E0.0578
G1 X29.737 Y-6.693 E0.2988
G1 X29.157 Y-7.778 E0.0471
G1 X28.492 Y-8.589 E0.0401
G1 X26.110 Y-10.971 E0.1289
G1 E-1.9000 F1200
; feature inner perimeter
G1 Z0.700 F1200
G1 X-14.004 Y14.063 F9000
G1 Z0.200 F1200
G1 E1.9000 F1200
G1 X-16.801 Y14.339 E0.1075 F1800
G1 X-19.598 Y14.063 E0.1075
G1 X-22.288 Y13.247 E0.1075
G1 X-24.767 Y11.922 E0.1075
G1 X-26.940 Y10.139 E0.1075
G1 X-28.723 Y7.966 E0.1075
G1 X-30.048 Y5.487 E0.1075
G1 X-30.864 Y2.797 E0.1075
G1 X-31.140 Y0.000 E0.1075
G1 X-30.864 Y-2.797 E0.1075
G1 X-30.048 Y-5.487 E0.1075
G1 X-28.723 Y-7.966 E0.1075
G1 X-26.940 Y-10.139 E0.1075
G1 X-24.767 Y-11.922 E0.1075
G1 X-22.288 Y-13.247 E0.1075
G1 X-19.598 Y-14.063 E0.1075
G1 X-16.801 Y-14.339 E0.1075
G1 X-14.004 Y-14.063 E0.1075
G1 X-11.314 Y-13.247 E0.1075
G1 X-8.835 Y-11.922 E0.1075
G1 X-6.662 Y-10.139 E0.1075
G1 X-4.879 Y-7.966 E0.1075
G1 X-3.554 Y-5.487 E0.1075
G1 X-3.179 Y-4.254 E0.0493
G1 X-3.179 Y4.254 E0.3254
G1 X-3.554 Y5.487 E0.0493
G1 X-4.879 Y7.966 E0.1075
G1 X-6.662 Y10.139 E0.1075
G1 X-8.835 Y11.922 E0.1075
G1 X-11.314 Y13.247 E0.1075
G1 X-14.004 Y14.063 E0.1075
; feature outer perimeter
G1 X-13.913 Y14.517 F9000
G1 X-16.801 Y14.801 E0.1110 F1200
G1 X-19.688 Y14.517 E0.1110
G1 X-22.465 Y13.674 E0.1110
G1 X-25.024 Y12.307 E0.1110
G1 X-27.267 Y10.466 E0.1110
G1 X-29.108 Y8.223 E0.1110
G1 X-30.475 Y5.664 E0.1110
G1 X-31.318 Y2.888 E0.1110
G1 X-31.602 Y0.000 E0.1110
G1 X-31.318 Y-2.887 E0.1110
G1 X-30.475 Y-5.664 E0.1110
G1 X-29.108 Y-8.223 E0.1110
G1 X-27.267 Y-10.466 E0.1110
G1 X-25.024 Y-12.307 E0.1110
G1 X-22.465 Y-13.674 E0.1110
G1 X-19.688 Y-14.517 E0.1110
G1 X-16.801 Y-14.801 E0.1110
G1 X-13.913 Y-14.517 E0.1110
G1 X-11.137 Y-13.674 E0.1110
G1 X-8.578 Y-12.307 E0.1110
G1 X-6.335 Y-10.466 E0.1110
G1 X-4.494 Y-8.223 E0.1110
G1 X-3.127 Y-5.664 E0.1110
G1 X-2.719 Y-4.322 E0.0536
G1 X-2.719 Y4.322 E0.3306
G1 X-3.127 Y5.664 E0.0536
G1 X-4.494 Y8.223 E0.1110
G1 X-6.335 Y10.466 E0.1110
G1 X-8.578 Y12.307 E0.1110
G1 X-11.137 Y13.674 E0.1110
G1 X-13.913 Y14.517 E0.1110
G1 E-1.9000 F1200
; feature solid layer
G1 Z0.700 F1200
G1 X-25.810 Y10.620 F9000
G1 Z0.200 F1200
G1 E1.9000 F1200
G1 X-27.421 Y9.009 E0.0872 F2400
G1 X-28.435 Y7.774 E0.0611
G1 X-28.928 Y6.852 E0.0400
G1 X-23.653 Y12.127 E0.2853
G1 X-22.255 Y12.874 E0.0606
G1 X-29.675 Y5.454 E0.4013
G1 X-29.728 Y5.355 E0.0043
G1 X-29.991 Y4.487 E0.0347
G1 X-21.288 Y13.190 E0.4707
G1 X-20.355 Y13.473 E0.0373
G1 X-30.274 Y3.554 E0.5366
G1 X-30.524 Y2.730 E0.0329
G1 X-30.533 Y2.645 E0.0033
G1 X-19.446 Y13.732 E0.5997
G1 X-18.724 Y13.803 E0.0277
G1 X-30.604 Y1.923 E0.6426
G1 X-30.675 Y1.202 E0.0277
G1 X-18.003 Y13.874 E0.6855
G1 X-17.281 Y13.945 E0.0277
G1 X-30.746 Y0.480 E0.7283
G1 X-30.793 Y0.000 E0.0184
G1 X-30.774 Y-0.198 E0.0076
G1 X-16.603 Y13.973 E0.7665
G1 X-16.010 Y13.914 E0.0228
G1 X-30.715 Y-0.790 E0.7954
G1 X-30.657 Y-1.383 E0.0228
G1 X-15.418 Y13.856 E0.8243
G1 X-14.826 Y13.798 E0.0228
G1 X-30.599 Y-1.975 E0.8532
G1 X-30.540 Y-2.567 E0.0228
G1 X-14.234 Y13.739 E0.8821
G1 X-14.071 Y13.723 E0.0062
G1 X-13.709 Y13.613 E0.0145
G1 X-30.414 Y-3.092 E0.9036
G1 X-30.263 Y-3.591 E0.0200
G1 X-13.210 Y13.462 E0.9224
G1 X-12.711 Y13.311 E0.0200
G1 X-30.112 Y-4.090 E0.9412
G1 X-29.960 Y-4.589 E0.0200
G1 X-12.212 Y13.159 E0.9601
