; G-Code generated by Simplify3D(R) Version 4.1.2
; Apr 2, 2020 at 2:46:38 PM
; Settings Summary
;   processName,Process1
;   applyToModels,Key Cover G A,Key Cover G B
;   profileName,MakerBot Replicator 2 HBP (modified)
;   profileVersion,2020-03-12 10:48:50
;   baseProfile,MakerBot Replicator 2(2)
;   printMaterial,PLA
;   printQuality,Medium
;   printExtruders,
;   extruderName,Primary Extruder
;   extruderToolheadNumber,0
;   extruderDiameter,0.4
;   extruderAutoWidth,0
;   extruderWidth,0.4
;   extrusionMultiplier,1
;   extruderUseRetract,1
;   extruderRetractionDistance,1.9
;   extruderExtraRestartDistance,0
;   extruderRetractionZLift,0.5
;   extruderRetractionSpeed,1200
;   extruderUseCoasting,0
;   extruderCoastingDistance,0.2
;   extruderUseWipe,0
;   extruderWipeDistance,5
;   primaryExtruder,0
;   layerHeight,0.2
;   topSolidLayers,3
;   bottomSolidLayers,3
;   perimeterOutlines,2
;   printPerimetersInsideOut,1
;   startPointOption,3
;   startPointOriginX,0
;   startPointOriginY,150
;   sequentialIslands,0
;   spiralVaseMode,0
;   firstLayerHeightPercentage,100
;   firstLayerWidthPercentage,115
;   firstLayerUnderspeed,0.5
;   useRaft,0
;   raftExtruder,0
;   raftTopLayers,2
;   raftBaseLayers,1
;   raftOffset,1
;   raftSeparationDistance,0.14
;   raftTopInfill,90
;   aboveRaftSpeedMultiplier,0.3
;   useSkirt,0
;   skirtExtruder,0
;   skirtLayers,1
;   skirtOutlines,5
;   skirtOffset,0
;   usePrimePillar,0
;   primePillarExtruder,999
;   primePillarWidth,12
;   primePillarLocation,7
;   primePillarSpeedMultiplier,1
;   useOozeShield,0
;   oozeShieldExtruder,999
;   oozeShieldOffset,2
;   oozeShieldOutlines,1
;   oozeShieldSidewallShape,1
;   oozeShieldSidewallAngle,30
;   oozeShieldSpeedMultiplier,1
;   infillExtruder,0
;   internalInfillPattern,Rectilinear
;   externalInfillPattern,Rectilinear
;   infillPercentage,15
;   outlineOverlapPercentage,25
;   infillExtrusionWidthPercentage,100
;   minInfillLength,5
;   infillLayerInterval,1
;   internalInfillAngles,45,-45
;   overlapInternalInfillAngles,0
;   externalInfillAngles,45,-45
;   generateSupport,1
;   supportExtruder,0
;   supportInfillPercentage,30
;   supportExtraInflation,0.5
;   supportBaseLayers,0
;   denseSupportExtruder,0
;   denseSupportLayers,2
;   denseSupportInfillPercentage,90
;   supportLayerInterval,1
;   supportHorizontalPartOffset,0.3
;   supportUpperSeparationLayers,1
;   supportLowerSeparationLayers,1
;   supportType,1
;   supportGridSpacing,2
;   maxOverhangAngle,45
;   supportAngles,45,-45
;   temperatureName,Primary Extruder,Heated Build Platform
;   temperatureNumber,0,0
;   temperatureSetpointCount,1,1
;   temperatureSetpointLayers,1,1
;   temperatureSetpointTemperatures,230,60
;   temperatureStabilizeAtStartup,1,1
;   temperatureHeatedBed,0,1
;   fanLayers,1,2
;   fanSpeeds,0,100
;   blipFanToFullPower,1
;   adjustSpeedForCooling,1
;   minSpeedLayerTime,15
;   minCoolingSpeedSlowdown,20
;   increaseFanForCooling,1
;   minFanLayerTime,45
;   maxCoolingFanSpeed,100
;   increaseFanForBridging,1
;   bridgingFanSpeed,100
;   use5D,1
;   relativeEdistances,1
;   allowEaxisZeroing,0
;   independentExtruderAxes,1
;   includeM10123,0
;   stickySupport,1
;   applyToolheadOffsets,0
;   gcodeXoffset,0
;   gcodeYoffset,0
;   gcodeZoffset,0
;   overrideMachineDefinition,1
;   machineTypeOverride,0
;   strokeXoverride,280
;   strokeYoverride,150
;   strokeZoverride,150
;   originOffsetXoverride,140
;   originOffsetYoverride,75
;   originOffsetZoverride,0
;   homeXdirOverride,1
;   homeYdirOverride,1
;   homeZdirOverride,-1
;   flipXoverride,1
;   flipYoverride,-1
;   flipZoverride,1
;   toolheadOffsets,0,0|0,0|0,0|0,0|0,0|0,0
;   overrideFirmwareConfiguration,1
;   firmwareTypeOverride,MakerBot/Sailfish Firmware
;   GPXconfigOverride,r2h
;   baudRateOverride,115200
;   overridePrinterModels,1
;   printerModelsOverride,MakerBot_Replicator2.stl
;   startingGcode,; **** Replicator 2 start.gcode ****,M73 P0 ; enable build progress,G162 X Y F3000 ; home XY maximum,G161 Z F1200 ; home Z minimum,G92 Z-5 ; set Z to -5,G1 Z0 ; move Z to 0,G161 Z F100 ; home Z slowly,M132 X Y Z A B ; recall home offsets,G1 X-145 Y-75 Z30 F9000 ; move to wait position off table,G130 X20 Y20 Z20 A20 B20 ; lower stepper Vrefs while heating,M126 S[fan_speed_pwm],M140 S[bed0_temperature] T0,M134 T0 ; stabilize bed temperature,M104 S[extruder0_temperature] T0,M133 T0 ; stabilize extruder temperature,G130 X127 Y127 Z40 A127 B127 ; default stepper Vrefs,G92 A0 ; zero extruder,G1 Z0.4 ; position nozzle,G1 E25 F300 ; purge nozzle,G1 X-140 Y-70 Z0.15 F1200 ; slow wipe,G1 X-135 Y-65 Z0.5 F1200 ; lift,G92 A0 ; zero extruder,M73 P1 ;@body (notify GPX body has started),; **** end of start.gcode ****
;   layerChangeGcode,
;   retractionGcode,
;   toolChangeGcode,
;   endingGcode,; **** Replicator 2 end.gcode ****,M73 P100 ; end build progress,G1 Z155 F1000 ; send Z axis to bottom of machine,M104 S0 T0 ; cool down extruder,M140 S0 T0 ; cool down HBP,M127 ; stop blower fan,G162 X Y F3000 ; home XY maximum,M18 ; disable stepper,M0 ; stop codes,M72 P1 ; play Ta-Da song,; **** end of end.gcode ****
;   exportFileFormat,gcode
;   celebration,0
;   celebrationSong,Random Song
;   postProcessing,
;   defaultSpeed,4800
;   outlineUnderspeed,0.5
;   solidInfillUnderspeed,1
;   supportUnderspeed,1
;   rapidXYspeed,9000
;   rapidZspeed,1200
;   minBridgingArea,50
;   bridgingExtraInflation,0
;   bridgingExtrusionMultiplier,1
;   bridgingSpeedMultiplier,0.8
;   useFixedBridgingAngle,0
;   fixedBridgingAngle,0
;   applyBridgingToPerimeters,0
;   filamentDiameters,1.75|1.75|1.75|1.75|1.75|1.75
;   filamentPricesPerKg,46|46|46|46|46|46
;   filamentDensities,1.25|1.25|1.25|1.25|1.25|1.25
;   useMinPrintHeight,0
;   minPrintHeight,0
;   useMaxPrintHeight,0
;   maxPrintHeight,4.84
;   useDiaphragm,0
;   diaphragmLayerInterval,20
;   robustSlicing,1
;   mergeAllIntoSolid,0
;   onlyRetractWhenCrossingOutline,0
;   retractBetweenLayers,0
;   useRetractionMinTravel,1
;   retractionMinTravel,7
;   retractWhileWiping,1
;   onlyWipeOutlines,1
;   avoidCrossingOutline,0
;   maxMovementDetourFactor,3
;   toolChangeRetractionDistance,12
;   toolChangeExtraRestartDistance,-0.5
;   toolChangeRetractionSpeed,600
;   externalThinWallType,0
;   internalThinWallType,0
;   thinWallAllowedOverlapPercentage,10
;   singleExtrusionMinLength,1
;   singleExtrusionMinPrintingWidthPercentage,50
;   singleExtrusionMaxPrintingWidthPercentage,200
;   singleExtrusionEndpointExtension,0.2
;   horizontalSizeCompensation,0
G90
M83
; **** Replicator 2 start.gcode ****
M73 P0 ; enable build progress
G162 X Y F3000 ; home XY maximum
G161 Z F1200 ; home Z minimum
G92 Z-5 ; set Z to -5
G1 Z0 ; move Z to 0
G161 Z F100 ; home Z slowly
M132 X Y Z A B ; recall home offsets
G1 X-145 Y-75 Z30 F9000 ; move to wait position off table
G130 X20 Y20 Z20 A20 B20 ; lower stepper Vrefs while heating
M126 S122
M140 S60 T0
M134 T0 ; stabilize bed temperature
M104 S230 T0
M133 T0 ; stabilize extruder temperature
G130 X127 Y127 Z40 A127 B127 ; default stepper Vrefs
G92 A0 ; zero extruder
G1 Z0.4 ; position nozzle
G1 E25 F300 ; purge nozzle
G1 X-140 Y-70 Z0.15 F1200 ; slow wipe
G1 X-135 Y-65 Z0.5 F1200 ; lift
G92 A0 ; zero extruder
M73 P1 ;@body (notify GPX body has started)
; **** end of start.gcode ****
; process Process1
; layer 1, Z = 0.200
M135 T0
G1 E-1.9000 F1200
; feature inner perimeter
; tool H0.200 W0.460
G1 Z0.500 F1200
G1 X-10.235 Y10.436 F9000
G1 Z0.200 F1200
G1 E1.9000 F1200
G1 X-11.723 Y10.249 E0.0574 F1800
G1 X-15.092 Y-1.712 E0.4753
G1 X-11.581 Y-1.592 E0.1344
G1 X-11.230 Y-0.630 E0.0392
G1 X-13.386 Y-0.628 E0.0825
G1 X-11.492 Y6.335 E0.2760
G1 X-11.163 Y7.068 E0.0307
G1 X-10.636 Y7.617 E0.0291
G1 X-10.296 Y7.832 E0.0154
G1 X-9.968 Y7.981 E0.0138
G1 X-9.635 Y8.085 E0.0133
G1 X-9.293 Y8.156 E0.0134
G1 X-8.667 Y8.210 E0.0240
G1 X-8.052 Y8.191 E0.0236
G1 X-7.628 Y8.112 E0.0165
G1 X-7.200 Y7.950 E0.0175
G1 X-6.791 Y7.724 E0.0179
G1 X-6.401 Y7.443 E0.0184
G1 X-6.035 Y7.113 E0.0189
G1 X-5.696 Y6.739 E0.0193
G1 X-5.393 Y6.325 E0.0196
G1 X-5.133 Y5.873 E0.0199
G1 X-4.927 Y5.388 E0.0202
G1 X-4.787 Y4.871 E0.0205
G1 X-4.727 Y4.330 E0.0208
G1 X-4.761 Y3.802 E0.0202
G1 X-4.862 Y3.219 E0.0226
G1 X-5.361 Y0.626 E0.1010
G1 X-6.217 Y-3.513 E0.1617
G1 X-6.575 Y-5.139 E0.0637
G1 X-6.812 Y-6.091 E0.0375
G1 X-7.006 Y-6.475 E0.0164
G1 X-7.295 Y-6.815 E0.0171
G1 X-7.633 Y-7.104 E0.0170
G1 X-8.008 Y-7.360 E0.0174
G1 X-8.413 Y-7.589 E0.0178
G1 X-8.838 Y-7.795 E0.0181
G1 X-9.274 Y-7.976 E0.0181
G1 X-9.711 Y-8.132 E0.0177
G1 X-10.139 Y-8.260 E0.0171
G1 X-10.548 Y-8.357 E0.0161
G1 X-10.935 Y-8.422 E0.0150
G1 X-11.263 Y-8.444 E0.0126
G1 X-12.884 Y-8.481 E0.0620
G1 X-17.043 Y-8.627 E0.1592
G1 X-17.522 Y-10.528 E0.0750
G1 X-11.472 Y-10.401 E0.2314
G1 X-11.169 Y-10.379 E0.0116
G1 X-10.727 Y-10.318 E0.0171
G1 X-10.171 Y-10.209 E0.0216
G1 X-9.537 Y-10.046 E0.0251
G1 X-8.855 Y-9.823 E0.0274
G1 X-8.157 Y-9.534 E0.0289
G1 X-7.473 Y-9.175 E0.0295
G1 X-6.833 Y-8.744 E0.0295
G1 X-6.263 Y-8.237 E0.0292
G1 X-5.786 Y-7.652 E0.0289
G1 X-5.421 Y-6.981 E0.0292
G1 X-5.174 Y-6.174 E0.0323
G1 X-3.894 Y0.182 E0.2480
G1 X-3.491 Y2.273 E0.0814
G1 X-3.233 Y3.741 E0.0570
G1 X-3.190 Y4.073 E0.0128
G1 X-3.191 Y5.244 E0.0448
G1 X-3.358 Y6.251 E0.0391
G1 X-3.663 Y7.113 E0.0350
G1 X-4.081 Y7.841 E0.0321
G1 X-4.592 Y8.446 E0.0303
G1 X-5.177 Y8.935 E0.0291
G1 X-5.814 Y9.312 E0.0283
G1 X-6.482 Y9.578 E0.0275
G1 X-7.154 Y9.736 E0.0264
G1 X-7.804 Y9.788 E0.0249
G1 X-8.399 Y9.742 E0.0228
G1 X-9.228 Y9.520 E0.0328
G1 X-9.597 Y9.510 E0.0141
G1 X-10.024 Y9.723 E0.0183
G1 X-10.249 Y10.157 E0.0187
G1 X-10.235 Y10.436 E0.0107
; feature outer perimeter
G1 X-9.768 Y10.551 F9000
G1 X-9.655 Y10.972 E0.0167 F1200
G1 X-12.083 Y10.667 E0.0936
G1 X-15.706 Y-2.193 E0.5110
G1 X-11.255 Y-2.041 E0.1703
G1 X-10.573 Y-0.171 E0.0761
G1 X-12.784 Y-0.168 E0.0846
G1 X-11.057 Y6.180 E0.2516
G1 X-10.776 Y6.807 E0.0263
G1 X-10.343 Y7.258 E0.0239
G1 X-10.077 Y7.426 E0.0120
G1 X-9.803 Y7.550 E0.0115
G1 X-9.519 Y7.640 E0.0114
G1 X-9.226 Y7.700 E0.0115
G1 X-8.655 Y7.750 E0.0219
G1 X-8.101 Y7.732 E0.0212
G1 X-7.753 Y7.667 E0.0136
G1 X-7.393 Y7.531 E0.0147
G1 X-7.037 Y7.334 E0.0156
G1 X-6.690 Y7.084 E0.0164
G1 X-6.360 Y6.787 E0.0170
G1 X-6.053 Y6.448 E0.0175
G1 X-5.779 Y6.074 E0.0178
G1 X-5.546 Y5.668 E0.0179
G1 X-5.363 Y5.237 E0.0179
G1 X-5.240 Y4.785 E0.0179
G1 X-5.189 Y4.319 E0.0179
G1 X-5.219 Y3.856 E0.0177
G1 X-5.314 Y3.301 E0.0215
G1 X-5.813 Y0.716 E0.1007
G1 X-6.667 Y-3.417 E0.1614
G1 X-7.023 Y-5.034 E0.0633
G1 X-7.246 Y-5.930 E0.0353
G1 X-7.392 Y-6.218 E0.0124
G1 X-7.622 Y-6.490 E0.0136
G1 X-7.913 Y-6.739 E0.0146
G1 X-8.251 Y-6.969 E0.0157
G1 X-8.626 Y-7.182 E0.0165
G1 X-9.027 Y-7.375 E0.0170
G1 X-9.440 Y-7.547 E0.0171
G1 X-9.854 Y-7.694 E0.0168
G1 X-10.258 Y-7.815 E0.0161
G1 X-10.640 Y-7.906 E0.0150
G1 X-10.988 Y-7.964 E0.0135
G1 X-11.284 Y-7.984 E0.0113
G1 X-12.897 Y-8.022 E0.0617
G1 X-17.405 Y-8.179 E0.1725
G1 X-18.115 Y-11.001 E0.1113
G1 X-11.451 Y-10.861 E0.2550
G1 X-11.120 Y-10.837 E0.0127
G1 X-10.651 Y-10.772 E0.0181
G1 X-10.070 Y-10.658 E0.0227
G1 X-9.408 Y-10.488 E0.0261
G1 X-8.695 Y-10.255 E0.0287
G1 X-7.962 Y-9.951 E0.0304
G1 X-7.237 Y-9.571 E0.0313
G1 X-6.550 Y-9.108 E0.0317
G1 X-5.930 Y-8.556 E0.0318
G1 X-5.403 Y-7.910 E0.0319
G1 X-4.995 Y-7.161 E0.0326
G1 X-4.727 Y-6.287 E0.0349
G1 X-3.443 Y0.092 E0.2489
G1 X-3.039 Y2.189 E0.0817
G1 X-2.778 Y3.672 E0.0576
G1 X-2.730 Y4.043 E0.0143
G1 X-2.731 Y5.282 E0.0474
G1 X-2.911 Y6.366 E0.0421
G1 X-3.243 Y7.306 E0.0381
G1 X-3.703 Y8.106 E0.0353
G1 X-4.266 Y8.773 E0.0334
G1 X-4.910 Y9.312 E0.0321
G1 X-5.611 Y9.726 E0.0311
G1 X-6.343 Y10.018 E0.0302
G1 X-7.083 Y10.191 E0.0291
G1 X-7.803 Y10.250 E0.0276
G1 X-8.477 Y10.197 E0.0258
G1 X-9.295 Y9.978 E0.0324
G1 X-9.495 Y9.973 E0.0077
G1 X-9.685 Y10.068 E0.0081
G1 X-9.783 Y10.258 E0.0082
G1 X-9.768 Y10.551 E0.0112
; feature solid layer
G1 X-10.800 Y10.017 F9000
G1 X-11.677 Y9.140 E0.0474 F2400
G1 X-11.932 Y8.235 E0.0360
G1 X-10.423 Y9.743 E0.0816
G1 X-10.279 Y9.464 E0.0120
G1 X-10.127 Y9.389 E0.0065
G1 X-12.187 Y7.329 E0.1114
G1 E-1.9000 F1200
G1 Z0.700 F1200
G1 X-12.331 Y-1.272 F9000
G1 Z0.200 F1200
G1 E1.9000 F1200
G1 X-12.033 Y-0.974 E0.0161 F2400
G1 X-12.683 Y-0.973 E0.0249
G1 X-13.005 Y-1.295 E0.0174
G1 X-13.678 Y-1.318 E0.0258
G1 X-13.333 Y-0.973 E0.0187
G1 X-13.837 Y-0.972 E0.0193
G1 X-13.783 Y-0.772 E0.0079
G1 X-14.352 Y-1.341 E0.0308
G1 X-14.632 Y-1.351 E0.0107
G1 X-14.483 Y-0.822 E0.0210
G1 X-13.539 Y0.122 E0.0511
G1 X-13.296 Y1.015 E0.0354
G1 X-14.228 Y0.084 E0.0504
G1 X-13.973 Y0.989 E0.0360
G1 X-13.053 Y1.909 E0.0498
G1 X-12.810 Y2.803 E0.0354
G1 X-13.718 Y1.895 E0.0491
G1 X-13.463 Y2.801 E0.0360
G1 X-12.567 Y3.696 E0.0484
G1 X-12.324 Y4.590 E0.0354
G1 X-13.208 Y3.706 E0.0478
G1 X-12.953 Y4.612 E0.0360
G1 X-12.081 Y5.484 E0.0471
G1 X-11.838 Y6.377 E0.0354
G1 X-12.697 Y5.518 E0.0465
G1 X-12.442 Y6.423 E0.0360
G1 X-9.693 Y9.173 E0.1487
G1 X-9.674 Y9.163 E0.0008
G1 X-9.179 Y9.176 E0.0189
G1 X-8.988 Y9.227 E0.0076
G1 X-9.829 Y8.386 E0.0455
G1 X-9.722 Y8.419 E0.0043
G1 X-9.343 Y8.498 E0.0148
G1 X-9.040 Y8.525 E0.0116
G1 X-8.149 Y9.415 E0.0482
G1 X-7.804 Y9.442 E0.0132
G1 X-7.497 Y9.417 E0.0118
G1 X-8.368 Y8.546 E0.0471
G1 X-8.014 Y8.535 E0.0135
G1 X-7.773 Y8.490 E0.0094
G1 X-6.934 Y9.330 E0.0454
G1 X-6.586 Y9.248 E0.0137
G1 X-6.428 Y9.185 E0.0065
G1 X-7.268 Y8.345 E0.0455
G1 X-7.054 Y8.263 E0.0088
G1 X-6.825 Y8.137 E0.0100
G1 X-5.963 Y8.999 E0.0466
G1 X-5.554 Y8.757 E0.0182
G1 X-6.426 Y7.886 E0.0471
G1 X-6.184 Y7.712 E0.0114
G1 X-6.061 Y7.601 E0.0064
G1 X-5.176 Y8.485 E0.0478
G1 X-4.837 Y8.200 E0.0170
G1 X-4.825 Y8.186 E0.0007
G1 X-5.725 Y7.286 E0.0487
G1 X-5.428 Y6.958 E0.0169
G1 X-5.417 Y6.943 E0.0007
G1 X-4.527 Y7.833 E0.0482
G1 X-4.365 Y7.642 E0.0096
G1 X-4.256 Y7.453 E0.0083
G1 X-5.143 Y6.567 E0.0479
G1 X-5.103 Y6.513 E0.0025
G1 X-4.900 Y6.159 E0.0156
G1 X-4.019 Y7.040 E0.0476
G1 X-3.978 Y6.968 E0.0032
G1 X-3.837 Y6.571 E0.0161
G1 X-4.692 Y5.717 E0.0462
G1 X-4.600 Y5.501 E0.0090
G1 X-4.527 Y5.231 E0.0107
G1 X-3.679 Y6.079 E0.0459
G1 X-3.587 Y5.521 E0.0216
G1 X-4.420 Y4.688 E0.0451
G1 X-4.381 Y4.338 E0.0135
G1 X-4.399 Y4.058 E0.0107
G1 X-3.536 Y4.921 E0.0467
G1 X-3.535 Y4.271 E0.0249
G1 X-4.496 Y3.310 E0.0520
G1 X-4.522 Y3.157 E0.0060
G1 X-4.647 Y2.509 E0.0252
G1 X-3.619 Y3.537 E0.0556
G1 X-3.758 Y2.747 E0.0307
G1 X-4.803 Y1.703 E0.0565
G1 X-4.958 Y0.897 E0.0314
G1 X-3.905 Y1.950 E0.0570
G1 X-4.060 Y1.145 E0.0314
G1 X-5.121 Y0.083 E0.0574
G1 X-5.291 Y-0.737 E0.0320
G1 X-4.215 Y0.339 E0.0582
G1 X-4.232 Y0.248 E0.0035
G1 X-4.378 Y-0.475 E0.0282
G1 X-5.460 Y-1.557 E0.0586
G1 X-5.630 Y-2.377 E0.0320
G1 X-4.542 Y-1.289 E0.0589
G1 X-4.706 Y-2.104 E0.0318
G1 X-5.800 Y-3.197 E0.0592
G1 X-5.880 Y-3.585 E0.0151
G1 X-5.977 Y-4.025 E0.0172
G1 X-4.870 Y-2.918 E0.0599
G1 X-5.034 Y-3.733 E0.0318
G1 X-6.160 Y-4.859 E0.0609
G1 X-6.239 Y-5.218 E0.0141
G1 X-6.362 Y-5.712 E0.0195
G1 X-5.198 Y-4.548 E0.0630
G1 X-5.362 Y-5.362 E0.0318
G1 X-6.997 Y-6.997 E0.0884
G1 X-7.427 Y-8.728 F9000
G1 X-5.973 Y-7.275 E0.0786 F2400
G1 X-5.740 Y-6.847 E0.0186
G1 X-5.539 Y-6.190 E0.0263
G1 X-8.760 Y-9.410 E0.1742
G1 X-8.975 Y-9.499 E0.0089
G1 X-9.633 Y-9.715 E0.0265
G1 X-9.743 Y-9.743 E0.0043
G1 X-7.115 Y-7.115 E0.1421
G1 X-7.423 Y-7.379 E0.0155
G1 X-7.825 Y-7.653 E0.0186
G1 X-8.252 Y-7.895 E0.0188
G1 X-8.697 Y-8.110 E0.0189
G1 X-8.805 Y-8.155 E0.0045
G1 X-10.590 Y-9.940 E0.0965
G1 X-10.784 Y-9.978 E0.0075
G1 X-11.205 Y-10.036 E0.0163
G1 X-11.347 Y-10.046 E0.0055
G1 X-9.828 Y-8.527 E0.0822
G1 X-10.049 Y-8.593 E0.0088
G1 X-10.480 Y-8.696 E0.0169
G1 X-10.681 Y-8.729 E0.0078
G1 X-12.019 Y-10.067 E0.0724
G1 X-12.684 Y-10.081 E0.0254
G1 X-11.394 Y-8.792 E0.0697
G1 X-12.060 Y-8.807 E0.0255
G1 X-13.348 Y-10.095 E0.0697
G1 X-14.012 Y-10.109 E0.0254
G1 X-12.726 Y-8.823 E0.0696
G1 X-12.874 Y-8.826 E0.0056
G1 X-13.398 Y-8.845 E0.0201
G1 X-14.677 Y-10.123 E0.0692
G1 X-15.341 Y-10.137 E0.0254
G1 X-14.072 Y-8.868 E0.0686
G1 X-14.747 Y-8.892 E0.0258
G1 X-16.006 Y-10.151 E0.0681
G1 X-16.670 Y-10.165 E0.0254
G1 X-15.421 Y-8.915 E0.0676
