; G-Code generated by Simplify3D(R) Version 4.1.2
; Apr 2, 2020 at 1:58:11 PM
; Settings Summary
;   processName,Process1
;   applyToModels,Key mod washer,Key mod front,Key mod nut
;   profileName,MakerBot Replicator 2 HBP (modified)
;   profileVersion,2020-03-12 10:48:50
;   baseProfile,MakerBot Replicator 2(2)
;   printMaterial,PLA
;   printQuality,Medium
;   printExtruders,
;   extruderName,Primary Extruder
;   extruderToolheadNumber,0
;   extruderDiameter,0.4
;   extruderAutoWidth,0
;   extruderWidth,0.4
;   extrusionMultiplier,1
;   extruderUseRetract,1
;   extruderRetractionDistance,1.9
;   extruderExtraRestartDistance,0
;   extruderRetractionZLift,0.5
;   extruderRetractionSpeed,1200
;   extruderUseCoasting,0
;   extruderCoastingDistance,0.2
;   extruderUseWipe,0
;   extruderWipeDistance,5
;   primaryExtruder,0
;   layerHeight,0.2
;   topSolidLayers,3
;   bottomSolidLayers,3
;   perimeterOutlines,2
;   printPerimetersInsideOut,1
;   startPointOption,3
;   startPointOriginX,0
;   startPointOriginY,150
;   sequentialIslands,0
;   spiralVaseMode,0
;   firstLayerHeightPercentage,100
;   firstLayerWidthPercentage,115
;   firstLayerUnderspeed,0.5
;   useRaft,0
;   raftExtruder,0
;   raftTopLayers,2
;   raftBaseLayers,1
;   raftOffset,1
;   raftSeparationDistance,0.14
;   raftTopInfill,90
;   aboveRaftSpeedMultiplier,0.3
;   useSkirt,0
;   skirtExtruder,0
;   skirtLayers,1
;   skirtOutlines,5
;   skirtOffset,0
;   usePrimePillar,0
;   primePillarExtruder,999
;   primePillarWidth,12
;   primePillarLocation,7
;   primePillarSpeedMultiplier,1
;   useOozeShield,0
;   oozeShieldExtruder,999
;   oozeShieldOffset,2
;   oozeShieldOutlines,1
;   oozeShieldSidewallShape,1
;   oozeShieldSidewallAngle,30
;   oozeShieldSpeedMultiplier,1
;   infillExtruder,0
;   internalInfillPattern,Rectilinear
;   externalInfillPattern,Rectilinear
;   infillPercentage,15
;   outlineOverlapPercentage,25
;   infillExtrusionWidthPercentage,100
;   minInfillLength,5
;   infillLayerInterval,1
;   internalInfillAngles,45,-45
;   overlapInternalInfillAngles,0
;   externalInfillAngles,45,-45
;   generateSupport,1
;   supportExtruder,0
;   supportInfillPercentage,30
;   supportExtraInflation,0.5
;   supportBaseLayers,0
;   denseSupportExtruder,0
;   denseSupportLayers,2
;   denseSupportInfillPercentage,90
;   supportLayerInterval,1
;   supportHorizontalPartOffset,0.3
;   supportUpperSeparationLayers,1
;   supportLowerSeparationLayers,1
;   supportType,1
;   supportGridSpacing,2
;   maxOverhangAngle,45
;   supportAngles,45,-45
;   temperatureName,Primary Extruder,Heated Build Platform
;   temperatureNumber,0,0
;   temperatureSetpointCount,1,1
;   temperatureSetpointLayers,1,1
;   temperatureSetpointTemperatures,230,60
;   temperatureStabilizeAtStartup,1,1
;   temperatureHeatedBed,0,1
;   fanLayers,1,2
;   fanSpeeds,0,100
;   blipFanToFullPower,1
;   adjustSpeedForCooling,1
;   minSpeedLayerTime,15
;   minCoolingSpeedSlowdown,20
;   increaseFanForCooling,1
;   minFanLayerTime,45
;   maxCoolingFanSpeed,100
;   increaseFanForBridging,1
;   bridgingFanSpeed,100
;   use5D,1
;   relativeEdistances,1
;   allowEaxisZeroing,0
;   independentExtruderAxes,1
;   includeM10123,0
;   stickySupport,1
;   applyToolheadOffsets,0
;   gcodeXoffset,0
;   gcodeYoffset,0
;   gcodeZoffset,0
;   overrideMachineDefinition,1
;   machineTypeOverride,0
;   strokeXoverride,280
;   strokeYoverride,150
;   strokeZoverride,150
;   originOffsetXoverride,140
;   originOffsetYoverride,75
;   originOffsetZoverride,0
;   homeXdirOverride,1
;   homeYdirOverride,1
;   homeZdirOverride,-1
;   flipXoverride,1
;   flipYoverride,-1
;   flipZoverride,1
;   toolheadOffsets,0,0|0,0|0,0|0,0|0,0|0,0
;   overrideFirmwareConfiguration,1
;   firmwareTypeOverride,MakerBot/Sailfish Firmware
;   GPXconfigOverride,r2h
;   baudRateOverride,115200
;   overridePrinterModels,1
;   printerModelsOverride,MakerBot_Replicator2.stl
;   startingGcode,; **** Replicator 2 start.gcode ****,M73 P0 ; enable build progress,G162 X Y F3000 ; home XY maximum,G161 Z F1200 ; home Z minimum,G92 Z-5 ; set Z to -5,G1 Z0 ; move Z to 0,G161 Z F100 ; home Z slowly,M132 X Y Z A B ; recall home offsets,G1 X-145 Y-75 Z30 F9000 ; move to wait position off table,G130 X20 Y20 Z20 A20 B20 ; lower stepper Vrefs while heating,M126 S[fan_speed_pwm],M140 S[bed0_temperature] T0,M134 T0 ; stabilize bed temperature,M104 S[extruder0_temperature] T0,M133 T0 ; stabilize extruder temperature,G130 X127 Y127 Z40 A127 B127 ; default stepper Vrefs,G92 A0 ; zero extruder,G1 Z0.4 ; position nozzle,G1 E25 F300 ; purge nozzle,G1 X-140 Y-70 Z0.15 F1200 ; slow wipe,G1 X-135 Y-65 Z0.5 F1200 ; lift,G92 A0 ; zero extruder,M73 P1 ;@body (notify GPX body has started),; **** end of start.gcode ****
;   layerChangeGcode,
;   retractionGcode,
;   toolChangeGcode,
;   endingGcode,; **** Replicator 2 end.gcode ****,M73 P100 ; end build progress,G1 Z155 F1000 ; send Z axis to bottom of machine,M104 S0 T0 ; cool down extruder,M140 S0 T0 ; cool down HBP,M127 ; stop blower fan,G162 X Y F3000 ; home XY maximum,M18 ; disable stepper,M0 ; stop codes,M72 P1 ; play Ta-Da song,; **** end of end.gcode ****
;   exportFileFormat,gcode
;   celebration,0
;   celebrationSong,Random Song
;   postProcessing,
;   defaultSpeed,4800
;   outlineUnderspeed,0.5
;   solidInfillUnderspeed,1
;   supportUnderspeed,1
;   rapidXYspeed,9000
;   rapidZspeed,1200
;   minBridgingArea,50
;   bridgingExtraInflation,0
;   bridgingExtrusionMultiplier,1
;   bridgingSpeedMultiplier,0.8
;   useFixedBridgingAngle,0
;   fixedBridgingAngle,0
;   applyBridgingToPerimeters,0
;   filamentDiameters,1.75|1.75|1.75|1.75|1.75|1.75
;   filamentPricesPerKg,46|46|46|46|46|46
;   filamentDensities,1.25|1.25|1.25|1.25|1.25|1.25
;   useMinPrintHeight,0
;   minPrintHeight,0
;   useMaxPrintHeight,0
;   maxPrintHeight,4.84
;   useDiaphragm,0
;   diaphragmLayerInterval,20
;   robustSlicing,1
;   mergeAllIntoSolid,0
;   onlyRetractWhenCrossingOutline,0
;   retractBetweenLayers,0
;   useRetractionMinTravel,1
;   retractionMinTravel,7
;   retractWhileWiping,1
;   onlyWipeOutlines,1
;   avoidCrossingOutline,0
;   maxMovementDetourFactor,3
;   toolChangeRetractionDistance,12
;   toolChangeExtraRestartDistance,-0.5
;   toolChangeRetractionSpeed,600
;   externalThinWallType,0
;   internalThinWallType,0
;   thinWallAllowedOverlapPercentage,10
;   singleExtrusionMinLength,1
;   singleExtrusionMinPrintingWidthPercentage,50
;   singleExtrusionMaxPrintingWidthPercentage,200
;   singleExtrusionEndpointExtension,0.2
;   horizontalSizeCompensation,0
G90
M83
; **** Replicator 2 start.gcode ****
M73 P0 ; enable build progress
G162 X Y F3000 ; home XY maximum
G161 Z F1200 ; home Z minimum
G92 Z-5 ; set Z to -5
G1 Z0 ; move Z to 0
G161 Z F100 ; home Z slowly
M132 X Y Z A B ; recall home offsets
G1 X-145 Y-75 Z30 F9000 ; move to wait position off table
G130 X20 Y20 Z20 A20 B20 ; lower stepper Vrefs while heating
M127
M140 S60 T0
M134 T0 ; stabilize bed temperature
M104 S230 T0
M133 T0 ; stabilize extruder temperature
G130 X127 Y127 Z40 A127 B127 ; default stepper Vrefs
G92 A0 ; zero extruder
G1 Z0.4 ; position nozzle
G1 E25 F300 ; purge nozzle
G1 X-140 Y-70 Z0.15 F1200 ; slow wipe
G1 X-135 Y-65 Z0.5 F1200 ; lift
G92 A0 ; zero extruder
M73 P1 ;@body (notify GPX body has started)
; **** end of start.gcode ****
; process Process1
; layer 1, Z = 0.200
M135 T0
G1 E-1.9000 F1200
; feature inner perimeter
; tool H0.200 W0.460
G1 Z0.500 F1200
G1 X-17.231 Y-0.618 F9000
G1 Z0.200 F1200
G1 E1.9000 F1200
G1 X-19.060 Y-0.480 E0.0702 F1800
G1 X-20.894 Y-0.533 E0.0702
G1 X-22.712 Y-0.778 E0.0702
G1 X-24.494 Y-1.212 E0.0702
G1 X-26.221 Y-1.829 E0.0702
G1 X-27.875 Y-2.624 E0.0702
G1 X-29.436 Y-3.587 E0.0702
G1 X-30.888 Y-4.708 E0.0702
G1 X-32.215 Y-5.975 E0.0702
G1 X-33.402 Y-7.373 E0.0702
G1 X-34.436 Y-8.888 E0.0702
G1 X-35.307 Y-10.503 E0.0702
G1 X-36.004 Y-12.200 E0.0702
G1 X-36.519 Y-13.960 E0.0702
G1 X-36.848 Y-15.765 E0.0702
G1 X-36.987 Y-17.594 E0.0702
G1 X-36.933 Y-19.427 E0.0702
G1 X-36.688 Y-21.245 E0.0702
G1 X-36.255 Y-23.028 E0.0702
G1 X-35.637 Y-24.755 E0.0702
G1 X-34.842 Y-26.408 E0.0702
G1 X-33.879 Y-27.970 E0.0702
G1 X-32.758 Y-29.422 E0.0702
G1 X-31.492 Y-30.748 E0.0702
G1 X-30.093 Y-31.935 E0.0702
G1 X-28.578 Y-32.970 E0.0702
G1 X-26.963 Y-33.840 E0.0702
G1 X-25.267 Y-34.537 E0.0702
G1 X-23.506 Y-35.053 E0.0702
G1 X-21.702 Y-35.382 E0.0702
G1 X-19.872 Y-35.520 E0.0702
G1 X-18.039 Y-35.467 E0.0702
G1 X-16.221 Y-35.222 E0.0702
G1 X-14.439 Y-34.788 E0.0702
G1 X-12.711 Y-34.171 E0.0702
G1 X-11.058 Y-33.376 E0.0702
G1 X-9.497 Y-32.413 E0.0702
G1 X-8.045 Y-31.292 E0.0702
G1 X-6.718 Y-30.025 E0.0702
G1 X-5.531 Y-28.627 E0.0702
G1 X-4.496 Y-27.112 E0.0702
G1 X-3.626 Y-25.497 E0.0702
G1 X-2.929 Y-23.800 E0.0702
G1 X-2.413 Y-22.040 E0.0702
G1 X-2.085 Y-20.235 E0.0702
G1 X-1.946 Y-18.406 E0.0702
G1 X-2.000 Y-16.573 E0.0702
G1 X-2.245 Y-14.755 E0.0702
G1 X-2.678 Y-12.972 E0.0702
G1 X-3.296 Y-11.245 E0.0702
G1 X-4.070 Y-9.634 E0.0684
G1 X-5.054 Y-8.030 E0.0720
G1 X-6.175 Y-6.579 E0.0701
G1 X-7.441 Y-5.252 E0.0702
G1 X-8.840 Y-4.065 E0.0702
G1 X-10.355 Y-3.030 E0.0702
G1 X-11.969 Y-2.160 E0.0702
G1 X-13.666 Y-1.463 E0.0702
G1 X-15.426 Y-0.947 E0.0702
G1 X-17.231 Y-0.618 E0.0702
; feature outer perimeter
G1 X-17.172 Y-0.161 F9000
G1 X-19.049 Y-0.019 E0.0720 F1200
G1 X-20.931 Y-0.074 E0.0720
G1 X-22.797 Y-0.326 E0.0720
G1 X-24.626 Y-0.771 E0.0720
G1 X-26.399 Y-1.404 E0.0720
G1 X-28.096 Y-2.220 E0.0720
G1 X-29.698 Y-3.208 E0.0720
G1 X-31.188 Y-4.359 E0.0720
G1 X-32.550 Y-5.659 E0.0720
G1 X-33.768 Y-7.094 E0.0720
G1 X-34.830 Y-8.649 E0.0720
G1 X-35.723 Y-10.306 E0.0720
G1 X-36.438 Y-12.047 E0.0720
G1 X-36.967 Y-13.854 E0.0720
G1 X-37.305 Y-15.706 E0.0720
G1 X-37.447 Y-17.583 E0.0720
G1 X-37.392 Y-19.465 E0.0720
G1 X-37.141 Y-21.331 E0.0720
G1 X-36.696 Y-23.160 E0.0720
G1 X-36.062 Y-24.933 E0.0720
G1 X-35.246 Y-26.629 E0.0720
G1 X-34.258 Y-28.232 E0.0720
G1 X-33.108 Y-29.722 E0.0720
G1 X-31.808 Y-31.083 E0.0720
G1 X-30.372 Y-32.302 E0.0720
G1 X-28.818 Y-33.363 E0.0720
G1 X-27.161 Y-34.257 E0.0720
G1 X-25.419 Y-34.972 E0.0720
G1 X-23.612 Y-35.501 E0.0720
G1 X-21.760 Y-35.839 E0.0720
G1 X-19.883 Y-35.981 E0.0720
G1 X-18.001 Y-35.926 E0.0720
G1 X-16.136 Y-35.674 E0.0720
G1 X-14.306 Y-35.229 E0.0720
G1 X-12.534 Y-34.596 E0.0720
G1 X-10.837 Y-33.780 E0.0720
G1 X-9.235 Y-32.792 E0.0720
G1 X-7.745 Y-31.641 E0.0720
G1 X-6.383 Y-30.341 E0.0720
G1 X-5.165 Y-28.906 E0.0720
G1 X-4.103 Y-27.351 E0.0720
G1 X-3.210 Y-25.694 E0.0720
G1 X-2.494 Y-23.953 E0.0720
G1 X-1.965 Y-22.146 E0.0720
G1 X-1.628 Y-20.294 E0.0720
G1 X-1.486 Y-18.417 E0.0720
G1 X-1.541 Y-16.535 E0.0720
G1 X-1.792 Y-14.669 E0.0720
G1 X-2.237 Y-12.840 E0.0720
G1 X-2.871 Y-11.067 E0.0720
G1 X-3.666 Y-9.413 E0.0702
G1 X-4.675 Y-7.768 E0.0738
G1 X-5.825 Y-6.278 E0.0720
G1 X-7.125 Y-4.917 E0.0720
G1 X-8.560 Y-3.698 E0.0720
G1 X-10.115 Y-2.637 E0.0720
G1 X-11.772 Y-1.743 E0.0720
G1 X-13.514 Y-1.028 E0.0720
G1 X-15.320 Y-0.499 E0.0720
G1 X-17.172 Y-0.161 E0.0720
; feature inner perimeter
G1 X-17.805 Y-6.278 F9000
G1 X-16.191 Y-6.620 E0.0631 F1800
G1 X-14.604 Y-7.202 E0.0647
G1 X-13.086 Y-8.027 E0.0661
G1 X-11.760 Y-9.009 E0.0631
G1 X-10.559 Y-10.197 E0.0646
G1 X-9.539 Y-11.544 E0.0646
G1 X-8.721 Y-13.023 E0.0646
G1 X-8.122 Y-14.603 E0.0646
G1 X-7.754 Y-16.252 E0.0646
G1 X-7.625 Y-17.936 E0.0646
G1 X-7.736 Y-19.622 E0.0646
G1 X-8.086 Y-21.275 E0.0646
G1 X-8.669 Y-22.862 E0.0647
G1 X-9.494 Y-24.380 E0.0661
G1 X-10.475 Y-25.706 E0.0631
G1 X-11.664 Y-26.907 E0.0646
G1 X-13.011 Y-27.927 E0.0646
G1 X-14.489 Y-28.745 E0.0646
G1 X-16.069 Y-29.344 E0.0646
G1 X-17.718 Y-29.712 E0.0646
G1 X-19.403 Y-29.842 E0.0646
G1 X-21.090 Y-29.730 E0.0647
G1 X-22.778 Y-29.366 E0.0661
G1 X-24.327 Y-28.798 E0.0631
G1 X-25.815 Y-27.996 E0.0646
G1 X-27.173 Y-26.991 E0.0646
G1 X-28.375 Y-25.802 E0.0647
G1 X-29.413 Y-24.421 E0.0661
G1 X-30.211 Y-22.977 E0.0631
G1 X-30.810 Y-21.397 E0.0646
G1 X-31.179 Y-19.747 E0.0647
G1 X-31.305 Y-18.024 E0.0661
G1 X-31.196 Y-16.378 E0.0631
G1 X-30.846 Y-14.725 E0.0646
G1 X-30.264 Y-13.139 E0.0646
G1 X-29.463 Y-11.652 E0.0646
G1 X-28.457 Y-10.294 E0.0646
G1 X-27.269 Y-9.092 E0.0646
G1 X-25.922 Y-8.073 E0.0646
G1 X-24.443 Y-7.255 E0.0646
G1 X-22.864 Y-6.656 E0.0646
G1 X-21.215 Y-6.288 E0.0646
G1 X-19.529 Y-6.158 E0.0647
G1 X-17.805 Y-6.278 E0.0661
; feature outer perimeter
G1 X-17.869 Y-6.735 F9000
G1 X-16.319 Y-7.063 E0.0606 F1200
G1 X-14.794 Y-7.623 E0.0621
G1 X-13.334 Y-8.416 E0.0636
G1 X-12.060 Y-9.359 E0.0606
G1 X-10.906 Y-10.501 E0.0621
G1 X-9.926 Y-11.796 E0.0621
G1 X-9.140 Y-13.217 E0.0621
G1 X-8.564 Y-14.735 E0.0621
G1 X-8.210 Y-16.320 E0.0621
G1 X-8.086 Y-17.939 E0.0621
G1 X-8.193 Y-19.559 E0.0621
G1 X-8.530 Y-21.147 E0.0621
G1 X-9.089 Y-22.672 E0.0621
G1 X-9.882 Y-24.132 E0.0636
G1 X-10.825 Y-25.406 E0.0606
G1 X-11.967 Y-26.561 E0.0621
G1 X-13.262 Y-27.541 E0.0621
G1 X-14.683 Y-28.326 E0.0621
G1 X-16.201 Y-28.902 E0.0621
G1 X-17.786 Y-29.256 E0.0621
G1 X-19.405 Y-29.380 E0.0621
G1 X-21.026 Y-29.273 E0.0621
G1 X-22.650 Y-28.923 E0.0636
G1 X-24.138 Y-28.377 E0.0606
G1 X-25.567 Y-27.607 E0.0621
G1 X-26.873 Y-26.641 E0.0621
G1 X-28.027 Y-25.499 E0.0621
G1 X-29.026 Y-24.170 E0.0636
G1 X-29.793 Y-22.783 E0.0606
G1 X-30.368 Y-21.265 E0.0621
G1 X-30.722 Y-19.680 E0.0621
G1 X-30.844 Y-18.023 E0.0636
G1 X-30.740 Y-16.441 E0.0606
G1 X-30.403 Y-14.853 E0.0621
G1 X-29.844 Y-13.328 E0.0621
G1 X-29.073 Y-11.899 E0.0621
G1 X-28.107 Y-10.594 E0.0621
G1 X-26.965 Y-9.439 E0.0621
G1 X-25.671 Y-8.459 E0.0621
G1 X-24.250 Y-7.673 E0.0621
G1 X-22.731 Y-7.098 E0.0621
G1 X-21.147 Y-6.744 E0.0621
G1 X-19.527 Y-6.620 E0.0621
G1 X-17.869 Y-6.735 E0.0636
G1 E-1.9000 F1200
; feature solid layer
G1 Z0.700 F1200
G1 X-25.858 Y-7.643 F9000
G1 Z0.200 F1200
G1 E1.9000 F1200
G1 X-19.042 Y-0.827 E0.3687 F2400
G1 X-18.438 Y-0.873 E0.0232
G1 X-24.455 Y-6.890 E0.3255
G1 X-23.407 Y-6.493 E0.0429
G1 X-17.833 Y-0.919 E0.3015
G1 X-17.275 Y-0.961 E0.0214
G1 X-17.232 Y-0.969 E0.0017
G1 X-22.480 Y-6.217 E0.2839
G1 X-21.643 Y-6.030 E0.0328
G1 X-16.682 Y-1.069 E0.2684
G1 X-16.132 Y-1.169 E0.0214
G1 X-20.878 Y-5.916 E0.2568
G1 X-20.174 Y-5.862 E0.0270
G1 X-15.581 Y-1.270 E0.2484
G1 X-15.506 Y-1.283 E0.0029
G1 X-15.072 Y-1.411 E0.0173
G1 X-19.477 Y-5.816 E0.2383
G1 X-18.869 Y-5.858 E0.0233
G1 X-14.569 Y-1.558 E0.2326
G1 X-14.066 Y-1.705 E0.0201
G1 X-18.261 Y-5.901 E0.2269
G1 X-17.758 Y-5.936 E0.0193
G1 X-17.665 Y-5.955 E0.0036
G1 X-13.581 Y-1.871 E0.2209
G1 X-13.119 Y-2.060 E0.0191
G1 X-17.128 Y-6.069 E0.2168
G1 X-16.591 Y-6.183 E0.0210
G1 X-12.658 Y-2.250 E0.2127
G1 X-12.197 Y-2.439 E0.0191
G1 X-16.059 Y-6.301 E0.2089
G1 X-15.583 Y-6.476 E0.0194
G1 X-11.768 Y-2.660 E0.2064
G1 X-11.345 Y-2.888 E0.0184
G1 X-15.107 Y-6.650 E0.2035
G1 X-14.631 Y-6.825 E0.0194
G1 X-10.922 Y-3.116 E0.2006
G1 X-10.534 Y-3.325 E0.0169
G1 X-10.503 Y-3.347 E0.0015
G1 X-14.190 Y-7.034 E0.1995
G1 X-13.769 Y-7.264 E0.0183
G1 X-10.116 Y-3.611 E0.1976
G1 X-9.730 Y-3.875 E0.0179
G1 X-13.347 Y-7.493 E0.1957
G1 X-12.926 Y-7.722 E0.0183
G1 X-9.343 Y-4.139 E0.1938
G1 X-9.049 Y-4.339 E0.0136
G1 X-8.965 Y-4.411 E0.0042
G1 X-12.549 Y-7.995 E0.1939
G1 X-12.175 Y-8.272 E0.0178
G1 X-8.613 Y-4.710 E0.1927
G1 X-8.261 Y-5.008 E0.0177
G1 X-11.802 Y-8.549 E0.1915
G1 X-11.535 Y-8.746 E0.0127
G1 X-11.441 Y-8.839 E0.0050
G1 X-7.909 Y-5.307 E0.1910
G1 X-7.678 Y-5.503 E0.0116
G1 X-7.569 Y-5.617 E0.0060
G1 X-11.114 Y-9.162 E0.1918
G1 X-10.787 Y-9.486 E0.0176
G1 X-7.251 Y-5.950 E0.1913
G1 X-6.934 Y-6.283 E0.0176
G1 X-10.460 Y-9.810 E0.1908
G1 X-10.299 Y-9.969 E0.0087
G1 X-10.157 Y-10.157 E0.0090
G1 X-6.616 Y-6.616 E0.1915
G1 X-6.437 Y-6.804 E0.0099
G1 X-6.313 Y-6.964 E0.0077
G1 X-9.876 Y-10.527 E0.1927
G1 X-9.596 Y-10.897 E0.0178
G1 X-6.030 Y-7.331 E0.1929
G1 X-5.746 Y-7.698 E0.0177
G1 X-9.316 Y-11.267 E0.1931
G1 X-9.249 Y-11.356 E0.0042
G1 X-9.073 Y-11.675 E0.0139
G1 X-5.463 Y-8.065 E0.1953
G1 X-5.338 Y-8.226 E0.0078
G1 X-5.200 Y-8.452 E0.0102
G1 X-8.841 Y-12.094 E0.1970
G1 X-8.609 Y-12.512 E0.0183
G1 X-4.952 Y-8.856 E0.1978
G1 X-4.705 Y-9.259 E0.0181
G1 X-8.384 Y-12.938 E0.1990
