; G-Code generated by Simplify3D(R) Version 4.1.2
; Apr 2, 2020 at 1:36:01 PM
; Settings Summary
;   processName,Process1
;   applyToModels,Bob Specials A V2R1,Bob Specials B V2R1,Bob Specials A V2R1(2),Bob Specials B V2R1(2)
;   profileName,MakerBot Replicator 2 HBP (modified)
;   profileVersion,2020-03-12 10:48:50
;   baseProfile,MakerBot Replicator 2(2)
;   printMaterial,PLA
;   printQuality,Medium
;   printExtruders,
;   extruderName,Primary Extruder
;   extruderToolheadNumber,0
;   extruderDiameter,0.4
;   extruderAutoWidth,0
;   extruderWidth,0.4
;   extrusionMultiplier,1
;   extruderUseRetract,1
;   extruderRetractionDistance,1.9
;   extruderExtraRestartDistance,0
;   extruderRetractionZLift,0.5
;   extruderRetractionSpeed,1200
;   extruderUseCoasting,0
;   extruderCoastingDistance,0.2
;   extruderUseWipe,0
;   extruderWipeDistance,5
;   primaryExtruder,0
;   layerHeight,0.2
;   topSolidLayers,3
;   bottomSolidLayers,3
;   perimeterOutlines,2
;   printPerimetersInsideOut,1
;   startPointOption,3
;   startPointOriginX,0
;   startPointOriginY,150
;   sequentialIslands,0
;   spiralVaseMode,0
;   firstLayerHeightPercentage,100
;   firstLayerWidthPercentage,115
;   firstLayerUnderspeed,0.5
;   useRaft,0
;   raftExtruder,0
;   raftTopLayers,2
;   raftBaseLayers,1
;   raftOffset,1
;   raftSeparationDistance,0.14
;   raftTopInfill,90
;   aboveRaftSpeedMultiplier,0.3
;   useSkirt,0
;   skirtExtruder,0
;   skirtLayers,1
;   skirtOutlines,5
;   skirtOffset,0
;   usePrimePillar,0
;   primePillarExtruder,999
;   primePillarWidth,12
;   primePillarLocation,7
;   primePillarSpeedMultiplier,1
;   useOozeShield,0
;   oozeShieldExtruder,999
;   oozeShieldOffset,2
;   oozeShieldOutlines,1
;   oozeShieldSidewallShape,1
;   oozeShieldSidewallAngle,30
;   oozeShieldSpeedMultiplier,1
;   infillExtruder,0
;   internalInfillPattern,Rectilinear
;   externalInfillPattern,Rectilinear
;   infillPercentage,15
;   outlineOverlapPercentage,25
;   infillExtrusionWidthPercentage,100
;   minInfillLength,5
;   infillLayerInterval,1
;   internalInfillAngles,45,-45
;   overlapInternalInfillAngles,0
;   externalInfillAngles,45,-45
;   generateSupport,1
;   supportExtruder,0
;   supportInfillPercentage,30
;   supportExtraInflation,0.5
;   supportBaseLayers,0
;   denseSupportExtruder,0
;   denseSupportLayers,2
;   denseSupportInfillPercentage,90
;   supportLayerInterval,1
;   supportHorizontalPartOffset,0.3
;   supportUpperSeparationLayers,1
;   supportLowerSeparationLayers,1
;   supportType,1
;   supportGridSpacing,2
;   maxOverhangAngle,45
;   supportAngles,45,-45
;   temperatureName,Primary Extruder,Heated Build Platform
;   temperatureNumber,0,0
;   temperatureSetpointCount,1,1
;   temperatureSetpointLayers,1,1
;   temperatureSetpointTemperatures,230,60
;   temperatureStabilizeAtStartup,1,1
;   temperatureHeatedBed,0,1
;   fanLayers,1,2
;   fanSpeeds,0,100
;   blipFanToFullPower,1
;   adjustSpeedForCooling,1
;   minSpeedLayerTime,15
;   minCoolingSpeedSlowdown,20
;   increaseFanForCooling,1
;   minFanLayerTime,45
;   maxCoolingFanSpeed,100
;   increaseFanForBridging,1
;   bridgingFanSpeed,100
;   use5D,1
;   relativeEdistances,1
;   allowEaxisZeroing,0
;   independentExtruderAxes,1
;   includeM10123,0
;   stickySupport,1
;   applyToolheadOffsets,0
;   gcodeXoffset,0
;   gcodeYoffset,0
;   gcodeZoffset,0
;   overrideMachineDefinition,1
;   machineTypeOverride,0
;   strokeXoverride,280
;   strokeYoverride,150
;   strokeZoverride,150
;   originOffsetXoverride,140
;   originOffsetYoverride,75
;   originOffsetZoverride,0
;   homeXdirOverride,1
;   homeYdirOverride,1
;   homeZdirOverride,-1
;   flipXoverride,1
;   flipYoverride,-1
;   flipZoverride,1
;   toolheadOffsets,0,0|0,0|0,0|0,0|0,0|0,0
;   overrideFirmwareConfiguration,1
;   firmwareTypeOverride,MakerBot/Sailfish Firmware
;   GPXconfigOverride,r2h
;   baudRateOverride,115200
;   overridePrinterModels,1
;   printerModelsOverride,MakerBot_Replicator2.stl
;   startingGcode,; **** Replicator 2 start.gcode ****,M73 P0 ; enable build progress,G162 X Y F3000 ; home XY maximum,G161 Z F1200 ; home Z minimum,G92 Z-5 ; set Z to -5,G1 Z0 ; move Z to 0,G161 Z F100 ; home Z slowly,M132 X Y Z A B ; recall home offsets,G1 X-145 Y-75 Z30 F9000 ; move to wait position off table,G130 X20 Y20 Z20 A20 B20 ; lower stepper Vrefs while heating,M126 S[fan_speed_pwm],M140 S[bed0_temperature] T0,M134 T0 ; stabilize bed temperature,M104 S[extruder0_temperature] T0,M133 T0 ; stabilize extruder temperature,G130 X127 Y127 Z40 A127 B127 ; default stepper Vrefs,G92 A0 ; zero extruder,G1 Z0.4 ; position nozzle,G1 E25 F300 ; purge nozzle,G1 X-140 Y-70 Z0.15 F1200 ; slow wipe,G1 X-135 Y-65 Z0.5 F1200 ; lift,G92 A0 ; zero extruder,M73 P1 ;@body (notify GPX body has started),; **** end of start.gcode ****
;   layerChangeGcode,
;   retractionGcode,
;   toolChangeGcode,
;   endingGcode,; **** Replicator 2 end.gcode ****,M73 P100 ; end build progress,G1 Z155 F1000 ; send Z axis to bottom of machine,M104 S0 T0 ; cool down extruder,M140 S0 T0 ; cool down HBP,M127 ; stop blower fan,G162 X Y F3000 ; home XY maximum,M18 ; disable stepper,M0 ; stop codes,M72 P1 ; play Ta-Da song,; **** end of end.gcode ****
;   exportFileFormat,gcode
;   celebration,0
;   celebrationSong,Random Song
;   postProcessing,
;   defaultSpeed,4800
;   outlineUnderspeed,0.5
;   solidInfillUnderspeed,1
;   supportUnderspeed,1
;   rapidXYspeed,9000
;   rapidZspeed,1200
;   minBridgingArea,50
;   bridgingExtraInflation,0
;   bridgingExtrusionMultiplier,1
;   bridgingSpeedMultiplier,0.8
;   useFixedBridgingAngle,0
;   fixedBridgingAngle,0
;   applyBridgingToPerimeters,0
;   filamentDiameters,1.75|1.75|1.75|1.75|1.75|1.75
;   filamentPricesPerKg,46|46|46|46|46|46
;   filamentDensities,1.25|1.25|1.25|1.25|1.25|1.25
;   useMinPrintHeight,0
;   minPrintHeight,0
;   useMaxPrintHeight,0
;   maxPrintHeight,4.84
;   useDiaphragm,0
;   diaphragmLayerInterval,20
;   robustSlicing,1
;   mergeAllIntoSolid,0
;   onlyRetractWhenCrossingOutline,0
;   retractBetweenLayers,0
;   useRetractionMinTravel,1
;   retractionMinTravel,7
;   retractWhileWiping,1
;   onlyWipeOutlines,1
;   avoidCrossingOutline,0
;   maxMovementDetourFactor,3
;   toolChangeRetractionDistance,12
;   toolChangeExtraRestartDistance,-0.5
;   toolChangeRetractionSpeed,600
;   externalThinWallType,0
;   internalThinWallType,0
;   thinWallAllowedOverlapPercentage,10
;   singleExtrusionMinLength,1
;   singleExtrusionMinPrintingWidthPercentage,50
;   singleExtrusionMaxPrintingWidthPercentage,200
;   singleExtrusionEndpointExtension,0.2
;   horizontalSizeCompensation,0
G90
M83
; **** Replicator 2 start.gcode ****
M73 P0 ; enable build progress
G162 X Y F3000 ; home XY maximum
G161 Z F1200 ; home Z minimum
G92 Z-5 ; set Z to -5
G1 Z0 ; move Z to 0
G161 Z F100 ; home Z slowly
M132 X Y Z A B ; recall home offsets
G1 X-145 Y-75 Z30 F9000 ; move to wait position off table
G130 X20 Y20 Z20 A20 B20 ; lower stepper Vrefs while heating
M127
M140 S60 T0
M134 T0 ; stabilize bed temperature
M104 S230 T0
M133 T0 ; stabilize extruder temperature
G130 X127 Y127 Z40 A127 B127 ; default stepper Vrefs
G92 A0 ; zero extruder
G1 Z0.4 ; position nozzle
G1 E25 F300 ; purge nozzle
G1 X-140 Y-70 Z0.15 F1200 ; slow wipe
G1 X-135 Y-65 Z0.5 F1200 ; lift
G92 A0 ; zero extruder
M73 P1 ;@body (notify GPX body has started)
; **** end of start.gcode ****
; process Process1
; layer 1, Z = 0.200
M135 T0
G1 E-1.9000 F1200
; feature inner perimeter
; tool H0.200 W0.460
G1 Z0.500 F1200
G1 X-2.225 Y24.323 F9000
G1 Z0.200 F1200
G1 E1.9000 F1200
G1 X-2.225 Y10.703 E0.5210 F1800
G1 X15.275 Y10.700 E0.6694
G1 X15.275 Y-5.561 E0.6220
G1 X-2.225 Y-5.561 E0.6694
G1 X-2.225 Y-19.181 E0.5210
G1 X15.275 Y-19.181 E0.6694
G1 X15.275 Y-32.995 E0.5284
G1 X28.895 Y-32.995 E0.5210
G1 X28.895 Y-19.181 E0.5284
G1 X46.395 Y-19.181 E0.6694
G1 X46.395 Y-5.561 E0.5210
G1 X28.895 Y-5.561 E0.6694
G1 X28.895 Y9.514 E0.5766
G1 X28.895 Y10.700 E0.0454
G1 X46.395 Y10.703 E0.6694
G1 X46.395 Y24.323 E0.5210
G1 X-2.225 Y24.323 E1.8597
; feature outer perimeter
G1 X-2.685 Y24.783 F9000
G1 X-2.685 Y10.243 E0.5561 F1200
G1 X14.815 Y10.240 E0.6694
G1 X14.815 Y-5.101 E0.5868
G1 X-2.685 Y-5.101 E0.6694
G1 X-2.685 Y-19.641 E0.5561
G1 X14.815 Y-19.641 E0.6694
G1 X14.815 Y-33.455 E0.5284
G1 X29.355 Y-33.455 E0.5561
G1 X29.355 Y-19.641 E0.5284
G1 X46.855 Y-19.641 E0.6694
G1 X46.855 Y-5.101 E0.5561
G1 X29.355 Y-5.101 E0.6694
G1 X29.355 Y9.514 E0.5590
G1 X29.355 Y10.240 E0.0278
G1 X46.855 Y10.243 E0.6694
G1 X46.855 Y24.783 E0.5561
G1 X-2.685 Y24.783 E1.8949
; feature solid layer
G1 X-1.880 Y23.870 F9000
G1 X-1.772 Y23.978 E0.0058 F2400
G1 X-1.121 Y23.978 E0.0249
G1 X-1.880 Y23.219 E0.0410
G1 X-1.880 Y22.569 E0.0249
G1 X-0.471 Y23.978 E0.0762
G1 X0.180 Y23.978 E0.0249
G1 X-1.880 Y21.918 E0.1114
G1 X-1.880 Y21.268 E0.0249
G1 X0.830 Y23.978 E0.1466
G1 X1.481 Y23.978 E0.0249
G1 X-1.880 Y20.617 E0.1818
G1 X-1.880 Y19.967 E0.0249
G1 X2.131 Y23.978 E0.2170
G1 X2.782 Y23.978 E0.0249
G1 X-1.880 Y19.316 E0.2522
G1 X-1.880 Y18.666 E0.0249
G1 X3.432 Y23.978 E0.2873
G1 X4.083 Y23.978 E0.0249
G1 X-1.880 Y18.015 E0.3225
G1 X-1.880 Y17.365 E0.0249
G1 X4.733 Y23.978 E0.3577
G1 X5.384 Y23.978 E0.0249
G1 X-1.880 Y16.714 E0.3929
G1 X-1.880 Y16.064 E0.0249
G1 X6.035 Y23.978 E0.4281
G1 X6.685 Y23.978 E0.0249
G1 X-1.880 Y15.413 E0.4633
G1 X-1.880 Y14.762 E0.0249
G1 X7.336 Y23.978 E0.4985
G1 X7.986 Y23.978 E0.0249
G1 X-1.880 Y14.112 E0.5337
G1 X-1.880 Y13.461 E0.0249
G1 X8.637 Y23.978 E0.5689
G1 X9.287 Y23.978 E0.0249
G1 X-1.880 Y12.811 E0.6040
G1 X-1.880 Y12.160 E0.0249
G1 X9.938 Y23.978 E0.6392
G1 X10.588 Y23.978 E0.0249
G1 X-1.880 Y11.510 E0.6744
G1 X-1.880 Y11.048 E0.0177
G1 X-1.691 Y11.048 E0.0072
G1 X11.239 Y23.978 E0.6994
G1 X11.889 Y23.978 E0.0249
G1 X-1.041 Y11.048 E0.6994
G1 X-0.390 Y11.047 E0.0249
G1 X12.540 Y23.978 E0.6994
G1 X13.190 Y23.978 E0.0249
G1 X0.260 Y11.047 E0.6994
G1 X0.910 Y11.047 E0.0249
G1 X13.841 Y23.978 E0.6994
G1 X14.492 Y23.978 E0.0249
G1 X1.561 Y11.047 E0.6995
G1 X2.211 Y11.047 E0.0249
G1 X15.142 Y23.978 E0.6995
G1 X15.793 Y23.978 E0.0249
G1 X2.862 Y11.047 E0.6995
G1 X3.512 Y11.047 E0.0249
G1 X16.443 Y23.978 E0.6995
G1 X17.094 Y23.978 E0.0249
G1 X4.163 Y11.047 E0.6995
G1 X4.813 Y11.047 E0.0249
G1 X17.744 Y23.978 E0.6995
G1 X18.395 Y23.978 E0.0249
G1 X5.464 Y11.047 E0.6995
G1 X6.114 Y11.047 E0.0249
G1 X19.045 Y23.978 E0.6995
G1 X19.696 Y23.978 E0.0249
G1 X6.764 Y11.046 E0.6995
G1 X7.415 Y11.046 E0.0249
G1 X20.346 Y23.978 E0.6995
G1 X20.997 Y23.978 E0.0249
G1 X8.065 Y11.046 E0.6995
G1 X8.716 Y11.046 E0.0249
G1 X21.647 Y23.978 E0.6995
G1 X22.298 Y23.978 E0.0249
G1 X9.366 Y11.046 E0.6995
G1 X10.017 Y11.046 E0.0249
G1 X22.949 Y23.978 E0.6995
G1 X23.599 Y23.978 E0.0249
G1 X10.667 Y11.046 E0.6995
G1 X11.318 Y11.046 E0.0249
G1 X24.250 Y23.978 E0.6995
G1 X24.900 Y23.978 E0.0249
G1 X11.968 Y11.046 E0.6995
G1 X12.618 Y11.046 E0.0249
G1 X25.551 Y23.978 E0.6995
G1 X26.201 Y23.978 E0.0249
G1 X13.269 Y11.046 E0.6995
G1 X13.919 Y11.045 E0.0249
G1 X26.852 Y23.978 E0.6995
G1 X27.502 Y23.978 E0.0249
G1 X14.570 Y11.045 E0.6996
G1 X15.220 Y11.045 E0.0249
G1 X28.153 Y23.978 E0.6996
G1 X28.803 Y23.978 E0.0249
G1 X15.620 Y10.795 E0.7131
G1 X15.620 Y10.144 E0.0249
G1 X29.454 Y23.978 E0.7483
G1 X30.104 Y23.978 E0.0249
G1 X15.620 Y9.494 E0.7835
G1 X15.620 Y8.843 E0.0249
G1 X30.755 Y23.978 E0.8187
G1 X31.406 Y23.978 E0.0249
G1 X15.620 Y8.193 E0.8539
G1 X15.620 Y7.542 E0.0249
G1 X32.056 Y23.978 E0.8891
G1 X32.707 Y23.978 E0.0249
G1 X15.620 Y6.891 E0.9242
G1 X15.620 Y6.241 E0.0249
G1 X33.357 Y23.978 E0.9594
G1 X34.008 Y23.978 E0.0249
G1 X15.620 Y5.590 E0.9946
G1 X15.620 Y4.940 E0.0249
G1 X34.658 Y23.978 E1.0298
G1 X35.309 Y23.978 E0.0249
G1 X15.620 Y4.289 E1.0650
G1 X15.620 Y3.639 E0.0249
G1 X35.959 Y23.978 E1.1002
G1 X36.610 Y23.978 E0.0249
G1 X15.620 Y2.988 E1.1354
G1 X15.620 Y2.338 E0.0249
G1 X37.260 Y23.978 E1.1706
G1 X37.911 Y23.978 E0.0249
G1 X15.620 Y1.687 E1.2058
G1 X15.620 Y1.037 E0.0249
G1 X38.561 Y23.978 E1.2409
G1 X39.212 Y23.978 E0.0249
G1 X15.620 Y0.386 E1.2761
G1 X15.620 Y-0.264 E0.0249
G1 X39.863 Y23.978 E1.3113
G1 X40.513 Y23.978 E0.0249
G1 X15.620 Y-0.915 E1.3465
G1 E-1.9000 F1200
G1 Z0.700 F1200
G1 X28.550 Y8.112 F9000
G1 Z0.200 F1200
G1 E1.9000 F1200
G1 X15.620 Y-4.818 E0.6994 F2400
G1 X15.620 Y-4.168 E0.0249
G1 X28.550 Y8.762 E0.6994
G1 X28.550 Y9.413 E0.0249
G1 X15.620 Y-3.517 E0.6994
G1 X15.620 Y-2.867 E0.0249
G1 X28.550 Y10.063 E0.6994
G1 X28.550 Y10.714 E0.0249
G1 X15.620 Y-2.216 E0.6994
G1 X15.620 Y-1.566 E0.0249
G1 X41.164 Y23.978 E1.3817
G1 X41.814 Y23.978 E0.0249
G1 X28.882 Y11.045 E0.6996
G1 X29.532 Y11.045 E0.0249
G1 X42.465 Y23.978 E0.6996
G1 X43.115 Y23.978 E0.0249
G1 X30.183 Y11.045 E0.6995
G1 X30.833 Y11.046 E0.0249
G1 X43.766 Y23.978 E0.6995
G1 X44.416 Y23.978 E0.0249
G1 X31.484 Y11.046 E0.6995
G1 X32.135 Y11.046 E0.0249
G1 X45.067 Y23.978 E0.6995
G1 X45.717 Y23.978 E0.0249
G1 X32.785 Y11.046 E0.6995
G1 X33.436 Y11.046 E0.0249
G1 X46.050 Y23.660 E0.6823
G1 X46.050 Y23.010 E0.0249
G1 X34.087 Y11.046 E0.6471
G1 X34.737 Y11.046 E0.0249
G1 X46.050 Y22.359 E0.6119
G1 X46.050 Y21.709 E0.0249
G1 X35.388 Y11.046 E0.5768
G1 X36.039 Y11.046 E0.0249
G1 X46.050 Y21.058 E0.5416
G1 X46.050 Y20.407 E0.0249
G1 X36.689 Y11.046 E0.5064
G1 X37.340 Y11.046 E0.0249
G1 X46.050 Y19.757 E0.4712
G1 X46.050 Y19.106 E0.0249
G1 X37.990 Y11.047 E0.4360
G1 X38.641 Y11.047 E0.0249
G1 X46.050 Y18.456 E0.4008
G1 X46.050 Y17.805 E0.0249
G1 X39.292 Y11.047 E0.3656
G1 X39.942 Y11.047 E0.0249
G1 X46.050 Y17.155 E0.3304
G1 X46.050 Y16.504 E0.0249
G1 X40.593 Y11.047 E0.2952
G1 X41.244 Y11.047 E0.0249
G1 X46.050 Y15.854 E0.2600
G1 X46.050 Y15.203 E0.0249
G1 X41.894 Y11.047 E0.2248
G1 X42.545 Y11.047 E0.0249
G1 X46.050 Y14.553 E0.1896
G1 X46.050 Y13.902 E0.0249
G1 X43.195 Y11.047 E0.1544
G1 X43.846 Y11.047 E0.0249
G1 X46.050 Y13.252 E0.1192
G1 X46.050 Y12.601 E0.0249
G1 X44.497 Y11.048 E0.0840
G1 X45.147 Y11.048 E0.0249
G1 X46.050 Y11.950 E0.0488
G1 X46.050 Y11.300 E0.0249
G1 X45.798 Y11.048 E0.0136
G1 E-1.9000 F1200
G1 Z0.700 F1200
G1 X45.839 Y-18.836 F9000
G1 Z0.200 F1200
G1 E1.9000 F1200
G1 X46.050 Y-18.625 E0.0114 F2400
G1 X46.050 Y-17.974 E0.0249
G1 X45.188 Y-18.836 E0.0466
G1 X44.538 Y-18.836 E0.0249
G1 X46.050 Y-17.324 E0.0818
G1 X46.050 Y-16.673 E0.0249
G1 X43.887 Y-18.836 E0.1170
G1 X43.237 Y-18.836 E0.0249
G1 X46.050 Y-16.023 E0.1522
G1 X46.050 Y-15.372 E0.0249
G1 X42.586 Y-18.836 E0.1874
G1 X41.936 Y-18.836 E0.0249
G1 X46.050 Y-14.722 E0.2226
G1 X46.050 Y-14.071 E0.0249
G1 X41.285 Y-18.836 E0.2578
G1 X40.635 Y-18.836 E0.0249
G1 X46.050 Y-13.420 E0.2929
G1 X46.050 Y-12.770 E0.0249
G1 X39.984 Y-18.836 E0.3281
G1 X39.333 Y-18.836 E0.0249
G1 X46.050 Y-12.119 E0.3633
G1 X46.050 Y-11.469 E0.0249
G1 X38.683 Y-18.836 E0.3985
G1 X38.032 Y-18.836 E0.0249
G1 X46.050 Y-10.818 E0.4337
G1 X46.050 Y-10.168 E0.0249
G1 X37.382 Y-18.836 E0.4689
G1 X36.731 Y-18.836 E0.0249
G1 X46.050 Y-9.517 E0.5041
G1 X46.050 Y-8.867 E0.0249
G1 X36.081 Y-18.836 E0.5393
G1 X35.430 Y-18.836 E0.0249
G1 X46.050 Y-8.216 E0.5745
G1 X46.050 Y-7.566 E0.0249
G1 X34.780 Y-18.836 E0.6097
G1 X34.129 Y-18.836 E0.0249
G1 X46.050 Y-6.915 E0.6448
G1 X46.050 Y-6.265 E0.0249
G1 X33.479 Y-18.836 E0.6800
G1 X32.828 Y-18.836 E0.0249
G1 X45.758 Y-5.906 E0.6994
G1 X45.108 Y-5.906 E0.0249
G1 X32.178 Y-18.836 E0.6994
G1 X31.527 Y-18.836 E0.0249
G1 X44.457 Y-5.906 E0.6994
G1 X43.806 Y-5.906 E0.0249
G1 X30.876 Y-18.836 E0.6994
G1 X30.226 Y-18.836 E0.0249
G1 X43.156 Y-5.906 E0.6994
G1 X42.505 Y-5.906 E0.0249
G1 X29.575 Y-18.836 E0.6994
G1 X28.925 Y-18.836 E0.0249
G1 X41.855 Y-5.906 E0.6994
G1 X41.204 Y-5.906 E0.0249
G1 X15.620 Y-31.490 E1.3839
G1 X15.620 Y-32.141 E0.0249
G1 X28.550 Y-19.211 E0.6994
G1 X28.550 Y-19.861 E0.0249
G1 X15.761 Y-32.650 E0.6918
G1 X16.412 Y-32.650 E0.0249
G1 X28.550 Y-20.512 E0.6566
G1 X28.550 Y-21.162 E0.0249
G1 X17.062 Y-32.650 E0.6214
G1 X17.713 Y-32.650 E0.0249
G1 X28.550 Y-21.813 E0.5862
G1 X28.550 Y-22.463 E0.0249
G1 X18.363 Y-32.650 E0.5510
G1 X19.014 Y-32.650 E0.0249
G1 X28.550 Y-23.114 E0.5158
