; G-Code generated by Simplify3D(R) Version 4.1.2
; Apr 2, 2020 at 1:36:52 PM
; Settings Summary
;   processName,Process1
;   applyToModels,pop tris,pop tris(2)
;   profileName,MakerBot Replicator 2 HBP (modified)
;   profileVersion,2020-03-12 10:48:50
;   baseProfile,MakerBot Replicator 2(2)
;   printMaterial,PLA
;   printQuality,Medium
;   printExtruders,
;   extruderName,Primary Extruder
;   extruderToolheadNumber,0
;   extruderDiameter,0.4
;   extruderAutoWidth,0
;   extruderWidth,0.4
;   extrusionMultiplier,1
;   extruderUseRetract,1
;   extruderRetractionDistance,1.9
;   extruderExtraRestartDistance,0
;   extruderRetractionZLift,0.5
;   extruderRetractionSpeed,1200
;   extruderUseCoasting,0
;   extruderCoastingDistance,0.2
;   extruderUseWipe,0
;   extruderWipeDistance,5
;   primaryExtruder,0
;   layerHeight,0.2
;   topSolidLayers,3
;   bottomSolidLayers,3
;   perimeterOutlines,2
;   printPerimetersInsideOut,1
;   startPointOption,3
;   startPointOriginX,0
;   startPointOriginY,150
;   sequentialIslands,0
;   spiralVaseMode,0
;   firstLayerHeightPercentage,100
;   firstLayerWidthPercentage,115
;   firstLayerUnderspeed,0.5
;   useRaft,0
;   raftExtruder,0
;   raftTopLayers,2
;   raftBaseLayers,1
;   raftOffset,1
;   raftSeparationDistance,0.14
;   raftTopInfill,90
;   aboveRaftSpeedMultiplier,0.3
;   useSkirt,0
;   skirtExtruder,0
;   skirtLayers,1
;   skirtOutlines,5
;   skirtOffset,0
;   usePrimePillar,0
;   primePillarExtruder,999
;   primePillarWidth,12
;   primePillarLocation,7
;   primePillarSpeedMultiplier,1
;   useOozeShield,0
;   oozeShieldExtruder,999
;   oozeShieldOffset,2
;   oozeShieldOutlines,1
;   oozeShieldSidewallShape,1
;   oozeShieldSidewallAngle,30
;   oozeShieldSpeedMultiplier,1
;   infillExtruder,0
;   internalInfillPattern,Rectilinear
;   externalInfillPattern,Rectilinear
;   infillPercentage,15
;   outlineOverlapPercentage,25
;   infillExtrusionWidthPercentage,100
;   minInfillLength,5
;   infillLayerInterval,1
;   internalInfillAngles,45,-45
;   overlapInternalInfillAngles,0
;   externalInfillAngles,45,-45
;   generateSupport,1
;   supportExtruder,0
;   supportInfillPercentage,30
;   supportExtraInflation,0.5
;   supportBaseLayers,0
;   denseSupportExtruder,0
;   denseSupportLayers,2
;   denseSupportInfillPercentage,90
;   supportLayerInterval,1
;   supportHorizontalPartOffset,0.3
;   supportUpperSeparationLayers,1
;   supportLowerSeparationLayers,1
;   supportType,1
;   supportGridSpacing,2
;   maxOverhangAngle,45
;   supportAngles,45,-45
;   temperatureName,Primary Extruder,Heated Build Platform
;   temperatureNumber,0,0
;   temperatureSetpointCount,1,1
;   temperatureSetpointLayers,1,1
;   temperatureSetpointTemperatures,230,60
;   temperatureStabilizeAtStartup,1,1
;   temperatureHeatedBed,0,1
;   fanLayers,1,2
;   fanSpeeds,0,100
;   blipFanToFullPower,1
;   adjustSpeedForCooling,1
;   minSpeedLayerTime,15
;   minCoolingSpeedSlowdown,20
;   increaseFanForCooling,1
;   minFanLayerTime,45
;   maxCoolingFanSpeed,100
;   increaseFanForBridging,1
;   bridgingFanSpeed,100
;   use5D,1
;   relativeEdistances,1
;   allowEaxisZeroing,0
;   independentExtruderAxes,1
;   includeM10123,0
;   stickySupport,1
;   applyToolheadOffsets,0
;   gcodeXoffset,0
;   gcodeYoffset,0
;   gcodeZoffset,0
;   overrideMachineDefinition,1
;   machineTypeOverride,0
;   strokeXoverride,280
;   strokeYoverride,150
;   strokeZoverride,150
;   originOffsetXoverride,140
;   originOffsetYoverride,75
;   originOffsetZoverride,0
;   homeXdirOverride,1
;   homeYdirOverride,1
;   homeZdirOverride,-1
;   flipXoverride,1
;   flipYoverride,-1
;   flipZoverride,1
;   toolheadOffsets,0,0|0,0|0,0|0,0|0,0|0,0
;   overrideFirmwareConfiguration,1
;   firmwareTypeOverride,MakerBot/Sailfish Firmware
;   GPXconfigOverride,r2h
;   baudRateOverride,115200
;   overridePrinterModels,1
;   printerModelsOverride,MakerBot_Replicator2.stl
;   startingGcode,; **** Replicator 2 start.gcode ****,M73 P0 ; enable build progress,G162 X Y F3000 ; home XY maximum,G161 Z F1200 ; home Z minimum,G92 Z-5 ; set Z to -5,G1 Z0 ; move Z to 0,G161 Z F100 ; home Z slowly,M132 X Y Z A B ; recall home offsets,G1 X-145 Y-75 Z30 F9000 ; move to wait position off table,G130 X20 Y20 Z20 A20 B20 ; lower stepper Vrefs while heating,M126 S[fan_speed_pwm],M140 S[bed0_temperature] T0,M134 T0 ; stabilize bed temperature,M104 S[extruder0_temperature] T0,M133 T0 ; stabilize extruder temperature,G130 X127 Y127 Z40 A127 B127 ; default stepper Vrefs,G92 A0 ; zero extruder,G1 Z0.4 ; position nozzle,G1 E25 F300 ; purge nozzle,G1 X-140 Y-70 Z0.15 F1200 ; slow wipe,G1 X-135 Y-65 Z0.5 F1200 ; lift,G92 A0 ; zero extruder,M73 P1 ;@body (notify GPX body has started),; **** end of start.gcode ****
;   layerChangeGcode,
;   retractionGcode,
;   toolChangeGcode,
;   endingGcode,; **** Replicator 2 end.gcode ****,M73 P100 ; end build progress,G1 Z155 F1000 ; send Z axis to bottom of machine,M104 S0 T0 ; cool down extruder,M140 S0 T0 ; cool down HBP,M127 ; stop blower fan,G162 X Y F3000 ; home XY maximum,M18 ; disable stepper,M0 ; stop codes,M72 P1 ; play Ta-Da song,; **** end of end.gcode ****
;   exportFileFormat,gcode
;   celebration,0
;   celebrationSong,Random Song
;   postProcessing,
;   defaultSpeed,4800
;   outlineUnderspeed,0.5
;   solidInfillUnderspeed,1
;   supportUnderspeed,1
;   rapidXYspeed,9000
;   rapidZspeed,1200
;   minBridgingArea,50
;   bridgingExtraInflation,0
;   bridgingExtrusionMultiplier,1
;   bridgingSpeedMultiplier,0.8
;   useFixedBridgingAngle,0
;   fixedBridgingAngle,0
;   applyBridgingToPerimeters,0
;   filamentDiameters,1.75|1.75|1.75|1.75|1.75|1.75
;   filamentPricesPerKg,46|46|46|46|46|46
;   filamentDensities,1.25|1.25|1.25|1.25|1.25|1.25
;   useMinPrintHeight,0
;   minPrintHeight,0
;   useMaxPrintHeight,0
;   maxPrintHeight,4.84
;   useDiaphragm,0
;   diaphragmLayerInterval,20
;   robustSlicing,1
;   mergeAllIntoSolid,0
;   onlyRetractWhenCrossingOutline,0
;   retractBetweenLayers,0
;   useRetractionMinTravel,1
;   retractionMinTravel,7
;   retractWhileWiping,1
;   onlyWipeOutlines,1
;   avoidCrossingOutline,0
;   maxMovementDetourFactor,3
;   toolChangeRetractionDistance,12
;   toolChangeExtraRestartDistance,-0.5
;   toolChangeRetractionSpeed,600
;   externalThinWallType,0
;   internalThinWallType,0
;   thinWallAllowedOverlapPercentage,10
;   singleExtrusionMinLength,1
;   singleExtrusionMinPrintingWidthPercentage,50
;   singleExtrusionMaxPrintingWidthPercentage,200
;   singleExtrusionEndpointExtension,0.2
;   horizontalSizeCompensation,0
G90
M83
; **** Replicator 2 start.gcode ****
M73 P0 ; enable build progress
G162 X Y F3000 ; home XY maximum
G161 Z F1200 ; home Z minimum
G92 Z-5 ; set Z to -5
G1 Z0 ; move Z to 0
G161 Z F100 ; home Z slowly
M132 X Y Z A B ; recall home offsets
G1 X-145 Y-75 Z30 F9000 ; move to wait position off table
G130 X20 Y20 Z20 A20 B20 ; lower stepper Vrefs while heating
M127
M140 S60 T0
M134 T0 ; stabilize bed temperature
M104 S230 T0
M133 T0 ; stabilize extruder temperature
G130 X127 Y127 Z40 A127 B127 ; default stepper Vrefs
G92 A0 ; zero extruder
G1 Z0.4 ; position nozzle
G1 E25 F300 ; purge nozzle
G1 X-140 Y-70 Z0.15 F1200 ; slow wipe
G1 X-135 Y-65 Z0.5 F1200 ; lift
G92 A0 ; zero extruder
M73 P1 ;@body (notify GPX body has started)
; **** end of start.gcode ****
; process Process1
; layer 1, Z = 0.200
M135 T0
G1 E-1.9000 F1200
; feature inner perimeter
; tool H0.200 W0.460
G1 Z0.500 F1200
G1 X-18.749 Y3.860 F9000
G1 Z0.200 F1200
G1 E1.9000 F1200
G1 X-18.369 Y0.000 E0.1484 F1800
G1 X-18.749 Y-3.860 E0.1484
G1 X-5.045 Y0.000 E0.5446
G1 X-18.749 Y3.860 E0.5446
; feature outer perimeter
G1 X-19.273 Y4.486 F9000
G1 X-18.831 Y0.000 E0.1724 F1200
G1 X-19.273 Y-4.486 E0.1724
G1 X-3.348 Y0.000 E0.6328
G1 X-19.273 Y4.486 E0.6328
; feature inner perimeter
G1 X-19.080 Y5.523 F9000
G1 X-7.896 Y14.333 E0.5446 F1800
G1 X-22.034 Y12.656 E0.5446
G1 X-20.206 Y9.235 E0.1484
G1 X-19.080 Y5.523 E0.1484
; feature outer perimeter
G1 X-19.324 Y4.744 F9000
G1 X-6.329 Y14.983 E0.6328 F1200
G1 X-22.757 Y13.033 E0.6328
G1 X-20.633 Y9.058 E0.1724
G1 X-19.324 Y4.744 E0.1724
G1 E-1.9000 F1200
; feature inner perimeter
G1 Z0.700 F1200
G1 X-22.976 Y14.065 F9000
G1 Z0.200 F1200
G1 E1.9000 F1200
G1 X-16.015 Y26.485 E0.5446 F1800
G1 X-28.435 Y19.524 E0.5446
G1 X-25.437 Y17.063 E0.1484
G1 X-22.976 Y14.065 E0.1484
; feature outer perimeter
G1 X-22.904 Y13.252 F9000
G1 X-14.816 Y27.684 E0.6328 F1200
G1 X-29.248 Y19.596 E0.6328
G1 X-25.763 Y16.737 E0.1724
G1 X-22.904 Y13.252 E0.1724
G1 E-1.9000 F1200
; feature inner perimeter
G1 Z0.700 F1200
G1 X-29.844 Y20.466 F9000
G1 Z0.200 F1200
G1 E1.9000 F1200
G1 X-28.167 Y34.604 E0.5446 F1800
G1 X-36.977 Y23.420 E0.5446
G1 X-33.265 Y22.294 E0.1484
G1 X-29.844 Y20.466 E0.1484
; feature outer perimeter
G1 X-29.467 Y19.743 F9000
G1 X-27.517 Y36.171 E0.6328 F1200
G1 X-37.756 Y23.176 E0.6328
G1 X-33.442 Y21.867 E0.1724
G1 X-29.467 Y19.743 E0.1724
G1 E-1.9000 F1200
; feature inner perimeter
G1 Z0.700 F1200
G1 X-38.640 Y23.751 F9000
G1 Z0.200 F1200
G1 E1.9000 F1200
G1 X-42.500 Y37.455 E0.5446 F1800
G1 X-46.360 Y23.751 E0.5446
G1 X-42.500 Y24.131 E0.1484
G1 X-38.640 Y23.751 E0.1484
; feature outer perimeter
G1 X-38.014 Y23.227 F9000
G1 X-42.500 Y39.152 E0.6328 F1200
G1 X-46.986 Y23.227 E0.6328
G1 X-42.500 Y23.669 E0.1724
G1 X-38.014 Y23.227 E0.1724
G1 E-1.9000 F1200
; feature inner perimeter
G1 Z0.700 F1200
G1 X-48.023 Y23.420 F9000
G1 Z0.200 F1200
G1 E1.9000 F1200
G1 X-56.833 Y34.604 E0.5446 F1800
G1 X-55.156 Y20.466 E0.5446
G1 X-51.735 Y22.294 E0.1484
G1 X-48.023 Y23.420 E0.1484
; feature outer perimeter
G1 X-47.244 Y23.176 F9000
G1 X-57.483 Y36.171 E0.6328 F1200
G1 X-55.533 Y19.743 E0.6328
G1 X-51.558 Y21.867 E0.1724
G1 X-47.244 Y23.176 E0.1724
G1 E-1.9000 F1200
; feature inner perimeter
G1 Z0.700 F1200
G1 X-56.565 Y19.524 F9000
G1 Z0.200 F1200
G1 E1.9000 F1200
G1 X-68.985 Y26.485 E0.5446 F1800
G1 X-62.024 Y14.065 E0.5446
G1 X-59.563 Y17.063 E0.1484
G1 X-56.565 Y19.524 E0.1484
; feature outer perimeter
G1 X-55.752 Y19.596 F9000
G1 X-70.184 Y27.684 E0.6328 F1200
G1 X-62.096 Y13.252 E0.6328
G1 X-59.237 Y16.737 E0.1724
G1 X-55.752 Y19.596 E0.1724
G1 E-1.9000 F1200
; feature inner perimeter
G1 Z0.700 F1200
G1 X-62.966 Y12.656 F9000
G1 Z0.200 F1200
G1 E1.9000 F1200
G1 X-77.104 Y14.333 E0.5446 F1800
G1 X-65.920 Y5.523 E0.5446
G1 X-64.794 Y9.235 E0.1484
G1 X-62.966 Y12.656 E0.1484
; feature outer perimeter
G1 X-62.243 Y13.033 F9000
G1 X-78.671 Y14.983 E0.6328 F1200
G1 X-65.676 Y4.744 E0.6328
G1 X-64.367 Y9.058 E0.1724
G1 X-62.243 Y13.033 E0.1724
G1 E-1.9000 F1200
; feature inner perimeter
G1 Z0.700 F1200
G1 X-66.251 Y3.860 F9000
G1 Z0.200 F1200
G1 E1.9000 F1200
G1 X-79.955 Y0.000 E0.5446 F1800
G1 X-66.251 Y-3.860 E0.5446
G1 X-66.631 Y0.000 E0.1484
G1 X-66.251 Y3.860 E0.1484
; feature outer perimeter
G1 X-65.727 Y4.486 F9000
G1 X-81.652 Y0.000 E0.6328 F1200
G1 X-65.727 Y-4.486 E0.6328
G1 X-66.169 Y0.000 E0.1724
G1 X-65.727 Y4.486 E0.1724
G1 E-1.9000 F1200
; feature inner perimeter
G1 Z0.700 F1200
G1 X-65.920 Y-5.523 F9000
G1 Z0.200 F1200
G1 E1.9000 F1200
G1 X-77.104 Y-14.333 E0.5446 F1800
G1 X-62.966 Y-12.656 E0.5446
G1 X-64.794 Y-9.235 E0.1484
G1 X-65.920 Y-5.523 E0.1484
; feature outer perimeter
G1 X-65.676 Y-4.744 F9000
G1 X-78.671 Y-14.983 E0.6328 F1200
G1 X-62.243 Y-13.033 E0.6328
G1 X-64.367 Y-9.058 E0.1724
G1 X-65.676 Y-4.744 E0.1724
G1 E-1.9000 F1200
; feature inner perimeter
G1 Z0.700 F1200
G1 X-62.024 Y-14.065 F9000
G1 Z0.200 F1200
G1 E1.9000 F1200
G1 X-68.985 Y-26.485 E0.5446 F1800
G1 X-56.565 Y-19.524 E0.5446
G1 X-59.563 Y-17.063 E0.1484
G1 X-62.024 Y-14.065 E0.1484
; feature outer perimeter
G1 X-62.096 Y-13.252 F9000
G1 X-70.184 Y-27.684 E0.6328 F1200
G1 X-55.752 Y-19.596 E0.6328
G1 X-59.237 Y-16.737 E0.1724
G1 X-62.096 Y-13.252 E0.1724
G1 E-1.9000 F1200
; feature inner perimeter
G1 Z0.700 F1200
G1 X-55.156 Y-20.466 F9000
G1 Z0.200 F1200
G1 E1.9000 F1200
G1 X-56.833 Y-34.604 E0.5446 F1800
G1 X-48.023 Y-23.420 E0.5446
G1 X-51.735 Y-22.294 E0.1484
G1 X-55.156 Y-20.466 E0.1484
; feature outer perimeter
G1 X-55.533 Y-19.743 F9000
G1 X-57.483 Y-36.171 E0.6328 F1200
G1 X-47.244 Y-23.176 E0.6328
G1 X-51.558 Y-21.867 E0.1724
G1 X-55.533 Y-19.743 E0.1724
G1 E-1.9000 F1200
; feature inner perimeter
G1 Z0.700 F1200
G1 X-46.360 Y-23.751 F9000
G1 Z0.200 F1200
G1 E1.9000 F1200
G1 X-42.500 Y-37.455 E0.5446 F1800
G1 X-38.640 Y-23.751 E0.5446
G1 X-42.500 Y-24.131 E0.1484
G1 X-46.360 Y-23.751 E0.1484
; feature outer perimeter
G1 X-46.986 Y-23.227 F9000
G1 X-42.500 Y-39.152 E0.6328 F1200
G1 X-38.014 Y-23.227 E0.6328
G1 X-42.500 Y-23.669 E0.1724
G1 X-46.986 Y-23.227 E0.1724
G1 E-1.9000 F1200
; feature inner perimeter
G1 Z0.700 F1200
G1 X-36.977 Y-23.420 F9000
G1 Z0.200 F1200
G1 E1.9000 F1200
G1 X-28.167 Y-34.604 E0.5446 F1800
G1 X-29.844 Y-20.466 E0.5446
G1 X-33.265 Y-22.294 E0.1484
G1 X-36.977 Y-23.420 E0.1484
; feature outer perimeter
G1 X-37.756 Y-23.176 F9000
G1 X-27.517 Y-36.171 E0.6328 F1200
G1 X-29.467 Y-19.743 E0.6328
G1 X-33.442 Y-21.867 E0.1724
G1 X-37.756 Y-23.176 E0.1724
G1 E-1.9000 F1200
; feature inner perimeter
G1 Z0.700 F1200
G1 X-28.435 Y-19.524 F9000
G1 Z0.200 F1200
G1 E1.9000 F1200
G1 X-16.015 Y-26.485 E0.5446 F1800
G1 X-22.976 Y-14.065 E0.5446
G1 X-25.437 Y-17.063 E0.1484
G1 X-28.435 Y-19.524 E0.1484
; feature outer perimeter
G1 X-29.248 Y-19.596 F9000
G1 X-14.816 Y-27.684 E0.6328 F1200
G1 X-22.904 Y-13.252 E0.6328
G1 X-25.763 Y-16.737 E0.1724
G1 X-29.248 Y-19.596 E0.1724
G1 E-1.9000 F1200
; feature inner perimeter
G1 Z0.700 F1200
G1 X-22.034 Y-12.656 F9000
G1 Z0.200 F1200
G1 E1.9000 F1200
G1 X-7.896 Y-14.333 E0.5446 F1800
G1 X-19.080 Y-5.523 E0.5446
G1 X-20.206 Y-9.235 E0.1484
G1 X-22.034 Y-12.656 E0.1484
; feature outer perimeter
G1 X-22.757 Y-13.033 F9000
G1 X-6.329 Y-14.983 E0.6328 F1200
G1 X-19.324 Y-4.744 E0.6328
G1 X-20.633 Y-9.058 E0.1724
G1 X-22.757 Y-13.033 E0.1724
G1 E-1.9000 F1200
; feature solid layer
G1 Z0.700 F1200
G1 X-18.656 Y-6.296 F9000
G1 Z0.200 F1200
G1 E1.9000 F1200
G1 X-19.083 Y-6.723 E0.0231 F2400
G1 X-19.366 Y-7.657 E0.0373
G1 X-18.292 Y-6.582 E0.0581
G1 X-17.928 Y-6.869 E0.0177
G1 X-19.650 Y-8.591 E0.0931
G1 X-19.885 Y-9.367 E0.0310
G1 X-20.011 Y-9.602 E0.0102
G1 X-17.564 Y-7.156 E0.1323
G1 X-17.200 Y-7.442 E0.0177
G1 X-20.758 Y-11.000 E0.1924
G1 X-21.492 Y-12.373 E0.0595
G1 X-21.481 Y-12.374 E0.0004
G1 X-16.837 Y-7.729 E0.2512
G1 X-16.473 Y-8.016 E0.0177
G1 X-20.900 Y-12.443 E0.2395
G1 X-20.318 Y-12.512 E0.0224
G1 X-16.109 Y-8.302 E0.2277
G1 X-15.745 Y-8.589 E0.0177
G1 X-19.737 Y-12.581 E0.2159
G1 X-19.155 Y-12.650 E0.0224
G1 X-15.381 Y-8.876 E0.2041
G1 X-15.017 Y-9.162 E0.0177
G1 X-18.574 Y-12.719 E0.1924
G1 X-17.992 Y-12.788 E0.0224
G1 X-14.653 Y-9.449 E0.1806
G1 X-14.289 Y-9.736 E0.0177
G1 X-17.411 Y-12.857 E0.1688
G1 X-16.829 Y-12.926 E0.0224
G1 X-13.926 Y-10.022 E0.1571
G1 X-13.562 Y-10.309 E0.0177
G1 X-16.248 Y-12.995 E0.1453
G1 X-15.666 Y-13.064 E0.0224
G1 X-13.198 Y-10.596 E0.1335
G1 X-12.834 Y-10.882 E0.0177
G1 X-15.085 Y-13.133 E0.1217
G1 X-14.503 Y-13.202 E0.0224
G1 X-12.470 Y-11.169 E0.1100
G1 X-12.106 Y-11.456 E0.0177
G1 X-13.921 Y-13.271 E0.0982
G1 X-13.340 Y-13.340 E0.0224
G1 X-11.742 Y-11.742 E0.0864
G1 X-11.378 Y-12.029 E0.0177
G1 X-12.758 Y-13.409 E0.0746
G1 X-12.177 Y-13.478 E0.0224
G1 X-11.015 Y-12.316 E0.0629
G1 X-10.651 Y-12.602 E0.0177
G1 X-11.595 Y-13.547 E0.0511
G1 X-11.014 Y-13.616 E0.0224
G1 X-10.287 Y-12.889 E0.0393
G1 X-9.923 Y-13.176 E0.0177
G1 X-10.432 Y-13.685 E0.0275
G1 X-9.851 Y-13.754 E0.0224
G1 X-9.559 Y-13.462 E0.0158
G1 X-9.195 Y-13.749 E0.0177
G1 X-9.269 Y-13.823 E0.0040
G1 E-1.9000 F1200
G1 Z0.700 F1200
G1 X-6.579 Y-0.074 F9000
G1 Z0.200 F1200
G1 E1.9000 F1200
G1 X-6.464 Y0.041 E0.0062 F2400
G1 X-6.972 Y0.184 E0.0202
G1 X-7.485 Y-0.329 E0.0278
G1 X-8.390 Y-0.584 E0.0360
G1 X-7.479 Y0.327 E0.0493
G1 X-7.987 Y0.470 E0.0202
G1 X-9.296 Y-0.839 E0.0708
G1 X-10.202 Y-1.094 E0.0360
G1 X-8.494 Y0.613 E0.0924
G1 X-9.002 Y0.756 E0.0202
G1 X-11.107 Y-1.349 E0.1139
G1 X-12.013 Y-1.604 E0.0360
G1 X-9.509 Y0.899 E0.1354
G1 X-10.017 Y1.042 E0.0202
