; G-Code generated by Simplify3D(R) Version 4.1.2
; Apr 2, 2020 at 1:37:39 PM
; Settings Summary
;   processName,Process1
;   applyToModels,pop top,pop top(2)
;   profileName,MakerBot Replicator 2 HBP (modified)
;   profileVersion,2020-03-12 10:48:50
;   baseProfile,MakerBot Replicator 2(2)
;   printMaterial,PLA
;   printQuality,Medium
;   printExtruders,
;   extruderName,Primary Extruder
;   extruderToolheadNumber,0
;   extruderDiameter,0.4
;   extruderAutoWidth,0
;   extruderWidth,0.4
;   extrusionMultiplier,1
;   extruderUseRetract,1
;   extruderRetractionDistance,1.9
;   extruderExtraRestartDistance,0
;   extruderRetractionZLift,0.5
;   extruderRetractionSpeed,1200
;   extruderUseCoasting,0
;   extruderCoastingDistance,0.2
;   extruderUseWipe,0
;   extruderWipeDistance,5
;   primaryExtruder,0
;   layerHeight,0.2
;   topSolidLayers,3
;   bottomSolidLayers,3
;   perimeterOutlines,2
;   printPerimetersInsideOut,1
;   startPointOption,3
;   startPointOriginX,0
;   startPointOriginY,150
;   sequentialIslands,0
;   spiralVaseMode,0
;   firstLayerHeightPercentage,100
;   firstLayerWidthPercentage,115
;   firstLayerUnderspeed,0.5
;   useRaft,0
;   raftExtruder,0
;   raftTopLayers,2
;   raftBaseLayers,1
;   raftOffset,1
;   raftSeparationDistance,0.14
;   raftTopInfill,90
;   aboveRaftSpeedMultiplier,0.3
;   useSkirt,0
;   skirtExtruder,0
;   skirtLayers,1
;   skirtOutlines,5
;   skirtOffset,0
;   usePrimePillar,0
;   primePillarExtruder,999
;   primePillarWidth,12
;   primePillarLocation,7
;   primePillarSpeedMultiplier,1
;   useOozeShield,0
;   oozeShieldExtruder,999
;   oozeShieldOffset,2
;   oozeShieldOutlines,1
;   oozeShieldSidewallShape,1
;   oozeShieldSidewallAngle,30
;   oozeShieldSpeedMultiplier,1
;   infillExtruder,0
;   internalInfillPattern,Rectilinear
;   externalInfillPattern,Rectilinear
;   infillPercentage,15
;   outlineOverlapPercentage,25
;   infillExtrusionWidthPercentage,100
;   minInfillLength,5
;   infillLayerInterval,1
;   internalInfillAngles,45,-45
;   overlapInternalInfillAngles,0
;   externalInfillAngles,45,-45
;   generateSupport,0
;   supportExtruder,0
;   supportInfillPercentage,30
;   supportExtraInflation,0.5
;   supportBaseLayers,0
;   denseSupportExtruder,0
;   denseSupportLayers,2
;   denseSupportInfillPercentage,90
;   supportLayerInterval,1
;   supportHorizontalPartOffset,0.3
;   supportUpperSeparationLayers,1
;   supportLowerSeparationLayers,1
;   supportType,1
;   supportGridSpacing,2
;   maxOverhangAngle,45
;   supportAngles,45,-45
;   temperatureName,Primary Extruder,Heated Build Platform
;   temperatureNumber,0,0
;   temperatureSetpointCount,1,1
;   temperatureSetpointLayers,1,1
;   temperatureSetpointTemperatures,230,60
;   temperatureStabilizeAtStartup,1,1
;   temperatureHeatedBed,0,1
;   fanLayers,1,2
;   fanSpeeds,0,100
;   blipFanToFullPower,1
;   adjustSpeedForCooling,1
;   minSpeedLayerTime,15
;   minCoolingSpeedSlowdown,20
;   increaseFanForCooling,1
;   minFanLayerTime,45
;   maxCoolingFanSpeed,100
;   increaseFanForBridging,1
;   bridgingFanSpeed,100
;   use5D,1
;   relativeEdistances,1
;   allowEaxisZeroing,0
;   independentExtruderAxes,1
;   includeM10123,0
;   stickySupport,1
;   applyToolheadOffsets,0
;   gcodeXoffset,0
;   gcodeYoffset,0
;   gcodeZoffset,0
;   overrideMachineDefinition,1
;   machineTypeOverride,0
;   strokeXoverride,280
;   strokeYoverride,150
;   strokeZoverride,150
;   originOffsetXoverride,140
;   originOffsetYoverride,75
;   originOffsetZoverride,0
;   homeXdirOverride,1
;   homeYdirOverride,1
;   homeZdirOverride,-1
;   flipXoverride,1
;   flipYoverride,-1
;   flipZoverride,1
;   toolheadOffsets,0,0|0,0|0,0|0,0|0,0|0,0
;   overrideFirmwareConfiguration,1
;   firmwareTypeOverride,MakerBot/Sailfish Firmware
;   GPXconfigOverride,r2h
;   baudRateOverride,115200
;   overridePrinterModels,1
;   printerModelsOverride,MakerBot_Replicator2.stl
;   startingGcode,; **** Replicator 2 start.gcode ****,M73 P0 ; enable build progress,G162 X Y F3000 ; home XY maximum,G161 Z F1200 ; home Z minimum,G92 Z-5 ; set Z to -5,G1 Z0 ; move Z to 0,G161 Z F100 ; home Z slowly,M132 X Y Z A B ; recall home offsets,G1 X-145 Y-75 Z30 F9000 ; move to wait position off table,G130 X20 Y20 Z20 A20 B20 ; lower stepper Vrefs while heating,M126 S[fan_speed_pwm],M140 S[bed0_temperature] T0,M134 T0 ; stabilize bed temperature,M104 S[extruder0_temperature] T0,M133 T0 ; stabilize extruder temperature,G130 X127 Y127 Z40 A127 B127 ; default stepper Vrefs,G92 A0 ; zero extruder,G1 Z0.4 ; position nozzle,G1 E25 F300 ; purge nozzle,G1 X-140 Y-70 Z0.15 F1200 ; slow wipe,G1 X-135 Y-65 Z0.5 F1200 ; lift,G92 A0 ; zero extruder,M73 P1 ;@body (notify GPX body has started),; **** end of start.gcode ****
;   layerChangeGcode,
;   retractionGcode,
;   toolChangeGcode,
;   endingGcode,; **** Replicator 2 end.gcode ****,M73 P100 ; end build progress,G1 Z155 F1000 ; send Z axis to bottom of machine,M104 S0 T0 ; cool down extruder,M140 S0 T0 ; cool down HBP,M127 ; stop blower fan,G162 X Y F3000 ; home XY maximum,M18 ; disable stepper,M0 ; stop codes,M72 P1 ; play Ta-Da song,; **** end of end.gcode ****
;   exportFileFormat,gcode
;   celebration,0
;   celebrationSong,Random Song
;   postProcessing,
;   defaultSpeed,4800
;   outlineUnderspeed,0.5
;   solidInfillUnderspeed,1
;   supportUnderspeed,1
;   rapidXYspeed,9000
;   rapidZspeed,1200
;   minBridgingArea,50
;   bridgingExtraInflation,0
;   bridgingExtrusionMultiplier,1
;   bridgingSpeedMultiplier,0.8
;   useFixedBridgingAngle,0
;   fixedBridgingAngle,0
;   applyBridgingToPerimeters,0
;   filamentDiameters,1.75|1.75|1.75|1.75|1.75|1.75
;   filamentPricesPerKg,46|46|46|46|46|46
;   filamentDensities,1.25|1.25|1.25|1.25|1.25|1.25
;   useMinPrintHeight,0
;   minPrintHeight,0
;   useMaxPrintHeight,0
;   maxPrintHeight,4.84
;   useDiaphragm,0
;   diaphragmLayerInterval,20
;   robustSlicing,1
;   mergeAllIntoSolid,0
;   onlyRetractWhenCrossingOutline,0
;   retractBetweenLayers,0
;   useRetractionMinTravel,1
;   retractionMinTravel,7
;   retractWhileWiping,1
;   onlyWipeOutlines,1
;   avoidCrossingOutline,0
;   maxMovementDetourFactor,3
;   toolChangeRetractionDistance,12
;   toolChangeExtraRestartDistance,-0.5
;   toolChangeRetractionSpeed,600
;   externalThinWallType,0
;   internalThinWallType,0
;   thinWallAllowedOverlapPercentage,10
;   singleExtrusionMinLength,1
;   singleExtrusionMinPrintingWidthPercentage,50
;   singleExtrusionMaxPrintingWidthPercentage,200
;   singleExtrusionEndpointExtension,0.2
;   horizontalSizeCompensation,0
G90
M83
; **** Replicator 2 start.gcode ****
M73 P0 ; enable build progress
G162 X Y F3000 ; home XY maximum
G161 Z F1200 ; home Z minimum
G92 Z-5 ; set Z to -5
G1 Z0 ; move Z to 0
G161 Z F100 ; home Z slowly
M132 X Y Z A B ; recall home offsets
G1 X-145 Y-75 Z30 F9000 ; move to wait position off table
G130 X20 Y20 Z20 A20 B20 ; lower stepper Vrefs while heating
M127
M140 S60 T0
M134 T0 ; stabilize bed temperature
M104 S230 T0
M133 T0 ; stabilize extruder temperature
G130 X127 Y127 Z40 A127 B127 ; default stepper Vrefs
G92 A0 ; zero extruder
G1 Z0.4 ; position nozzle
G1 E25 F300 ; purge nozzle
G1 X-140 Y-70 Z0.15 F1200 ; slow wipe
G1 X-135 Y-65 Z0.5 F1200 ; lift
G92 A0 ; zero extruder
M73 P1 ;@body (notify GPX body has started)
; **** end of start.gcode ****
; process Process1
; layer 1, Z = 0.200
M135 T0
G1 E-1.9000 F1200
; feature inner perimeter
; tool H0.200 W0.460
G1 Z0.500 F1200
G1 X-27.462 Y36.305 F9000
G1 Z0.200 F1200
G1 E1.9000 F1200
G1 X-42.500 Y39.296 E0.5865 F1800
G1 X-57.538 Y36.305 E0.5865
G1 X-70.287 Y27.787 E0.5865
G1 X-78.805 Y15.038 E0.5865
G1 X-81.796 Y0.000 E0.5865
G1 X-78.805 Y-15.038 E0.5865
G1 X-70.287 Y-27.787 E0.5865
G1 X-57.538 Y-36.305 E0.5865
G1 X-42.500 Y-39.296 E0.5865
G1 X-27.462 Y-36.305 E0.5865
G1 X-14.713 Y-27.787 E0.5865
G1 X-6.195 Y-15.038 E0.5865
G1 X-3.204 Y0.000 E0.5865
G1 X-6.195 Y15.038 E0.5865
G1 X-14.713 Y27.787 E0.5865
G1 X-27.462 Y36.305 E0.5865
; feature outer perimeter
G1 X-27.282 Y36.739 F9000
G1 X-42.500 Y39.765 E0.5935 F1200
G1 X-57.718 Y36.739 E0.5935
G1 X-70.618 Y28.118 E0.5935
G1 X-79.239 Y15.218 E0.5935
G1 X-82.265 Y0.000 E0.5935
G1 X-79.239 Y-15.218 E0.5935
G1 X-70.618 Y-28.118 E0.5935
G1 X-57.718 Y-36.739 E0.5935
G1 X-42.500 Y-39.765 E0.5935
G1 X-27.282 Y-36.739 E0.5935
G1 X-14.382 Y-28.118 E0.5935
G1 X-5.761 Y-15.218 E0.5935
G1 X-2.735 Y0.000 E0.5935
G1 X-5.761 Y15.218 E0.5935
G1 X-14.382 Y28.118 E0.5935
G1 X-27.282 Y36.739 E0.5935
G1 E-1.9000 F1200
; feature inner perimeter
G1 Z0.700 F1200
G1 X-40.788 Y21.504 F9000
G1 Z0.200 F1200
G1 E1.9000 F1200
G1 X-40.487 Y21.137 E0.0182 F1800
G1 X-40.263 Y20.719 E0.0182
G1 X-40.125 Y20.264 E0.0182
G1 X-40.078 Y19.792 E0.0182
G1 X-40.124 Y19.330 E0.0178
G1 X-40.262 Y18.867 E0.0185
G1 X-40.487 Y18.447 E0.0182
G1 X-40.788 Y18.080 E0.0182
G1 X-41.155 Y17.779 E0.0182
G1 X-41.573 Y17.555 E0.0182
G1 X-42.028 Y17.417 E0.0182
G1 X-42.500 Y17.370 E0.0182
G1 X-42.972 Y17.417 E0.0182
G1 X-43.427 Y17.555 E0.0182
G1 X-43.845 Y17.779 E0.0182
G1 X-44.212 Y18.080 E0.0182
G1 X-44.513 Y18.447 E0.0182
G1 X-44.737 Y18.865 E0.0182
G1 X-44.875 Y19.320 E0.0182
G1 X-44.922 Y19.792 E0.0182
G1 X-44.875 Y20.264 E0.0182
G1 X-44.737 Y20.719 E0.0182
G1 X-44.513 Y21.137 E0.0182
G1 X-44.212 Y21.504 E0.0182
G1 X-43.845 Y21.805 E0.0182
G1 X-43.427 Y22.029 E0.0182
G1 X-42.972 Y22.167 E0.0182
G1 X-42.500 Y22.213 E0.0182
G1 X-42.028 Y22.167 E0.0182
G1 X-41.573 Y22.029 E0.0182
G1 X-41.155 Y21.805 E0.0182
G1 X-40.788 Y21.504 E0.0182
; feature outer perimeter
G1 X-41.115 Y21.177 F9000
G1 X-40.871 Y20.880 E0.0147 F1200
G1 X-40.690 Y20.542 E0.0147
G1 X-40.578 Y20.174 E0.0147
G1 X-40.541 Y19.792 E0.0147
G1 X-40.577 Y19.419 E0.0143
G1 X-40.690 Y19.043 E0.0150
G1 X-40.871 Y18.703 E0.0147
G1 X-41.115 Y18.407 E0.0147
G1 X-41.411 Y18.163 E0.0147
G1 X-41.750 Y17.982 E0.0147
G1 X-42.118 Y17.870 E0.0147
G1 X-42.500 Y17.833 E0.0147
G1 X-42.882 Y17.870 E0.0147
G1 X-43.250 Y17.982 E0.0147
G1 X-43.589 Y18.163 E0.0147
G1 X-43.885 Y18.407 E0.0147
G1 X-44.129 Y18.703 E0.0147
G1 X-44.310 Y19.042 E0.0147
G1 X-44.422 Y19.410 E0.0147
G1 X-44.459 Y19.792 E0.0147
G1 X-44.422 Y20.174 E0.0147
G1 X-44.310 Y20.542 E0.0147
G1 X-44.129 Y20.880 E0.0147
G1 X-43.885 Y21.177 E0.0147
G1 X-43.589 Y21.421 E0.0147
G1 X-43.250 Y21.602 E0.0147
G1 X-42.882 Y21.714 E0.0147
G1 X-42.500 Y21.751 E0.0147
G1 X-42.118 Y21.714 E0.0147
G1 X-41.750 Y21.602 E0.0147
G1 X-41.411 Y21.421 E0.0147
G1 X-41.115 Y21.177 E0.0147
; feature inner perimeter
G1 X-42.500 Y14.430 F9000
G1 X-39.685 Y14.153 E0.1082 F1800
G1 X-36.978 Y13.332 E0.1082
G1 X-34.483 Y11.998 E0.1082
G1 X-32.296 Y10.204 E0.1082
G1 X-30.502 Y8.017 E0.1082
G1 X-29.168 Y5.522 E0.1082
G1 X-28.347 Y2.815 E0.1082
G1 X-28.070 Y0.000 E0.1082
G1 X-28.347 Y-2.815 E0.1082
G1 X-29.168 Y-5.522 E0.1082
G1 X-30.502 Y-8.017 E0.1082
G1 X-32.296 Y-10.204 E0.1082
G1 X-34.483 Y-11.998 E0.1082
G1 X-36.978 Y-13.332 E0.1082
G1 X-39.685 Y-14.153 E0.1082
G1 X-42.500 Y-14.430 E0.1082
G1 X-45.315 Y-14.153 E0.1082
G1 X-48.022 Y-13.332 E0.1082
G1 X-50.517 Y-11.998 E0.1082
G1 X-52.704 Y-10.204 E0.1082
G1 X-54.498 Y-8.017 E0.1082
G1 X-55.832 Y-5.522 E0.1082
G1 X-56.653 Y-2.815 E0.1082
G1 X-56.928 Y0.024 E0.1091
G1 X-56.653 Y2.815 E0.1073
G1 X-55.832 Y5.522 E0.1082
G1 X-54.498 Y8.017 E0.1082
G1 X-52.704 Y10.204 E0.1082
G1 X-50.517 Y11.998 E0.1082
G1 X-48.022 Y13.332 E0.1082
G1 X-45.315 Y14.153 E0.1082
G1 X-42.500 Y14.430 E0.1082
; feature outer perimeter
G1 X-42.500 Y13.968 F9000
G1 X-39.775 Y13.700 E0.1047 F1200
G1 X-37.155 Y12.905 E0.1047
G1 X-34.740 Y11.614 E0.1047
G1 X-32.623 Y9.877 E0.1047
G1 X-30.886 Y7.760 E0.1047
G1 X-29.595 Y5.345 E0.1047
G1 X-28.800 Y2.725 E0.1047
G1 X-28.532 Y0.000 E0.1047
G1 X-28.800 Y-2.725 E0.1047
G1 X-29.595 Y-5.345 E0.1047
G1 X-30.886 Y-7.760 E0.1047
G1 X-32.623 Y-9.877 E0.1047
G1 X-34.740 Y-11.614 E0.1047
G1 X-37.155 Y-12.905 E0.1047
G1 X-39.775 Y-13.700 E0.1047
G1 X-42.500 Y-13.968 E0.1047
G1 X-45.225 Y-13.700 E0.1047
G1 X-47.845 Y-12.905 E0.1047
G1 X-50.260 Y-11.614 E0.1047
G1 X-52.377 Y-9.877 E0.1047
G1 X-54.114 Y-7.760 E0.1047
G1 X-55.405 Y-5.345 E0.1047
G1 X-56.200 Y-2.725 E0.1047
G1 X-56.466 Y0.024 E0.1056
G1 X-56.200 Y2.725 E0.1038
G1 X-55.405 Y5.345 E0.1047
G1 X-54.114 Y7.760 E0.1047
G1 X-52.377 Y9.877 E0.1047
G1 X-50.260 Y11.614 E0.1047
G1 X-47.845 Y12.905 E0.1047
G1 X-45.225 Y13.700 E0.1047
G1 X-42.500 Y13.968 E0.1047
; feature solid layer
G1 X-39.767 Y19.432 F9000
G1 X-24.972 Y34.227 E0.8003 F2400
G1 X-25.362 Y34.487 E0.0179
G1 X-39.761 Y20.088 E0.7789
G1 X-39.785 Y20.332 E0.0094
G1 X-39.874 Y20.626 E0.0117
G1 X-25.752 Y34.748 E0.7639
G1 X-26.142 Y35.008 E0.0179
G1 X-40.067 Y21.084 E0.7532
G1 X-40.198 Y21.330 E0.0107
G1 X-40.321 Y21.480 E0.0074
G1 X-26.532 Y35.269 E0.7459
G1 X-26.922 Y35.530 E0.0179
G1 X-40.630 Y21.821 E0.7415
G1 X-40.962 Y22.094 E0.0164
G1 X-40.992 Y22.110 E0.0013
G1 X-27.312 Y35.790 E0.7400
G1 X-27.596 Y35.980 E0.0131
G1 X-27.743 Y36.009 E0.0057
G1 X-41.416 Y22.336 E0.7396
G1 X-41.441 Y22.349 E0.0011
G1 X-41.911 Y22.492 E0.0188
G1 X-28.286 Y36.117 E0.7370
G1 X-28.829 Y36.225 E0.0212
G1 X-42.494 Y22.560 E0.7392
G1 E-1.9000 F1200
G1 Z0.700 F1200
G1 X-49.539 Y12.912 F9000
G1 Z0.200 F1200
G1 E1.9000 F1200
G1 X-44.529 Y17.922 E0.2710 F2400
G1 X-44.457 Y17.835 E0.0043
G1 X-44.188 Y17.613 E0.0133
G1 X-48.146 Y13.655 E0.2141
G1 X-47.212 Y13.938 E0.0373
G1 X-43.792 Y17.359 E0.1850
G1 X-43.559 Y17.234 E0.0101
G1 X-43.334 Y17.166 E0.0090
G1 X-46.279 Y14.221 E0.1593
G1 X-45.383 Y14.493 E0.0358
G1 X-45.353 Y14.496 E0.0011
G1 X-42.797 Y17.053 E0.1383
G1 X-42.500 Y17.024 E0.0114
G1 X-42.140 Y17.059 E0.0138
G1 X-44.632 Y14.567 E0.1348
G1 X-43.910 Y14.638 E0.0277
G1 X-41.168 Y17.380 E0.1483
G1 X-40.962 Y17.490 E0.0090
G1 X-40.543 Y17.835 E0.0208
G1 X-40.198 Y18.254 E0.0208
G1 X-40.088 Y18.460 E0.0089
G1 X-24.582 Y33.966 E0.8387
G1 X-24.192 Y33.706 E0.0179
G1 X-43.189 Y14.709 E1.0276
G1 X-42.500 Y14.777 E0.0265
G1 X-42.473 Y14.774 E0.0010
G1 X-23.802 Y33.445 E1.0099
G1 X-23.412 Y33.184 E0.0179
G1 X-41.881 Y14.716 E0.9990
G1 X-41.289 Y14.658 E0.0228
G1 X-23.022 Y32.924 E0.9881
G1 X-22.632 Y32.663 E0.0179
G1 X-40.696 Y14.599 E0.9771
G1 X-40.104 Y14.541 E0.0228
G1 X-22.242 Y32.403 E0.9662
G1 X-21.852 Y32.142 E0.0179
G1 X-39.528 Y14.466 E0.9561
G1 X-39.029 Y14.315 E0.0200
G1 X-21.462 Y31.882 E0.9502
G1 X-21.073 Y31.621 E0.0179
G1 X-38.530 Y14.163 E0.9443
G1 X-38.031 Y14.012 E0.0200
G1 X-20.683 Y31.360 E0.9384
G1 X-20.293 Y31.100 E0.0179
G1 X-37.532 Y13.861 E0.9325
G1 X-37.033 Y13.709 E0.0200
G1 X-19.903 Y30.839 E0.9266
G1 X-19.513 Y30.579 E0.0179
G1 X-36.581 Y13.511 E0.9232
G1 X-36.157 Y13.284 E0.0184
G1 X-19.123 Y30.318 E0.9214
G1 X-18.733 Y30.058 E0.0179
G1 X-35.733 Y13.058 E0.9196
G1 X-35.309 Y12.831 E0.0184
G1 X-18.343 Y29.797 E0.9177
G1 X-17.953 Y29.537 E0.0179
G1 X-34.885 Y12.604 E0.9159
G1 X-34.461 Y12.378 E0.0184
G1 X-17.563 Y29.276 E0.9141
G1 X-17.173 Y29.015 E0.0179
G1 X-34.077 Y12.111 E0.9144
G1 X-33.719 Y11.818 E0.0177
G1 X-16.783 Y28.755 E0.9161
G1 X-16.393 Y28.494 E0.0179
G1 X-33.362 Y11.525 E0.9179
G1 X-33.005 Y11.232 E0.0177
G1 X-16.003 Y28.234 E0.9197
G1 X-15.613 Y27.973 E0.0179
G1 X-32.648 Y10.939 E0.9214
G1 X-32.290 Y10.645 E0.0177
G1 X-15.223 Y27.713 E0.9232
G1 X-14.962 Y27.538 E0.0120
G1 X-14.876 Y27.409 E0.0059
G1 X-31.954 Y10.331 E0.9238
G1 X-31.661 Y9.974 E0.0177
G1 X-14.615 Y27.019 E0.9220
G1 X-14.355 Y26.629 E0.0179
G1 X-31.368 Y9.616 E0.9203
G1 X-31.074 Y9.259 E0.0177
G1 X-14.094 Y26.239 E0.9185
G1 X-13.834 Y25.849 E0.0179
G1 X-30.781 Y8.902 E0.9167
G1 X-30.488 Y8.544 E0.0177
G1 X-13.573 Y25.459 E0.9150
G1 X-13.312 Y25.069 E0.0179
G1 X-30.199 Y8.183 E0.9134
G1 X-29.972 Y7.759 E0.0184
G1 X-13.052 Y24.679 E0.9153
G1 X-12.791 Y24.289 E0.0179
G1 X-29.746 Y7.335 E0.9171
G1 X-29.519 Y6.911 E0.0184
G1 X-12.531 Y23.899 E0.9189
G1 X-12.270 Y23.509 E0.0179
G1 X-29.293 Y6.487 E0.9208
G1 X-29.066 Y6.063 E0.0184
G1 X-12.010 Y23.120 E0.9226
G1 X-11.749 Y22.730 E0.0179
G1 X-28.842 Y5.636 E0.9246
G1 X-28.691 Y5.137 E0.0200
G1 X-11.488 Y22.340 E0.9305
G1 X-11.228 Y21.950 E0.0179
G1 X-28.539 Y4.638 E0.9364
