; G-Code generated by Simplify3D(R) Version 4.1.2
; Apr 2, 2020 at 1:34:41 PM
; Settings Summary
;   processName,Process1
;   applyToModels,top train washer,top train washer(2),top train washer(3),top train washer(4),top train washer(5),top train washer(2)(2),top train washer(3)(2),top train washer(4)(2)
;   profileName,MakerBot Replicator 2 HBP (modified)
;   profileVersion,2020-03-12 10:48:50
;   baseProfile,MakerBot Replicator 2(2)
;   printMaterial,PLA
;   printQuality,Medium
;   printExtruders,
;   extruderName,Primary Extruder
;   extruderToolheadNumber,0
;   extruderDiameter,0.4
;   extruderAutoWidth,0
;   extruderWidth,0.4
;   extrusionMultiplier,1
;   extruderUseRetract,1
;   extruderRetractionDistance,1.9
;   extruderExtraRestartDistance,0
;   extruderRetractionZLift,0.5
;   extruderRetractionSpeed,1200
;   extruderUseCoasting,0
;   extruderCoastingDistance,0.2
;   extruderUseWipe,0
;   extruderWipeDistance,5
;   primaryExtruder,0
;   layerHeight,0.2
;   topSolidLayers,3
;   bottomSolidLayers,3
;   perimeterOutlines,2
;   printPerimetersInsideOut,1
;   startPointOption,3
;   startPointOriginX,0
;   startPointOriginY,150
;   sequentialIslands,0
;   spiralVaseMode,0
;   firstLayerHeightPercentage,100
;   firstLayerWidthPercentage,115
;   firstLayerUnderspeed,0.5
;   useRaft,0
;   raftExtruder,0
;   raftTopLayers,2
;   raftBaseLayers,1
;   raftOffset,1
;   raftSeparationDistance,0.14
;   raftTopInfill,90
;   aboveRaftSpeedMultiplier,0.3
;   useSkirt,0
;   skirtExtruder,0
;   skirtLayers,1
;   skirtOutlines,5
;   skirtOffset,0
;   usePrimePillar,0
;   primePillarExtruder,999
;   primePillarWidth,12
;   primePillarLocation,7
;   primePillarSpeedMultiplier,1
;   useOozeShield,0
;   oozeShieldExtruder,999
;   oozeShieldOffset,2
;   oozeShieldOutlines,1
;   oozeShieldSidewallShape,1
;   oozeShieldSidewallAngle,30
;   oozeShieldSpeedMultiplier,1
;   infillExtruder,0
;   internalInfillPattern,Rectilinear
;   externalInfillPattern,Rectilinear
;   infillPercentage,15
;   outlineOverlapPercentage,25
;   infillExtrusionWidthPercentage,100
;   minInfillLength,5
;   infillLayerInterval,1
;   internalInfillAngles,45,-45
;   overlapInternalInfillAngles,0
;   externalInfillAngles,45,-45
;   generateSupport,1
;   supportExtruder,0
;   supportInfillPercentage,30
;   supportExtraInflation,0.5
;   supportBaseLayers,0
;   denseSupportExtruder,0
;   denseSupportLayers,2
;   denseSupportInfillPercentage,90
;   supportLayerInterval,1
;   supportHorizontalPartOffset,0.3
;   supportUpperSeparationLayers,1
;   supportLowerSeparationLayers,1
;   supportType,1
;   supportGridSpacing,2
;   maxOverhangAngle,45
;   supportAngles,45,-45
;   temperatureName,Primary Extruder,Heated Build Platform
;   temperatureNumber,0,0
;   temperatureSetpointCount,1,1
;   temperatureSetpointLayers,1,1
;   temperatureSetpointTemperatures,230,60
;   temperatureStabilizeAtStartup,1,1
;   temperatureHeatedBed,0,1
;   fanLayers,1,2
;   fanSpeeds,0,100
;   blipFanToFullPower,1
;   adjustSpeedForCooling,1
;   minSpeedLayerTime,15
;   minCoolingSpeedSlowdown,20
;   increaseFanForCooling,1
;   minFanLayerTime,45
;   maxCoolingFanSpeed,100
;   increaseFanForBridging,1
;   bridgingFanSpeed,100
;   use5D,1
;   relativeEdistances,1
;   allowEaxisZeroing,0
;   independentExtruderAxes,1
;   includeM10123,0
;   stickySupport,1
;   applyToolheadOffsets,0
;   gcodeXoffset,0
;   gcodeYoffset,0
;   gcodeZoffset,0
;   overrideMachineDefinition,1
;   machineTypeOverride,0
;   strokeXoverride,280
;   strokeYoverride,150
;   strokeZoverride,150
;   originOffsetXoverride,140
;   originOffsetYoverride,75
;   originOffsetZoverride,0
;   homeXdirOverride,1
;   homeYdirOverride,1
;   homeZdirOverride,-1
;   flipXoverride,1
;   flipYoverride,-1
;   flipZoverride,1
;   toolheadOffsets,0,0|0,0|0,0|0,0|0,0|0,0
;   overrideFirmwareConfiguration,1
;   firmwareTypeOverride,MakerBot/Sailfish Firmware
;   GPXconfigOverride,r2h
;   baudRateOverride,115200
;   overridePrinterModels,1
;   printerModelsOverride,MakerBot_Replicator2.stl
;   startingGcode,; **** Replicator 2 start.gcode ****,M73 P0 ; enable build progress,G162 X Y F3000 ; home XY maximum,G161 Z F1200 ; home Z minimum,G92 Z-5 ; set Z to -5,G1 Z0 ; move Z to 0,G161 Z F100 ; home Z slowly,M132 X Y Z A B ; recall home offsets,G1 X-145 Y-75 Z30 F9000 ; move to wait position off table,G130 X20 Y20 Z20 A20 B20 ; lower stepper Vrefs while heating,M126 S[fan_speed_pwm],M140 S[bed0_temperature] T0,M134 T0 ; stabilize bed temperature,M104 S[extruder0_temperature] T0,M133 T0 ; stabilize extruder temperature,G130 X127 Y127 Z40 A127 B127 ; default stepper Vrefs,G92 A0 ; zero extruder,G1 Z0.4 ; position nozzle,G1 E25 F300 ; purge nozzle,G1 X-140 Y-70 Z0.15 F1200 ; slow wipe,G1 X-135 Y-65 Z0.5 F1200 ; lift,G92 A0 ; zero extruder,M73 P1 ;@body (notify GPX body has started),; **** end of start.gcode ****
;   layerChangeGcode,
;   retractionGcode,
;   toolChangeGcode,
;   endingGcode,; **** Replicator 2 end.gcode ****,M73 P100 ; end build progress,G1 Z155 F1000 ; send Z axis to bottom of machine,M104 S0 T0 ; cool down extruder,M140 S0 T0 ; cool down HBP,M127 ; stop blower fan,G162 X Y F3000 ; home XY maximum,M18 ; disable stepper,M0 ; stop codes,M72 P1 ; play Ta-Da song,; **** end of end.gcode ****
;   exportFileFormat,gcode
;   celebration,0
;   celebrationSong,Random Song
;   postProcessing,
;   defaultSpeed,4800
;   outlineUnderspeed,0.5
;   solidInfillUnderspeed,1
;   supportUnderspeed,1
;   rapidXYspeed,9000
;   rapidZspeed,1200
;   minBridgingArea,50
;   bridgingExtraInflation,0
;   bridgingExtrusionMultiplier,1
;   bridgingSpeedMultiplier,0.8
;   useFixedBridgingAngle,0
;   fixedBridgingAngle,0
;   applyBridgingToPerimeters,0
;   filamentDiameters,1.75|1.75|1.75|1.75|1.75|1.75
;   filamentPricesPerKg,46|46|46|46|46|46
;   filamentDensities,1.25|1.25|1.25|1.25|1.25|1.25
;   useMinPrintHeight,0
;   minPrintHeight,0
;   useMaxPrintHeight,0
;   maxPrintHeight,4.84
;   useDiaphragm,0
;   diaphragmLayerInterval,20
;   robustSlicing,1
;   mergeAllIntoSolid,0
;   onlyRetractWhenCrossingOutline,0
;   retractBetweenLayers,0
;   useRetractionMinTravel,1
;   retractionMinTravel,7
;   retractWhileWiping,1
;   onlyWipeOutlines,1
;   avoidCrossingOutline,0
;   maxMovementDetourFactor,3
;   toolChangeRetractionDistance,12
;   toolChangeExtraRestartDistance,-0.5
;   toolChangeRetractionSpeed,600
;   externalThinWallType,0
;   internalThinWallType,0
;   thinWallAllowedOverlapPercentage,10
;   singleExtrusionMinLength,1
;   singleExtrusionMinPrintingWidthPercentage,50
;   singleExtrusionMaxPrintingWidthPercentage,200
;   singleExtrusionEndpointExtension,0.2
;   horizontalSizeCompensation,0
G90
M83
; **** Replicator 2 start.gcode ****
M73 P0 ; enable build progress
G162 X Y F3000 ; home XY maximum
G161 Z F1200 ; home Z minimum
G92 Z-5 ; set Z to -5
G1 Z0 ; move Z to 0
G161 Z F100 ; home Z slowly
M132 X Y Z A B ; recall home offsets
G1 X-145 Y-75 Z30 F9000 ; move to wait position off table
G130 X20 Y20 Z20 A20 B20 ; lower stepper Vrefs while heating
M127
M140 S60 T0
M134 T0 ; stabilize bed temperature
M104 S230 T0
M133 T0 ; stabilize extruder temperature
G130 X127 Y127 Z40 A127 B127 ; default stepper Vrefs
G92 A0 ; zero extruder
G1 Z0.4 ; position nozzle
G1 E25 F300 ; purge nozzle
G1 X-140 Y-70 Z0.15 F1200 ; slow wipe
G1 X-135 Y-65 Z0.5 F1200 ; lift
G92 A0 ; zero extruder
M73 P1 ;@body (notify GPX body has started)
; **** end of start.gcode ****
; process Process1
; layer 1, Z = 0.200
M135 T0
G1 E-1.9000 F1200
; feature inner perimeter
; tool H0.200 W0.460
G1 Z0.500 F1200
G1 X-10.022 Y17.794 F9000
G1 Z0.200 F1200
G1 E1.9000 F1200
G1 X-10.500 Y17.810 E0.0183 F1800
G1 X-10.978 Y17.794 E0.0183
G1 X-11.454 Y17.747 E0.0183
G1 X-11.926 Y17.669 E0.0183
G1 X-12.392 Y17.561 E0.0183
G1 X-12.850 Y17.422 E0.0183
G1 X-13.297 Y17.253 E0.0183
G1 X-13.733 Y17.056 E0.0183
G1 X-14.155 Y16.830 E0.0183
G1 X-14.561 Y16.578 E0.0183
G1 X-14.950 Y16.299 E0.0183
G1 X-15.320 Y15.996 E0.0183
G1 X-15.669 Y15.669 E0.0183
G1 X-15.996 Y15.320 E0.0183
G1 X-16.299 Y14.950 E0.0183
G1 X-16.578 Y14.561 E0.0183
G1 X-16.830 Y14.155 E0.0183
G1 X-17.056 Y13.733 E0.0183
G1 X-17.253 Y13.297 E0.0183
G1 X-17.422 Y12.850 E0.0183
G1 X-17.561 Y12.392 E0.0183
G1 X-17.669 Y11.926 E0.0183
G1 X-17.747 Y11.454 E0.0183
G1 X-17.794 Y10.978 E0.0183
G1 X-17.810 Y10.500 E0.0183
G1 X-17.794 Y10.022 E0.0183
G1 X-17.747 Y9.546 E0.0183
G1 X-17.669 Y9.074 E0.0183
G1 X-17.561 Y8.608 E0.0183
G1 X-17.422 Y8.150 E0.0183
G1 X-17.253 Y7.703 E0.0183
G1 X-17.056 Y7.267 E0.0183
G1 X-16.830 Y6.845 E0.0183
G1 X-16.578 Y6.439 E0.0183
G1 X-16.299 Y6.050 E0.0183
G1 X-15.996 Y5.681 E0.0183
G1 X-15.669 Y5.331 E0.0183
G1 X-15.319 Y5.004 E0.0183
G1 X-14.950 Y4.701 E0.0183
G1 X-14.571 Y4.430 E0.0178
G1 X-14.154 Y4.169 E0.0188
G1 X-13.733 Y3.944 E0.0183
G1 X-13.297 Y3.747 E0.0183
G1 X-12.850 Y3.578 E0.0183
G1 X-12.392 Y3.439 E0.0183
G1 X-11.926 Y3.331 E0.0183
G1 X-11.454 Y3.253 E0.0183
G1 X-10.978 Y3.206 E0.0183
G1 X-10.500 Y3.190 E0.0183
G1 X-10.022 Y3.206 E0.0183
G1 X-9.546 Y3.253 E0.0183
G1 X-9.074 Y3.331 E0.0183
G1 X-8.608 Y3.439 E0.0183
G1 X-8.151 Y3.578 E0.0183
G1 X-7.703 Y3.747 E0.0183
G1 X-7.267 Y3.944 E0.0183
G1 X-6.845 Y4.170 E0.0183
G1 X-6.439 Y4.422 E0.0183
G1 X-6.050 Y4.701 E0.0183
G1 X-5.680 Y5.004 E0.0183
G1 X-5.331 Y5.331 E0.0183
G1 X-5.004 Y5.680 E0.0183
G1 X-4.701 Y6.050 E0.0183
G1 X-4.422 Y6.439 E0.0183
G1 X-4.170 Y6.845 E0.0183
G1 X-3.944 Y7.267 E0.0183
G1 X-3.747 Y7.703 E0.0183
G1 X-3.578 Y8.151 E0.0183
G1 X-3.439 Y8.608 E0.0183
G1 X-3.331 Y9.074 E0.0183
G1 X-3.253 Y9.546 E0.0183
G1 X-3.206 Y10.022 E0.0183
G1 X-3.190 Y10.500 E0.0183
G1 X-3.206 Y10.978 E0.0183
G1 X-3.253 Y11.454 E0.0183
G1 X-3.331 Y11.926 E0.0183
G1 X-3.439 Y12.392 E0.0183
G1 X-3.578 Y12.849 E0.0183
G1 X-3.747 Y13.297 E0.0183
G1 X-3.944 Y13.733 E0.0183
G1 X-4.170 Y14.155 E0.0183
G1 X-4.422 Y14.561 E0.0183
G1 X-4.701 Y14.950 E0.0183
G1 X-5.004 Y15.320 E0.0183
G1 X-5.331 Y15.669 E0.0183
G1 X-5.680 Y15.996 E0.0183
G1 X-6.050 Y16.299 E0.0183
G1 X-6.439 Y16.578 E0.0183
G1 X-6.845 Y16.830 E0.0183
G1 X-7.267 Y17.056 E0.0183
G1 X-7.703 Y17.253 E0.0183
G1 X-8.151 Y17.422 E0.0183
G1 X-8.608 Y17.561 E0.0183
G1 X-9.074 Y17.669 E0.0183
G1 X-9.546 Y17.747 E0.0183
G1 X-10.022 Y17.794 E0.0183
; feature outer perimeter
G1 X-9.992 Y18.253 F9000
G1 X-10.500 Y18.270 E0.0195 F1200
G1 X-11.008 Y18.253 E0.0195
G1 X-11.514 Y18.203 E0.0194
G1 X-12.016 Y18.121 E0.0195
G1 X-12.511 Y18.005 E0.0194
G1 X-12.998 Y17.858 E0.0195
G1 X-13.473 Y17.678 E0.0194
G1 X-13.937 Y17.469 E0.0194
G1 X-14.385 Y17.229 E0.0195
G1 X-14.817 Y16.960 E0.0194
G1 X-15.230 Y16.664 E0.0194
G1 X-15.623 Y16.342 E0.0194
G1 X-15.994 Y15.994 E0.0195
G1 X-16.342 Y15.623 E0.0195
G1 X-16.664 Y15.230 E0.0194
G1 X-16.960 Y14.817 E0.0194
G1 X-17.229 Y14.385 E0.0195
G1 X-17.469 Y13.937 E0.0194
G1 X-17.678 Y13.473 E0.0194
G1 X-17.858 Y12.998 E0.0194
G1 X-18.005 Y12.511 E0.0195
G1 X-18.121 Y12.016 E0.0194
G1 X-18.203 Y11.514 E0.0195
G1 X-18.253 Y11.008 E0.0194
G1 X-18.270 Y10.500 E0.0195
G1 X-18.253 Y9.992 E0.0195
G1 X-18.203 Y9.486 E0.0194
G1 X-18.121 Y8.984 E0.0195
G1 X-18.005 Y8.489 E0.0194
G1 X-17.858 Y8.002 E0.0195
G1 X-17.678 Y7.527 E0.0194
G1 X-17.469 Y7.063 E0.0195
G1 X-17.229 Y6.615 E0.0194
G1 X-16.960 Y6.183 E0.0195
G1 X-16.664 Y5.770 E0.0194
G1 X-16.342 Y5.377 E0.0194
G1 X-15.994 Y5.006 E0.0195
G1 X-15.623 Y4.658 E0.0195
G1 X-15.230 Y4.336 E0.0194
G1 X-14.827 Y4.047 E0.0190
G1 X-14.385 Y3.771 E0.0200
G1 X-13.937 Y3.531 E0.0194
G1 X-13.473 Y3.322 E0.0194
G1 X-12.998 Y3.142 E0.0194
G1 X-12.511 Y2.995 E0.0195
G1 X-12.016 Y2.879 E0.0194
G1 X-11.514 Y2.797 E0.0195
G1 X-11.008 Y2.747 E0.0194
G1 X-10.500 Y2.730 E0.0195
G1 X-9.992 Y2.747 E0.0195
G1 X-9.486 Y2.797 E0.0194
G1 X-8.984 Y2.879 E0.0195
G1 X-8.489 Y2.995 E0.0194
G1 X-8.002 Y3.142 E0.0194
G1 X-7.527 Y3.322 E0.0194
G1 X-7.063 Y3.531 E0.0194
G1 X-6.615 Y3.771 E0.0194
G1 X-6.183 Y4.040 E0.0195
G1 X-5.770 Y4.336 E0.0194
G1 X-5.377 Y4.658 E0.0195
G1 X-5.006 Y5.006 E0.0195
G1 X-4.658 Y5.377 E0.0194
G1 X-4.336 Y5.770 E0.0194
G1 X-4.040 Y6.183 E0.0194
G1 X-3.771 Y6.615 E0.0195
G1 X-3.531 Y7.063 E0.0194
G1 X-3.322 Y7.527 E0.0194
G1 X-3.142 Y8.002 E0.0194
G1 X-2.995 Y8.489 E0.0194
G1 X-2.879 Y8.984 E0.0194
G1 X-2.797 Y9.486 E0.0195
G1 X-2.747 Y9.992 E0.0194
G1 X-2.730 Y10.500 E0.0195
G1 X-2.747 Y11.008 E0.0195
G1 X-2.797 Y11.514 E0.0194
G1 X-2.879 Y12.016 E0.0195
G1 X-2.995 Y12.511 E0.0194
G1 X-3.142 Y12.998 E0.0194
G1 X-3.322 Y13.473 E0.0194
G1 X-3.531 Y13.937 E0.0194
G1 X-3.771 Y14.385 E0.0194
G1 X-4.040 Y14.817 E0.0195
G1 X-4.336 Y15.230 E0.0194
G1 X-4.658 Y15.623 E0.0194
G1 X-5.006 Y15.994 E0.0195
G1 X-5.377 Y16.342 E0.0195
G1 X-5.770 Y16.664 E0.0194
G1 X-6.183 Y16.960 E0.0194
G1 X-6.615 Y17.229 E0.0195
G1 X-7.063 Y17.469 E0.0194
G1 X-7.527 Y17.678 E0.0194
G1 X-8.002 Y17.858 E0.0194
G1 X-8.489 Y18.005 E0.0194
G1 X-8.984 Y18.121 E0.0194
G1 X-9.486 Y18.203 E0.0195
G1 X-9.992 Y18.253 E0.0194
; feature inner perimeter
G1 X-10.247 Y14.182 F9000
G1 X-9.791 Y14.122 E0.0176 F1800
G1 X-9.534 Y14.062 E0.0101
G1 X-9.098 Y13.914 E0.0176
G1 X-8.857 Y13.805 E0.0101
G1 X-8.459 Y13.575 E0.0176
G1 X-8.244 Y13.421 E0.0101
G1 X-7.890 Y13.110 E0.0180
G1 X-7.579 Y12.756 E0.0180
G1 X-7.425 Y12.541 E0.0101
G1 X-7.195 Y12.143 E0.0176
G1 X-7.086 Y11.902 E0.0101
G1 X-6.938 Y11.466 E0.0176
G1 X-6.881 Y11.220 E0.0097
G1 X-6.839 Y10.971 E0.0097
G1 X-6.809 Y10.500 E0.0180
G1 X-6.839 Y10.029 E0.0180
G1 X-6.881 Y9.780 E0.0097
G1 X-6.938 Y9.534 E0.0097
G1 X-7.086 Y9.098 E0.0176
G1 X-7.195 Y8.857 E0.0101
G1 X-7.431 Y8.449 E0.0180
G1 X-7.718 Y8.075 E0.0180
G1 X-7.891 Y7.891 E0.0097
G1 X-8.075 Y7.718 E0.0097
G1 X-8.440 Y7.438 E0.0176
G1 X-8.664 Y7.298 E0.0101
G1 X-9.087 Y7.090 E0.0180
G1 X-9.534 Y6.938 E0.0180
G1 X-9.791 Y6.878 E0.0101
G1 X-10.247 Y6.818 E0.0176
G1 X-10.511 Y6.809 E0.0101
G1 X-10.971 Y6.839 E0.0176
G1 X-11.220 Y6.881 E0.0097
G1 X-11.466 Y6.938 E0.0097
G1 X-11.902 Y7.086 E0.0176
G1 X-12.143 Y7.195 E0.0101
G1 X-12.541 Y7.425 E0.0176
G1 X-12.756 Y7.579 E0.0101
G1 X-13.110 Y7.890 E0.0180
G1 X-13.421 Y8.244 E0.0180
G1 X-13.568 Y8.450 E0.0097
G1 X-13.702 Y8.664 E0.0097
G1 X-13.910 Y9.087 E0.0180
G1 X-14.062 Y9.534 E0.0180
G1 X-14.122 Y9.791 E0.0101
G1 X-14.182 Y10.253 E0.0178
G1 X-14.191 Y10.517 E0.0101
G1 X-14.161 Y10.971 E0.0174
G1 X-14.119 Y11.220 E0.0097
G1 X-14.062 Y11.466 E0.0097
G1 X-13.910 Y11.913 E0.0180
G1 X-13.702 Y12.336 E0.0180
G1 X-13.568 Y12.550 E0.0097
G1 X-13.421 Y12.756 E0.0097
G1 X-13.118 Y13.102 E0.0176
G1 X-12.925 Y13.282 E0.0101
G1 X-12.560 Y13.562 E0.0176
G1 X-12.336 Y13.702 E0.0101
G1 X-11.923 Y13.905 E0.0176
G1 X-11.676 Y13.999 E0.0101
G1 X-11.220 Y14.121 E0.0180
G1 X-10.753 Y14.182 E0.0180
G1 X-10.500 Y14.190 E0.0097
G1 X-10.247 Y14.182 E0.0097
; feature outer perimeter
G1 X-10.285 Y13.723 F9000
G1 X-9.873 Y13.669 E0.0159 F1200
G1 X-9.660 Y13.619 E0.0084
G1 X-9.267 Y13.486 E0.0159
G1 X-9.068 Y13.395 E0.0084
G1 X-8.709 Y13.188 E0.0159
G1 X-8.531 Y13.060 E0.0084
G1 X-8.216 Y12.784 E0.0160
G1 X-7.940 Y12.469 E0.0160
G1 X-7.812 Y12.291 E0.0084
G1 X-7.605 Y11.932 E0.0159
G1 X-7.514 Y11.733 E0.0084
G1 X-7.381 Y11.340 E0.0159
G1 X-7.332 Y11.130 E0.0082
G1 X-7.297 Y10.918 E0.0082
G1 X-7.270 Y10.500 E0.0160
G1 X-7.297 Y10.082 E0.0160
G1 X-7.332 Y9.870 E0.0082
G1 X-7.381 Y9.660 E0.0082
G1 X-7.514 Y9.267 E0.0159
G1 X-7.605 Y9.068 E0.0084
G1 X-7.814 Y8.705 E0.0160
G1 X-8.069 Y8.373 E0.0160
G1 X-8.216 Y8.216 E0.0082
G1 X-8.373 Y8.069 E0.0082
G1 X-8.702 Y7.816 E0.0159
G1 X-8.888 Y7.701 E0.0084
G1 X-9.264 Y7.515 E0.0160
G1 X-9.660 Y7.381 E0.0160
G1 X-9.874 Y7.331 E0.0084
G1 X-10.285 Y7.277 E0.0159
G1 X-10.504 Y7.270 E0.0084
G1 X-10.918 Y7.297 E0.0159
G1 X-11.130 Y7.332 E0.0082
G1 X-11.340 Y7.381 E0.0082
G1 X-11.733 Y7.514 E0.0159
G1 X-11.932 Y7.605 E0.0084
G1 X-12.291 Y7.812 E0.0159
G1 X-12.469 Y7.940 E0.0084
G1 X-12.784 Y8.216 E0.0160
G1 X-13.060 Y8.531 E0.0160
G1 X-13.186 Y8.705 E0.0082
G1 X-13.299 Y8.888 E0.0082
G1 X-13.485 Y9.264 E0.0160
G1 X-13.619 Y9.660 E0.0160
G1 X-13.669 Y9.874 E0.0084
G1 X-13.723 Y10.290 E0.0161
G1 X-13.730 Y10.509 E0.0084
