; G-Code generated by Simplify3D(R) Version 4.1.2
; Apr 2, 2020 at 1:34:55 PM
; Settings Summary
;   processName,Process1
;   applyToModels,top train washer,top train washer(2),top train washer(3),top train washer(4),top train washer(5),top train washer(2)(2),top train washer(3)(2),top train washer(4)(2),top train washer(6),top train washer(2)(3),top train washer(3)(3),top train washer(4)(3),top train washer(5)(2),top train washer(2)(2)(2),top train washer(3)(2)(2),top train washer(4)(2)(2)
;   profileName,MakerBot Replicator 2 HBP (modified)
;   profileVersion,2020-03-12 10:48:50
;   baseProfile,MakerBot Replicator 2(2)
;   printMaterial,PLA
;   printQuality,Medium
;   printExtruders,
;   extruderName,Primary Extruder
;   extruderToolheadNumber,0
;   extruderDiameter,0.4
;   extruderAutoWidth,0
;   extruderWidth,0.4
;   extrusionMultiplier,1
;   extruderUseRetract,1
;   extruderRetractionDistance,1.9
;   extruderExtraRestartDistance,0
;   extruderRetractionZLift,0.5
;   extruderRetractionSpeed,1200
;   extruderUseCoasting,0
;   extruderCoastingDistance,0.2
;   extruderUseWipe,0
;   extruderWipeDistance,5
;   primaryExtruder,0
;   layerHeight,0.2
;   topSolidLayers,3
;   bottomSolidLayers,3
;   perimeterOutlines,2
;   printPerimetersInsideOut,1
;   startPointOption,3
;   startPointOriginX,0
;   startPointOriginY,150
;   sequentialIslands,0
;   spiralVaseMode,0
;   firstLayerHeightPercentage,100
;   firstLayerWidthPercentage,115
;   firstLayerUnderspeed,0.5
;   useRaft,0
;   raftExtruder,0
;   raftTopLayers,2
;   raftBaseLayers,1
;   raftOffset,1
;   raftSeparationDistance,0.14
;   raftTopInfill,90
;   aboveRaftSpeedMultiplier,0.3
;   useSkirt,0
;   skirtExtruder,0
;   skirtLayers,1
;   skirtOutlines,5
;   skirtOffset,0
;   usePrimePillar,0
;   primePillarExtruder,999
;   primePillarWidth,12
;   primePillarLocation,7
;   primePillarSpeedMultiplier,1
;   useOozeShield,0
;   oozeShieldExtruder,999
;   oozeShieldOffset,2
;   oozeShieldOutlines,1
;   oozeShieldSidewallShape,1
;   oozeShieldSidewallAngle,30
;   oozeShieldSpeedMultiplier,1
;   infillExtruder,0
;   internalInfillPattern,Rectilinear
;   externalInfillPattern,Rectilinear
;   infillPercentage,15
;   outlineOverlapPercentage,25
;   infillExtrusionWidthPercentage,100
;   minInfillLength,5
;   infillLayerInterval,1
;   internalInfillAngles,45,-45
;   overlapInternalInfillAngles,0
;   externalInfillAngles,45,-45
;   generateSupport,1
;   supportExtruder,0
;   supportInfillPercentage,30
;   supportExtraInflation,0.5
;   supportBaseLayers,0
;   denseSupportExtruder,0
;   denseSupportLayers,2
;   denseSupportInfillPercentage,90
;   supportLayerInterval,1
;   supportHorizontalPartOffset,0.3
;   supportUpperSeparationLayers,1
;   supportLowerSeparationLayers,1
;   supportType,1
;   supportGridSpacing,2
;   maxOverhangAngle,45
;   supportAngles,45,-45
;   temperatureName,Primary Extruder,Heated Build Platform
;   temperatureNumber,0,0
;   temperatureSetpointCount,1,1
;   temperatureSetpointLayers,1,1
;   temperatureSetpointTemperatures,230,60
;   temperatureStabilizeAtStartup,1,1
;   temperatureHeatedBed,0,1
;   fanLayers,1,2
;   fanSpeeds,0,100
;   blipFanToFullPower,1
;   adjustSpeedForCooling,1
;   minSpeedLayerTime,15
;   minCoolingSpeedSlowdown,20
;   increaseFanForCooling,1
;   minFanLayerTime,45
;   maxCoolingFanSpeed,100
;   increaseFanForBridging,1
;   bridgingFanSpeed,100
;   use5D,1
;   relativeEdistances,1
;   allowEaxisZeroing,0
;   independentExtruderAxes,1
;   includeM10123,0
;   stickySupport,1
;   applyToolheadOffsets,0
;   gcodeXoffset,0
;   gcodeYoffset,0
;   gcodeZoffset,0
;   overrideMachineDefinition,1
;   machineTypeOverride,0
;   strokeXoverride,280
;   strokeYoverride,150
;   strokeZoverride,150
;   originOffsetXoverride,140
;   originOffsetYoverride,75
;   originOffsetZoverride,0
;   homeXdirOverride,1
;   homeYdirOverride,1
;   homeZdirOverride,-1
;   flipXoverride,1
;   flipYoverride,-1
;   flipZoverride,1
;   toolheadOffsets,0,0|0,0|0,0|0,0|0,0|0,0
;   overrideFirmwareConfiguration,1
;   firmwareTypeOverride,MakerBot/Sailfish Firmware
;   GPXconfigOverride,r2h
;   baudRateOverride,115200
;   overridePrinterModels,1
;   printerModelsOverride,MakerBot_Replicator2.stl
;   startingGcode,; **** Replicator 2 start.gcode ****,M73 P0 ; enable build progress,G162 X Y F3000 ; home XY maximum,G161 Z F1200 ; home Z minimum,G92 Z-5 ; set Z to -5,G1 Z0 ; move Z to 0,G161 Z F100 ; home Z slowly,M132 X Y Z A B ; recall home offsets,G1 X-145 Y-75 Z30 F9000 ; move to wait position off table,G130 X20 Y20 Z20 A20 B20 ; lower stepper Vrefs while heating,M126 S[fan_speed_pwm],M140 S[bed0_temperature] T0,M134 T0 ; stabilize bed temperature,M104 S[extruder0_temperature] T0,M133 T0 ; stabilize extruder temperature,G130 X127 Y127 Z40 A127 B127 ; default stepper Vrefs,G92 A0 ; zero extruder,G1 Z0.4 ; position nozzle,G1 E25 F300 ; purge nozzle,G1 X-140 Y-70 Z0.15 F1200 ; slow wipe,G1 X-135 Y-65 Z0.5 F1200 ; lift,G92 A0 ; zero extruder,M73 P1 ;@body (notify GPX body has started),; **** end of start.gcode ****
;   layerChangeGcode,
;   retractionGcode,
;   toolChangeGcode,
;   endingGcode,; **** Replicator 2 end.gcode ****,M73 P100 ; end build progress,G1 Z155 F1000 ; send Z axis to bottom of machine,M104 S0 T0 ; cool down extruder,M140 S0 T0 ; cool down HBP,M127 ; stop blower fan,G162 X Y F3000 ; home XY maximum,M18 ; disable stepper,M0 ; stop codes,M72 P1 ; play Ta-Da song,; **** end of end.gcode ****
;   exportFileFormat,gcode
;   celebration,0
;   celebrationSong,Random Song
;   postProcessing,
;   defaultSpeed,4800
;   outlineUnderspeed,0.5
;   solidInfillUnderspeed,1
;   supportUnderspeed,1
;   rapidXYspeed,9000
;   rapidZspeed,1200
;   minBridgingArea,50
;   bridgingExtraInflation,0
;   bridgingExtrusionMultiplier,1
;   bridgingSpeedMultiplier,0.8
;   useFixedBridgingAngle,0
;   fixedBridgingAngle,0
;   applyBridgingToPerimeters,0
;   filamentDiameters,1.75|1.75|1.75|1.75|1.75|1.75
;   filamentPricesPerKg,46|46|46|46|46|46
;   filamentDensities,1.25|1.25|1.25|1.25|1.25|1.25
;   useMinPrintHeight,0
;   minPrintHeight,0
;   useMaxPrintHeight,0
;   maxPrintHeight,4.84
;   useDiaphragm,0
;   diaphragmLayerInterval,20
;   robustSlicing,1
;   mergeAllIntoSolid,0
;   onlyRetractWhenCrossingOutline,0
;   retractBetweenLayers,0
;   useRetractionMinTravel,1
;   retractionMinTravel,7
;   retractWhileWiping,1
;   onlyWipeOutlines,1
;   avoidCrossingOutline,0
;   maxMovementDetourFactor,3
;   toolChangeRetractionDistance,12
;   toolChangeExtraRestartDistance,-0.5
;   toolChangeRetractionSpeed,600
;   externalThinWallType,0
;   internalThinWallType,0
;   thinWallAllowedOverlapPercentage,10
;   singleExtrusionMinLength,1
;   singleExtrusionMinPrintingWidthPercentage,50
;   singleExtrusionMaxPrintingWidthPercentage,200
;   singleExtrusionEndpointExtension,0.2
;   horizontalSizeCompensation,0
G90
M83
; **** Replicator 2 start.gcode ****
M73 P0 ; enable build progress
G162 X Y F3000 ; home XY maximum
G161 Z F1200 ; home Z minimum
G92 Z-5 ; set Z to -5
G1 Z0 ; move Z to 0
G161 Z F100 ; home Z slowly
M132 X Y Z A B ; recall home offsets
G1 X-145 Y-75 Z30 F9000 ; move to wait position off table
G130 X20 Y20 Z20 A20 B20 ; lower stepper Vrefs while heating
M127
M140 S60 T0
M134 T0 ; stabilize bed temperature
M104 S230 T0
M133 T0 ; stabilize extruder temperature
G130 X127 Y127 Z40 A127 B127 ; default stepper Vrefs
G92 A0 ; zero extruder
G1 Z0.4 ; position nozzle
G1 E25 F300 ; purge nozzle
G1 X-140 Y-70 Z0.15 F1200 ; slow wipe
G1 X-135 Y-65 Z0.5 F1200 ; lift
G92 A0 ; zero extruder
M73 P1 ;@body (notify GPX body has started)
; **** end of start.gcode ****
; process Process1
; layer 1, Z = 0.200
M135 T0
G1 E-1.9000 F1200
; feature inner perimeter
; tool H0.200 W0.460
G1 Z0.500 F1200
G1 X-10.022 Y7.294 F9000
G1 Z0.200 F1200
G1 E1.9000 F1200
G1 X-10.500 Y7.310 E0.0183 F1800
G1 X-10.978 Y7.294 E0.0183
G1 X-11.454 Y7.247 E0.0183
G1 X-11.926 Y7.169 E0.0183
G1 X-12.392 Y7.061 E0.0183
G1 X-12.850 Y6.922 E0.0183
G1 X-13.297 Y6.753 E0.0183
G1 X-13.733 Y6.556 E0.0183
G1 X-14.155 Y6.330 E0.0183
G1 X-14.561 Y6.078 E0.0183
G1 X-14.950 Y5.799 E0.0183
G1 X-15.320 Y5.496 E0.0183
G1 X-15.669 Y5.169 E0.0183
G1 X-15.996 Y4.820 E0.0183
G1 X-16.299 Y4.450 E0.0183
G1 X-16.578 Y4.061 E0.0183
G1 X-16.830 Y3.655 E0.0183
G1 X-17.056 Y3.233 E0.0183
G1 X-17.253 Y2.797 E0.0183
G1 X-17.422 Y2.350 E0.0183
G1 X-17.561 Y1.892 E0.0183
G1 X-17.669 Y1.426 E0.0183
G1 X-17.747 Y0.954 E0.0183
G1 X-17.794 Y0.478 E0.0183
G1 X-17.810 Y0.000 E0.0183
G1 X-17.794 Y-0.478 E0.0183
G1 X-17.747 Y-0.954 E0.0183
G1 X-17.669 Y-1.426 E0.0183
G1 X-17.561 Y-1.892 E0.0183
G1 X-17.422 Y-2.350 E0.0183
G1 X-17.253 Y-2.797 E0.0183
G1 X-17.056 Y-3.233 E0.0183
G1 X-16.830 Y-3.655 E0.0183
G1 X-16.578 Y-4.061 E0.0183
G1 X-16.299 Y-4.450 E0.0183
G1 X-15.996 Y-4.819 E0.0183
G1 X-15.669 Y-5.169 E0.0183
G1 X-15.319 Y-5.496 E0.0183
G1 X-14.950 Y-5.799 E0.0183
G1 X-14.571 Y-6.070 E0.0178
G1 X-14.154 Y-6.331 E0.0188
G1 X-13.733 Y-6.556 E0.0183
G1 X-13.297 Y-6.753 E0.0183
G1 X-12.850 Y-6.922 E0.0183
G1 X-12.392 Y-7.061 E0.0183
G1 X-11.926 Y-7.169 E0.0183
G1 X-11.454 Y-7.247 E0.0183
G1 X-10.978 Y-7.294 E0.0183
G1 X-10.500 Y-7.310 E0.0183
G1 X-10.022 Y-7.294 E0.0183
G1 X-9.546 Y-7.247 E0.0183
G1 X-9.074 Y-7.169 E0.0183
G1 X-8.608 Y-7.061 E0.0183
G1 X-8.151 Y-6.922 E0.0183
G1 X-7.703 Y-6.753 E0.0183
G1 X-7.267 Y-6.556 E0.0183
G1 X-6.845 Y-6.330 E0.0183
G1 X-6.439 Y-6.078 E0.0183
G1 X-6.050 Y-5.799 E0.0183
G1 X-5.680 Y-5.496 E0.0183
G1 X-5.331 Y-5.169 E0.0183
G1 X-5.004 Y-4.820 E0.0183
G1 X-4.701 Y-4.450 E0.0183
G1 X-4.422 Y-4.061 E0.0183
G1 X-4.170 Y-3.655 E0.0183
G1 X-3.944 Y-3.233 E0.0183
G1 X-3.747 Y-2.797 E0.0183
G1 X-3.578 Y-2.349 E0.0183
G1 X-3.439 Y-1.892 E0.0183
G1 X-3.331 Y-1.426 E0.0183
G1 X-3.253 Y-0.954 E0.0183
G1 X-3.206 Y-0.478 E0.0183
G1 X-3.190 Y0.000 E0.0183
G1 X-3.206 Y0.478 E0.0183
G1 X-3.253 Y0.954 E0.0183
G1 X-3.331 Y1.426 E0.0183
G1 X-3.439 Y1.892 E0.0183
G1 X-3.578 Y2.349 E0.0183
G1 X-3.747 Y2.797 E0.0183
G1 X-3.944 Y3.233 E0.0183
G1 X-4.170 Y3.655 E0.0183
G1 X-4.422 Y4.061 E0.0183
G1 X-4.701 Y4.450 E0.0183
G1 X-5.004 Y4.820 E0.0183
G1 X-5.331 Y5.169 E0.0183
G1 X-5.680 Y5.496 E0.0183
G1 X-6.050 Y5.799 E0.0183
G1 X-6.439 Y6.078 E0.0183
G1 X-6.845 Y6.330 E0.0183
G1 X-7.267 Y6.556 E0.0183
G1 X-7.703 Y6.753 E0.0183
G1 X-8.151 Y6.922 E0.0183
G1 X-8.608 Y7.061 E0.0183
G1 X-9.074 Y7.169 E0.0183
G1 X-9.546 Y7.247 E0.0183
G1 X-10.022 Y7.294 E0.0183
; feature outer perimeter
G1 X-9.992 Y7.753 F9000
G1 X-10.500 Y7.770 E0.0195 F1200
G1 X-11.008 Y7.753 E0.0195
G1 X-11.514 Y7.703 E0.0194
G1 X-12.016 Y7.621 E0.0195
G1 X-12.511 Y7.505 E0.0194
G1 X-12.998 Y7.357 E0.0195
G1 X-13.473 Y7.178 E0.0194
G1 X-13.937 Y6.969 E0.0194
G1 X-14.385 Y6.729 E0.0195
G1 X-14.817 Y6.460 E0.0194
G1 X-15.230 Y6.164 E0.0194
G1 X-15.623 Y5.842 E0.0194
G1 X-15.994 Y5.494 E0.0195
G1 X-16.342 Y5.123 E0.0195
G1 X-16.664 Y4.730 E0.0194
G1 X-16.960 Y4.317 E0.0194
G1 X-17.229 Y3.885 E0.0195
G1 X-17.469 Y3.437 E0.0194
G1 X-17.678 Y2.973 E0.0194
G1 X-17.858 Y2.498 E0.0194
G1 X-18.005 Y2.011 E0.0195
G1 X-18.121 Y1.516 E0.0194
G1 X-18.203 Y1.014 E0.0195
G1 X-18.253 Y0.508 E0.0194
G1 X-18.270 Y0.000 E0.0195
G1 X-18.253 Y-0.508 E0.0195
G1 X-18.203 Y-1.014 E0.0194
G1 X-18.121 Y-1.516 E0.0195
G1 X-18.005 Y-2.011 E0.0194
G1 X-17.858 Y-2.498 E0.0195
G1 X-17.678 Y-2.973 E0.0194
G1 X-17.469 Y-3.437 E0.0195
G1 X-17.229 Y-3.885 E0.0194
G1 X-16.960 Y-4.317 E0.0195
G1 X-16.664 Y-4.730 E0.0194
G1 X-16.342 Y-5.123 E0.0194
G1 X-15.994 Y-5.494 E0.0195
G1 X-15.623 Y-5.842 E0.0195
G1 X-15.230 Y-6.164 E0.0194
G1 X-14.827 Y-6.453 E0.0190
G1 X-14.385 Y-6.729 E0.0200
G1 X-13.937 Y-6.969 E0.0194
G1 X-13.473 Y-7.178 E0.0194
G1 X-12.998 Y-7.357 E0.0194
G1 X-12.511 Y-7.505 E0.0195
G1 X-12.016 Y-7.621 E0.0194
G1 X-11.514 Y-7.703 E0.0195
G1 X-11.008 Y-7.753 E0.0194
G1 X-10.500 Y-7.770 E0.0195
G1 X-9.992 Y-7.753 E0.0195
G1 X-9.486 Y-7.703 E0.0194
G1 X-8.984 Y-7.621 E0.0195
G1 X-8.489 Y-7.505 E0.0194
G1 X-8.002 Y-7.358 E0.0194
G1 X-7.527 Y-7.178 E0.0194
G1 X-7.063 Y-6.969 E0.0194
G1 X-6.615 Y-6.729 E0.0194
G1 X-6.183 Y-6.460 E0.0195
G1 X-5.770 Y-6.164 E0.0194
G1 X-5.377 Y-5.842 E0.0195
G1 X-5.006 Y-5.494 E0.0195
G1 X-4.658 Y-5.123 E0.0194
G1 X-4.336 Y-4.730 E0.0194
G1 X-4.040 Y-4.317 E0.0194
G1 X-3.771 Y-3.885 E0.0195
G1 X-3.531 Y-3.437 E0.0194
G1 X-3.322 Y-2.973 E0.0194
G1 X-3.142 Y-2.498 E0.0194
G1 X-2.995 Y-2.011 E0.0194
G1 X-2.879 Y-1.516 E0.0194
G1 X-2.797 Y-1.014 E0.0195
G1 X-2.747 Y-0.508 E0.0194
G1 X-2.730 Y0.000 E0.0195
G1 X-2.747 Y0.508 E0.0195
G1 X-2.797 Y1.014 E0.0194
G1 X-2.879 Y1.516 E0.0195
G1 X-2.995 Y2.011 E0.0194
G1 X-3.142 Y2.498 E0.0194
G1 X-3.322 Y2.973 E0.0194
G1 X-3.531 Y3.437 E0.0194
G1 X-3.771 Y3.885 E0.0194
G1 X-4.040 Y4.317 E0.0195
G1 X-4.336 Y4.730 E0.0194
G1 X-4.658 Y5.123 E0.0194
G1 X-5.006 Y5.494 E0.0194
G1 X-5.377 Y5.842 E0.0194
G1 X-5.770 Y6.164 E0.0194
G1 X-6.183 Y6.460 E0.0194
G1 X-6.615 Y6.729 E0.0195
G1 X-7.063 Y6.969 E0.0194
G1 X-7.527 Y7.178 E0.0194
G1 X-8.002 Y7.358 E0.0194
G1 X-8.489 Y7.505 E0.0194
G1 X-8.984 Y7.621 E0.0194
G1 X-9.486 Y7.703 E0.0195
G1 X-9.992 Y7.753 E0.0194
; feature inner perimeter
G1 X-10.247 Y3.682 F9000
G1 X-9.791 Y3.622 E0.0176 F1800
G1 X-9.534 Y3.562 E0.0101
G1 X-9.098 Y3.414 E0.0176
G1 X-8.857 Y3.305 E0.0101
G1 X-8.459 Y3.075 E0.0176
G1 X-8.244 Y2.921 E0.0101
G1 X-7.890 Y2.610 E0.0180
G1 X-7.579 Y2.256 E0.0180
G1 X-7.425 Y2.041 E0.0101
G1 X-7.195 Y1.643 E0.0176
G1 X-7.086 Y1.402 E0.0101
G1 X-6.938 Y0.966 E0.0176
G1 X-6.881 Y0.720 E0.0097
G1 X-6.839 Y0.471 E0.0097
G1 X-6.809 Y0.000 E0.0180
G1 X-6.839 Y-0.471 E0.0180
G1 X-6.881 Y-0.720 E0.0097
G1 X-6.938 Y-0.966 E0.0097
G1 X-7.086 Y-1.402 E0.0176
G1 X-7.195 Y-1.642 E0.0101
G1 X-7.431 Y-2.051 E0.0180
G1 X-7.718 Y-2.425 E0.0180
G1 X-7.891 Y-2.609 E0.0097
G1 X-8.075 Y-2.782 E0.0097
G1 X-8.440 Y-3.062 E0.0176
G1 X-8.664 Y-3.202 E0.0101
G1 X-9.087 Y-3.410 E0.0180
G1 X-9.534 Y-3.562 E0.0180
G1 X-9.791 Y-3.622 E0.0101
G1 X-10.247 Y-3.682 E0.0176
G1 X-10.511 Y-3.691 E0.0101
G1 X-10.971 Y-3.661 E0.0176
G1 X-11.220 Y-3.619 E0.0097
G1 X-11.466 Y-3.562 E0.0097
G1 X-11.902 Y-3.414 E0.0176
G1 X-12.143 Y-3.305 E0.0101
G1 X-12.541 Y-3.075 E0.0176
G1 X-12.756 Y-2.921 E0.0101
G1 X-13.110 Y-2.610 E0.0180
G1 X-13.421 Y-2.256 E0.0180
G1 X-13.568 Y-2.050 E0.0097
G1 X-13.702 Y-1.836 E0.0097
G1 X-13.910 Y-1.413 E0.0180
G1 X-14.062 Y-0.966 E0.0180
G1 X-14.122 Y-0.709 E0.0101
G1 X-14.182 Y-0.247 E0.0178
G1 X-14.191 Y0.017 E0.0101
G1 X-14.161 Y0.471 E0.0174
G1 X-14.119 Y0.720 E0.0097
G1 X-14.062 Y0.966 E0.0097
G1 X-13.910 Y1.413 E0.0180
G1 X-13.702 Y1.836 E0.0180
G1 X-13.568 Y2.050 E0.0097
G1 X-13.421 Y2.256 E0.0097
G1 X-13.118 Y2.602 E0.0176
G1 X-12.925 Y2.782 E0.0101
G1 X-12.560 Y3.062 E0.0176
G1 X-12.336 Y3.202 E0.0101
G1 X-11.923 Y3.405 E0.0176
G1 X-11.676 Y3.498 E0.0101
G1 X-11.220 Y3.621 E0.0180
G1 X-10.753 Y3.682 E0.0180
G1 X-10.500 Y3.690 E0.0097
G1 X-10.247 Y3.682 E0.0097
; feature outer perimeter
G1 X-10.285 Y3.223 F9000
G1 X-9.873 Y3.169 E0.0159 F1200
G1 X-9.660 Y3.119 E0.0084
G1 X-9.267 Y2.986 E0.0159
G1 X-9.068 Y2.895 E0.0084
G1 X-8.709 Y2.688 E0.0159
G1 X-8.531 Y2.560 E0.0084
G1 X-8.216 Y2.284 E0.0160
G1 X-7.940 Y1.969 E0.0160
G1 X-7.812 Y1.791 E0.0084
G1 X-7.605 Y1.432 E0.0159
G1 X-7.514 Y1.233 E0.0084
G1 X-7.381 Y0.840 E0.0159
G1 X-7.332 Y0.630 E0.0082
G1 X-7.297 Y0.418 E0.0082
G1 X-7.270 Y0.000 E0.0160
G1 X-7.297 Y-0.418 E0.0160
G1 X-7.332 Y-0.630 E0.0082
G1 X-7.381 Y-0.840 E0.0082
G1 X-7.514 Y-1.233 E0.0159
G1 X-7.605 Y-1.432 E0.0084
G1 X-7.814 Y-1.795 E0.0160
G1 X-8.069 Y-2.127 E0.0160
G1 X-8.216 Y-2.284 E0.0082
G1 X-8.373 Y-2.431 E0.0082
G1 X-8.702 Y-2.684 E0.0159
G1 X-8.888 Y-2.799 E0.0084
G1 X-9.264 Y-2.985 E0.0160
G1 X-9.660 Y-3.119 E0.0160
G1 X-9.874 Y-3.169 E0.0084
G1 X-10.285 Y-3.223 E0.0159
G1 X-10.504 Y-3.230 E0.0084
G1 X-10.918 Y-3.203 E0.0159
G1 X-11.130 Y-3.168 E0.0082
G1 X-11.340 Y-3.119 E0.0082
G1 X-11.733 Y-2.986 E0.0159
G1 X-11.932 Y-2.895 E0.0084
G1 X-12.291 Y-2.688 E0.0159
G1 X-12.469 Y-2.560 E0.0084
G1 X-12.784 Y-2.284 E0.0160
G1 X-13.060 Y-1.969 E0.0160
