; G-Code generated by Simplify3D(R) Version 4.1.2
; Apr 6, 2020 at 11:49:49 AM
; Settings Summary
;   processName,Process1
;   applyToModels,Duff coaster
;   profileName,MakerBot Replicator 2 HBP (modified)
;   profileVersion,2020-03-12 10:48:50
;   baseProfile,MakerBot Replicator 2(2)
;   printMaterial,PLA
;   printQuality,Medium
;   printExtruders,
;   extruderName,Primary Extruder
;   extruderToolheadNumber,0
;   extruderDiameter,0.4
;   extruderAutoWidth,0
;   extruderWidth,0.4
;   extrusionMultiplier,1
;   extruderUseRetract,1
;   extruderRetractionDistance,1.9
;   extruderExtraRestartDistance,0
;   extruderRetractionZLift,0.5
;   extruderRetractionSpeed,1200
;   extruderUseCoasting,0
;   extruderCoastingDistance,0.2
;   extruderUseWipe,0
;   extruderWipeDistance,5
;   primaryExtruder,0
;   layerHeight,0.2
;   topSolidLayers,3
;   bottomSolidLayers,3
;   perimeterOutlines,3
;   printPerimetersInsideOut,1
;   startPointOption,3
;   startPointOriginX,0
;   startPointOriginY,150
;   sequentialIslands,0
;   spiralVaseMode,0
;   firstLayerHeightPercentage,100
;   firstLayerWidthPercentage,115
;   firstLayerUnderspeed,0.5
;   useRaft,0
;   raftExtruder,0
;   raftTopLayers,2
;   raftBaseLayers,1
;   raftOffset,1
;   raftSeparationDistance,0.14
;   raftTopInfill,90
;   aboveRaftSpeedMultiplier,0.3
;   useSkirt,0
;   skirtExtruder,0
;   skirtLayers,1
;   skirtOutlines,5
;   skirtOffset,0
;   usePrimePillar,0
;   primePillarExtruder,999
;   primePillarWidth,12
;   primePillarLocation,7
;   primePillarSpeedMultiplier,1
;   useOozeShield,0
;   oozeShieldExtruder,999
;   oozeShieldOffset,2
;   oozeShieldOutlines,1
;   oozeShieldSidewallShape,1
;   oozeShieldSidewallAngle,30
;   oozeShieldSpeedMultiplier,1
;   infillExtruder,0
;   internalInfillPattern,Rectilinear
;   externalInfillPattern,Rectilinear
;   infillPercentage,15
;   outlineOverlapPercentage,25
;   infillExtrusionWidthPercentage,100
;   minInfillLength,5
;   infillLayerInterval,1
;   internalInfillAngles,45,-45
;   overlapInternalInfillAngles,0
;   externalInfillAngles,45,-45
;   generateSupport,1
;   supportExtruder,0
;   supportInfillPercentage,5
;   supportExtraInflation,0.5
;   supportBaseLayers,0
;   denseSupportExtruder,0
;   denseSupportLayers,2
;   denseSupportInfillPercentage,90
;   supportLayerInterval,1
;   supportHorizontalPartOffset,0.3
;   supportUpperSeparationLayers,1
;   supportLowerSeparationLayers,1
;   supportType,1
;   supportGridSpacing,2
;   maxOverhangAngle,45
;   supportAngles,45,-45
;   temperatureName,Primary Extruder,Heated Build Platform
;   temperatureNumber,0,0
;   temperatureSetpointCount,1,1
;   temperatureSetpointLayers,1,1
;   temperatureSetpointTemperatures,230,60
;   temperatureStabilizeAtStartup,1,1
;   temperatureHeatedBed,0,1
;   fanLayers,1,2
;   fanSpeeds,0,100
;   blipFanToFullPower,1
;   adjustSpeedForCooling,1
;   minSpeedLayerTime,15
;   minCoolingSpeedSlowdown,20
;   increaseFanForCooling,1
;   minFanLayerTime,45
;   maxCoolingFanSpeed,100
;   increaseFanForBridging,1
;   bridgingFanSpeed,100
;   use5D,1
;   relativeEdistances,1
;   allowEaxisZeroing,0
;   independentExtruderAxes,1
;   includeM10123,0
;   stickySupport,1
;   applyToolheadOffsets,0
;   gcodeXoffset,0
;   gcodeYoffset,0
;   gcodeZoffset,0
;   overrideMachineDefinition,1
;   machineTypeOverride,0
;   strokeXoverride,280
;   strokeYoverride,150
;   strokeZoverride,150
;   originOffsetXoverride,140
;   originOffsetYoverride,75
;   originOffsetZoverride,0
;   homeXdirOverride,1
;   homeYdirOverride,1
;   homeZdirOverride,-1
;   flipXoverride,1
;   flipYoverride,-1
;   flipZoverride,1
;   toolheadOffsets,0,0|0,0|0,0|0,0|0,0|0,0
;   overrideFirmwareConfiguration,1
;   firmwareTypeOverride,MakerBot/Sailfish Firmware
;   GPXconfigOverride,r2h
;   baudRateOverride,115200
;   overridePrinterModels,1
;   printerModelsOverride,MakerBot_Replicator2.stl
;   startingGcode,; **** Replicator 2 start.gcode ****,M73 P0 ; enable build progress,G162 X Y F3000 ; home XY maximum,G161 Z F1200 ; home Z minimum,G92 Z-5 ; set Z to -5,G1 Z0 ; move Z to 0,G161 Z F100 ; home Z slowly,M132 X Y Z A B ; recall home offsets,G1 X-145 Y-75 Z30 F9000 ; move to wait position off table,G130 X20 Y20 Z20 A20 B20 ; lower stepper Vrefs while heating,M126 S[fan_speed_pwm],M140 S[bed0_temperature] T0,M134 T0 ; stabilize bed temperature,M104 S[extruder0_temperature] T0,M133 T0 ; stabilize extruder temperature,G130 X127 Y127 Z40 A127 B127 ; default stepper Vrefs,G92 A0 ; zero extruder,G1 Z0.4 ; position nozzle,G1 E25 F300 ; purge nozzle,G1 X-140 Y-70 Z0.15 F1200 ; slow wipe,G1 X-135 Y-65 Z0.5 F1200 ; lift,G92 A0 ; zero extruder,M73 P1 ;@body (notify GPX body has started),; **** end of start.gcode ****
;   layerChangeGcode,
;   retractionGcode,
;   toolChangeGcode,
;   endingGcode,; **** Replicator 2 end.gcode ****,M73 P100 ; end build progress,G1 Z155 F1000 ; send Z axis to bottom of machine,M104 S0 T0 ; cool down extruder,M140 S0 T0 ; cool down HBP,M127 ; stop blower fan,G162 X Y F3000 ; home XY maximum,M18 ; disable stepper,M0 ; stop codes,M72 P1 ; play Ta-Da song,; **** end of end.gcode ****
;   exportFileFormat,gcode
;   celebration,0
;   celebrationSong,Random Song
;   postProcessing,
;   defaultSpeed,4800
;   outlineUnderspeed,0.5
;   solidInfillUnderspeed,1
;   supportUnderspeed,1
;   rapidXYspeed,9000
;   rapidZspeed,1200
;   minBridgingArea,50
;   bridgingExtraInflation,0
;   bridgingExtrusionMultiplier,1
;   bridgingSpeedMultiplier,0.8
;   useFixedBridgingAngle,0
;   fixedBridgingAngle,0
;   applyBridgingToPerimeters,0
;   filamentDiameters,1.75|1.75|1.75|1.75|1.75|1.75
;   filamentPricesPerKg,46|46|46|46|46|46
;   filamentDensities,1.25|1.25|1.25|1.25|1.25|1.25
;   useMinPrintHeight,0
;   minPrintHeight,0
;   useMaxPrintHeight,0
;   maxPrintHeight,4.84
;   useDiaphragm,0
;   diaphragmLayerInterval,20
;   robustSlicing,1
;   mergeAllIntoSolid,0
;   onlyRetractWhenCrossingOutline,0
;   retractBetweenLayers,0
;   useRetractionMinTravel,1
;   retractionMinTravel,7
;   retractWhileWiping,1
;   onlyWipeOutlines,1
;   avoidCrossingOutline,0
;   maxMovementDetourFactor,3
;   toolChangeRetractionDistance,12
;   toolChangeExtraRestartDistance,-0.5
;   toolChangeRetractionSpeed,600
;   externalThinWallType,0
;   internalThinWallType,0
;   thinWallAllowedOverlapPercentage,10
;   singleExtrusionMinLength,1
;   singleExtrusionMinPrintingWidthPercentage,50
;   singleExtrusionMaxPrintingWidthPercentage,200
;   singleExtrusionEndpointExtension,0.2
;   horizontalSizeCompensation,0
G90
M83
; **** Replicator 2 start.gcode ****
M73 P0 ; enable build progress
G162 X Y F3000 ; home XY maximum
G161 Z F1200 ; home Z minimum
G92 Z-5 ; set Z to -5
G1 Z0 ; move Z to 0
G161 Z F100 ; home Z slowly
M132 X Y Z A B ; recall home offsets
G1 X-145 Y-75 Z30 F9000 ; move to wait position off table
G130 X20 Y20 Z20 A20 B20 ; lower stepper Vrefs while heating
M127
M140 S60 T0
M134 T0 ; stabilize bed temperature
M104 S230 T0
M133 T0 ; stabilize extruder temperature
G130 X127 Y127 Z40 A127 B127 ; default stepper Vrefs
G92 A0 ; zero extruder
G1 Z0.4 ; position nozzle
G1 E25 F300 ; purge nozzle
G1 X-140 Y-70 Z0.15 F1200 ; slow wipe
G1 X-135 Y-65 Z0.5 F1200 ; lift
G92 A0 ; zero extruder
M73 P1 ;@body (notify GPX body has started)
; **** end of start.gcode ****
; process Process1
; layer 1, Z = 0.200
M135 T0
G1 E-1.9000 F1200
; feature inner perimeter
; tool H0.200 W0.460
G1 Z0.500 F1200
G1 X0.000 Y28.098 F9000
G1 Z0.200 F1200
G1 E1.9000 F1200
G1 X-3.668 Y27.857 E0.1406 F1800
G1 X-7.272 Y27.140 E0.1406
G1 X-10.752 Y25.959 E0.1406
G1 X-14.049 Y24.333 E0.1406
G1 X-17.105 Y22.291 E0.1406
G1 X-19.868 Y19.868 E0.1406
G1 X-22.291 Y17.105 E0.1406
G1 X-24.333 Y14.049 E0.1406
G1 X-25.959 Y10.752 E0.1406
G1 X-27.140 Y7.272 E0.1406
G1 X-27.857 Y3.668 E0.1406
G1 X-28.098 Y0.000 E0.1406
G1 X-27.857 Y-3.668 E0.1406
G1 X-27.140 Y-7.272 E0.1406
G1 X-25.959 Y-10.752 E0.1406
G1 X-24.333 Y-14.049 E0.1406
G1 X-22.291 Y-17.105 E0.1406
G1 X-19.868 Y-19.868 E0.1406
G1 X-17.105 Y-22.291 E0.1406
G1 X-14.049 Y-24.333 E0.1406
G1 X-10.752 Y-25.959 E0.1406
G1 X-7.272 Y-27.140 E0.1406
G1 X-3.668 Y-27.857 E0.1406
G1 X0.000 Y-28.098 E0.1406
G1 X3.668 Y-27.857 E0.1406
G1 X7.272 Y-27.140 E0.1406
G1 X10.752 Y-25.959 E0.1406
G1 X14.049 Y-24.333 E0.1406
G1 X17.105 Y-22.291 E0.1406
G1 X19.868 Y-19.868 E0.1406
G1 X22.291 Y-17.105 E0.1406
G1 X24.333 Y-14.049 E0.1406
G1 X25.959 Y-10.752 E0.1406
G1 X27.140 Y-7.272 E0.1406
G1 X27.857 Y-3.668 E0.1406
G1 X28.098 Y0.000 E0.1406
G1 X27.857 Y3.668 E0.1406
G1 X27.140 Y7.272 E0.1406
G1 X25.959 Y10.752 E0.1406
G1 X24.333 Y14.049 E0.1406
G1 X22.291 Y17.105 E0.1406
G1 X19.868 Y19.868 E0.1406
G1 X17.105 Y22.291 E0.1406
G1 X14.049 Y24.333 E0.1406
G1 X10.752 Y25.959 E0.1406
G1 X7.272 Y27.140 E0.1406
G1 X3.668 Y27.857 E0.1406
G1 X0.000 Y28.098 E0.1406
G1 X0.000 Y28.559 F9000
G1 X-3.728 Y28.314 E0.1429 F1800
G1 X-7.391 Y27.585 E0.1429
G1 X-10.929 Y26.385 E0.1429
G1 X-14.279 Y24.732 E0.1429
G1 X-17.385 Y22.657 E0.1429
G1 X-20.194 Y20.194 E0.1429
G1 X-22.657 Y17.385 E0.1429
G1 X-24.732 Y14.279 E0.1429
G1 X-26.385 Y10.929 E0.1429
G1 X-27.585 Y7.391 E0.1429
G1 X-28.314 Y3.728 E0.1429
G1 X-28.559 Y0.000 E0.1429
G1 X-28.314 Y-3.728 E0.1429
G1 X-27.585 Y-7.391 E0.1429
G1 X-26.385 Y-10.929 E0.1429
G1 X-24.732 Y-14.279 E0.1429
G1 X-22.657 Y-17.385 E0.1429
G1 X-20.194 Y-20.194 E0.1429
G1 X-17.385 Y-22.657 E0.1429
G1 X-14.279 Y-24.732 E0.1429
G1 X-10.929 Y-26.385 E0.1429
G1 X-7.391 Y-27.585 E0.1429
G1 X-3.728 Y-28.314 E0.1429
G1 X0.000 Y-28.559 E0.1429
G1 X3.728 Y-28.314 E0.1429
G1 X7.392 Y-27.585 E0.1429
G1 X10.929 Y-26.385 E0.1429
G1 X14.279 Y-24.732 E0.1429
G1 X17.385 Y-22.657 E0.1429
G1 X20.194 Y-20.194 E0.1429
G1 X22.657 Y-17.385 E0.1429
G1 X24.732 Y-14.279 E0.1429
G1 X26.385 Y-10.929 E0.1429
G1 X27.585 Y-7.391 E0.1429
G1 X28.314 Y-3.728 E0.1429
G1 X28.558 Y0.000 E0.1429
G1 X28.314 Y3.728 E0.1429
G1 X27.585 Y7.391 E0.1429
G1 X26.385 Y10.929 E0.1429
G1 X24.732 Y14.279 E0.1429
G1 X22.657 Y17.385 E0.1429
G1 X20.194 Y20.194 E0.1429
G1 X17.385 Y22.657 E0.1429
G1 X14.279 Y24.732 E0.1429
G1 X10.929 Y26.385 E0.1429
G1 X7.391 Y27.585 E0.1429
G1 X3.728 Y28.314 E0.1429
G1 X0.000 Y28.559 E0.1429
; feature outer perimeter
G1 X0.000 Y29.020 F9000
G1 X-3.788 Y28.771 E0.1452 F1200
G1 X-7.511 Y28.031 E0.1452
G1 X-11.105 Y26.811 E0.1452
G1 X-14.510 Y25.132 E0.1452
G1 X-17.666 Y23.023 E0.1452
G1 X-20.520 Y20.520 E0.1452
G1 X-23.023 Y17.666 E0.1452
G1 X-25.132 Y14.510 E0.1452
G1 X-26.811 Y11.105 E0.1452
G1 X-28.031 Y7.511 E0.1452
G1 X-28.771 Y3.788 E0.1452
G1 X-29.020 Y0.000 E0.1452
G1 X-28.771 Y-3.788 E0.1452
G1 X-28.031 Y-7.511 E0.1452
G1 X-26.811 Y-11.105 E0.1452
G1 X-25.132 Y-14.510 E0.1452
G1 X-23.023 Y-17.666 E0.1452
G1 X-20.520 Y-20.520 E0.1452
G1 X-17.666 Y-23.023 E0.1452
G1 X-14.510 Y-25.132 E0.1452
G1 X-11.105 Y-26.811 E0.1452
G1 X-7.511 Y-28.031 E0.1452
G1 X-3.788 Y-28.771 E0.1452
G1 X0.000 Y-29.020 E0.1452
G1 X3.788 Y-28.771 E0.1452
G1 X7.511 Y-28.031 E0.1452
G1 X11.105 Y-26.811 E0.1452
G1 X14.510 Y-25.132 E0.1452
G1 X17.666 Y-23.023 E0.1452
G1 X20.520 Y-20.520 E0.1452
G1 X23.023 Y-17.666 E0.1452
G1 X25.132 Y-14.510 E0.1452
G1 X26.811 Y-11.105 E0.1452
G1 X28.031 Y-7.511 E0.1452
G1 X28.771 Y-3.788 E0.1452
G1 X29.019 Y0.000 E0.1452
G1 X28.771 Y3.788 E0.1452
G1 X28.031 Y7.511 E0.1452
G1 X26.811 Y11.105 E0.1452
G1 X25.132 Y14.510 E0.1452
G1 X23.023 Y17.666 E0.1452
G1 X20.520 Y20.520 E0.1452
G1 X17.666 Y23.023 E0.1452
G1 X14.510 Y25.132 E0.1452
G1 X11.105 Y26.811 E0.1452
G1 X7.511 Y28.031 E0.1452
G1 X3.788 Y28.771 E0.1452
G1 X0.000 Y29.020 E0.1452
G1 E-1.9000 F1200
; feature inner perimeter
G1 Z0.700 F1200
G1 X0.000 Y17.053 F9000
G1 Z0.200 F1200
G1 E1.9000 F1200
G1 X2.226 Y16.907 E0.0853 F1800
G1 X4.414 Y16.472 E0.0853
G1 X6.526 Y15.755 E0.0853
G1 X8.527 Y14.768 E0.0853
G1 X10.381 Y13.529 E0.0853
G1 X12.058 Y12.058 E0.0853
G1 X13.529 Y10.381 E0.0853
G1 X14.768 Y8.527 E0.0853
G1 X15.755 Y6.526 E0.0853
G1 X16.472 Y4.414 E0.0853
G1 X16.907 Y2.226 E0.0853
G1 X17.053 Y0.000 E0.0853
G1 X16.907 Y-2.226 E0.0853
G1 X16.472 Y-4.414 E0.0853
G1 X15.755 Y-6.526 E0.0853
G1 X14.768 Y-8.527 E0.0853
G1 X13.529 Y-10.381 E0.0853
G1 X12.058 Y-12.058 E0.0853
G1 X10.381 Y-13.529 E0.0853
G1 X8.527 Y-14.768 E0.0853
G1 X6.526 Y-15.755 E0.0853
G1 X4.414 Y-16.472 E0.0853
G1 X2.226 Y-16.907 E0.0853
G1 X0.000 Y-17.053 E0.0853
G1 X-2.226 Y-16.907 E0.0853
G1 X-4.414 Y-16.472 E0.0853
G1 X-6.526 Y-15.755 E0.0853
G1 X-8.527 Y-14.768 E0.0853
G1 X-10.381 Y-13.529 E0.0853
G1 X-12.058 Y-12.058 E0.0853
G1 X-13.529 Y-10.381 E0.0853
G1 X-14.768 Y-8.527 E0.0853
G1 X-15.755 Y-6.526 E0.0853
G1 X-16.472 Y-4.414 E0.0853
G1 X-16.907 Y-2.226 E0.0853
G1 X-17.053 Y0.000 E0.0853
G1 X-16.907 Y2.226 E0.0853
G1 X-16.472 Y4.414 E0.0853
G1 X-15.755 Y6.526 E0.0853
G1 X-14.768 Y8.527 E0.0853
G1 X-13.529 Y10.381 E0.0853
G1 X-12.058 Y12.058 E0.0853
G1 X-10.381 Y13.529 E0.0853
G1 X-8.527 Y14.768 E0.0853
G1 X-6.526 Y15.755 E0.0853
G1 X-4.414 Y16.472 E0.0853
G1 X-2.226 Y16.907 E0.0853
G1 X0.000 Y17.053 E0.0853
G1 X0.000 Y16.592 F9000
G1 X2.166 Y16.450 E0.0830 F1800
G1 X4.294 Y16.027 E0.0830
G1 X6.350 Y15.329 E0.0830
G1 X8.296 Y14.369 E0.0830
G1 X10.101 Y13.163 E0.0830
G1 X11.732 Y11.732 E0.0830
G1 X13.163 Y10.101 E0.0830
G1 X14.369 Y8.296 E0.0830
G1 X15.329 Y6.350 E0.0830
G1 X16.027 Y4.294 E0.0830
G1 X16.450 Y2.166 E0.0830
G1 X16.592 Y0.000 E0.0830
G1 X16.450 Y-2.166 E0.0830
G1 X16.027 Y-4.294 E0.0830
G1 X15.329 Y-6.350 E0.0830
G1 X14.369 Y-8.296 E0.0830
G1 X13.163 Y-10.101 E0.0830
G1 X11.732 Y-11.732 E0.0830
G1 X10.101 Y-13.163 E0.0830
G1 X8.296 Y-14.369 E0.0830
G1 X6.350 Y-15.329 E0.0830
G1 X4.294 Y-16.027 E0.0830
G1 X2.166 Y-16.450 E0.0830
G1 X0.000 Y-16.592 E0.0830
G1 X-2.166 Y-16.450 E0.0830
G1 X-4.294 Y-16.027 E0.0830
G1 X-6.349 Y-15.329 E0.0830
G1 X-8.296 Y-14.369 E0.0830
G1 X-10.101 Y-13.163 E0.0830
G1 X-11.732 Y-11.732 E0.0830
G1 X-13.163 Y-10.101 E0.0830
G1 X-14.369 Y-8.296 E0.0830
G1 X-15.329 Y-6.350 E0.0830
G1 X-16.027 Y-4.294 E0.0830
G1 X-16.450 Y-2.166 E0.0830
G1 X-16.592 Y0.000 E0.0830
G1 X-16.450 Y2.166 E0.0830
G1 X-16.027 Y4.294 E0.0830
G1 X-15.329 Y6.350 E0.0830
G1 X-14.369 Y8.296 E0.0830
G1 X-13.163 Y10.101 E0.0830
G1 X-11.732 Y11.732 E0.0830
G1 X-10.101 Y13.163 E0.0830
G1 X-8.296 Y14.369 E0.0830
G1 X-6.349 Y15.329 E0.0830
G1 X-4.294 Y16.027 E0.0830
G1 X-2.166 Y16.450 E0.0830
G1 X0.000 Y16.592 E0.0830
; feature outer perimeter
G1 X0.000 Y16.131 F9000
G1 X2.106 Y15.993 E0.0807 F1200
G1 X4.175 Y15.581 E0.0807
G1 X6.173 Y14.903 E0.0807
G1 X8.066 Y13.970 E0.0807
G1 X9.820 Y12.798 E0.0807
G1 X11.406 Y11.406 E0.0807
G1 X12.798 Y9.820 E0.0807
G1 X13.970 Y8.066 E0.0807
G1 X14.903 Y6.173 E0.0807
G1 X15.581 Y4.175 E0.0807
G1 X15.993 Y2.106 E0.0807
G1 X16.131 Y0.000 E0.0807
G1 X15.993 Y-2.106 E0.0807
G1 X15.582 Y-4.175 E0.0807
G1 X14.903 Y-6.173 E0.0807
G1 X13.970 Y-8.066 E0.0807
G1 X12.798 Y-9.820 E0.0807
G1 X11.406 Y-11.406 E0.0807
G1 X9.820 Y-12.798 E0.0807
G1 X8.066 Y-13.970 E0.0807
G1 X6.173 Y-14.903 E0.0807
G1 X4.175 Y-15.581 E0.0807
G1 X2.106 Y-15.993 E0.0807
G1 X0.000 Y-16.131 E0.0807
G1 X-2.106 Y-15.993 E0.0807
G1 X-4.175 Y-15.581 E0.0807
G1 X-6.173 Y-14.903 E0.0807
G1 X-8.066 Y-13.970 E0.0807
G1 X-9.820 Y-12.798 E0.0807
G1 X-11.406 Y-11.406 E0.0807
G1 X-12.798 Y-9.820 E0.0807
G1 X-13.970 Y-8.066 E0.0807
G1 X-14.903 Y-6.173 E0.0807
G1 X-15.581 Y-4.175 E0.0807
G1 X-15.993 Y-2.106 E0.0807
G1 X-16.131 Y0.000 E0.0807
G1 X-15.993 Y2.106 E0.0807
G1 X-15.581 Y4.175 E0.0807
G1 X-14.903 Y6.173 E0.0807
G1 X-13.970 Y8.066 E0.0807
G1 X-12.798 Y9.820 E0.0807
G1 X-11.406 Y11.406 E0.0807
G1 X-9.820 Y12.798 E0.0807
G1 X-8.066 Y13.970 E0.0807
G1 X-6.173 Y14.903 E0.0807
G1 X-4.175 Y15.581 E0.0807
G1 X-2.106 Y15.993 E0.0807
G1 X0.000 Y16.131 E0.0807
G1 E-1.9000 F1200
; feature solid layer
G1 Z0.700 F1200
G1 X-9.612 Y14.458 F9000
G1 Z0.200 F1200
G1 E1.9000 F1200
G1 X3.455 Y27.525 E0.7068 F2400
G1 X3.622 Y27.514 E0.0064
G1 X4.017 Y27.436 E0.0154
G1 X-8.013 Y15.406 E0.6507
G1 X-6.730 Y16.039 E0.0547
G1 X4.559 Y27.328 E0.6106
G1 X5.102 Y27.220 E0.0212
G1 X-5.728 Y16.390 E0.5858
