; G-Code generated by Simplify3D(R) Version 4.1.2
; Apr 2, 2020 at 1:13:07 PM
; Settings Summary
;   processName,Process1
;   applyToModels,BM66building
;   profileName,MakerBot Replicator 2 HBP (modified)
;   profileVersion,2020-03-12 10:48:50
;   baseProfile,MakerBot Replicator 2(2)
;   printMaterial,PLA
;   printQuality,Medium
;   printExtruders,
;   extruderName,Primary Extruder
;   extruderToolheadNumber,0
;   extruderDiameter,0.4
;   extruderAutoWidth,0
;   extruderWidth,0.4
;   extrusionMultiplier,1
;   extruderUseRetract,1
;   extruderRetractionDistance,1.9
;   extruderExtraRestartDistance,0
;   extruderRetractionZLift,0.5
;   extruderRetractionSpeed,1200
;   extruderUseCoasting,0
;   extruderCoastingDistance,0.2
;   extruderUseWipe,0
;   extruderWipeDistance,5
;   primaryExtruder,0
;   layerHeight,0.2
;   topSolidLayers,3
;   bottomSolidLayers,3
;   perimeterOutlines,2
;   printPerimetersInsideOut,1
;   startPointOption,3
;   startPointOriginX,0
;   startPointOriginY,150
;   sequentialIslands,0
;   spiralVaseMode,0
;   firstLayerHeightPercentage,100
;   firstLayerWidthPercentage,115
;   firstLayerUnderspeed,0.5
;   useRaft,0
;   raftExtruder,0
;   raftTopLayers,2
;   raftBaseLayers,1
;   raftOffset,1
;   raftSeparationDistance,0.14
;   raftTopInfill,90
;   aboveRaftSpeedMultiplier,0.3
;   useSkirt,0
;   skirtExtruder,0
;   skirtLayers,1
;   skirtOutlines,5
;   skirtOffset,0
;   usePrimePillar,0
;   primePillarExtruder,999
;   primePillarWidth,12
;   primePillarLocation,7
;   primePillarSpeedMultiplier,1
;   useOozeShield,0
;   oozeShieldExtruder,999
;   oozeShieldOffset,2
;   oozeShieldOutlines,1
;   oozeShieldSidewallShape,1
;   oozeShieldSidewallAngle,30
;   oozeShieldSpeedMultiplier,1
;   infillExtruder,0
;   internalInfillPattern,Rectilinear
;   externalInfillPattern,Rectilinear
;   infillPercentage,15
;   outlineOverlapPercentage,25
;   infillExtrusionWidthPercentage,100
;   minInfillLength,5
;   infillLayerInterval,1
;   internalInfillAngles,45,-45
;   overlapInternalInfillAngles,0
;   externalInfillAngles,45,-45
;   generateSupport,0
;   supportExtruder,0
;   supportInfillPercentage,30
;   supportExtraInflation,0.5
;   supportBaseLayers,0
;   denseSupportExtruder,0
;   denseSupportLayers,2
;   denseSupportInfillPercentage,90
;   supportLayerInterval,1
;   supportHorizontalPartOffset,0.3
;   supportUpperSeparationLayers,1
;   supportLowerSeparationLayers,1
;   supportType,1
;   supportGridSpacing,2
;   maxOverhangAngle,45
;   supportAngles,45,-45
;   temperatureName,Primary Extruder,Heated Build Platform
;   temperatureNumber,0,0
;   temperatureSetpointCount,1,1
;   temperatureSetpointLayers,1,1
;   temperatureSetpointTemperatures,230,60
;   temperatureStabilizeAtStartup,1,1
;   temperatureHeatedBed,0,1
;   fanLayers,1,2
;   fanSpeeds,0,100
;   blipFanToFullPower,1
;   adjustSpeedForCooling,1
;   minSpeedLayerTime,15
;   minCoolingSpeedSlowdown,20
;   increaseFanForCooling,1
;   minFanLayerTime,45
;   maxCoolingFanSpeed,100
;   increaseFanForBridging,1
;   bridgingFanSpeed,100
;   use5D,1
;   relativeEdistances,1
;   allowEaxisZeroing,0
;   independentExtruderAxes,1
;   includeM10123,0
;   stickySupport,1
;   applyToolheadOffsets,0
;   gcodeXoffset,0
;   gcodeYoffset,0
;   gcodeZoffset,0
;   overrideMachineDefinition,1
;   machineTypeOverride,0
;   strokeXoverride,280
;   strokeYoverride,150
;   strokeZoverride,150
;   originOffsetXoverride,140
;   originOffsetYoverride,75
;   originOffsetZoverride,0
;   homeXdirOverride,1
;   homeYdirOverride,1
;   homeZdirOverride,-1
;   flipXoverride,1
;   flipYoverride,-1
;   flipZoverride,1
;   toolheadOffsets,0,0|0,0|0,0|0,0|0,0|0,0
;   overrideFirmwareConfiguration,1
;   firmwareTypeOverride,MakerBot/Sailfish Firmware
;   GPXconfigOverride,r2h
;   baudRateOverride,115200
;   overridePrinterModels,1
;   printerModelsOverride,MakerBot_Replicator2.stl
;   startingGcode,; **** Replicator 2 start.gcode ****,M73 P0 ; enable build progress,G162 X Y F3000 ; home XY maximum,G161 Z F1200 ; home Z minimum,G92 Z-5 ; set Z to -5,G1 Z0 ; move Z to 0,G161 Z F100 ; home Z slowly,M132 X Y Z A B ; recall home offsets,G1 X-145 Y-75 Z30 F9000 ; move to wait position off table,G130 X20 Y20 Z20 A20 B20 ; lower stepper Vrefs while heating,M126 S[fan_speed_pwm],M140 S[bed0_temperature] T0,M134 T0 ; stabilize bed temperature,M104 S[extruder0_temperature] T0,M133 T0 ; stabilize extruder temperature,G130 X127 Y127 Z40 A127 B127 ; default stepper Vrefs,G92 A0 ; zero extruder,G1 Z0.4 ; position nozzle,G1 E25 F300 ; purge nozzle,G1 X-140 Y-70 Z0.15 F1200 ; slow wipe,G1 X-135 Y-65 Z0.5 F1200 ; lift,G92 A0 ; zero extruder,M73 P1 ;@body (notify GPX body has started),; **** end of start.gcode ****
;   layerChangeGcode,
;   retractionGcode,
;   toolChangeGcode,
;   endingGcode,; **** Replicator 2 end.gcode ****,M73 P100 ; end build progress,G1 Z155 F1000 ; send Z axis to bottom of machine,M104 S0 T0 ; cool down extruder,M140 S0 T0 ; cool down HBP,M127 ; stop blower fan,G162 X Y F3000 ; home XY maximum,M18 ; disable stepper,M0 ; stop codes,M72 P1 ; play Ta-Da song,; **** end of end.gcode ****
;   exportFileFormat,gcode
;   celebration,0
;   celebrationSong,Random Song
;   postProcessing,
;   defaultSpeed,4800
;   outlineUnderspeed,0.5
;   solidInfillUnderspeed,1
;   supportUnderspeed,1
;   rapidXYspeed,9000
;   rapidZspeed,1200
;   minBridgingArea,50
;   bridgingExtraInflation,0
;   bridgingExtrusionMultiplier,1
;   bridgingSpeedMultiplier,0.8
;   useFixedBridgingAngle,0
;   fixedBridgingAngle,0
;   applyBridgingToPerimeters,0
;   filamentDiameters,1.75|1.75|1.75|1.75|1.75|1.75
;   filamentPricesPerKg,46|46|46|46|46|46
;   filamentDensities,1.25|1.25|1.25|1.25|1.25|1.25
;   useMinPrintHeight,0
;   minPrintHeight,0
;   useMaxPrintHeight,0
;   maxPrintHeight,4.84
;   useDiaphragm,0
;   diaphragmLayerInterval,20
;   robustSlicing,1
;   mergeAllIntoSolid,0
;   onlyRetractWhenCrossingOutline,0
;   retractBetweenLayers,0
;   useRetractionMinTravel,1
;   retractionMinTravel,7
;   retractWhileWiping,1
;   onlyWipeOutlines,1
;   avoidCrossingOutline,0
;   maxMovementDetourFactor,3
;   toolChangeRetractionDistance,12
;   toolChangeExtraRestartDistance,-0.5
;   toolChangeRetractionSpeed,600
;   externalThinWallType,0
;   internalThinWallType,0
;   thinWallAllowedOverlapPercentage,10
;   singleExtrusionMinLength,1
;   singleExtrusionMinPrintingWidthPercentage,50
;   singleExtrusionMaxPrintingWidthPercentage,200
;   singleExtrusionEndpointExtension,0.2
;   horizontalSizeCompensation,0
G90
M83
; **** Replicator 2 start.gcode ****
M73 P0 ; enable build progress
G162 X Y F3000 ; home XY maximum
G161 Z F1200 ; home Z minimum
G92 Z-5 ; set Z to -5
G1 Z0 ; move Z to 0
G161 Z F100 ; home Z slowly
M132 X Y Z A B ; recall home offsets
G1 X-145 Y-75 Z30 F9000 ; move to wait position off table
G130 X20 Y20 Z20 A20 B20 ; lower stepper Vrefs while heating
M127
M140 S60 T0
M134 T0 ; stabilize bed temperature
M104 S230 T0
M133 T0 ; stabilize extruder temperature
G130 X127 Y127 Z40 A127 B127 ; default stepper Vrefs
G92 A0 ; zero extruder
G1 Z0.4 ; position nozzle
G1 E25 F300 ; purge nozzle
G1 X-140 Y-70 Z0.15 F1200 ; slow wipe
G1 X-135 Y-65 Z0.5 F1200 ; lift
G92 A0 ; zero extruder
M73 P1 ;@body (notify GPX body has started)
; **** end of start.gcode ****
; process Process1
; layer 1, Z = 0.200
M135 T0
G1 E-1.9000 F1200
; feature inner perimeter
; tool H0.200 W0.460
G1 Z0.500 F1200
G1 X79.311 Y39.810 F9000
G1 Z0.200 F1200
G1 E1.9000 F1200
G1 X-79.311 Y39.810 E6.0672 F1800
G1 X-79.311 Y-32.954 E2.7832
G1 X-78.807 Y-33.402 E0.0258
G1 X62.782 Y-33.402 E5.4156
G1 X62.782 Y-39.634 E0.2384
G1 X62.784 Y-39.645 E0.0004
G1 X63.173 Y-39.785 E0.0158
G1 X64.366 Y-39.810 E0.0457
G1 X79.311 Y-39.810 E0.5716
G1 X79.311 Y39.810 E3.0454
; feature outer perimeter
G1 X79.771 Y40.270 F9000
G1 X-79.771 Y40.270 E6.1024 F1200
G1 X-79.771 Y-33.161 E2.8087
G1 X-78.981 Y-33.862 E0.0404
G1 X62.322 Y-33.862 E5.4047
G1 X62.322 Y-39.670 E0.2222
G1 X62.373 Y-39.985 E0.0122
G1 X63.087 Y-40.244 E0.0291
G1 X64.362 Y-40.270 E0.0488
G1 X79.771 Y-40.270 E0.5894
G1 X79.771 Y40.270 E3.0806
; feature inner perimeter
G1 X78.524 Y39.022 F9000
G1 X78.524 Y-39.022 E2.9851 F1800
G1 X64.616 Y-39.022 E0.5320
G1 X63.570 Y-38.648 E0.0425
G1 X63.570 Y-4.337 E1.3124
G1 X63.620 Y0.282 E0.1767
G1 X62.361 Y0.406 E0.0484
G1 X60.847 Y0.865 E0.0605
G1 X59.452 Y1.611 E0.0605
G1 X58.229 Y2.614 E0.0605
G1 X57.225 Y3.837 E0.0605
G1 X56.479 Y5.233 E0.0605
G1 X56.020 Y6.747 E0.0605
G1 X55.865 Y8.321 E0.0605
G1 X56.020 Y9.896 E0.0605
G1 X56.479 Y11.410 E0.0605
G1 X57.225 Y12.806 E0.0605
G1 X58.229 Y14.029 E0.0605
G1 X59.452 Y15.032 E0.0605
G1 X60.847 Y15.778 E0.0605
G1 X62.361 Y16.237 E0.0605
G1 X63.576 Y16.357 E0.0467
G1 X63.571 Y20.098 E0.1431
G1 X31.240 Y20.098 E1.2366
G1 X31.240 Y17.060 E0.1162
G1 X27.779 Y17.060 E0.1324
G1 X27.779 Y8.382 E0.3319
G1 X-32.262 Y8.383 E2.2965
G1 X-32.262 Y38.690 E1.1592
G1 X27.779 Y38.690 E2.2965
G1 X27.779 Y28.363 E0.3950
G1 X31.240 Y28.363 E0.1324
G1 X31.240 Y24.920 E0.1317
G1 X63.570 Y24.921 E1.2366
G1 X63.570 Y39.022 E0.5394
G1 X78.524 Y39.022 E0.5720
; feature outer perimeter
G1 X78.064 Y38.562 F9000
G1 X78.064 Y-38.562 E2.9499 F1200
G1 X64.696 Y-38.562 E0.5113
G1 X64.030 Y-38.324 E0.0271
G1 X64.030 Y-4.340 E1.2999
G1 X64.085 Y0.727 E0.1938
G1 X63.936 Y0.713 E0.0057
G1 X62.451 Y0.859 E0.0571
G1 X61.024 Y1.292 E0.0571
G1 X59.708 Y1.995 E0.0571
G1 X58.555 Y2.941 E0.0571
G1 X57.609 Y4.094 E0.0571
G1 X56.906 Y5.410 E0.0571
G1 X56.473 Y6.837 E0.0571
G1 X56.327 Y8.321 E0.0571
G1 X56.473 Y9.806 E0.0571
G1 X56.906 Y11.233 E0.0571
G1 X57.609 Y12.549 E0.0571
G1 X58.555 Y13.702 E0.0571
G1 X59.708 Y14.648 E0.0571
G1 X61.024 Y15.351 E0.0571
G1 X62.451 Y15.784 E0.0571
G1 X63.936 Y15.930 E0.0571
G1 X64.037 Y15.920 E0.0039
G1 X64.030 Y20.558 E0.1774
G1 X30.780 Y20.558 E1.2718
G1 X30.780 Y17.520 E0.1162
G1 X27.319 Y17.520 E0.1324
G1 X27.319 Y8.842 E0.3319
G1 X-31.802 Y8.843 E2.2613
G1 X-31.802 Y38.230 E1.1240
G1 X27.319 Y38.230 E2.2613
G1 X27.319 Y27.903 E0.3950
G1 X30.780 Y27.903 E0.1324
G1 X30.780 Y24.460 E0.1317
G1 X64.030 Y24.461 E1.2718
G1 X64.030 Y38.562 E0.5394
G1 X78.064 Y38.562 E0.5368
G1 E-1.9000 F1200
; feature solid layer
G1 Z0.700 F1200
G1 X63.225 Y25.494 F9000
G1 Z0.200 F1200
G1 E1.9000 F1200
G1 X62.997 Y25.266 E0.0123 F2400
G1 X62.346 Y25.266 E0.0249
G1 X63.225 Y26.144 E0.0475
G1 X63.225 Y26.795 E0.0249
G1 X61.696 Y25.266 E0.0827
G1 X61.045 Y25.266 E0.0249
G1 X63.225 Y27.445 E0.1179
G1 X63.225 Y28.096 E0.0249
G1 X60.395 Y25.266 E0.1531
G1 X59.744 Y25.266 E0.0249
G1 X63.225 Y28.746 E0.1883
G1 X63.225 Y29.397 E0.0249
G1 X59.094 Y25.266 E0.2235
G1 X58.443 Y25.266 E0.0249
G1 X63.225 Y30.047 E0.2587
G1 X63.225 Y30.698 E0.0249
G1 X57.793 Y25.266 E0.2938
G1 X57.142 Y25.266 E0.0249
G1 X63.225 Y31.348 E0.3290
G1 X63.225 Y31.999 E0.0249
G1 X56.491 Y25.266 E0.3642
G1 X55.841 Y25.266 E0.0249
G1 X63.225 Y32.650 E0.3994
G1 X63.225 Y33.300 E0.0249
G1 X55.190 Y25.266 E0.4346
G1 X54.540 Y25.266 E0.0249
G1 X63.225 Y33.951 E0.4698
G1 X63.225 Y34.601 E0.0249
G1 X53.889 Y25.266 E0.5050
G1 X53.239 Y25.266 E0.0249
G1 X63.225 Y35.252 E0.5402
G1 X63.225 Y35.902 E0.0249
G1 X52.588 Y25.266 E0.5754
G1 X51.938 Y25.266 E0.0249
G1 X63.225 Y36.553 E0.6106
G1 X63.225 Y37.203 E0.0249
G1 X51.287 Y25.266 E0.6457
G1 X50.637 Y25.266 E0.0249
G1 X63.225 Y37.854 E0.6809
G1 X63.225 Y38.504 E0.0249
G1 X49.986 Y25.266 E0.7161
G1 X49.335 Y25.266 E0.0249
G1 X63.225 Y39.155 E0.7513
G1 X63.225 Y39.367 E0.0081
G1 X63.437 Y39.367 E0.0081
G1 X63.535 Y39.465 E0.0053
G1 X64.185 Y39.465 E0.0249
G1 X64.088 Y39.367 E0.0053
G1 X64.738 Y39.367 E0.0249
G1 X64.836 Y39.465 E0.0053
G1 X65.487 Y39.465 E0.0249
G1 X65.389 Y39.367 E0.0053
G1 X66.039 Y39.367 E0.0249
G1 X66.137 Y39.465 E0.0053
G1 X66.788 Y39.465 E0.0249
G1 X66.690 Y39.367 E0.0053
G1 X67.340 Y39.367 E0.0249
G1 X67.438 Y39.465 E0.0053
G1 X68.089 Y39.465 E0.0249
G1 X67.991 Y39.367 E0.0053
G1 X68.641 Y39.367 E0.0249
G1 X68.739 Y39.465 E0.0053
G1 X69.390 Y39.465 E0.0249
G1 X69.292 Y39.367 E0.0053
G1 X69.943 Y39.367 E0.0249
G1 X70.040 Y39.465 E0.0053
G1 X70.691 Y39.465 E0.0249
G1 X70.593 Y39.367 E0.0053
G1 X71.244 Y39.367 E0.0249
G1 X71.341 Y39.465 E0.0053
G1 X71.992 Y39.465 E0.0249
G1 X71.894 Y39.367 E0.0053
G1 X72.545 Y39.367 E0.0249
G1 X72.642 Y39.465 E0.0053
G1 X73.293 Y39.465 E0.0249
G1 X73.195 Y39.367 E0.0053
G1 X73.846 Y39.367 E0.0249
G1 X73.944 Y39.465 E0.0053
G1 X74.594 Y39.465 E0.0249
G1 X74.496 Y39.367 E0.0053
G1 X75.147 Y39.367 E0.0249
G1 X75.245 Y39.465 E0.0053
G1 X75.895 Y39.465 E0.0249
G1 X75.797 Y39.367 E0.0053
G1 X76.448 Y39.367 E0.0249
G1 X76.546 Y39.465 E0.0053
G1 X77.196 Y39.465 E0.0249
G1 X77.098 Y39.367 E0.0053
G1 X77.749 Y39.367 E0.0249
G1 X77.847 Y39.465 E0.0053
G1 X78.497 Y39.465 E0.0249
G1 X78.400 Y39.367 E0.0053
G1 X78.869 Y39.367 E0.0179
G1 X78.869 Y39.186 E0.0069
G1 X78.966 Y39.284 E0.0053
G1 X78.966 Y38.633 E0.0249
G1 X78.869 Y38.535 E0.0053
G1 X78.869 Y37.885 E0.0249
G1 X78.966 Y37.983 E0.0053
G1 X78.966 Y37.332 E0.0249
G1 X78.869 Y37.234 E0.0053
G1 X78.869 Y36.584 E0.0249
G1 X78.966 Y36.681 E0.0053
G1 X78.966 Y36.031 E0.0249
G1 X78.869 Y35.933 E0.0053
G1 X78.869 Y35.283 E0.0249
G1 X78.966 Y35.380 E0.0053
G1 X78.966 Y34.730 E0.0249
G1 X78.869 Y34.632 E0.0053
G1 X78.869 Y33.981 E0.0249
G1 X78.966 Y34.079 E0.0053
G1 X78.966 Y33.429 E0.0249
G1 X78.869 Y33.331 E0.0053
G1 X78.869 Y32.680 E0.0249
G1 X78.966 Y32.778 E0.0053
G1 X78.966 Y32.128 E0.0249
G1 X78.869 Y32.030 E0.0053
G1 X78.869 Y31.379 E0.0249
G1 X78.966 Y31.477 E0.0053
G1 X78.966 Y30.827 E0.0249
G1 X78.869 Y30.729 E0.0053
G1 X78.869 Y30.078 E0.0249
G1 X78.966 Y30.176 E0.0053
G1 X78.966 Y29.526 E0.0249
G1 X78.869 Y29.428 E0.0053
G1 X78.869 Y28.777 E0.0249
G1 X78.966 Y28.875 E0.0053
G1 X78.966 Y28.224 E0.0249
G1 X78.869 Y28.127 E0.0053
G1 X78.869 Y27.476 E0.0249
G1 X78.966 Y27.574 E0.0053
G1 X78.966 Y26.923 E0.0249
G1 X78.869 Y26.826 E0.0053
G1 X78.869 Y26.175 E0.0249
G1 X78.966 Y26.273 E0.0053
G1 X78.966 Y25.622 E0.0249
G1 X78.869 Y25.524 E0.0053
G1 X78.869 Y24.874 E0.0249
G1 X78.966 Y24.972 E0.0053
G1 X78.966 Y24.321 E0.0249
G1 X78.869 Y24.223 E0.0053
G1 X78.869 Y23.573 E0.0249
G1 X78.966 Y23.671 E0.0053
G1 X78.966 Y23.020 E0.0249
G1 X78.869 Y22.922 E0.0053
G1 X78.869 Y22.272 E0.0249
G1 X78.966 Y22.370 E0.0053
G1 X78.966 Y21.719 E0.0249
G1 X78.869 Y21.621 E0.0053
G1 X78.869 Y20.971 E0.0249
G1 X78.966 Y21.069 E0.0053
G1 X78.966 Y20.418 E0.0249
G1 X78.869 Y20.320 E0.0053
G1 X78.869 Y19.670 E0.0249
G1 X78.966 Y19.767 E0.0053
G1 X78.966 Y19.117 E0.0249
G1 X78.869 Y19.019 E0.0053
G1 X78.869 Y18.369 E0.0249
G1 X78.966 Y18.466 E0.0053
G1 X78.966 Y17.816 E0.0249
G1 X78.869 Y17.718 E0.0053
G1 X78.869 Y17.067 E0.0249
G1 X78.966 Y17.165 E0.0053
G1 X78.966 Y16.515 E0.0249
G1 X78.869 Y16.417 E0.0053
G1 X78.869 Y15.766 E0.0249
G1 X78.966 Y15.864 E0.0053
G1 X78.966 Y15.214 E0.0249
G1 X78.869 Y15.116 E0.0053
G1 X78.869 Y14.465 E0.0249
G1 X78.966 Y14.563 E0.0053
G1 X78.966 Y13.913 E0.0249
G1 X78.869 Y13.815 E0.0053
G1 X78.869 Y13.164 E0.0249
G1 X78.966 Y13.262 E0.0053
G1 X78.966 Y12.612 E0.0249
G1 X78.869 Y12.514 E0.0053
G1 X78.869 Y11.863 E0.0249
G1 X78.966 Y11.961 E0.0053
G1 X78.966 Y11.310 E0.0249
G1 X78.869 Y11.213 E0.0053
G1 X78.869 Y10.562 E0.0249
G1 X78.966 Y10.660 E0.0053
G1 X78.966 Y10.009 E0.0249
G1 X78.869 Y9.912 E0.0053
G1 X78.869 Y9.261 E0.0249
G1 X78.966 Y9.359 E0.0053
G1 X78.966 Y8.708 E0.0249
G1 X78.869 Y8.610 E0.0053
G1 X78.869 Y7.960 E0.0249
G1 X78.966 Y8.058 E0.0053
G1 X78.966 Y7.407 E0.0249
G1 X78.869 Y7.309 E0.0053
G1 X78.869 Y6.659 E0.0249
G1 X78.966 Y6.757 E0.0053
G1 X78.966 Y6.106 E0.0249
G1 X78.869 Y6.008 E0.0053
G1 X78.869 Y5.358 E0.0249
G1 X78.966 Y5.456 E0.0053
G1 X78.966 Y4.805 E0.0249
G1 X78.869 Y4.707 E0.0053
G1 X78.869 Y4.057 E0.0249
G1 X78.966 Y4.155 E0.0053
G1 X78.966 Y3.504 E0.0249
G1 X78.869 Y3.406 E0.0053
G1 X78.869 Y2.756 E0.0249
G1 X78.966 Y2.853 E0.0053
G1 X78.966 Y2.203 E0.0249
G1 X78.869 Y2.105 E0.0053
G1 X78.869 Y1.455 E0.0249
G1 X78.966 Y1.552 E0.0053
G1 X78.966 Y0.902 E0.0249
G1 X78.869 Y0.804 E0.0053
