; G-Code generated by Simplify3D(R) Version 4.1.2
; Apr 2, 2020 at 1:14:34 PM
; Settings Summary
;   processName,Process1
;   applyToModels,BM66_CraneLight
;   profileName,MakerBot Replicator 2 HBP (modified)
;   profileVersion,2020-03-12 10:48:50
;   baseProfile,MakerBot Replicator 2(2)
;   printMaterial,PLA
;   printQuality,Medium
;   printExtruders,
;   extruderName,Primary Extruder
;   extruderToolheadNumber,0
;   extruderDiameter,0.4
;   extruderAutoWidth,0
;   extruderWidth,0.4
;   extrusionMultiplier,1
;   extruderUseRetract,1
;   extruderRetractionDistance,1.9
;   extruderExtraRestartDistance,0
;   extruderRetractionZLift,0.5
;   extruderRetractionSpeed,1200
;   extruderUseCoasting,0
;   extruderCoastingDistance,0.2
;   extruderUseWipe,0
;   extruderWipeDistance,5
;   primaryExtruder,0
;   layerHeight,0.2
;   topSolidLayers,3
;   bottomSolidLayers,3
;   perimeterOutlines,2
;   printPerimetersInsideOut,1
;   startPointOption,3
;   startPointOriginX,0
;   startPointOriginY,150
;   sequentialIslands,0
;   spiralVaseMode,0
;   firstLayerHeightPercentage,100
;   firstLayerWidthPercentage,115
;   firstLayerUnderspeed,0.5
;   useRaft,0
;   raftExtruder,0
;   raftTopLayers,2
;   raftBaseLayers,1
;   raftOffset,1
;   raftSeparationDistance,0.14
;   raftTopInfill,90
;   aboveRaftSpeedMultiplier,0.3
;   useSkirt,0
;   skirtExtruder,0
;   skirtLayers,1
;   skirtOutlines,5
;   skirtOffset,0
;   usePrimePillar,0
;   primePillarExtruder,999
;   primePillarWidth,12
;   primePillarLocation,7
;   primePillarSpeedMultiplier,1
;   useOozeShield,0
;   oozeShieldExtruder,999
;   oozeShieldOffset,2
;   oozeShieldOutlines,1
;   oozeShieldSidewallShape,1
;   oozeShieldSidewallAngle,30
;   oozeShieldSpeedMultiplier,1
;   infillExtruder,0
;   internalInfillPattern,Rectilinear
;   externalInfillPattern,Rectilinear
;   infillPercentage,15
;   outlineOverlapPercentage,25
;   infillExtrusionWidthPercentage,100
;   minInfillLength,5
;   infillLayerInterval,1
;   internalInfillAngles,45,-45
;   overlapInternalInfillAngles,0
;   externalInfillAngles,45,-45
;   generateSupport,0
;   supportExtruder,0
;   supportInfillPercentage,30
;   supportExtraInflation,0.5
;   supportBaseLayers,0
;   denseSupportExtruder,0
;   denseSupportLayers,2
;   denseSupportInfillPercentage,90
;   supportLayerInterval,1
;   supportHorizontalPartOffset,0.3
;   supportUpperSeparationLayers,1
;   supportLowerSeparationLayers,1
;   supportType,1
;   supportGridSpacing,2
;   maxOverhangAngle,45
;   supportAngles,45,-45
;   temperatureName,Primary Extruder,Heated Build Platform
;   temperatureNumber,0,0
;   temperatureSetpointCount,1,1
;   temperatureSetpointLayers,1,1
;   temperatureSetpointTemperatures,230,60
;   temperatureStabilizeAtStartup,1,1
;   temperatureHeatedBed,0,1
;   fanLayers,1,2
;   fanSpeeds,0,100
;   blipFanToFullPower,1
;   adjustSpeedForCooling,1
;   minSpeedLayerTime,15
;   minCoolingSpeedSlowdown,20
;   increaseFanForCooling,1
;   minFanLayerTime,45
;   maxCoolingFanSpeed,100
;   increaseFanForBridging,1
;   bridgingFanSpeed,100
;   use5D,1
;   relativeEdistances,1
;   allowEaxisZeroing,0
;   independentExtruderAxes,1
;   includeM10123,0
;   stickySupport,1
;   applyToolheadOffsets,0
;   gcodeXoffset,0
;   gcodeYoffset,0
;   gcodeZoffset,0
;   overrideMachineDefinition,1
;   machineTypeOverride,0
;   strokeXoverride,280
;   strokeYoverride,150
;   strokeZoverride,150
;   originOffsetXoverride,140
;   originOffsetYoverride,75
;   originOffsetZoverride,0
;   homeXdirOverride,1
;   homeYdirOverride,1
;   homeZdirOverride,-1
;   flipXoverride,1
;   flipYoverride,-1
;   flipZoverride,1
;   toolheadOffsets,0,0|0,0|0,0|0,0|0,0|0,0
;   overrideFirmwareConfiguration,1
;   firmwareTypeOverride,MakerBot/Sailfish Firmware
;   GPXconfigOverride,r2h
;   baudRateOverride,115200
;   overridePrinterModels,1
;   printerModelsOverride,MakerBot_Replicator2.stl
;   startingGcode,; **** Replicator 2 start.gcode ****,M73 P0 ; enable build progress,G162 X Y F3000 ; home XY maximum,G161 Z F1200 ; home Z minimum,G92 Z-5 ; set Z to -5,G1 Z0 ; move Z to 0,G161 Z F100 ; home Z slowly,M132 X Y Z A B ; recall home offsets,G1 X-145 Y-75 Z30 F9000 ; move to wait position off table,G130 X20 Y20 Z20 A20 B20 ; lower stepper Vrefs while heating,M126 S[fan_speed_pwm],M140 S[bed0_temperature] T0,M134 T0 ; stabilize bed temperature,M104 S[extruder0_temperature] T0,M133 T0 ; stabilize extruder temperature,G130 X127 Y127 Z40 A127 B127 ; default stepper Vrefs,G92 A0 ; zero extruder,G1 Z0.4 ; position nozzle,G1 E25 F300 ; purge nozzle,G1 X-140 Y-70 Z0.15 F1200 ; slow wipe,G1 X-135 Y-65 Z0.5 F1200 ; lift,G92 A0 ; zero extruder,M73 P1 ;@body (notify GPX body has started),; **** end of start.gcode ****
;   layerChangeGcode,
;   retractionGcode,
;   toolChangeGcode,
;   endingGcode,; **** Replicator 2 end.gcode ****,M73 P100 ; end build progress,G1 Z155 F1000 ; send Z axis to bottom of machine,M104 S0 T0 ; cool down extruder,M140 S0 T0 ; cool down HBP,M127 ; stop blower fan,G162 X Y F3000 ; home XY maximum,M18 ; disable stepper,M0 ; stop codes,M72 P1 ; play Ta-Da song,; **** end of end.gcode ****
;   exportFileFormat,gcode
;   celebration,0
;   celebrationSong,Random Song
;   postProcessing,
;   defaultSpeed,4800
;   outlineUnderspeed,0.5
;   solidInfillUnderspeed,1
;   supportUnderspeed,1
;   rapidXYspeed,9000
;   rapidZspeed,1200
;   minBridgingArea,50
;   bridgingExtraInflation,0
;   bridgingExtrusionMultiplier,1
;   bridgingSpeedMultiplier,0.8
;   useFixedBridgingAngle,0
;   fixedBridgingAngle,0
;   applyBridgingToPerimeters,0
;   filamentDiameters,1.75|1.75|1.75|1.75|1.75|1.75
;   filamentPricesPerKg,46|46|46|46|46|46
;   filamentDensities,1.25|1.25|1.25|1.25|1.25|1.25
;   useMinPrintHeight,0
;   minPrintHeight,0
;   useMaxPrintHeight,0
;   maxPrintHeight,4.84
;   useDiaphragm,0
;   diaphragmLayerInterval,20
;   robustSlicing,1
;   mergeAllIntoSolid,0
;   onlyRetractWhenCrossingOutline,0
;   retractBetweenLayers,0
;   useRetractionMinTravel,1
;   retractionMinTravel,7
;   retractWhileWiping,1
;   onlyWipeOutlines,1
;   avoidCrossingOutline,0
;   maxMovementDetourFactor,3
;   toolChangeRetractionDistance,12
;   toolChangeExtraRestartDistance,-0.5
;   toolChangeRetractionSpeed,600
;   externalThinWallType,0
;   internalThinWallType,0
;   thinWallAllowedOverlapPercentage,10
;   singleExtrusionMinLength,1
;   singleExtrusionMinPrintingWidthPercentage,50
;   singleExtrusionMaxPrintingWidthPercentage,200
;   singleExtrusionEndpointExtension,0.2
;   horizontalSizeCompensation,0
G90
M83
; **** Replicator 2 start.gcode ****
M73 P0 ; enable build progress
G162 X Y F3000 ; home XY maximum
G161 Z F1200 ; home Z minimum
G92 Z-5 ; set Z to -5
G1 Z0 ; move Z to 0
G161 Z F100 ; home Z slowly
M132 X Y Z A B ; recall home offsets
G1 X-145 Y-75 Z30 F9000 ; move to wait position off table
G130 X20 Y20 Z20 A20 B20 ; lower stepper Vrefs while heating
M126 S170
M140 S60 T0
M134 T0 ; stabilize bed temperature
M104 S230 T0
M133 T0 ; stabilize extruder temperature
G130 X127 Y127 Z40 A127 B127 ; default stepper Vrefs
G92 A0 ; zero extruder
G1 Z0.4 ; position nozzle
G1 E25 F300 ; purge nozzle
G1 X-140 Y-70 Z0.15 F1200 ; slow wipe
G1 X-135 Y-65 Z0.5 F1200 ; lift
G92 A0 ; zero extruder
M73 P1 ;@body (notify GPX body has started)
; **** end of start.gcode ****
; process Process1
; layer 1, Z = 0.200
M135 T0
G1 E-1.9000 F1200
; feature inner perimeter
; tool H0.200 W0.460
G1 Z0.500 F1200
G1 X-0.000 Y14.275 F9000
G1 Z0.200 F1200
G1 E1.9000 F1200
G1 X-0.700 Y14.258 E0.0268 F1752
G1 X-1.399 Y14.206 E0.0268
G1 X-2.095 Y14.120 E0.0268
G1 X-2.785 Y14.001 E0.0268
G1 X-3.468 Y13.847 E0.0268
G1 X-4.144 Y13.660 E0.0268
G1 X-4.809 Y13.440 E0.0268
G1 X-5.463 Y13.188 E0.0268
G1 X-6.103 Y12.904 E0.0268
G1 X-6.729 Y12.589 E0.0268
G1 X-7.339 Y12.244 E0.0268
G1 X-7.931 Y11.869 E0.0268
G1 X-8.503 Y11.466 E0.0268
G1 X-9.056 Y11.035 E0.0268
G1 X-9.586 Y10.577 E0.0268
G1 X-10.094 Y10.094 E0.0268
G1 X-10.577 Y9.586 E0.0268
G1 X-11.035 Y9.056 E0.0268
G1 X-11.466 Y8.504 E0.0268
G1 X-11.869 Y7.931 E0.0268
G1 X-12.244 Y7.339 E0.0268
G1 X-12.589 Y6.729 E0.0268
G1 X-12.904 Y6.103 E0.0268
G1 X-13.188 Y5.463 E0.0268
G1 X-13.440 Y4.809 E0.0268
G1 X-13.660 Y4.144 E0.0268
G1 X-13.847 Y3.468 E0.0268
G1 X-14.001 Y2.785 E0.0268
G1 X-14.120 Y2.095 E0.0268
G1 X-14.206 Y1.399 E0.0268
G1 X-14.258 Y0.700 E0.0268
G1 X-14.275 Y-0.000 E0.0268
G1 X-14.258 Y-0.700 E0.0268
G1 X-14.206 Y-1.399 E0.0268
G1 X-14.120 Y-2.095 E0.0268
G1 X-14.001 Y-2.785 E0.0268
G1 X-13.847 Y-3.468 E0.0268
G1 X-13.660 Y-4.144 E0.0268
G1 X-13.440 Y-4.809 E0.0268
G1 X-13.219 Y-5.383 E0.0235
G1 X-12.903 Y-6.105 E0.0301
G1 X-12.589 Y-6.729 E0.0267
G1 X-12.244 Y-7.339 E0.0268
G1 X-11.869 Y-7.931 E0.0268
G1 X-11.466 Y-8.504 E0.0268
G1 X-11.034 Y-9.056 E0.0268
G1 X-10.577 Y-9.586 E0.0268
G1 X-10.094 Y-10.094 E0.0268
G1 X-9.586 Y-10.577 E0.0268
G1 X-9.056 Y-11.035 E0.0268
G1 X-8.504 Y-11.466 E0.0268
G1 X-7.931 Y-11.869 E0.0268
G1 X-7.339 Y-12.244 E0.0268
G1 X-6.729 Y-12.589 E0.0268
G1 X-6.103 Y-12.904 E0.0268
G1 X-5.463 Y-13.188 E0.0268
G1 X-4.809 Y-13.440 E0.0268
G1 X-4.144 Y-13.660 E0.0268
G1 X-3.468 Y-13.847 E0.0268
G1 X-2.785 Y-14.001 E0.0268
G1 X-2.095 Y-14.120 E0.0268
G1 X-1.399 Y-14.206 E0.0268
G1 X-0.700 Y-14.258 E0.0268
G1 X0.000 Y-14.275 E0.0268
G1 X0.700 Y-14.258 E0.0268
G1 X1.399 Y-14.206 E0.0268
G1 X2.095 Y-14.120 E0.0268
G1 X2.785 Y-14.001 E0.0268
G1 X3.468 Y-13.847 E0.0268
G1 X4.144 Y-13.660 E0.0268
G1 X4.809 Y-13.440 E0.0268
G1 X5.463 Y-13.188 E0.0268
G1 X6.103 Y-12.904 E0.0268
G1 X6.729 Y-12.589 E0.0268
G1 X7.339 Y-12.244 E0.0268
G1 X7.931 Y-11.869 E0.0268
G1 X8.503 Y-11.466 E0.0268
G1 X9.056 Y-11.035 E0.0268
G1 X9.586 Y-10.577 E0.0268
G1 X10.094 Y-10.094 E0.0268
G1 X10.577 Y-9.586 E0.0268
G1 X11.035 Y-9.056 E0.0268
G1 X11.466 Y-8.503 E0.0268
G1 X11.869 Y-7.931 E0.0268
G1 X12.244 Y-7.339 E0.0268
G1 X12.589 Y-6.729 E0.0268
G1 X12.904 Y-6.103 E0.0268
G1 X13.188 Y-5.463 E0.0268
G1 X13.440 Y-4.809 E0.0268
G1 X13.660 Y-4.144 E0.0268
G1 X13.847 Y-3.468 E0.0268
G1 X14.001 Y-2.785 E0.0268
G1 X14.120 Y-2.095 E0.0268
G1 X14.206 Y-1.399 E0.0268
G1 X14.258 Y-0.700 E0.0268
G1 X14.275 Y-0.000 E0.0268
G1 X14.258 Y0.700 E0.0268
G1 X14.206 Y1.399 E0.0268
G1 X14.120 Y2.095 E0.0268
G1 X14.001 Y2.785 E0.0268
G1 X13.847 Y3.468 E0.0268
G1 X13.660 Y4.144 E0.0268
G1 X13.440 Y4.809 E0.0268
G1 X13.188 Y5.463 E0.0268
G1 X12.904 Y6.103 E0.0268
G1 X12.589 Y6.729 E0.0268
G1 X12.244 Y7.339 E0.0268
G1 X11.869 Y7.931 E0.0268
G1 X11.466 Y8.503 E0.0268
G1 X11.035 Y9.056 E0.0268
G1 X10.577 Y9.586 E0.0268
G1 X10.094 Y10.094 E0.0268
G1 X9.586 Y10.577 E0.0268
G1 X9.056 Y11.035 E0.0268
G1 X8.504 Y11.466 E0.0268
G1 X7.931 Y11.869 E0.0268
G1 X7.339 Y12.244 E0.0268
G1 X6.729 Y12.589 E0.0268
G1 X6.103 Y12.904 E0.0268
G1 X5.463 Y13.188 E0.0268
G1 X4.809 Y13.440 E0.0268
G1 X4.144 Y13.660 E0.0268
G1 X3.468 Y13.847 E0.0268
G1 X2.785 Y14.001 E0.0268
G1 X2.095 Y14.120 E0.0268
G1 X1.399 Y14.206 E0.0268
G1 X0.700 Y14.258 E0.0268
G1 X-0.000 Y14.275 E0.0268
; feature outer perimeter
G1 X-0.000 Y14.735 F9000
G1 X-0.723 Y14.717 E0.0277 F1168
G1 X-1.444 Y14.664 E0.0277
G1 X-2.162 Y14.575 E0.0277
G1 X-2.875 Y14.452 E0.0277
G1 X-3.580 Y14.293 E0.0277
G1 X-4.277 Y14.100 E0.0277
G1 X-4.964 Y13.874 E0.0277
G1 X-5.639 Y13.613 E0.0277
G1 X-6.300 Y13.320 E0.0277
G1 X-6.946 Y12.995 E0.0277
G1 X-7.575 Y12.639 E0.0277
G1 X-8.186 Y12.252 E0.0277
G1 X-8.778 Y11.835 E0.0277
G1 X-9.348 Y11.390 E0.0277
G1 X-9.895 Y10.918 E0.0277
G1 X-10.419 Y10.419 E0.0277
G1 X-10.918 Y9.895 E0.0277
G1 X-11.390 Y9.348 E0.0277
G1 X-11.835 Y8.778 E0.0277
G1 X-12.252 Y8.186 E0.0277
G1 X-12.639 Y7.575 E0.0277
G1 X-12.995 Y6.946 E0.0277
G1 X-13.320 Y6.300 E0.0277
G1 X-13.613 Y5.639 E0.0277
G1 X-13.874 Y4.964 E0.0277
G1 X-14.100 Y4.277 E0.0277
G1 X-14.293 Y3.580 E0.0277
G1 X-14.452 Y2.875 E0.0277
G1 X-14.575 Y2.162 E0.0277
G1 X-14.664 Y1.444 E0.0277
G1 X-14.717 Y0.723 E0.0277
G1 X-14.735 Y-0.000 E0.0277
G1 X-14.717 Y-0.723 E0.0277
G1 X-14.664 Y-1.444 E0.0277
G1 X-14.575 Y-2.162 E0.0277
G1 X-14.452 Y-2.875 E0.0277
G1 X-14.293 Y-3.580 E0.0277
G1 X-14.100 Y-4.277 E0.0277
G1 X-13.874 Y-4.964 E0.0277
G1 X-13.645 Y-5.558 E0.0243
G1 X-13.320 Y-6.301 E0.0310
G1 X-12.995 Y-6.946 E0.0276
G1 X-12.639 Y-7.575 E0.0277
G1 X-12.252 Y-8.186 E0.0277
G1 X-11.835 Y-8.778 E0.0277
G1 X-11.390 Y-9.348 E0.0277
G1 X-10.918 Y-9.895 E0.0277
G1 X-10.419 Y-10.419 E0.0277
G1 X-9.895 Y-10.918 E0.0277
G1 X-9.348 Y-11.390 E0.0277
G1 X-8.778 Y-11.835 E0.0277
G1 X-8.186 Y-12.252 E0.0277
G1 X-7.575 Y-12.639 E0.0277
G1 X-6.946 Y-12.995 E0.0277
G1 X-6.300 Y-13.320 E0.0277
G1 X-5.639 Y-13.613 E0.0277
G1 X-4.964 Y-13.874 E0.0277
G1 X-4.277 Y-14.100 E0.0277
G1 X-3.580 Y-14.293 E0.0277
G1 X-2.875 Y-14.452 E0.0277
G1 X-2.162 Y-14.575 E0.0277
G1 X-1.444 Y-14.664 E0.0277
G1 X-0.723 Y-14.717 E0.0277
G1 X0.000 Y-14.735 E0.0277
G1 X0.723 Y-14.717 E0.0277
G1 X1.444 Y-14.664 E0.0277
G1 X2.162 Y-14.575 E0.0277
G1 X2.875 Y-14.452 E0.0277
G1 X3.580 Y-14.293 E0.0277
G1 X4.277 Y-14.100 E0.0277
G1 X4.964 Y-13.874 E0.0277
G1 X5.639 Y-13.613 E0.0277
G1 X6.300 Y-13.320 E0.0277
G1 X6.946 Y-12.995 E0.0277
G1 X7.575 Y-12.639 E0.0277
G1 X8.186 Y-12.252 E0.0277
G1 X8.778 Y-11.835 E0.0277
G1 X9.348 Y-11.390 E0.0277
G1 X9.895 Y-10.918 E0.0277
G1 X10.419 Y-10.419 E0.0277
G1 X10.918 Y-9.895 E0.0277
G1 X11.390 Y-9.348 E0.0277
G1 X11.835 Y-8.778 E0.0277
G1 X12.252 Y-8.186 E0.0277
G1 X12.639 Y-7.575 E0.0277
G1 X12.995 Y-6.946 E0.0277
G1 X13.320 Y-6.300 E0.0277
G1 X13.613 Y-5.639 E0.0277
G1 X13.874 Y-4.964 E0.0277
G1 X14.100 Y-4.277 E0.0277
G1 X14.293 Y-3.580 E0.0277
G1 X14.452 Y-2.875 E0.0277
G1 X14.575 Y-2.162 E0.0277
G1 X14.664 Y-1.444 E0.0277
G1 X14.717 Y-0.723 E0.0277
G1 X14.735 Y-0.000 E0.0277
G1 X14.717 Y0.723 E0.0277
G1 X14.664 Y1.444 E0.0277
G1 X14.575 Y2.162 E0.0277
G1 X14.452 Y2.875 E0.0277
G1 X14.293 Y3.580 E0.0277
G1 X14.100 Y4.277 E0.0277
G1 X13.874 Y4.964 E0.0277
G1 X13.613 Y5.639 E0.0277
G1 X13.320 Y6.300 E0.0277
G1 X12.995 Y6.946 E0.0277
G1 X12.639 Y7.575 E0.0277
G1 X12.252 Y8.186 E0.0277
G1 X11.835 Y8.778 E0.0277
G1 X11.390 Y9.348 E0.0277
G1 X10.918 Y9.895 E0.0277
G1 X10.419 Y10.419 E0.0277
G1 X9.895 Y10.918 E0.0277
G1 X9.348 Y11.390 E0.0277
G1 X8.778 Y11.835 E0.0277
G1 X8.186 Y12.252 E0.0277
G1 X7.575 Y12.639 E0.0277
G1 X6.946 Y12.995 E0.0277
G1 X6.300 Y13.320 E0.0277
G1 X5.639 Y13.613 E0.0277
G1 X4.964 Y13.874 E0.0277
G1 X4.277 Y14.100 E0.0277
G1 X3.580 Y14.293 E0.0277
G1 X2.875 Y14.452 E0.0277
G1 X2.162 Y14.575 E0.0277
G1 X1.444 Y14.664 E0.0277
G1 X0.723 Y14.717 E0.0277
G1 X-0.000 Y14.735 E0.0277
; feature inner perimeter
G1 X0.000 Y13.619 F9000
G1 X0.668 Y13.602 E0.0256 F1752
G1 X1.335 Y13.553 E0.0256
G1 X1.998 Y13.471 E0.0256
G1 X2.657 Y13.357 E0.0256
G1 X3.309 Y13.211 E0.0256
G1 X3.953 Y13.032 E0.0256
G1 X4.588 Y12.823 E0.0256
G1 X5.212 Y12.582 E0.0256
G1 X5.823 Y12.311 E0.0256
G1 X6.420 Y12.011 E0.0256
G1 X7.001 Y11.681 E0.0256
G1 X7.566 Y11.323 E0.0256
G1 X8.113 Y10.939 E0.0256
G1 X8.640 Y10.527 E0.0256
G1 X9.146 Y10.091 E0.0256
G1 X9.630 Y9.630 E0.0256
G1 X10.091 Y9.146 E0.0256
G1 X10.527 Y8.640 E0.0256
G1 X10.939 Y8.113 E0.0256
G1 X11.323 Y7.566 E0.0256
G1 X11.681 Y7.001 E0.0256
G1 X12.011 Y6.420 E0.0256
G1 X12.311 Y5.823 E0.0256
G1 X12.582 Y5.212 E0.0256
G1 X12.823 Y4.588 E0.0256
G1 X13.032 Y3.953 E0.0256
G1 X13.211 Y3.309 E0.0256
G1 X13.357 Y2.657 E0.0256
G1 X13.471 Y1.998 E0.0256
G1 X13.553 Y1.335 E0.0256
G1 X13.602 Y0.668 E0.0256
G1 X13.619 Y0.000 E0.0256
G1 X13.602 Y-0.668 E0.0256
G1 X13.553 Y-1.335 E0.0256
G1 X13.471 Y-1.998 E0.0256
G1 X13.357 Y-2.657 E0.0256
G1 X13.211 Y-3.309 E0.0256
G1 X13.032 Y-3.953 E0.0256
G1 X12.823 Y-4.588 E0.0256
G1 X12.582 Y-5.212 E0.0256
G1 X12.311 Y-5.823 E0.0256
G1 X12.011 Y-6.420 E0.0256
G1 X11.681 Y-7.001 E0.0256
G1 X11.323 Y-7.566 E0.0256
G1 X10.939 Y-8.113 E0.0256
G1 X10.527 Y-8.640 E0.0256
G1 X10.091 Y-9.146 E0.0256
G1 X9.630 Y-9.630 E0.0256
G1 X9.146 Y-10.091 E0.0256
G1 X8.640 Y-10.527 E0.0256
G1 X8.113 Y-10.939 E0.0256
G1 X7.566 Y-11.323 E0.0256
G1 X7.001 Y-11.681 E0.0256
G1 X6.420 Y-12.011 E0.0256
G1 X5.823 Y-12.311 E0.0256
G1 X5.212 Y-12.582 E0.0256
