; G-Code generated by Simplify3D(R) Version 4.1.2
; Apr 2, 2020 at 1:18:41 PM
; Settings Summary
;   processName,Process1
;   applyToModels,BM66 Slingshot Dome Light,BM66 Slingshot Dome Light(2)
;   profileName,MakerBot Replicator 2 HBP (modified)
;   profileVersion,2020-03-12 10:48:50
;   baseProfile,MakerBot Replicator 2(2)
;   printMaterial,PLA
;   printQuality,Medium
;   printExtruders,
;   extruderName,Primary Extruder
;   extruderToolheadNumber,0
;   extruderDiameter,0.4
;   extruderAutoWidth,0
;   extruderWidth,0.4
;   extrusionMultiplier,1
;   extruderUseRetract,1
;   extruderRetractionDistance,1.9
;   extruderExtraRestartDistance,0
;   extruderRetractionZLift,0.5
;   extruderRetractionSpeed,1200
;   extruderUseCoasting,0
;   extruderCoastingDistance,0.2
;   extruderUseWipe,0
;   extruderWipeDistance,5
;   primaryExtruder,0
;   layerHeight,0.2
;   topSolidLayers,3
;   bottomSolidLayers,3
;   perimeterOutlines,2
;   printPerimetersInsideOut,1
;   startPointOption,3
;   startPointOriginX,0
;   startPointOriginY,150
;   sequentialIslands,0
;   spiralVaseMode,0
;   firstLayerHeightPercentage,100
;   firstLayerWidthPercentage,115
;   firstLayerUnderspeed,0.5
;   useRaft,0
;   raftExtruder,0
;   raftTopLayers,2
;   raftBaseLayers,1
;   raftOffset,1
;   raftSeparationDistance,0.14
;   raftTopInfill,90
;   aboveRaftSpeedMultiplier,0.3
;   useSkirt,0
;   skirtExtruder,0
;   skirtLayers,1
;   skirtOutlines,5
;   skirtOffset,0
;   usePrimePillar,0
;   primePillarExtruder,999
;   primePillarWidth,12
;   primePillarLocation,7
;   primePillarSpeedMultiplier,1
;   useOozeShield,0
;   oozeShieldExtruder,999
;   oozeShieldOffset,2
;   oozeShieldOutlines,1
;   oozeShieldSidewallShape,1
;   oozeShieldSidewallAngle,30
;   oozeShieldSpeedMultiplier,1
;   infillExtruder,0
;   internalInfillPattern,Rectilinear
;   externalInfillPattern,Rectilinear
;   infillPercentage,15
;   outlineOverlapPercentage,25
;   infillExtrusionWidthPercentage,100
;   minInfillLength,5
;   infillLayerInterval,1
;   internalInfillAngles,45,-45
;   overlapInternalInfillAngles,0
;   externalInfillAngles,45,-45
;   generateSupport,0
;   supportExtruder,0
;   supportInfillPercentage,30
;   supportExtraInflation,0.5
;   supportBaseLayers,0
;   denseSupportExtruder,0
;   denseSupportLayers,2
;   denseSupportInfillPercentage,90
;   supportLayerInterval,1
;   supportHorizontalPartOffset,0.3
;   supportUpperSeparationLayers,1
;   supportLowerSeparationLayers,1
;   supportType,1
;   supportGridSpacing,2
;   maxOverhangAngle,45
;   supportAngles,45,-45
;   temperatureName,Primary Extruder,Heated Build Platform
;   temperatureNumber,0,0
;   temperatureSetpointCount,1,1
;   temperatureSetpointLayers,1,1
;   temperatureSetpointTemperatures,230,60
;   temperatureStabilizeAtStartup,1,1
;   temperatureHeatedBed,0,1
;   fanLayers,1,2
;   fanSpeeds,0,100
;   blipFanToFullPower,1
;   adjustSpeedForCooling,1
;   minSpeedLayerTime,15
;   minCoolingSpeedSlowdown,20
;   increaseFanForCooling,1
;   minFanLayerTime,45
;   maxCoolingFanSpeed,100
;   increaseFanForBridging,1
;   bridgingFanSpeed,100
;   use5D,1
;   relativeEdistances,1
;   allowEaxisZeroing,0
;   independentExtruderAxes,1
;   includeM10123,0
;   stickySupport,1
;   applyToolheadOffsets,0
;   gcodeXoffset,0
;   gcodeYoffset,0
;   gcodeZoffset,0
;   overrideMachineDefinition,1
;   machineTypeOverride,0
;   strokeXoverride,280
;   strokeYoverride,150
;   strokeZoverride,150
;   originOffsetXoverride,140
;   originOffsetYoverride,75
;   originOffsetZoverride,0
;   homeXdirOverride,1
;   homeYdirOverride,1
;   homeZdirOverride,-1
;   flipXoverride,1
;   flipYoverride,-1
;   flipZoverride,1
;   toolheadOffsets,0,0|0,0|0,0|0,0|0,0|0,0
;   overrideFirmwareConfiguration,1
;   firmwareTypeOverride,MakerBot/Sailfish Firmware
;   GPXconfigOverride,r2h
;   baudRateOverride,115200
;   overridePrinterModels,1
;   printerModelsOverride,MakerBot_Replicator2.stl
;   startingGcode,; **** Replicator 2 start.gcode ****,M73 P0 ; enable build progress,G162 X Y F3000 ; home XY maximum,G161 Z F1200 ; home Z minimum,G92 Z-5 ; set Z to -5,G1 Z0 ; move Z to 0,G161 Z F100 ; home Z slowly,M132 X Y Z A B ; recall home offsets,G1 X-145 Y-75 Z30 F9000 ; move to wait position off table,G130 X20 Y20 Z20 A20 B20 ; lower stepper Vrefs while heating,M126 S[fan_speed_pwm],M140 S[bed0_temperature] T0,M134 T0 ; stabilize bed temperature,M104 S[extruder0_temperature] T0,M133 T0 ; stabilize extruder temperature,G130 X127 Y127 Z40 A127 B127 ; default stepper Vrefs,G92 A0 ; zero extruder,G1 Z0.4 ; position nozzle,G1 E25 F300 ; purge nozzle,G1 X-140 Y-70 Z0.15 F1200 ; slow wipe,G1 X-135 Y-65 Z0.5 F1200 ; lift,G92 A0 ; zero extruder,M73 P1 ;@body (notify GPX body has started),; **** end of start.gcode ****
;   layerChangeGcode,
;   retractionGcode,
;   toolChangeGcode,
;   endingGcode,; **** Replicator 2 end.gcode ****,M73 P100 ; end build progress,G1 Z155 F1000 ; send Z axis to bottom of machine,M104 S0 T0 ; cool down extruder,M140 S0 T0 ; cool down HBP,M127 ; stop blower fan,G162 X Y F3000 ; home XY maximum,M18 ; disable stepper,M0 ; stop codes,M72 P1 ; play Ta-Da song,; **** end of end.gcode ****
;   exportFileFormat,gcode
;   celebration,0
;   celebrationSong,Random Song
;   postProcessing,
;   defaultSpeed,4800
;   outlineUnderspeed,0.5
;   solidInfillUnderspeed,1
;   supportUnderspeed,1
;   rapidXYspeed,9000
;   rapidZspeed,1200
;   minBridgingArea,50
;   bridgingExtraInflation,0
;   bridgingExtrusionMultiplier,1
;   bridgingSpeedMultiplier,0.8
;   useFixedBridgingAngle,0
;   fixedBridgingAngle,0
;   applyBridgingToPerimeters,0
;   filamentDiameters,1.75|1.75|1.75|1.75|1.75|1.75
;   filamentPricesPerKg,46|46|46|46|46|46
;   filamentDensities,1.25|1.25|1.25|1.25|1.25|1.25
;   useMinPrintHeight,0
;   minPrintHeight,0
;   useMaxPrintHeight,0
;   maxPrintHeight,4.84
;   useDiaphragm,0
;   diaphragmLayerInterval,20
;   robustSlicing,1
;   mergeAllIntoSolid,0
;   onlyRetractWhenCrossingOutline,0
;   retractBetweenLayers,0
;   useRetractionMinTravel,1
;   retractionMinTravel,7
;   retractWhileWiping,1
;   onlyWipeOutlines,1
;   avoidCrossingOutline,0
;   maxMovementDetourFactor,3
;   toolChangeRetractionDistance,12
;   toolChangeExtraRestartDistance,-0.5
;   toolChangeRetractionSpeed,600
;   externalThinWallType,0
;   internalThinWallType,0
;   thinWallAllowedOverlapPercentage,10
;   singleExtrusionMinLength,1
;   singleExtrusionMinPrintingWidthPercentage,50
;   singleExtrusionMaxPrintingWidthPercentage,200
;   singleExtrusionEndpointExtension,0.2
;   horizontalSizeCompensation,0
G90
M83
; **** Replicator 2 start.gcode ****
M73 P0 ; enable build progress
G162 X Y F3000 ; home XY maximum
G161 Z F1200 ; home Z minimum
G92 Z-5 ; set Z to -5
G1 Z0 ; move Z to 0
G161 Z F100 ; home Z slowly
M132 X Y Z A B ; recall home offsets
G1 X-145 Y-75 Z30 F9000 ; move to wait position off table
G130 X20 Y20 Z20 A20 B20 ; lower stepper Vrefs while heating
M127
M140 S60 T0
M134 T0 ; stabilize bed temperature
M104 S230 T0
M133 T0 ; stabilize extruder temperature
G130 X127 Y127 Z40 A127 B127 ; default stepper Vrefs
G92 A0 ; zero extruder
G1 Z0.4 ; position nozzle
G1 E25 F300 ; purge nozzle
G1 X-140 Y-70 Z0.15 F1200 ; slow wipe
G1 X-135 Y-65 Z0.5 F1200 ; lift
G92 A0 ; zero extruder
M73 P1 ;@body (notify GPX body has started)
; **** end of start.gcode ****
; process Process1
; layer 1, Z = 0.200
M135 T0
G1 E-1.9000 F1200
; feature inner perimeter
; tool H0.200 W0.460
G1 Z0.500 F1200
G1 X-13.026 Y11.962 F9000
G1 Z0.200 F1200
G1 E1.9000 F1200
G1 X-15.406 Y12.197 E0.0914 F1800
G1 X-17.794 Y11.960 E0.0918
G1 X-20.073 Y11.268 E0.0911
G1 X-22.182 Y10.141 E0.0915
G1 X-24.030 Y8.624 E0.0915
G1 X-25.547 Y6.776 E0.0915
G1 X-26.674 Y4.668 E0.0915
G1 X-27.368 Y2.379 E0.0915
G1 X-27.603 Y0.000 E0.0915
G1 X-27.368 Y-2.379 E0.0915
G1 X-26.674 Y-4.668 E0.0915
G1 X-25.547 Y-6.776 E0.0915
G1 X-24.030 Y-8.624 E0.0915
G1 X-22.182 Y-10.141 E0.0915
G1 X-20.073 Y-11.268 E0.0914
G1 X-17.785 Y-11.962 E0.0915
G1 X-15.406 Y-12.197 E0.0915
G1 X-13.027 Y-11.962 E0.0915
G1 X-10.738 Y-11.268 E0.0915
G1 X-8.630 Y-10.141 E0.0915
G1 X-6.782 Y-8.624 E0.0915
G1 X-5.265 Y-6.776 E0.0915
G1 X-4.138 Y-4.668 E0.0915
G1 X-3.444 Y-2.379 E0.0915
G1 X-3.209 Y0.000 E0.0915
G1 X-3.444 Y2.379 E0.0915
G1 X-4.138 Y4.668 E0.0915
G1 X-5.265 Y6.776 E0.0915
G1 X-6.782 Y8.624 E0.0915
G1 X-8.630 Y10.141 E0.0915
G1 X-10.738 Y11.268 E0.0915
G1 X-13.026 Y11.962 E0.0915
; feature outer perimeter
G1 X-12.936 Y12.416 F9000
G1 X-15.406 Y12.659 E0.0949 F1200
G1 X-17.885 Y12.413 E0.0953
G1 X-20.250 Y11.695 E0.0946
G1 X-22.439 Y10.526 E0.0949
G1 X-24.357 Y8.951 E0.0949
G1 X-25.931 Y7.033 E0.0949
G1 X-27.101 Y4.844 E0.0949
G1 X-27.822 Y2.470 E0.0949
G1 X-28.065 Y0.000 E0.0949
G1 X-27.822 Y-2.470 E0.0949
G1 X-27.101 Y-4.844 E0.0949
G1 X-25.931 Y-7.033 E0.0949
G1 X-24.357 Y-8.951 E0.0949
G1 X-22.439 Y-10.526 E0.0949
G1 X-20.250 Y-11.695 E0.0949
G1 X-17.876 Y-12.416 E0.0949
G1 X-15.406 Y-12.659 E0.0949
G1 X-12.936 Y-12.416 E0.0949
G1 X-10.562 Y-11.695 E0.0949
G1 X-8.373 Y-10.526 E0.0949
G1 X-6.455 Y-8.951 E0.0949
G1 X-4.880 Y-7.033 E0.0949
G1 X-3.711 Y-4.844 E0.0949
G1 X-2.990 Y-2.470 E0.0949
G1 X-2.747 Y0.000 E0.0949
G1 X-2.990 Y2.470 E0.0949
G1 X-3.711 Y4.844 E0.0949
G1 X-4.880 Y7.033 E0.0949
G1 X-6.455 Y8.951 E0.0949
G1 X-8.373 Y10.526 E0.0949
G1 X-10.562 Y11.695 E0.0949
G1 X-12.936 Y12.416 E0.0949
G1 E-1.9000 F1200
; feature solid layer
G1 Z0.700 F1200
G1 X-25.104 Y6.773 F9000
G1 Z0.200 F1200
G1 E1.9000 F1200
G1 X-22.178 Y9.698 E0.1582 F2400
G1 X-21.989 Y9.853 E0.0094
G1 X-20.665 Y10.561 E0.0575
G1 X-25.967 Y5.259 E0.2868
G1 X-26.354 Y4.535 E0.0314
G1 X-26.490 Y4.085 E0.0180
G1 X-19.491 Y11.085 E0.3786
G1 X-18.557 Y11.368 E0.0373
G1 X-26.774 Y3.151 E0.4445
G1 X-27.028 Y2.312 E0.0335
G1 X-27.036 Y2.239 E0.0028
G1 X-17.647 Y11.628 E0.5079
G1 X-16.924 Y11.699 E0.0278
G1 X-27.107 Y1.517 E0.5508
G1 X-27.178 Y0.795 E0.0277
G1 X-16.202 Y11.771 E0.5937
G1 X-15.480 Y11.843 E0.0278
G1 X-27.249 Y0.074 E0.6366
G1 X-27.256 Y0.000 E0.0028
G1 X-27.204 Y-0.532 E0.0204
G1 X-14.874 Y11.798 E0.6669
G1 X-14.282 Y11.739 E0.0228
G1 X-27.145 Y-1.124 E0.6958
G1 X-27.087 Y-1.716 E0.0228
G1 X-13.690 Y11.681 E0.7247
G1 X-13.098 Y11.623 E0.0228
G1 X-27.029 Y-2.308 E0.7536
G1 X-26.878 Y-2.808 E0.0200
G1 X-12.598 Y11.472 E0.7724
G1 X-12.099 Y11.320 E0.0200
G1 X-26.726 Y-3.307 E0.7912
G1 X-26.575 Y-3.806 E0.0200
G1 X-11.600 Y11.169 E0.8100
G1 X-11.101 Y11.018 E0.0200
G1 X-26.424 Y-4.305 E0.8289
G1 X-26.354 Y-4.535 E0.0092
G1 X-26.232 Y-4.764 E0.0099
G1 X-10.642 Y10.826 E0.8433
G1 X-10.218 Y10.599 E0.0184
G1 X-26.005 Y-5.188 E0.8539
G1 X-25.778 Y-5.612 E0.0184
G1 X-9.794 Y10.372 E0.8646
G1 X-9.370 Y10.146 E0.0184
G1 X-25.552 Y-6.036 E0.8753
G1 X-25.325 Y-6.460 E0.0184
G1 X-8.946 Y9.919 E0.8860
G1 X-8.822 Y9.853 E0.0054
G1 X-8.570 Y9.646 E0.0125
G1 X-25.051 Y-6.836 E0.8915
G1 X-24.758 Y-7.194 E0.0177
G1 X-8.212 Y9.352 E0.8950
G1 X-7.855 Y9.059 E0.0177
G1 X-24.465 Y-7.551 E0.8985
G1 X-24.172 Y-7.908 E0.0177
G1 X-7.498 Y8.766 E0.9019
G1 X-7.140 Y8.473 E0.0177
G1 X-23.879 Y-8.266 E0.9054
G1 X-23.785 Y-8.379 E0.0056
G1 X-23.542 Y-8.579 E0.0121
G1 X-6.827 Y8.136 E0.9041
G1 X-6.533 Y7.778 E0.0177
G1 X-23.184 Y-8.872 E0.9007
G1 X-22.827 Y-9.166 E0.0177
G1 X-6.240 Y7.421 E0.8972
G1 X-5.947 Y7.064 E0.0177
G1 X-22.470 Y-9.459 E0.8938
G1 X-22.112 Y-9.752 E0.0177
G1 X-5.654 Y6.706 E0.8903
G1 X-5.553 Y6.584 E0.0061
G1 X-5.404 Y6.305 E0.0121
G1 X-21.711 Y-10.002 E0.8821
G1 X-21.287 Y-10.228 E0.0184
G1 X-5.178 Y5.881 E0.8714
G1 X-4.951 Y5.458 E0.0184
G1 X-20.863 Y-10.455 E0.8607
G1 X-20.440 Y-10.681 E0.0184
G1 X-4.724 Y5.034 E0.8501
G1 X-4.498 Y4.610 E0.0184
G1 X-20.016 Y-10.908 E0.8394
G1 X-19.941 Y-10.948 E0.0032
G1 X-19.530 Y-11.073 E0.0164
G1 X-4.333 Y4.124 E0.8220
G1 X-4.182 Y3.625 E0.0200
G1 X-19.031 Y-11.224 E0.8032
G1 X-18.531 Y-11.376 E0.0200
G1 X-4.030 Y3.126 E0.7844
G1 X-3.879 Y2.626 E0.0200
G1 X-18.032 Y-11.527 E0.7656
G1 X-17.718 Y-11.622 E0.0126
G1 X-17.499 Y-11.644 E0.0084
G1 X-3.762 Y2.093 E0.7431
G1 X-3.704 Y1.501 E0.0228
G1 X-16.907 Y-11.702 E0.7142
G1 X-16.314 Y-11.761 E0.0228
G1 X-3.645 Y0.908 E0.6853
G1 X-3.587 Y0.316 E0.0228
G1 X-15.722 Y-11.819 E0.6564
G1 X-15.406 Y-11.850 E0.0122
G1 X-15.070 Y-11.817 E0.0129
G1 X-3.589 Y-0.336 E0.6210
G1 X-3.660 Y-1.058 E0.0277
G1 X-14.348 Y-11.746 E0.5781
G1 X-13.626 Y-11.675 E0.0277
G1 X-3.731 Y-1.779 E0.5353
G1 X-3.784 Y-2.312 E0.0205
G1 X-3.858 Y-2.557 E0.0098
G1 X-12.849 Y-11.548 E0.4864
G1 X-11.915 Y-11.265 E0.0373
G1 X-4.141 Y-3.491 E0.4205
G1 X-4.424 Y-4.424 E0.0373
G1 X-10.982 Y-10.982 E0.3547
G1 X-10.871 Y-10.948 E0.0044
G1 X-9.639 Y-10.289 E0.0534
G1 X-5.117 Y-5.767 E0.2446
G1 X-5.553 Y-6.584 E0.0354
G1 X-6.791 Y-8.092 E0.0746
G1 X-7.314 Y-8.615 E0.0283
G1 E-1.9000 F1200
; feature inner perimeter
G1 Z0.700 F1200
G1 X13.018 Y11.960 F9000
G1 Z0.200 F1200
G1 E1.9000 F1200
G1 X10.738 Y11.268 E0.0911 F1800
G1 X8.630 Y10.141 E0.0915
G1 X6.782 Y8.624 E0.0915
G1 X5.265 Y6.776 E0.0915
G1 X4.138 Y4.668 E0.0915
G1 X3.444 Y2.379 E0.0915
G1 X3.209 Y0.000 E0.0915
G1 X3.444 Y-2.379 E0.0915
G1 X4.138 Y-4.668 E0.0915
G1 X5.265 Y-6.776 E0.0915
G1 X6.782 Y-8.624 E0.0915
G1 X8.630 Y-10.141 E0.0915
G1 X10.738 Y-11.268 E0.0915
G1 X13.027 Y-11.962 E0.0915
G1 X15.406 Y-12.197 E0.0915
G1 X17.785 Y-11.962 E0.0915
G1 X20.073 Y-11.268 E0.0915
G1 X22.182 Y-10.141 E0.0915
G1 X24.030 Y-8.624 E0.0915
G1 X25.547 Y-6.776 E0.0915
G1 X26.674 Y-4.668 E0.0915
G1 X27.368 Y-2.379 E0.0915
G1 X27.603 Y0.000 E0.0915
G1 X27.368 Y2.379 E0.0915
G1 X26.674 Y4.668 E0.0915
G1 X25.547 Y6.776 E0.0915
G1 X24.030 Y8.624 E0.0915
G1 X22.182 Y10.141 E0.0915
G1 X20.073 Y11.268 E0.0915
G1 X17.785 Y11.962 E0.0915
G1 X15.406 Y12.197 E0.0914
G1 X13.018 Y11.960 E0.0918
; feature outer perimeter
G1 X12.927 Y12.413 F9000
G1 X10.562 Y11.695 E0.0946 F1200
G1 X8.373 Y10.526 E0.0949
G1 X6.455 Y8.951 E0.0949
G1 X4.880 Y7.033 E0.0949
G1 X3.711 Y4.844 E0.0949
G1 X2.990 Y2.470 E0.0949
G1 X2.747 Y0.000 E0.0949
G1 X2.990 Y-2.470 E0.0949
G1 X3.711 Y-4.844 E0.0949
G1 X4.880 Y-7.033 E0.0949
G1 X6.455 Y-8.951 E0.0949
G1 X8.373 Y-10.526 E0.0949
G1 X10.562 Y-11.695 E0.0949
G1 X12.936 Y-12.416 E0.0949
G1 X15.406 Y-12.659 E0.0949
G1 X17.876 Y-12.416 E0.0949
G1 X20.250 Y-11.695 E0.0949
G1 X22.439 Y-10.526 E0.0949
G1 X24.357 Y-8.951 E0.0949
G1 X25.931 Y-7.033 E0.0949
G1 X27.101 Y-4.844 E0.0949
G1 X27.822 Y-2.470 E0.0949
G1 X28.065 Y0.000 E0.0949
G1 X27.822 Y2.470 E0.0949
G1 X27.101 Y4.844 E0.0949
G1 X25.931 Y7.033 E0.0949
G1 X24.357 Y8.951 E0.0949
G1 X22.439 Y10.526 E0.0949
G1 X20.250 Y11.695 E0.0949
G1 X17.876 Y12.416 E0.0949
G1 X15.406 Y12.659 E0.0949
G1 X12.927 Y12.413 E0.0953
G1 E-1.9000 F1200
; feature solid layer
G1 Z0.700 F1200
G1 X6.791 Y8.092 F9000
G1 Z0.200 F1200
G1 E1.9000 F1200
G1 X7.314 Y8.615 E0.0283 F2400
G1 X8.822 Y9.853 E0.0746
G1 X9.639 Y10.289 E0.0354
G1 X5.117 Y5.767 E0.2446
G1 X4.458 Y4.535 E0.0534
G1 X4.424 Y4.424 E0.0044
G1 X10.982 Y10.982 E0.3547
G1 X11.915 Y11.265 E0.0373
G1 X4.141 Y3.491 E0.4205
G1 X3.858 Y2.557 E0.0373
G1 X12.849 Y11.548 E0.4864
G1 X13.085 Y11.620 E0.0094
G1 X13.625 Y11.673 E0.0207
G1 X3.731 Y1.779 E0.5352
G1 X3.660 Y1.058 E0.0277
G1 X14.347 Y11.745 E0.5781
G1 X15.069 Y11.817 E0.0278
G1 X3.589 Y0.336 E0.6210
G1 X3.556 Y0.000 E0.0129
G1 X3.587 Y-0.316 E0.0122
G1 X15.722 Y11.819 E0.6564
G1 X16.314 Y11.761 E0.0228
G1 X3.645 Y-0.908 E0.6853
G1 X3.704 Y-1.501 E0.0228
G1 X16.907 Y11.702 E0.7142
G1 X17.499 Y11.644 E0.0228
G1 X3.762 Y-2.093 E0.7431
G1 X3.784 Y-2.312 E0.0084
G1 X3.879 Y-2.626 E0.0126
G1 X18.032 Y11.527 E0.7656
G1 X18.531 Y11.376 E0.0200
G1 X4.030 Y-3.126 E0.7844
G1 X4.182 Y-3.625 E0.0200
G1 X19.031 Y11.224 E0.8032
G1 X19.530 Y11.073 E0.0200
G1 X4.333 Y-4.124 E0.8220
G1 X4.458 Y-4.535 E0.0164
G1 X4.498 Y-4.610 E0.0032
G1 X20.016 Y10.908 E0.8394
G1 X20.440 Y10.681 E0.0184
G1 X4.724 Y-5.034 E0.8501
G1 X4.951 Y-5.458 E0.0184
G1 X20.863 Y10.455 E0.8607
G1 X21.287 Y10.228 E0.0184
G1 X5.178 Y-5.881 E0.8714
G1 X5.404 Y-6.305 E0.0184
G1 X21.711 Y10.002 E0.8821
G1 X21.990 Y9.853 E0.0121
G1 X22.112 Y9.752 E0.0061
G1 X5.654 Y-6.706 E0.8903
