; G-Code generated by Simplify3D(R) Version 4.1.2
; Apr 2, 2020 at 1:21:46 PM
; Settings Summary
;   processName,Process1
;   applyToModels,PenSignBracket
;   profileName,MakerBot Replicator 2 HBP (modified)
;   profileVersion,2020-03-12 10:48:50
;   baseProfile,MakerBot Replicator 2(2)
;   printMaterial,PLA
;   printQuality,Medium
;   printExtruders,
;   extruderName,Primary Extruder
;   extruderToolheadNumber,0
;   extruderDiameter,0.4
;   extruderAutoWidth,0
;   extruderWidth,0.4
;   extrusionMultiplier,1
;   extruderUseRetract,1
;   extruderRetractionDistance,1.9
;   extruderExtraRestartDistance,0
;   extruderRetractionZLift,0.5
;   extruderRetractionSpeed,1200
;   extruderUseCoasting,0
;   extruderCoastingDistance,0.2
;   extruderUseWipe,0
;   extruderWipeDistance,5
;   primaryExtruder,0
;   layerHeight,0.2
;   topSolidLayers,3
;   bottomSolidLayers,3
;   perimeterOutlines,2
;   printPerimetersInsideOut,1
;   startPointOption,3
;   startPointOriginX,0
;   startPointOriginY,150
;   sequentialIslands,0
;   spiralVaseMode,0
;   firstLayerHeightPercentage,100
;   firstLayerWidthPercentage,115
;   firstLayerUnderspeed,0.5
;   useRaft,0
;   raftExtruder,0
;   raftTopLayers,2
;   raftBaseLayers,1
;   raftOffset,1
;   raftSeparationDistance,0.14
;   raftTopInfill,90
;   aboveRaftSpeedMultiplier,0.3
;   useSkirt,0
;   skirtExtruder,0
;   skirtLayers,1
;   skirtOutlines,5
;   skirtOffset,0
;   usePrimePillar,0
;   primePillarExtruder,999
;   primePillarWidth,12
;   primePillarLocation,7
;   primePillarSpeedMultiplier,1
;   useOozeShield,0
;   oozeShieldExtruder,999
;   oozeShieldOffset,2
;   oozeShieldOutlines,1
;   oozeShieldSidewallShape,1
;   oozeShieldSidewallAngle,30
;   oozeShieldSpeedMultiplier,1
;   infillExtruder,0
;   internalInfillPattern,Rectilinear
;   externalInfillPattern,Rectilinear
;   infillPercentage,15
;   outlineOverlapPercentage,25
;   infillExtrusionWidthPercentage,100
;   minInfillLength,5
;   infillLayerInterval,1
;   internalInfillAngles,45,-45
;   overlapInternalInfillAngles,0
;   externalInfillAngles,45,-45
;   generateSupport,0
;   supportExtruder,0
;   supportInfillPercentage,30
;   supportExtraInflation,0.5
;   supportBaseLayers,0
;   denseSupportExtruder,0
;   denseSupportLayers,2
;   denseSupportInfillPercentage,90
;   supportLayerInterval,1
;   supportHorizontalPartOffset,0.3
;   supportUpperSeparationLayers,1
;   supportLowerSeparationLayers,1
;   supportType,1
;   supportGridSpacing,2
;   maxOverhangAngle,45
;   supportAngles,45,-45
;   temperatureName,Primary Extruder,Heated Build Platform
;   temperatureNumber,0,0
;   temperatureSetpointCount,1,1
;   temperatureSetpointLayers,1,1
;   temperatureSetpointTemperatures,230,60
;   temperatureStabilizeAtStartup,1,1
;   temperatureHeatedBed,0,1
;   fanLayers,1,2
;   fanSpeeds,0,100
;   blipFanToFullPower,1
;   adjustSpeedForCooling,1
;   minSpeedLayerTime,15
;   minCoolingSpeedSlowdown,20
;   increaseFanForCooling,1
;   minFanLayerTime,45
;   maxCoolingFanSpeed,100
;   increaseFanForBridging,1
;   bridgingFanSpeed,100
;   use5D,1
;   relativeEdistances,1
;   allowEaxisZeroing,0
;   independentExtruderAxes,1
;   includeM10123,0
;   stickySupport,1
;   applyToolheadOffsets,0
;   gcodeXoffset,0
;   gcodeYoffset,0
;   gcodeZoffset,0
;   overrideMachineDefinition,1
;   machineTypeOverride,0
;   strokeXoverride,280
;   strokeYoverride,150
;   strokeZoverride,150
;   originOffsetXoverride,140
;   originOffsetYoverride,75
;   originOffsetZoverride,0
;   homeXdirOverride,1
;   homeYdirOverride,1
;   homeZdirOverride,-1
;   flipXoverride,1
;   flipYoverride,-1
;   flipZoverride,1
;   toolheadOffsets,0,0|0,0|0,0|0,0|0,0|0,0
;   overrideFirmwareConfiguration,1
;   firmwareTypeOverride,MakerBot/Sailfish Firmware
;   GPXconfigOverride,r2h
;   baudRateOverride,115200
;   overridePrinterModels,1
;   printerModelsOverride,MakerBot_Replicator2.stl
;   startingGcode,; **** Replicator 2 start.gcode ****,M73 P0 ; enable build progress,G162 X Y F3000 ; home XY maximum,G161 Z F1200 ; home Z minimum,G92 Z-5 ; set Z to -5,G1 Z0 ; move Z to 0,G161 Z F100 ; home Z slowly,M132 X Y Z A B ; recall home offsets,G1 X-145 Y-75 Z30 F9000 ; move to wait position off table,G130 X20 Y20 Z20 A20 B20 ; lower stepper Vrefs while heating,M126 S[fan_speed_pwm],M140 S[bed0_temperature] T0,M134 T0 ; stabilize bed temperature,M104 S[extruder0_temperature] T0,M133 T0 ; stabilize extruder temperature,G130 X127 Y127 Z40 A127 B127 ; default stepper Vrefs,G92 A0 ; zero extruder,G1 Z0.4 ; position nozzle,G1 E25 F300 ; purge nozzle,G1 X-140 Y-70 Z0.15 F1200 ; slow wipe,G1 X-135 Y-65 Z0.5 F1200 ; lift,G92 A0 ; zero extruder,M73 P1 ;@body (notify GPX body has started),; **** end of start.gcode ****
;   layerChangeGcode,
;   retractionGcode,
;   toolChangeGcode,
;   endingGcode,; **** Replicator 2 end.gcode ****,M73 P100 ; end build progress,G1 Z155 F1000 ; send Z axis to bottom of machine,M104 S0 T0 ; cool down extruder,M140 S0 T0 ; cool down HBP,M127 ; stop blower fan,G162 X Y F3000 ; home XY maximum,M18 ; disable stepper,M0 ; stop codes,M72 P1 ; play Ta-Da song,; **** end of end.gcode ****
;   exportFileFormat,gcode
;   celebration,0
;   celebrationSong,Random Song
;   postProcessing,
;   defaultSpeed,4800
;   outlineUnderspeed,0.5
;   solidInfillUnderspeed,1
;   supportUnderspeed,1
;   rapidXYspeed,9000
;   rapidZspeed,1200
;   minBridgingArea,50
;   bridgingExtraInflation,0
;   bridgingExtrusionMultiplier,1
;   bridgingSpeedMultiplier,0.8
;   useFixedBridgingAngle,0
;   fixedBridgingAngle,0
;   applyBridgingToPerimeters,0
;   filamentDiameters,1.75|1.75|1.75|1.75|1.75|1.75
;   filamentPricesPerKg,46|46|46|46|46|46
;   filamentDensities,1.25|1.25|1.25|1.25|1.25|1.25
;   useMinPrintHeight,0
;   minPrintHeight,0
;   useMaxPrintHeight,0
;   maxPrintHeight,4.84
;   useDiaphragm,0
;   diaphragmLayerInterval,20
;   robustSlicing,1
;   mergeAllIntoSolid,0
;   onlyRetractWhenCrossingOutline,0
;   retractBetweenLayers,0
;   useRetractionMinTravel,1
;   retractionMinTravel,7
;   retractWhileWiping,1
;   onlyWipeOutlines,1
;   avoidCrossingOutline,0
;   maxMovementDetourFactor,3
;   toolChangeRetractionDistance,12
;   toolChangeExtraRestartDistance,-0.5
;   toolChangeRetractionSpeed,600
;   externalThinWallType,0
;   internalThinWallType,0
;   thinWallAllowedOverlapPercentage,10
;   singleExtrusionMinLength,1
;   singleExtrusionMinPrintingWidthPercentage,50
;   singleExtrusionMaxPrintingWidthPercentage,200
;   singleExtrusionEndpointExtension,0.2
;   horizontalSizeCompensation,0
G90
M83
; **** Replicator 2 start.gcode ****
M73 P0 ; enable build progress
G162 X Y F3000 ; home XY maximum
G161 Z F1200 ; home Z minimum
G92 Z-5 ; set Z to -5
G1 Z0 ; move Z to 0
G161 Z F100 ; home Z slowly
M132 X Y Z A B ; recall home offsets
G1 X-145 Y-75 Z30 F9000 ; move to wait position off table
G130 X20 Y20 Z20 A20 B20 ; lower stepper Vrefs while heating
M127
M140 S60 T0
M134 T0 ; stabilize bed temperature
M104 S230 T0
M133 T0 ; stabilize extruder temperature
G130 X127 Y127 Z40 A127 B127 ; default stepper Vrefs
G92 A0 ; zero extruder
G1 Z0.4 ; position nozzle
G1 E25 F300 ; purge nozzle
G1 X-140 Y-70 Z0.15 F1200 ; slow wipe
G1 X-135 Y-65 Z0.5 F1200 ; lift
G92 A0 ; zero extruder
M73 P1 ;@body (notify GPX body has started)
; **** end of start.gcode ****
; process Process1
; layer 1, Z = 0.200
M135 T0
G1 E-1.9000 F1200
; feature inner perimeter
; tool H0.200 W0.460
G1 Z0.500 F1200
G1 X-19.688 Y31.090 F9000
G1 Z0.200 F1200
G1 E1.9000 F1200
G1 X-25.309 Y31.090 E0.2150 F1800
G1 X-25.309 Y-23.930 E2.1045
G1 X-48.315 Y-23.930 E0.8799
G1 X-48.315 Y-29.630 E0.2180
G1 X36.053 Y-29.630 E3.2270
G1 X46.052 Y-31.090 E0.3865
G1 X48.315 Y-31.090 E0.0866
G1 X48.315 Y-22.470 E0.3297
G1 X46.052 Y-22.470 E0.0866
G1 X36.053 Y-23.930 E0.3865
G1 X-19.688 Y-23.930 E2.1321
G1 X-19.688 Y31.090 E2.1045
; feature outer perimeter
G1 X-19.228 Y31.550 F9000
G1 X-25.769 Y31.550 E0.2502 F1200
G1 X-25.769 Y-23.470 E2.1045
G1 X-48.775 Y-23.470 E0.8799
G1 X-48.775 Y-30.090 E0.2532
G1 X36.020 Y-30.090 E3.2433
G1 X46.018 Y-31.550 E0.3865
G1 X48.775 Y-31.550 E0.1054
G1 X48.775 Y-22.010 E0.3649
G1 X46.018 Y-22.010 E0.1054
G1 X36.020 Y-23.470 E0.3865
G1 X-19.228 Y-23.470 E2.1132
G1 X-19.228 Y31.550 E2.1045
; feature solid layer
G1 X-24.964 Y30.331 F9000
G1 X-24.551 Y30.745 E0.0224 F2400
G1 X-23.900 Y30.745 E0.0249
G1 X-24.964 Y29.681 E0.0576
G1 X-24.964 Y29.030 E0.0249
G1 X-23.249 Y30.745 E0.0928
G1 X-22.599 Y30.745 E0.0249
G1 X-24.964 Y28.380 E0.1279
G1 X-24.964 Y27.729 E0.0249
G1 X-21.948 Y30.745 E0.1631
G1 X-21.298 Y30.745 E0.0249
G1 X-24.964 Y27.079 E0.1983
G1 X-24.964 Y26.428 E0.0249
G1 X-20.647 Y30.745 E0.2335
G1 X-20.033 Y30.745 E0.0235
G1 X-20.033 Y30.709 E0.0014
G1 X-24.964 Y25.778 E0.2667
G1 X-24.964 Y25.127 E0.0249
G1 X-20.033 Y30.058 E0.2667
G1 X-20.033 Y29.408 E0.0249
G1 X-24.964 Y24.477 E0.2667
G1 X-24.964 Y23.826 E0.0249
G1 X-20.033 Y28.757 E0.2667
G1 X-20.033 Y28.107 E0.0249
G1 X-24.964 Y23.176 E0.2667
G1 X-24.964 Y22.525 E0.0249
G1 X-20.033 Y27.456 E0.2667
G1 X-20.033 Y26.806 E0.0249
G1 X-24.964 Y21.874 E0.2667
G1 X-24.964 Y21.224 E0.0249
G1 X-20.033 Y26.155 E0.2667
G1 X-20.033 Y25.505 E0.0249
G1 X-24.964 Y20.573 E0.2667
G1 X-24.964 Y19.923 E0.0249
G1 X-20.033 Y24.854 E0.2667
G1 X-20.033 Y24.204 E0.0249
G1 X-24.964 Y19.272 E0.2667
G1 X-24.964 Y18.622 E0.0249
G1 X-20.033 Y23.553 E0.2667
G1 X-20.033 Y22.903 E0.0249
G1 X-24.964 Y17.971 E0.2667
G1 X-24.964 Y17.321 E0.0249
G1 X-20.033 Y22.252 E0.2667
G1 X-20.033 Y21.601 E0.0249
G1 X-24.964 Y16.670 E0.2667
G1 X-24.964 Y16.020 E0.0249
G1 X-20.033 Y20.951 E0.2667
G1 X-20.033 Y20.300 E0.0249
G1 X-24.964 Y15.369 E0.2667
G1 X-24.964 Y14.719 E0.0249
G1 X-20.033 Y19.650 E0.2667
G1 X-20.033 Y18.999 E0.0249
G1 X-24.964 Y14.068 E0.2667
G1 X-24.964 Y13.417 E0.0249
G1 X-20.033 Y18.349 E0.2667
G1 X-20.033 Y17.698 E0.0249
G1 X-24.964 Y12.767 E0.2667
G1 X-24.964 Y12.116 E0.0249
G1 X-20.033 Y17.048 E0.2667
G1 X-20.033 Y16.397 E0.0249
G1 X-24.964 Y11.466 E0.2667
G1 X-24.964 Y10.815 E0.0249
G1 X-20.033 Y15.747 E0.2667
G1 X-20.033 Y15.096 E0.0249
G1 X-24.964 Y10.165 E0.2667
G1 X-24.964 Y9.514 E0.0249
G1 X-20.033 Y14.446 E0.2667
G1 X-20.033 Y13.795 E0.0249
G1 X-24.964 Y8.864 E0.2667
G1 X-24.964 Y8.213 E0.0249
G1 X-20.033 Y13.144 E0.2667
G1 X-20.033 Y12.494 E0.0249
G1 X-24.964 Y7.563 E0.2667
G1 X-24.964 Y6.912 E0.0249
G1 X-20.033 Y11.843 E0.2667
G1 X-20.033 Y11.193 E0.0249
G1 X-24.964 Y6.262 E0.2667
G1 X-24.964 Y5.611 E0.0249
G1 X-20.033 Y10.542 E0.2667
G1 X-20.033 Y9.892 E0.0249
G1 X-24.964 Y4.960 E0.2667
G1 X-24.964 Y4.310 E0.0249
G1 X-20.033 Y9.241 E0.2667
G1 X-20.033 Y8.591 E0.0249
G1 X-24.964 Y3.659 E0.2667
G1 X-24.964 Y3.009 E0.0249
G1 X-20.033 Y7.940 E0.2667
G1 X-20.033 Y7.290 E0.0249
G1 X-24.964 Y2.358 E0.2667
G1 X-24.964 Y1.708 E0.0249
G1 X-20.033 Y6.639 E0.2667
G1 X-20.033 Y5.989 E0.0249
G1 X-24.964 Y1.057 E0.2667
G1 X-24.964 Y0.407 E0.0249
G1 X-20.033 Y5.338 E0.2667
G1 X-20.033 Y4.687 E0.0249
G1 X-24.964 Y-0.244 E0.2667
G1 X-24.964 Y-0.894 E0.0249
G1 X-20.033 Y4.037 E0.2667
G1 X-20.033 Y3.386 E0.0249
G1 X-24.964 Y-1.545 E0.2667
G1 X-24.964 Y-2.195 E0.0249
G1 X-20.033 Y2.736 E0.2667
G1 X-20.033 Y2.085 E0.0249
G1 X-24.964 Y-2.846 E0.2667
G1 X-24.964 Y-3.497 E0.0249
G1 X-20.033 Y1.435 E0.2667
G1 X-20.033 Y0.784 E0.0249
G1 X-24.964 Y-4.147 E0.2667
G1 X-24.964 Y-4.798 E0.0249
G1 X-20.033 Y0.134 E0.2667
G1 X-20.033 Y-0.517 E0.0249
G1 X-24.964 Y-5.448 E0.2667
G1 X-24.964 Y-6.099 E0.0249
G1 X-20.033 Y-1.167 E0.2667
G1 X-20.033 Y-1.818 E0.0249
G1 X-24.964 Y-6.749 E0.2667
G1 X-24.964 Y-7.400 E0.0249
G1 X-20.033 Y-2.468 E0.2667
G1 X-20.033 Y-3.119 E0.0249
G1 X-24.964 Y-8.050 E0.2667
G1 X-24.964 Y-8.701 E0.0249
G1 X-20.033 Y-3.770 E0.2667
G1 X-20.033 Y-4.420 E0.0249
G1 X-24.964 Y-9.351 E0.2667
G1 X-24.964 Y-10.002 E0.0249
G1 X-20.033 Y-5.071 E0.2667
G1 X-20.033 Y-5.721 E0.0249
G1 X-24.964 Y-10.652 E0.2667
G1 X-24.964 Y-11.303 E0.0249
G1 X-20.033 Y-6.372 E0.2667
G1 X-20.033 Y-7.022 E0.0249
G1 X-24.964 Y-11.954 E0.2667
G1 X-24.964 Y-12.604 E0.0249
G1 X-20.033 Y-7.673 E0.2667
G1 X-20.033 Y-8.323 E0.0249
G1 X-24.964 Y-13.255 E0.2667
G1 X-24.964 Y-13.905 E0.0249
G1 X-20.033 Y-8.974 E0.2667
G1 X-20.033 Y-9.624 E0.0249
G1 X-24.964 Y-14.556 E0.2667
G1 X-24.964 Y-15.206 E0.0249
G1 X-20.033 Y-10.275 E0.2667
G1 X-20.033 Y-10.925 E0.0249
G1 X-24.964 Y-15.857 E0.2667
G1 X-24.964 Y-16.507 E0.0249
G1 X-20.033 Y-11.576 E0.2667
G1 X-20.033 Y-12.227 E0.0249
G1 X-24.964 Y-17.158 E0.2667
G1 X-24.964 Y-17.808 E0.0249
G1 X-20.033 Y-12.877 E0.2667
G1 X-20.033 Y-13.528 E0.0249
G1 X-24.964 Y-18.459 E0.2667
G1 X-24.964 Y-19.109 E0.0249
G1 X-20.033 Y-14.178 E0.2667
G1 X-20.033 Y-14.829 E0.0249
G1 X-24.964 Y-19.760 E0.2667
G1 X-24.964 Y-20.411 E0.0249
G1 X-20.033 Y-15.479 E0.2667
G1 X-20.033 Y-16.130 E0.0249
G1 X-24.964 Y-21.061 E0.2667
G1 X-24.964 Y-21.712 E0.0249
G1 X-20.033 Y-16.780 E0.2667
G1 X-20.033 Y-17.431 E0.0249
G1 X-24.964 Y-22.362 E0.2667
G1 X-24.964 Y-23.013 E0.0249
G1 X-20.033 Y-18.081 E0.2667
G1 X-20.033 Y-18.732 E0.0249
G1 X-24.964 Y-23.663 E0.2667
G1 E-1.9000 F1200
G1 Z0.700 F1200
G1 X-47.694 Y-24.275 F9000
G1 Z0.200 F1200
G1 E1.9000 F1200
G1 X-47.970 Y-24.551 E0.0149 F2400
G1 X-47.970 Y-25.201 E0.0249
G1 X-47.044 Y-24.275 E0.0501
G1 X-46.393 Y-24.275 E0.0249
G1 X-47.970 Y-25.852 E0.0853
G1 X-47.970 Y-26.502 E0.0249
G1 X-45.743 Y-24.275 E0.1205
G1 X-45.092 Y-24.275 E0.0249
G1 X-47.970 Y-27.153 E0.1557
G1 X-47.970 Y-27.803 E0.0249
G1 X-44.442 Y-24.275 E0.1908
G1 X-43.791 Y-24.275 E0.0249
G1 X-47.970 Y-28.454 E0.2260
G1 X-47.970 Y-29.104 E0.0249
G1 X-43.141 Y-24.275 E0.2612
G1 X-42.490 Y-24.275 E0.0249
G1 X-47.500 Y-29.285 E0.2710
G1 X-46.850 Y-29.285 E0.0249
G1 X-41.840 Y-24.275 E0.2710
G1 X-41.189 Y-24.275 E0.0249
G1 X-46.199 Y-29.285 E0.2710
G1 X-45.549 Y-29.285 E0.0249
G1 X-40.538 Y-24.275 E0.2710
G1 X-39.888 Y-24.275 E0.0249
G1 X-44.898 Y-29.285 E0.2710
G1 X-44.248 Y-29.285 E0.0249
G1 X-39.237 Y-24.275 E0.2710
G1 X-38.587 Y-24.275 E0.0249
G1 X-43.597 Y-29.285 E0.2710
G1 X-42.947 Y-29.285 E0.0249
G1 X-37.936 Y-24.275 E0.2710
G1 X-37.286 Y-24.275 E0.0249
G1 X-42.296 Y-29.285 E0.2710
G1 X-41.646 Y-29.285 E0.0249
G1 X-36.635 Y-24.275 E0.2710
G1 X-35.985 Y-24.275 E0.0249
G1 X-40.995 Y-29.285 E0.2710
G1 X-40.344 Y-29.285 E0.0249
G1 X-35.334 Y-24.275 E0.2710
G1 X-34.684 Y-24.275 E0.0249
G1 X-39.694 Y-29.285 E0.2710
G1 X-39.043 Y-29.285 E0.0249
G1 X-34.033 Y-24.275 E0.2710
G1 X-33.383 Y-24.275 E0.0249
G1 X-38.393 Y-29.285 E0.2710
G1 X-37.742 Y-29.285 E0.0249
G1 X-32.732 Y-24.275 E0.2710
G1 X-32.081 Y-24.275 E0.0249
G1 X-37.092 Y-29.285 E0.2710
G1 X-36.441 Y-29.285 E0.0249
G1 X-31.431 Y-24.275 E0.2710
G1 X-30.780 Y-24.275 E0.0249
G1 X-35.791 Y-29.285 E0.2710
G1 X-35.140 Y-29.285 E0.0249
G1 X-30.130 Y-24.275 E0.2710
G1 X-29.479 Y-24.275 E0.0249
G1 X-34.490 Y-29.285 E0.2710
G1 X-33.839 Y-29.285 E0.0249
G1 X-28.829 Y-24.275 E0.2710
G1 X-28.178 Y-24.275 E0.0249
G1 X-33.189 Y-29.285 E0.2710
G1 X-32.538 Y-29.285 E0.0249
G1 X-27.528 Y-24.275 E0.2710
G1 X-26.877 Y-24.275 E0.0249
G1 X-31.887 Y-29.285 E0.2710
G1 X-31.237 Y-29.285 E0.0249
G1 X-26.227 Y-24.275 E0.2710
G1 X-25.576 Y-24.275 E0.0249
G1 X-30.586 Y-29.285 E0.2710
G1 X-29.936 Y-29.285 E0.0249
G1 X-20.033 Y-19.382 E0.5357
G1 X-20.033 Y-20.033 E0.0249
G1 X-29.285 Y-29.285 E0.5005
G1 X-28.635 Y-29.285 E0.0249
G1 X-20.033 Y-20.684 E0.4653
G1 X-20.033 Y-21.334 E0.0249
G1 X-27.984 Y-29.285 E0.4301
G1 X-27.334 Y-29.285 E0.0249
G1 X-20.033 Y-21.985 E0.3949
G1 X-20.033 Y-22.635 E0.0249
G1 X-26.683 Y-29.285 E0.3597
G1 X-26.033 Y-29.285 E0.0249
G1 X-20.033 Y-23.286 E0.3245
G1 X-20.033 Y-23.936 E0.0249
G1 X-25.382 Y-29.285 E0.2893
G1 X-24.732 Y-29.285 E0.0249
G1 X-19.721 Y-24.275 E0.2710
G1 X-19.071 Y-24.275 E0.0249
G1 X-24.081 Y-29.285 E0.2710
G1 X-23.430 Y-29.285 E0.0249
G1 X-18.420 Y-24.275 E0.2710
G1 X-17.770 Y-24.275 E0.0249
G1 X-22.780 Y-29.285 E0.2710
G1 X-22.129 Y-29.285 E0.0249
G1 X-17.119 Y-24.275 E0.2710
G1 X-16.469 Y-24.275 E0.0249
G1 X-21.479 Y-29.285 E0.2710
G1 X-20.828 Y-29.285 E0.0249
G1 X-15.818 Y-24.275 E0.2710
G1 X-15.167 Y-24.275 E0.0249
