; G-Code generated by Simplify3D(R) Version 4.1.2
; Apr 2, 2020 at 2:36:08 PM
; Settings Summary
;   processName,Process1
;   applyToModels,Dome,Dome(2),Dome(3)
;   profileName,MakerBot Replicator 2 HBP (modified)
;   profileVersion,2020-03-12 10:48:50
;   baseProfile,MakerBot Replicator 2(2)
;   printMaterial,PLA
;   printQuality,Medium
;   printExtruders,
;   extruderName,Primary Extruder
;   extruderToolheadNumber,0
;   extruderDiameter,0.4
;   extruderAutoWidth,0
;   extruderWidth,0.4
;   extrusionMultiplier,1
;   extruderUseRetract,1
;   extruderRetractionDistance,1.9
;   extruderExtraRestartDistance,0
;   extruderRetractionZLift,0.5
;   extruderRetractionSpeed,1200
;   extruderUseCoasting,0
;   extruderCoastingDistance,0.2
;   extruderUseWipe,0
;   extruderWipeDistance,5
;   primaryExtruder,0
;   layerHeight,0.2
;   topSolidLayers,3
;   bottomSolidLayers,3
;   perimeterOutlines,2
;   printPerimetersInsideOut,1
;   startPointOption,3
;   startPointOriginX,0
;   startPointOriginY,150
;   sequentialIslands,0
;   spiralVaseMode,0
;   firstLayerHeightPercentage,100
;   firstLayerWidthPercentage,115
;   firstLayerUnderspeed,0.5
;   useRaft,0
;   raftExtruder,0
;   raftTopLayers,2
;   raftBaseLayers,1
;   raftOffset,1
;   raftSeparationDistance,0.14
;   raftTopInfill,90
;   aboveRaftSpeedMultiplier,0.3
;   useSkirt,0
;   skirtExtruder,0
;   skirtLayers,1
;   skirtOutlines,5
;   skirtOffset,0
;   usePrimePillar,0
;   primePillarExtruder,999
;   primePillarWidth,12
;   primePillarLocation,7
;   primePillarSpeedMultiplier,1
;   useOozeShield,0
;   oozeShieldExtruder,999
;   oozeShieldOffset,2
;   oozeShieldOutlines,1
;   oozeShieldSidewallShape,1
;   oozeShieldSidewallAngle,30
;   oozeShieldSpeedMultiplier,1
;   infillExtruder,0
;   internalInfillPattern,Rectilinear
;   externalInfillPattern,Rectilinear
;   infillPercentage,15
;   outlineOverlapPercentage,25
;   infillExtrusionWidthPercentage,100
;   minInfillLength,5
;   infillLayerInterval,1
;   internalInfillAngles,45,-45
;   overlapInternalInfillAngles,0
;   externalInfillAngles,45,-45
;   generateSupport,0
;   supportExtruder,0
;   supportInfillPercentage,30
;   supportExtraInflation,0.5
;   supportBaseLayers,0
;   denseSupportExtruder,0
;   denseSupportLayers,2
;   denseSupportInfillPercentage,90
;   supportLayerInterval,1
;   supportHorizontalPartOffset,0.3
;   supportUpperSeparationLayers,1
;   supportLowerSeparationLayers,1
;   supportType,1
;   supportGridSpacing,2
;   maxOverhangAngle,45
;   supportAngles,45,-45
;   temperatureName,Primary Extruder,Heated Build Platform
;   temperatureNumber,0,0
;   temperatureSetpointCount,1,1
;   temperatureSetpointLayers,1,1
;   temperatureSetpointTemperatures,230,60
;   temperatureStabilizeAtStartup,1,1
;   temperatureHeatedBed,0,1
;   fanLayers,1,2
;   fanSpeeds,0,100
;   blipFanToFullPower,1
;   adjustSpeedForCooling,1
;   minSpeedLayerTime,15
;   minCoolingSpeedSlowdown,20
;   increaseFanForCooling,1
;   minFanLayerTime,45
;   maxCoolingFanSpeed,100
;   increaseFanForBridging,1
;   bridgingFanSpeed,100
;   use5D,1
;   relativeEdistances,1
;   allowEaxisZeroing,0
;   independentExtruderAxes,1
;   includeM10123,0
;   stickySupport,1
;   applyToolheadOffsets,0
;   gcodeXoffset,0
;   gcodeYoffset,0
;   gcodeZoffset,0
;   overrideMachineDefinition,1
;   machineTypeOverride,0
;   strokeXoverride,280
;   strokeYoverride,150
;   strokeZoverride,150
;   originOffsetXoverride,140
;   originOffsetYoverride,75
;   originOffsetZoverride,0
;   homeXdirOverride,1
;   homeYdirOverride,1
;   homeZdirOverride,-1
;   flipXoverride,1
;   flipYoverride,-1
;   flipZoverride,1
;   toolheadOffsets,0,0|0,0|0,0|0,0|0,0|0,0
;   overrideFirmwareConfiguration,1
;   firmwareTypeOverride,MakerBot/Sailfish Firmware
;   GPXconfigOverride,r2h
;   baudRateOverride,115200
;   overridePrinterModels,1
;   printerModelsOverride,MakerBot_Replicator2.stl
;   startingGcode,; **** Replicator 2 start.gcode ****,M73 P0 ; enable build progress,G162 X Y F3000 ; home XY maximum,G161 Z F1200 ; home Z minimum,G92 Z-5 ; set Z to -5,G1 Z0 ; move Z to 0,G161 Z F100 ; home Z slowly,M132 X Y Z A B ; recall home offsets,G1 X-145 Y-75 Z30 F9000 ; move to wait position off table,G130 X20 Y20 Z20 A20 B20 ; lower stepper Vrefs while heating,M126 S[fan_speed_pwm],M140 S[bed0_temperature] T0,M134 T0 ; stabilize bed temperature,M104 S[extruder0_temperature] T0,M133 T0 ; stabilize extruder temperature,G130 X127 Y127 Z40 A127 B127 ; default stepper Vrefs,G92 A0 ; zero extruder,G1 Z0.4 ; position nozzle,G1 E25 F300 ; purge nozzle,G1 X-140 Y-70 Z0.15 F1200 ; slow wipe,G1 X-135 Y-65 Z0.5 F1200 ; lift,G92 A0 ; zero extruder,M73 P1 ;@body (notify GPX body has started),; **** end of start.gcode ****
;   layerChangeGcode,
;   retractionGcode,
;   toolChangeGcode,
;   endingGcode,; **** Replicator 2 end.gcode ****,M73 P100 ; end build progress,G1 Z155 F1000 ; send Z axis to bottom of machine,M104 S0 T0 ; cool down extruder,M140 S0 T0 ; cool down HBP,M127 ; stop blower fan,G162 X Y F3000 ; home XY maximum,M18 ; disable stepper,M0 ; stop codes,M72 P1 ; play Ta-Da song,; **** end of end.gcode ****
;   exportFileFormat,gcode
;   celebration,0
;   celebrationSong,Random Song
;   postProcessing,
;   defaultSpeed,4800
;   outlineUnderspeed,0.5
;   solidInfillUnderspeed,1
;   supportUnderspeed,1
;   rapidXYspeed,9000
;   rapidZspeed,1200
;   minBridgingArea,50
;   bridgingExtraInflation,0
;   bridgingExtrusionMultiplier,1
;   bridgingSpeedMultiplier,0.8
;   useFixedBridgingAngle,0
;   fixedBridgingAngle,0
;   applyBridgingToPerimeters,0
;   filamentDiameters,1.75|1.75|1.75|1.75|1.75|1.75
;   filamentPricesPerKg,46|46|46|46|46|46
;   filamentDensities,1.25|1.25|1.25|1.25|1.25|1.25
;   useMinPrintHeight,0
;   minPrintHeight,0
;   useMaxPrintHeight,0
;   maxPrintHeight,4.84
;   useDiaphragm,0
;   diaphragmLayerInterval,20
;   robustSlicing,1
;   mergeAllIntoSolid,0
;   onlyRetractWhenCrossingOutline,0
;   retractBetweenLayers,0
;   useRetractionMinTravel,1
;   retractionMinTravel,7
;   retractWhileWiping,1
;   onlyWipeOutlines,1
;   avoidCrossingOutline,0
;   maxMovementDetourFactor,3
;   toolChangeRetractionDistance,12
;   toolChangeExtraRestartDistance,-0.5
;   toolChangeRetractionSpeed,600
;   externalThinWallType,0
;   internalThinWallType,0
;   thinWallAllowedOverlapPercentage,10
;   singleExtrusionMinLength,1
;   singleExtrusionMinPrintingWidthPercentage,50
;   singleExtrusionMaxPrintingWidthPercentage,200
;   singleExtrusionEndpointExtension,0.2
;   horizontalSizeCompensation,0
G90
M83
; **** Replicator 2 start.gcode ****
M73 P0 ; enable build progress
G162 X Y F3000 ; home XY maximum
G161 Z F1200 ; home Z minimum
G92 Z-5 ; set Z to -5
G1 Z0 ; move Z to 0
G161 Z F100 ; home Z slowly
M132 X Y Z A B ; recall home offsets
G1 X-145 Y-75 Z30 F9000 ; move to wait position off table
G130 X20 Y20 Z20 A20 B20 ; lower stepper Vrefs while heating
M126 S168
M140 S60 T0
M134 T0 ; stabilize bed temperature
M104 S230 T0
M133 T0 ; stabilize extruder temperature
G130 X127 Y127 Z40 A127 B127 ; default stepper Vrefs
G92 A0 ; zero extruder
G1 Z0.4 ; position nozzle
G1 E25 F300 ; purge nozzle
G1 X-140 Y-70 Z0.15 F1200 ; slow wipe
G1 X-135 Y-65 Z0.5 F1200 ; lift
G92 A0 ; zero extruder
M73 P1 ;@body (notify GPX body has started)
; **** end of start.gcode ****
; process Process1
; layer 1, Z = 0.200
M135 T0
G1 E-1.9000 F1200
; feature inner perimeter
; tool H0.200 W0.460
G1 Z0.500 F1200
G1 X0.137 Y5.157 F9000
G1 Z0.200 F1200
G1 E1.9000 F1200
G1 X-0.412 Y5.143 E0.0210 F1800
G1 X-0.956 Y5.070 E0.0210
G1 X-1.489 Y4.939 E0.0210
G1 X-2.006 Y4.753 E0.0210
G1 X-2.500 Y4.513 E0.0210
G1 X-2.965 Y4.222 E0.0210
G1 X-3.397 Y3.883 E0.0210
G1 X-3.791 Y3.499 E0.0210
G1 X-4.141 Y3.077 E0.0210
G1 X-4.445 Y2.619 E0.0210
G1 X-4.698 Y2.132 E0.0210
G1 X-4.898 Y1.620 E0.0210
G1 X-5.042 Y1.090 E0.0210
G1 X-5.130 Y0.548 E0.0210
G1 X-5.159 Y0.000 E0.0210
G1 X-5.130 Y-0.548 E0.0210
G1 X-5.042 Y-1.090 E0.0210
G1 X-4.898 Y-1.620 E0.0210
G1 X-4.698 Y-2.132 E0.0210
G1 X-4.445 Y-2.619 E0.0210
G1 X-4.141 Y-3.077 E0.0210
G1 X-3.828 Y-3.454 E0.0188
G1 X-3.395 Y-3.885 E0.0234
G1 X-2.965 Y-4.222 E0.0209
G1 X-2.500 Y-4.513 E0.0210
G1 X-2.006 Y-4.753 E0.0210
G1 X-1.489 Y-4.939 E0.0210
G1 X-0.956 Y-5.070 E0.0210
G1 X-0.412 Y-5.143 E0.0210
G1 X0.137 Y-5.157 E0.0210
G1 X0.685 Y-5.113 E0.0210
G1 X1.224 Y-5.012 E0.0210
G1 X1.750 Y-4.853 E0.0210
G1 X2.256 Y-4.640 E0.0210
G1 X2.737 Y-4.373 E0.0210
G1 X3.186 Y-4.058 E0.0210
G1 X3.599 Y-3.696 E0.0210
G1 X3.972 Y-3.293 E0.0210
G1 X4.299 Y-2.852 E0.0210
G1 X4.578 Y-2.379 E0.0210
G1 X4.805 Y-1.879 E0.0210
G1 X4.977 Y-1.357 E0.0210
G1 X5.093 Y-0.821 E0.0210
G1 X5.152 Y-0.275 E0.0210
G1 X5.152 Y0.275 E0.0210
G1 X5.093 Y0.821 E0.0210
G1 X4.977 Y1.357 E0.0210
G1 X4.805 Y1.879 E0.0210
G1 X4.578 Y2.379 E0.0210
G1 X4.299 Y2.852 E0.0210
G1 X3.972 Y3.293 E0.0210
G1 X3.599 Y3.696 E0.0210
G1 X3.186 Y4.058 E0.0210
G1 X2.737 Y4.373 E0.0210
G1 X2.256 Y4.640 E0.0210
G1 X1.750 Y4.853 E0.0210
G1 X1.224 Y5.012 E0.0210
G1 X0.685 Y5.113 E0.0210
G1 X0.137 Y5.157 E0.0210
; feature outer perimeter
G1 X0.150 Y5.618 F9000
G1 X-0.448 Y5.602 E0.0229 F1200
G1 X-1.041 Y5.522 E0.0229
G1 X-1.622 Y5.380 E0.0229
G1 X-2.185 Y5.177 E0.0229
G1 X-2.723 Y4.916 E0.0229
G1 X-3.230 Y4.599 E0.0229
G1 X-3.701 Y4.229 E0.0229
G1 X-4.129 Y3.812 E0.0229
G1 X-4.511 Y3.351 E0.0229
G1 X-4.842 Y2.853 E0.0229
G1 X-5.117 Y2.322 E0.0229
G1 X-5.335 Y1.765 E0.0229
G1 X-5.493 Y1.188 E0.0229
G1 X-5.588 Y0.597 E0.0229
G1 X-5.620 Y0.000 E0.0229
G1 X-5.588 Y-0.597 E0.0229
G1 X-5.493 Y-1.188 E0.0229
G1 X-5.335 Y-1.765 E0.0229
G1 X-5.117 Y-2.322 E0.0229
G1 X-4.842 Y-2.853 E0.0229
G1 X-4.511 Y-3.351 E0.0229
G1 X-4.168 Y-3.765 E0.0205
G1 X-3.700 Y-4.230 E0.0252
G1 X-3.230 Y-4.599 E0.0228
G1 X-2.723 Y-4.916 E0.0229
G1 X-2.185 Y-5.177 E0.0229
G1 X-1.622 Y-5.380 E0.0229
G1 X-1.041 Y-5.522 E0.0229
G1 X-0.448 Y-5.602 E0.0229
G1 X0.150 Y-5.618 E0.0229
G1 X0.746 Y-5.570 E0.0229
G1 X1.334 Y-5.459 E0.0229
G1 X1.906 Y-5.286 E0.0229
G1 X2.457 Y-5.054 E0.0229
G1 X2.981 Y-4.764 E0.0229
G1 X3.470 Y-4.420 E0.0229
G1 X3.920 Y-4.026 E0.0229
G1 X4.326 Y-3.587 E0.0229
G1 X4.683 Y-3.107 E0.0229
G1 X4.987 Y-2.591 E0.0229
G1 X5.234 Y-2.046 E0.0229
G1 X5.422 Y-1.479 E0.0229
G1 X5.548 Y-0.894 E0.0229
G1 X5.612 Y-0.299 E0.0229
G1 X5.612 Y0.299 E0.0229
G1 X5.548 Y0.894 E0.0229
G1 X5.422 Y1.479 E0.0229
G1 X5.234 Y2.046 E0.0229
G1 X4.987 Y2.591 E0.0229
G1 X4.683 Y3.107 E0.0229
G1 X4.326 Y3.587 E0.0229
G1 X3.920 Y4.026 E0.0229
G1 X3.470 Y4.420 E0.0229
G1 X2.981 Y4.764 E0.0229
G1 X2.457 Y5.054 E0.0229
G1 X1.906 Y5.286 E0.0229
G1 X1.334 Y5.459 E0.0229
G1 X0.746 Y5.570 E0.0229
G1 X0.150 Y5.618 E0.0229
; feature inner perimeter
G1 X0.106 Y4.646 F9000
G1 X0.528 Y4.617 E0.0162 F1800
G1 X0.946 Y4.550 E0.0162
G1 X1.355 Y4.445 E0.0162
G1 X1.754 Y4.304 E0.0162
G1 X2.138 Y4.126 E0.0162
G1 X2.504 Y3.915 E0.0162
G1 X2.850 Y3.671 E0.0162
G1 X3.172 Y3.397 E0.0162
G1 X3.468 Y3.094 E0.0162
G1 X3.735 Y2.766 E0.0162
G1 X3.971 Y2.415 E0.0162
G1 X4.174 Y2.044 E0.0162
G1 X4.343 Y1.656 E0.0162
G1 X4.475 Y1.254 E0.0162
G1 X4.571 Y0.842 E0.0162
G1 X4.628 Y0.423 E0.0162
G1 X4.647 Y0.000 E0.0162
G1 X4.628 Y-0.423 E0.0162
G1 X4.570 Y-0.849 E0.0164
G1 X4.441 Y-1.357 E0.0201
G1 X4.343 Y-1.656 E0.0120
G1 X4.174 Y-2.044 E0.0162
G1 X3.971 Y-2.415 E0.0162
G1 X3.735 Y-2.766 E0.0162
G1 X3.468 Y-3.094 E0.0162
G1 X3.172 Y-3.397 E0.0162
G1 X2.850 Y-3.671 E0.0162
G1 X2.504 Y-3.915 E0.0162
G1 X2.138 Y-4.126 E0.0162
G1 X1.748 Y-4.307 E0.0164
G1 X1.250 Y-4.472 E0.0201
G1 X0.946 Y-4.550 E0.0120
G1 X0.528 Y-4.617 E0.0162
G1 X0.106 Y-4.646 E0.0162
G1 X-0.317 Y-4.637 E0.0162
G1 X-0.737 Y-4.589 E0.0162
G1 X-1.152 Y-4.502 E0.0162
G1 X-1.556 Y-4.379 E0.0162
G1 X-1.948 Y-4.219 E0.0162
G1 X-2.324 Y-4.025 E0.0162
G1 X-2.680 Y-3.797 E0.0162
G1 X-3.014 Y-3.537 E0.0162
G1 X-3.323 Y-3.249 E0.0162
G1 X-3.605 Y-2.933 E0.0162
G1 X-3.861 Y-2.587 E0.0164
G1 X-4.124 Y-2.134 E0.0201
G1 X-4.263 Y-1.852 E0.0120
G1 X-4.413 Y-1.456 E0.0162
G1 X-4.528 Y-1.049 E0.0162
G1 X-4.604 Y-0.633 E0.0162
G1 X-4.643 Y-0.212 E0.0162
G1 X-4.643 Y0.212 E0.0162
G1 X-4.604 Y0.633 E0.0162
G1 X-4.528 Y1.049 E0.0162
G1 X-4.413 Y1.456 E0.0162
G1 X-4.263 Y1.852 E0.0162
G1 X-4.077 Y2.231 E0.0162
G1 X-3.853 Y2.599 E0.0164
G1 X-3.533 Y3.014 E0.0201
G1 X-3.323 Y3.249 E0.0120
G1 X-3.014 Y3.537 E0.0162
G1 X-2.680 Y3.797 E0.0162
G1 X-2.324 Y4.025 E0.0162
G1 X-1.948 Y4.219 E0.0162
G1 X-1.556 Y4.379 E0.0162
G1 X-1.152 Y4.502 E0.0162
G1 X-0.737 Y4.589 E0.0162
G1 X-0.317 Y4.637 E0.0162
G1 X0.106 Y4.646 E0.0162
; feature outer perimeter
G1 X0.095 Y4.186 F9000
G1 X0.476 Y4.160 E0.0146 F1200
G1 X0.852 Y4.099 E0.0146
G1 X1.221 Y4.005 E0.0146
G1 X1.580 Y3.877 E0.0146
G1 X1.926 Y3.718 E0.0146
G1 X2.256 Y3.527 E0.0146
G1 X2.568 Y3.307 E0.0146
G1 X2.858 Y3.060 E0.0146
G1 X3.124 Y2.787 E0.0146
G1 X3.365 Y2.492 E0.0146
G1 X3.577 Y2.175 E0.0146
G1 X3.760 Y1.841 E0.0146
G1 X3.912 Y1.492 E0.0146
G1 X4.032 Y1.130 E0.0146
G1 X4.118 Y0.758 E0.0146
G1 X4.170 Y0.381 E0.0146
G1 X4.187 Y0.000 E0.0146
G1 X4.170 Y-0.381 E0.0146
G1 X4.117 Y-0.761 E0.0147
G1 X3.999 Y-1.228 E0.0184
G1 X3.912 Y-1.492 E0.0106
G1 X3.760 Y-1.841 E0.0146
G1 X3.577 Y-2.175 E0.0146
G1 X3.365 Y-2.492 E0.0146
G1 X3.124 Y-2.787 E0.0146
G1 X2.858 Y-3.060 E0.0146
G1 X2.568 Y-3.307 E0.0146
G1 X2.256 Y-3.527 E0.0146
G1 X1.926 Y-3.718 E0.0146
G1 X1.578 Y-3.878 E0.0147
G1 X1.121 Y-4.031 E0.0184
G1 X0.852 Y-4.099 E0.0106
G1 X0.476 Y-4.160 E0.0146
G1 X0.095 Y-4.186 E0.0146
G1 X-0.286 Y-4.177 E0.0146
G1 X-0.664 Y-4.134 E0.0146
G1 X-1.038 Y-4.056 E0.0146
G1 X-1.402 Y-3.945 E0.0146
G1 X-1.755 Y-3.801 E0.0146
G1 X-2.093 Y-3.626 E0.0146
G1 X-2.415 Y-3.421 E0.0146
G1 X-2.716 Y-3.187 E0.0146
G1 X-2.994 Y-2.927 E0.0146
G1 X-3.248 Y-2.642 E0.0146
G1 X-3.476 Y-2.334 E0.0147
G1 X-3.718 Y-1.917 E0.0184
G1 X-3.840 Y-1.668 E0.0106
G1 X-3.976 Y-1.312 E0.0146
G1 X-4.079 Y-0.945 E0.0146
G1 X-4.148 Y-0.570 E0.0146
G1 X-4.183 Y-0.191 E0.0146
G1 X-4.183 Y0.191 E0.0146
G1 X-4.148 Y0.570 E0.0146
G1 X-4.079 Y0.945 E0.0146
G1 X-3.976 Y1.312 E0.0146
G1 X-3.840 Y1.668 E0.0146
G1 X-3.673 Y2.010 E0.0146
G1 X-3.473 Y2.338 E0.0147
G1 X-3.179 Y2.720 E0.0184
G1 X-2.994 Y2.927 E0.0106
G1 X-2.716 Y3.187 E0.0146
G1 X-2.415 Y3.421 E0.0146
G1 X-2.093 Y3.626 E0.0146
G1 X-1.755 Y3.801 E0.0146
G1 X-1.402 Y3.945 E0.0146
G1 X-1.038 Y4.056 E0.0146
G1 X-0.664 Y4.134 E0.0146
G1 X-0.286 Y4.177 E0.0146
G1 X0.095 Y4.186 E0.0146
G1 E-1.9000 F1200
; feature inner perimeter
G1 Z0.700 F1200
G1 X16.288 Y5.143 F9000
G1 Z0.200 F1200
G1 E1.9000 F1200
G1 X15.744 Y5.070 E0.0210 F1800
G1 X15.211 Y4.939 E0.0210
G1 X14.694 Y4.753 E0.0210
G1 X14.200 Y4.513 E0.0210
G1 X13.735 Y4.222 E0.0210
G1 X13.303 Y3.883 E0.0210
G1 X12.909 Y3.499 E0.0210
G1 X12.559 Y3.077 E0.0210
G1 X12.255 Y2.619 E0.0210
G1 X12.002 Y2.132 E0.0210
G1 X11.802 Y1.620 E0.0210
G1 X11.658 Y1.091 E0.0210
G1 X11.570 Y0.548 E0.0210
G1 X11.541 Y0.000 E0.0210
G1 X11.570 Y-0.548 E0.0210
G1 X11.658 Y-1.091 E0.0210
G1 X11.802 Y-1.620 E0.0210
G1 X12.002 Y-2.132 E0.0210
G1 X12.255 Y-2.619 E0.0210
G1 X12.559 Y-3.077 E0.0210
G1 X12.872 Y-3.454 E0.0188
G1 X13.305 Y-3.885 E0.0234
G1 X13.735 Y-4.222 E0.0209
G1 X14.200 Y-4.513 E0.0210
G1 X14.694 Y-4.753 E0.0210
G1 X15.211 Y-4.939 E0.0210
G1 X15.744 Y-5.070 E0.0210
G1 X16.288 Y-5.143 E0.0210
G1 X16.837 Y-5.157 E0.0210
G1 X17.385 Y-5.113 E0.0210
G1 X17.924 Y-5.012 E0.0210
G1 X18.450 Y-4.853 E0.0210
G1 X18.956 Y-4.640 E0.0210
G1 X19.436 Y-4.373 E0.0210
G1 X19.886 Y-4.058 E0.0210
G1 X20.299 Y-3.696 E0.0210
G1 X20.672 Y-3.293 E0.0210
G1 X20.999 Y-2.852 E0.0210
G1 X21.278 Y-2.379 E0.0210
G1 X21.505 Y-1.879 E0.0210
G1 X21.677 Y-1.357 E0.0210
G1 X21.793 Y-0.821 E0.0210
G1 X21.852 Y-0.275 E0.0210
G1 X21.852 Y0.275 E0.0210
G1 X21.793 Y0.821 E0.0210
G1 X21.677 Y1.357 E0.0210
G1 X21.505 Y1.879 E0.0210
G1 X21.278 Y2.379 E0.0210
G1 X20.999 Y2.852 E0.0210
G1 X20.672 Y3.293 E0.0210
G1 X20.299 Y3.696 E0.0210
G1 X19.886 Y4.058 E0.0210
G1 X19.436 Y4.373 E0.0210
G1 X18.956 Y4.640 E0.0210
G1 X18.450 Y4.853 E0.0210
G1 X17.924 Y5.012 E0.0210
G1 X17.385 Y5.113 E0.0210
G1 X16.837 Y5.157 E0.0210
G1 X16.288 Y5.143 E0.0210
