; G-Code generated by Simplify3D(R) Version 4.1.2
; Apr 2, 2020 at 2:20:49 PM
; Settings Summary
;   processName,Process1
;   applyToModels,barbasol neck
;   profileName,MakerBot Replicator 2 HBP (modified)
;   profileVersion,2020-03-12 10:48:50
;   baseProfile,MakerBot Replicator 2(2)
;   printMaterial,PLA
;   printQuality,Medium
;   printExtruders,
;   extruderName,Primary Extruder
;   extruderToolheadNumber,0
;   extruderDiameter,0.4
;   extruderAutoWidth,0
;   extruderWidth,0.4
;   extrusionMultiplier,1
;   extruderUseRetract,1
;   extruderRetractionDistance,1.9
;   extruderExtraRestartDistance,0
;   extruderRetractionZLift,0.5
;   extruderRetractionSpeed,1200
;   extruderUseCoasting,0
;   extruderCoastingDistance,0.2
;   extruderUseWipe,0
;   extruderWipeDistance,5
;   primaryExtruder,0
;   layerHeight,0.2
;   topSolidLayers,3
;   bottomSolidLayers,3
;   perimeterOutlines,2
;   printPerimetersInsideOut,1
;   startPointOption,3
;   startPointOriginX,0
;   startPointOriginY,150
;   sequentialIslands,0
;   spiralVaseMode,0
;   firstLayerHeightPercentage,100
;   firstLayerWidthPercentage,115
;   firstLayerUnderspeed,0.5
;   useRaft,0
;   raftExtruder,0
;   raftTopLayers,2
;   raftBaseLayers,1
;   raftOffset,1
;   raftSeparationDistance,0.14
;   raftTopInfill,90
;   aboveRaftSpeedMultiplier,0.3
;   useSkirt,0
;   skirtExtruder,0
;   skirtLayers,1
;   skirtOutlines,5
;   skirtOffset,0
;   usePrimePillar,0
;   primePillarExtruder,999
;   primePillarWidth,12
;   primePillarLocation,7
;   primePillarSpeedMultiplier,1
;   useOozeShield,0
;   oozeShieldExtruder,999
;   oozeShieldOffset,2
;   oozeShieldOutlines,1
;   oozeShieldSidewallShape,1
;   oozeShieldSidewallAngle,30
;   oozeShieldSpeedMultiplier,1
;   infillExtruder,0
;   internalInfillPattern,Rectilinear
;   externalInfillPattern,Rectilinear
;   infillPercentage,15
;   outlineOverlapPercentage,25
;   infillExtrusionWidthPercentage,100
;   minInfillLength,5
;   infillLayerInterval,1
;   internalInfillAngles,45,-45
;   overlapInternalInfillAngles,0
;   externalInfillAngles,45,-45
;   generateSupport,0
;   supportExtruder,0
;   supportInfillPercentage,30
;   supportExtraInflation,0.5
;   supportBaseLayers,0
;   denseSupportExtruder,0
;   denseSupportLayers,2
;   denseSupportInfillPercentage,90
;   supportLayerInterval,1
;   supportHorizontalPartOffset,0.3
;   supportUpperSeparationLayers,1
;   supportLowerSeparationLayers,1
;   supportType,1
;   supportGridSpacing,2
;   maxOverhangAngle,45
;   supportAngles,45,-45
;   temperatureName,Primary Extruder,Heated Build Platform
;   temperatureNumber,0,0
;   temperatureSetpointCount,1,1
;   temperatureSetpointLayers,1,1
;   temperatureSetpointTemperatures,230,60
;   temperatureStabilizeAtStartup,1,1
;   temperatureHeatedBed,0,1
;   fanLayers,1,2
;   fanSpeeds,0,100
;   blipFanToFullPower,1
;   adjustSpeedForCooling,1
;   minSpeedLayerTime,15
;   minCoolingSpeedSlowdown,20
;   increaseFanForCooling,1
;   minFanLayerTime,45
;   maxCoolingFanSpeed,100
;   increaseFanForBridging,1
;   bridgingFanSpeed,100
;   use5D,1
;   relativeEdistances,1
;   allowEaxisZeroing,0
;   independentExtruderAxes,1
;   includeM10123,0
;   stickySupport,1
;   applyToolheadOffsets,0
;   gcodeXoffset,0
;   gcodeYoffset,0
;   gcodeZoffset,0
;   overrideMachineDefinition,1
;   machineTypeOverride,0
;   strokeXoverride,280
;   strokeYoverride,150
;   strokeZoverride,150
;   originOffsetXoverride,140
;   originOffsetYoverride,75
;   originOffsetZoverride,0
;   homeXdirOverride,1
;   homeYdirOverride,1
;   homeZdirOverride,-1
;   flipXoverride,1
;   flipYoverride,-1
;   flipZoverride,1
;   toolheadOffsets,0,0|0,0|0,0|0,0|0,0|0,0
;   overrideFirmwareConfiguration,1
;   firmwareTypeOverride,MakerBot/Sailfish Firmware
;   GPXconfigOverride,r2h
;   baudRateOverride,115200
;   overridePrinterModels,1
;   printerModelsOverride,MakerBot_Replicator2.stl
;   startingGcode,; **** Replicator 2 start.gcode ****,M73 P0 ; enable build progress,G162 X Y F3000 ; home XY maximum,G161 Z F1200 ; home Z minimum,G92 Z-5 ; set Z to -5,G1 Z0 ; move Z to 0,G161 Z F100 ; home Z slowly,M132 X Y Z A B ; recall home offsets,G1 X-145 Y-75 Z30 F9000 ; move to wait position off table,G130 X20 Y20 Z20 A20 B20 ; lower stepper Vrefs while heating,M126 S[fan_speed_pwm],M140 S[bed0_temperature] T0,M134 T0 ; stabilize bed temperature,M104 S[extruder0_temperature] T0,M133 T0 ; stabilize extruder temperature,G130 X127 Y127 Z40 A127 B127 ; default stepper Vrefs,G92 A0 ; zero extruder,G1 Z0.4 ; position nozzle,G1 E25 F300 ; purge nozzle,G1 X-140 Y-70 Z0.15 F1200 ; slow wipe,G1 X-135 Y-65 Z0.5 F1200 ; lift,G92 A0 ; zero extruder,M73 P1 ;@body (notify GPX body has started),; **** end of start.gcode ****
;   layerChangeGcode,
;   retractionGcode,
;   toolChangeGcode,
;   endingGcode,; **** Replicator 2 end.gcode ****,M73 P100 ; end build progress,G1 Z155 F1000 ; send Z axis to bottom of machine,M104 S0 T0 ; cool down extruder,M140 S0 T0 ; cool down HBP,M127 ; stop blower fan,G162 X Y F3000 ; home XY maximum,M18 ; disable stepper,M0 ; stop codes,M72 P1 ; play Ta-Da song,; **** end of end.gcode ****
;   exportFileFormat,gcode
;   celebration,0
;   celebrationSong,Random Song
;   postProcessing,
;   defaultSpeed,4800
;   outlineUnderspeed,0.5
;   solidInfillUnderspeed,1
;   supportUnderspeed,1
;   rapidXYspeed,9000
;   rapidZspeed,1200
;   minBridgingArea,50
;   bridgingExtraInflation,0
;   bridgingExtrusionMultiplier,1
;   bridgingSpeedMultiplier,0.8
;   useFixedBridgingAngle,0
;   fixedBridgingAngle,0
;   applyBridgingToPerimeters,0
;   filamentDiameters,1.75|1.75|1.75|1.75|1.75|1.75
;   filamentPricesPerKg,46|46|46|46|46|46
;   filamentDensities,1.25|1.25|1.25|1.25|1.25|1.25
;   useMinPrintHeight,0
;   minPrintHeight,0
;   useMaxPrintHeight,0
;   maxPrintHeight,4.84
;   useDiaphragm,0
;   diaphragmLayerInterval,20
;   robustSlicing,1
;   mergeAllIntoSolid,0
;   onlyRetractWhenCrossingOutline,0
;   retractBetweenLayers,0
;   useRetractionMinTravel,1
;   retractionMinTravel,7
;   retractWhileWiping,1
;   onlyWipeOutlines,1
;   avoidCrossingOutline,0
;   maxMovementDetourFactor,3
;   toolChangeRetractionDistance,12
;   toolChangeExtraRestartDistance,-0.5
;   toolChangeRetractionSpeed,600
;   externalThinWallType,0
;   internalThinWallType,0
;   thinWallAllowedOverlapPercentage,10
;   singleExtrusionMinLength,1
;   singleExtrusionMinPrintingWidthPercentage,50
;   singleExtrusionMaxPrintingWidthPercentage,200
;   singleExtrusionEndpointExtension,0.2
;   horizontalSizeCompensation,0
G90
M83
; **** Replicator 2 start.gcode ****
M73 P0 ; enable build progress
G162 X Y F3000 ; home XY maximum
G161 Z F1200 ; home Z minimum
G92 Z-5 ; set Z to -5
G1 Z0 ; move Z to 0
G161 Z F100 ; home Z slowly
M132 X Y Z A B ; recall home offsets
G1 X-145 Y-75 Z30 F9000 ; move to wait position off table
G130 X20 Y20 Z20 A20 B20 ; lower stepper Vrefs while heating
M127
M140 S60 T0
M134 T0 ; stabilize bed temperature
M104 S230 T0
M133 T0 ; stabilize extruder temperature
G130 X127 Y127 Z40 A127 B127 ; default stepper Vrefs
G92 A0 ; zero extruder
G1 Z0.4 ; position nozzle
G1 E25 F300 ; purge nozzle
G1 X-140 Y-70 Z0.15 F1200 ; slow wipe
G1 X-135 Y-65 Z0.5 F1200 ; lift
G92 A0 ; zero extruder
M73 P1 ;@body (notify GPX body has started)
; **** end of start.gcode ****
; process Process1
; layer 1, Z = 0.200
M135 T0
G1 E-1.9000 F1200
; feature inner perimeter
; tool H0.200 W0.460
G1 Z0.500 F1200
G1 X0.273 Y15.836 F9000
G1 Z0.200 F1200
G1 E1.9000 F1200
G1 X-0.557 Y15.832 E0.0317 F1800
G1 X-1.105 Y15.803 E0.0210
G1 X-1.656 Y15.755 E0.0211
G1 X-2.205 Y15.687 E0.0212
G1 X-2.751 Y15.601 E0.0212
G1 X-3.293 Y15.495 E0.0211
G1 X-3.828 Y15.372 E0.0210
G1 X-4.635 Y15.146 E0.0320
G1 X-5.422 Y14.885 E0.0317
G1 X-5.934 Y14.688 E0.0210
G1 X-6.440 Y14.473 E0.0210
G1 X-7.194 Y14.111 E0.0320
G1 X-7.924 Y13.717 E0.0317
G1 X-8.391 Y13.436 E0.0208
G1 X-9.088 Y12.972 E0.0320
G1 X-9.756 Y12.481 E0.0317
G1 X-10.180 Y12.138 E0.0208
G1 X-10.805 Y11.581 E0.0320
G1 X-11.398 Y11.001 E0.0317
G1 X-11.772 Y10.600 E0.0210
G1 X-12.135 Y10.183 E0.0211
G1 X-12.483 Y9.753 E0.0211
G1 X-12.816 Y9.311 E0.0212
G1 X-13.133 Y8.858 E0.0211
G1 X-13.434 Y8.395 E0.0212
G1 X-13.719 Y7.921 E0.0212
G1 X-13.987 Y7.437 E0.0211
G1 X-14.236 Y6.948 E0.0210
G1 X-14.581 Y6.185 E0.0320
G1 X-14.887 Y5.414 E0.0317
G1 X-15.066 Y4.895 E0.0210
G1 X-15.228 Y4.366 E0.0211
G1 X-15.371 Y3.832 E0.0212
G1 X-15.495 Y3.294 E0.0211
G1 X-15.601 Y2.751 E0.0211
G1 X-15.687 Y2.205 E0.0212
G1 X-15.755 Y1.656 E0.0211
G1 X-15.802 Y1.109 E0.0210
G1 X-15.836 Y0.273 E0.0320
G1 X-15.832 Y-0.557 E0.0317
G1 X-15.803 Y-1.105 E0.0210
G1 X-15.755 Y-1.652 E0.0210
G1 X-15.643 Y-2.482 E0.0320
G1 X-15.494 Y-3.298 E0.0317
G1 X-15.371 Y-3.833 E0.0210
G1 X-15.228 Y-4.367 E0.0211
G1 X-15.066 Y-4.895 E0.0211
G1 X-14.886 Y-5.418 E0.0212
G1 X-14.688 Y-5.934 E0.0211
G1 X-14.472 Y-6.444 E0.0212
G1 X-14.241 Y-6.939 E0.0209
G1 X-13.716 Y-7.926 E0.0428
G1 X-13.436 Y-8.391 E0.0208
G1 X-12.972 Y-9.088 E0.0320
G1 X-12.481 Y-9.756 E0.0317
G1 X-12.135 Y-10.183 E0.0210
G1 X-11.773 Y-10.600 E0.0211
G1 X-11.395 Y-11.004 E0.0212
G1 X-11.004 Y-11.395 E0.0211
G1 X-10.600 Y-11.772 E0.0212
G1 X-10.183 Y-12.135 E0.0211
G1 X-9.753 Y-12.483 E0.0211
G1 X-9.311 Y-12.816 E0.0212
G1 X-8.858 Y-13.133 E0.0211
G1 X-8.395 Y-13.434 E0.0212
G1 X-7.921 Y-13.719 E0.0212
G1 X-7.437 Y-13.987 E0.0211
G1 X-6.948 Y-14.236 E0.0210
G1 X-6.185 Y-14.581 E0.0320
G1 X-5.414 Y-14.887 E0.0317
G1 X-4.895 Y-15.066 E0.0210
G1 X-4.366 Y-15.228 E0.0211
G1 X-3.832 Y-15.371 E0.0212
G1 X-3.294 Y-15.495 E0.0211
G1 X-2.751 Y-15.601 E0.0211
G1 X-2.205 Y-15.687 E0.0212
G1 X-1.656 Y-15.755 E0.0212
G1 X-1.109 Y-15.802 E0.0210
G1 X-0.273 Y-15.836 E0.0320
G1 X0.557 Y-15.832 E0.0317
G1 X1.101 Y-15.803 E0.0208
G1 X1.934 Y-15.720 E0.0320
G1 X2.755 Y-15.600 E0.0317
G1 X3.290 Y-15.496 E0.0209
G1 X4.103 Y-15.298 E0.0320
G1 X4.899 Y-15.065 E0.0317
G1 X5.418 Y-14.886 E0.0210
G1 X5.934 Y-14.688 E0.0211
G1 X6.440 Y-14.473 E0.0210
G1 X7.194 Y-14.111 E0.0320
G1 X7.924 Y-13.717 E0.0317
G1 X8.395 Y-13.434 E0.0210
G1 X8.858 Y-13.133 E0.0211
G1 X9.311 Y-12.816 E0.0212
G1 X9.750 Y-12.486 E0.0210
G1 X10.394 Y-11.951 E0.0320
G1 X11.007 Y-11.392 E0.0317
G1 X11.395 Y-11.004 E0.0210
G1 X11.773 Y-10.600 E0.0212
G1 X12.135 Y-10.183 E0.0211
G1 X12.483 Y-9.753 E0.0212
G1 X12.816 Y-9.311 E0.0211
G1 X13.133 Y-8.858 E0.0211
G1 X13.434 Y-8.395 E0.0212
G1 X13.717 Y-7.924 E0.0210
G1 X14.114 Y-7.187 E0.0320
G1 X14.473 Y-6.440 E0.0317
G1 X14.688 Y-5.934 E0.0210
G1 X14.886 Y-5.418 E0.0211
G1 X15.066 Y-4.895 E0.0212
G1 X15.228 Y-4.366 E0.0211
G1 X15.371 Y-3.833 E0.0211
G1 X15.495 Y-3.293 E0.0212
G1 X15.601 Y-2.751 E0.0211
G1 X15.687 Y-2.205 E0.0212
G1 X15.755 Y-1.656 E0.0211
G1 X15.803 Y-1.105 E0.0212
G1 X15.832 Y-0.553 E0.0211
G1 X15.841 Y-0.000 E0.0211
G1 X15.832 Y0.553 E0.0212
G1 X15.803 Y1.105 E0.0211
G1 X15.755 Y1.652 E0.0210
G1 X15.643 Y2.481 E0.0320
G1 X15.494 Y3.298 E0.0317
G1 X15.371 Y3.832 E0.0210
G1 X15.228 Y4.366 E0.0211
G1 X15.066 Y4.895 E0.0211
G1 X14.886 Y5.418 E0.0212
G1 X14.688 Y5.934 E0.0211
G1 X14.472 Y6.443 E0.0212
G1 X14.238 Y6.944 E0.0211
G1 X13.987 Y7.437 E0.0212
G1 X13.719 Y7.921 E0.0211
G1 X13.434 Y8.395 E0.0211
G1 X13.133 Y8.858 E0.0212
G1 X12.818 Y9.308 E0.0210
G1 X12.306 Y9.971 E0.0320
G1 X11.770 Y10.603 E0.0317
G1 X11.398 Y11.001 E0.0209
G1 X10.799 Y11.586 E0.0320
G1 X10.180 Y12.138 E0.0317
G1 X9.753 Y12.483 E0.0210
G1 X9.311 Y12.816 E0.0212
G1 X8.859 Y13.133 E0.0211
G1 X8.395 Y13.434 E0.0212
G1 X7.920 Y13.719 E0.0212
G1 X7.437 Y13.987 E0.0211
G1 X6.944 Y14.238 E0.0212
G1 X6.444 Y14.472 E0.0211
G1 X5.934 Y14.688 E0.0212
G1 X5.418 Y14.886 E0.0211
G1 X4.895 Y15.066 E0.0212
G1 X4.366 Y15.228 E0.0211
G1 X3.832 Y15.371 E0.0211
G1 X3.293 Y15.495 E0.0212
G1 X2.751 Y15.601 E0.0211
G1 X2.205 Y15.687 E0.0212
G1 X1.656 Y15.755 E0.0212
G1 X1.109 Y15.802 E0.0210
G1 X0.273 Y15.836 E0.0320
; feature outer perimeter
G1 X0.281 Y16.297 F9000
G1 X-0.570 Y16.291 E0.0326 F1200
G1 X-1.137 Y16.262 E0.0217
G1 X-1.704 Y16.212 E0.0218
G1 X-2.269 Y16.143 E0.0218
G1 X-2.831 Y16.054 E0.0218
G1 X-3.389 Y15.945 E0.0217
G1 X-3.942 Y15.818 E0.0217
G1 X-4.769 Y15.586 E0.0328
G1 X-5.577 Y15.318 E0.0325
G1 X-6.106 Y15.114 E0.0217
G1 X-6.629 Y14.893 E0.0217
G1 X-7.403 Y14.521 E0.0328
G1 X-8.152 Y14.117 E0.0325
G1 X-8.637 Y13.825 E0.0217
G1 X-9.352 Y13.349 E0.0328
G1 X-10.037 Y12.845 E0.0325
G1 X-10.477 Y12.489 E0.0217
G1 X-11.119 Y11.918 E0.0328
G1 X-11.727 Y11.323 E0.0325
G1 X-12.114 Y10.908 E0.0217
G1 X-12.488 Y10.478 E0.0218
G1 X-12.846 Y10.036 E0.0218
G1 X-13.188 Y9.582 E0.0218
G1 X-13.514 Y9.116 E0.0217
G1 X-13.824 Y8.638 E0.0218
G1 X-14.118 Y8.151 E0.0218
G1 X-14.393 Y7.653 E0.0218
G1 X-14.651 Y7.147 E0.0217
G1 X-15.005 Y6.365 E0.0329
G1 X-15.319 Y5.574 E0.0325
G1 X-15.504 Y5.037 E0.0217
G1 X-15.670 Y4.493 E0.0218
G1 X-15.817 Y3.944 E0.0218
G1 X-15.945 Y3.389 E0.0218
G1 X-16.054 Y2.831 E0.0218
G1 X-16.143 Y2.269 E0.0218
G1 X-16.212 Y1.704 E0.0218
G1 X-16.262 Y1.138 E0.0217
G1 X-16.296 Y0.281 E0.0328
G1 X-16.291 Y-0.570 E0.0325
G1 X-16.262 Y-1.137 E0.0217
G1 X-16.212 Y-1.703 E0.0217
G1 X-16.098 Y-2.554 E0.0328
G1 X-15.945 Y-3.391 E0.0325
G1 X-15.817 Y-3.944 E0.0217
G1 X-15.670 Y-4.493 E0.0218
G1 X-15.504 Y-5.037 E0.0218
G1 X-15.318 Y-5.576 E0.0218
G1 X-15.115 Y-6.106 E0.0217
G1 X-14.892 Y-6.631 E0.0218
G1 X-14.653 Y-7.144 E0.0217
G1 X-14.116 Y-8.152 E0.0437
G1 X-13.825 Y-8.637 E0.0216
G1 X-13.349 Y-9.352 E0.0328
G1 X-12.845 Y-10.037 E0.0325
G1 X-12.488 Y-10.479 E0.0217
G1 X-12.114 Y-10.908 E0.0218
G1 X-11.726 Y-11.324 E0.0218
G1 X-11.324 Y-11.726 E0.0218
G1 X-10.908 Y-12.114 E0.0218
G1 X-10.478 Y-12.488 E0.0218
G1 X-10.036 Y-12.846 E0.0218
G1 X-9.582 Y-13.188 E0.0218
G1 X-9.116 Y-13.514 E0.0217
G1 X-8.638 Y-13.824 E0.0218
G1 X-8.151 Y-14.118 E0.0218
G1 X-7.653 Y-14.393 E0.0218
G1 X-7.147 Y-14.651 E0.0217
G1 X-6.365 Y-15.005 E0.0329
G1 X-5.574 Y-15.319 E0.0325
G1 X-5.037 Y-15.504 E0.0217
G1 X-4.493 Y-15.670 E0.0218
G1 X-3.944 Y-15.817 E0.0218
G1 X-3.389 Y-15.945 E0.0218
G1 X-2.831 Y-16.054 E0.0218
G1 X-2.269 Y-16.143 E0.0218
G1 X-1.704 Y-16.212 E0.0218
G1 X-1.139 Y-16.262 E0.0217
G1 X-0.281 Y-16.297 E0.0328
G1 X0.570 Y-16.291 E0.0325
G1 X1.136 Y-16.262 E0.0217
G1 X1.990 Y-16.177 E0.0328
G1 X2.832 Y-16.054 E0.0325
G1 X3.388 Y-15.945 E0.0217
G1 X4.222 Y-15.743 E0.0328
G1 X5.039 Y-15.503 E0.0325
G1 X5.576 Y-15.318 E0.0217
G1 X6.106 Y-15.115 E0.0217
G1 X6.629 Y-14.893 E0.0217
G1 X7.403 Y-14.521 E0.0328
G1 X8.152 Y-14.117 E0.0325
G1 X8.639 Y-13.824 E0.0217
G1 X9.116 Y-13.515 E0.0218
G1 X9.582 Y-13.188 E0.0218
G1 X10.035 Y-12.847 E0.0217
G1 X10.696 Y-12.298 E0.0328
G1 X11.325 Y-11.725 E0.0325
G1 X11.726 Y-11.324 E0.0217
G1 X12.114 Y-10.908 E0.0218
G1 X12.488 Y-10.479 E0.0218
G1 X12.846 Y-10.036 E0.0218
G1 X13.188 Y-9.582 E0.0217
G1 X13.515 Y-9.116 E0.0218
G1 X13.824 Y-8.639 E0.0218
G1 X14.117 Y-8.152 E0.0217
G1 X14.524 Y-7.396 E0.0328
G1 X14.893 Y-6.629 E0.0325
G1 X15.115 Y-6.106 E0.0217
G1 X15.318 Y-5.575 E0.0218
G1 X15.504 Y-5.037 E0.0218
G1 X15.670 Y-4.493 E0.0218
G1 X15.817 Y-3.944 E0.0218
G1 X15.945 Y-3.389 E0.0218
G1 X16.054 Y-2.831 E0.0217
G1 X16.143 Y-2.269 E0.0218
G1 X16.212 Y-1.704 E0.0218
G1 X16.262 Y-1.137 E0.0218
G1 X16.292 Y-0.569 E0.0218
G1 X16.301 Y-0.000 E0.0218
G1 X16.292 Y0.569 E0.0218
G1 X16.262 Y1.137 E0.0218
G1 X16.212 Y1.703 E0.0217
G1 X16.098 Y2.554 E0.0328
G1 X15.945 Y3.391 E0.0326
G1 X15.817 Y3.944 E0.0217
G1 X15.670 Y4.493 E0.0218
G1 X15.504 Y5.037 E0.0218
G1 X15.318 Y5.576 E0.0218
G1 X15.115 Y6.106 E0.0217
G1 X14.892 Y6.631 E0.0218
G1 X14.652 Y7.146 E0.0218
G1 X14.393 Y7.653 E0.0218
G1 X14.118 Y8.151 E0.0218
G1 X13.824 Y8.639 E0.0218
G1 X13.515 Y9.116 E0.0218
G1 X13.189 Y9.581 E0.0217
G1 X12.664 Y10.260 E0.0329
G1 X12.113 Y10.909 E0.0325
G1 X11.727 Y11.323 E0.0217
G1 X11.113 Y11.923 E0.0328
G1 X10.477 Y12.488 E0.0325
G1 X10.036 Y12.846 E0.0217
G1 X9.582 Y13.188 E0.0218
G1 X9.116 Y13.514 E0.0217
G1 X8.638 Y13.824 E0.0218
G1 X8.151 Y14.118 E0.0218
G1 X7.653 Y14.393 E0.0218
G1 X7.146 Y14.652 E0.0218
G1 X6.631 Y14.892 E0.0218
G1 X6.106 Y15.115 E0.0218
G1 X5.576 Y15.318 E0.0217
