; G-Code generated by Simplify3D(R) Version 4.1.2
; Apr 2, 2020 at 2:21:56 PM
; Settings Summary
;   processName,Process1
;   applyToModels,barbasol top
;   profileName,MakerBot Replicator 2 HBP (modified)
;   profileVersion,2020-03-12 10:48:50
;   baseProfile,MakerBot Replicator 2(2)
;   printMaterial,PLA
;   printQuality,Medium
;   printExtruders,
;   extruderName,Primary Extruder
;   extruderToolheadNumber,0
;   extruderDiameter,0.4
;   extruderAutoWidth,0
;   extruderWidth,0.4
;   extrusionMultiplier,1
;   extruderUseRetract,1
;   extruderRetractionDistance,1.9
;   extruderExtraRestartDistance,0
;   extruderRetractionZLift,0.5
;   extruderRetractionSpeed,1200
;   extruderUseCoasting,0
;   extruderCoastingDistance,0.2
;   extruderUseWipe,0
;   extruderWipeDistance,5
;   primaryExtruder,0
;   layerHeight,0.2
;   topSolidLayers,3
;   bottomSolidLayers,3
;   perimeterOutlines,2
;   printPerimetersInsideOut,1
;   startPointOption,3
;   startPointOriginX,0
;   startPointOriginY,150
;   sequentialIslands,0
;   spiralVaseMode,0
;   firstLayerHeightPercentage,100
;   firstLayerWidthPercentage,115
;   firstLayerUnderspeed,0.5
;   useRaft,0
;   raftExtruder,0
;   raftTopLayers,2
;   raftBaseLayers,1
;   raftOffset,1
;   raftSeparationDistance,0.14
;   raftTopInfill,90
;   aboveRaftSpeedMultiplier,0.3
;   useSkirt,0
;   skirtExtruder,0
;   skirtLayers,1
;   skirtOutlines,5
;   skirtOffset,0
;   usePrimePillar,0
;   primePillarExtruder,999
;   primePillarWidth,12
;   primePillarLocation,7
;   primePillarSpeedMultiplier,1
;   useOozeShield,0
;   oozeShieldExtruder,999
;   oozeShieldOffset,2
;   oozeShieldOutlines,1
;   oozeShieldSidewallShape,1
;   oozeShieldSidewallAngle,30
;   oozeShieldSpeedMultiplier,1
;   infillExtruder,0
;   internalInfillPattern,Rectilinear
;   externalInfillPattern,Rectilinear
;   infillPercentage,15
;   outlineOverlapPercentage,25
;   infillExtrusionWidthPercentage,100
;   minInfillLength,5
;   infillLayerInterval,1
;   internalInfillAngles,45,-45
;   overlapInternalInfillAngles,0
;   externalInfillAngles,45,-45
;   generateSupport,1
;   supportExtruder,0
;   supportInfillPercentage,30
;   supportExtraInflation,0.5
;   supportBaseLayers,0
;   denseSupportExtruder,0
;   denseSupportLayers,2
;   denseSupportInfillPercentage,90
;   supportLayerInterval,1
;   supportHorizontalPartOffset,0.3
;   supportUpperSeparationLayers,1
;   supportLowerSeparationLayers,1
;   supportType,1
;   supportGridSpacing,2
;   maxOverhangAngle,45
;   supportAngles,45,-45
;   temperatureName,Primary Extruder,Heated Build Platform
;   temperatureNumber,0,0
;   temperatureSetpointCount,1,1
;   temperatureSetpointLayers,1,1
;   temperatureSetpointTemperatures,230,60
;   temperatureStabilizeAtStartup,1,1
;   temperatureHeatedBed,0,1
;   fanLayers,1,2
;   fanSpeeds,0,100
;   blipFanToFullPower,1
;   adjustSpeedForCooling,1
;   minSpeedLayerTime,15
;   minCoolingSpeedSlowdown,20
;   increaseFanForCooling,1
;   minFanLayerTime,45
;   maxCoolingFanSpeed,100
;   increaseFanForBridging,1
;   bridgingFanSpeed,100
;   use5D,1
;   relativeEdistances,1
;   allowEaxisZeroing,0
;   independentExtruderAxes,1
;   includeM10123,0
;   stickySupport,1
;   applyToolheadOffsets,0
;   gcodeXoffset,0
;   gcodeYoffset,0
;   gcodeZoffset,0
;   overrideMachineDefinition,1
;   machineTypeOverride,0
;   strokeXoverride,280
;   strokeYoverride,150
;   strokeZoverride,150
;   originOffsetXoverride,140
;   originOffsetYoverride,75
;   originOffsetZoverride,0
;   homeXdirOverride,1
;   homeYdirOverride,1
;   homeZdirOverride,-1
;   flipXoverride,1
;   flipYoverride,-1
;   flipZoverride,1
;   toolheadOffsets,0,0|0,0|0,0|0,0|0,0|0,0
;   overrideFirmwareConfiguration,1
;   firmwareTypeOverride,MakerBot/Sailfish Firmware
;   GPXconfigOverride,r2h
;   baudRateOverride,115200
;   overridePrinterModels,1
;   printerModelsOverride,MakerBot_Replicator2.stl
;   startingGcode,; **** Replicator 2 start.gcode ****,M73 P0 ; enable build progress,G162 X Y F3000 ; home XY maximum,G161 Z F1200 ; home Z minimum,G92 Z-5 ; set Z to -5,G1 Z0 ; move Z to 0,G161 Z F100 ; home Z slowly,M132 X Y Z A B ; recall home offsets,G1 X-145 Y-75 Z30 F9000 ; move to wait position off table,G130 X20 Y20 Z20 A20 B20 ; lower stepper Vrefs while heating,M126 S[fan_speed_pwm],M140 S[bed0_temperature] T0,M134 T0 ; stabilize bed temperature,M104 S[extruder0_temperature] T0,M133 T0 ; stabilize extruder temperature,G130 X127 Y127 Z40 A127 B127 ; default stepper Vrefs,G92 A0 ; zero extruder,G1 Z0.4 ; position nozzle,G1 E25 F300 ; purge nozzle,G1 X-140 Y-70 Z0.15 F1200 ; slow wipe,G1 X-135 Y-65 Z0.5 F1200 ; lift,G92 A0 ; zero extruder,M73 P1 ;@body (notify GPX body has started),; **** end of start.gcode ****
;   layerChangeGcode,
;   retractionGcode,
;   toolChangeGcode,
;   endingGcode,; **** Replicator 2 end.gcode ****,M73 P100 ; end build progress,G1 Z155 F1000 ; send Z axis to bottom of machine,M104 S0 T0 ; cool down extruder,M140 S0 T0 ; cool down HBP,M127 ; stop blower fan,G162 X Y F3000 ; home XY maximum,M18 ; disable stepper,M0 ; stop codes,M72 P1 ; play Ta-Da song,; **** end of end.gcode ****
;   exportFileFormat,gcode
;   celebration,0
;   celebrationSong,Random Song
;   postProcessing,
;   defaultSpeed,4800
;   outlineUnderspeed,0.5
;   solidInfillUnderspeed,1
;   supportUnderspeed,1
;   rapidXYspeed,9000
;   rapidZspeed,1200
;   minBridgingArea,50
;   bridgingExtraInflation,0
;   bridgingExtrusionMultiplier,1
;   bridgingSpeedMultiplier,0.8
;   useFixedBridgingAngle,0
;   fixedBridgingAngle,0
;   applyBridgingToPerimeters,0
;   filamentDiameters,1.75|1.75|1.75|1.75|1.75|1.75
;   filamentPricesPerKg,46|46|46|46|46|46
;   filamentDensities,1.25|1.25|1.25|1.25|1.25|1.25
;   useMinPrintHeight,0
;   minPrintHeight,0
;   useMaxPrintHeight,0
;   maxPrintHeight,4.84
;   useDiaphragm,0
;   diaphragmLayerInterval,20
;   robustSlicing,1
;   mergeAllIntoSolid,0
;   onlyRetractWhenCrossingOutline,0
;   retractBetweenLayers,0
;   useRetractionMinTravel,1
;   retractionMinTravel,7
;   retractWhileWiping,1
;   onlyWipeOutlines,1
;   avoidCrossingOutline,0
;   maxMovementDetourFactor,3
;   toolChangeRetractionDistance,12
;   toolChangeExtraRestartDistance,-0.5
;   toolChangeRetractionSpeed,600
;   externalThinWallType,0
;   internalThinWallType,0
;   thinWallAllowedOverlapPercentage,10
;   singleExtrusionMinLength,1
;   singleExtrusionMinPrintingWidthPercentage,50
;   singleExtrusionMaxPrintingWidthPercentage,200
;   singleExtrusionEndpointExtension,0.2
;   horizontalSizeCompensation,0
G90
M83
; **** Replicator 2 start.gcode ****
M73 P0 ; enable build progress
G162 X Y F3000 ; home XY maximum
G161 Z F1200 ; home Z minimum
G92 Z-5 ; set Z to -5
G1 Z0 ; move Z to 0
G161 Z F100 ; home Z slowly
M132 X Y Z A B ; recall home offsets
G1 X-145 Y-75 Z30 F9000 ; move to wait position off table
G130 X20 Y20 Z20 A20 B20 ; lower stepper Vrefs while heating
M126 S170
M140 S60 T0
M134 T0 ; stabilize bed temperature
M104 S230 T0
M133 T0 ; stabilize extruder temperature
G130 X127 Y127 Z40 A127 B127 ; default stepper Vrefs
G92 A0 ; zero extruder
G1 Z0.4 ; position nozzle
G1 E25 F300 ; purge nozzle
G1 X-140 Y-70 Z0.15 F1200 ; slow wipe
G1 X-135 Y-65 Z0.5 F1200 ; lift
G92 A0 ; zero extruder
M73 P1 ;@body (notify GPX body has started)
; **** end of start.gcode ****
; process Process1
; layer 1, Z = 0.200
M135 T0
G1 E-1.9000 F1200
; feature inner perimeter
; tool H0.200 W0.460
G1 Z0.500 F1200
G1 X-0.212 Y4.951 F9000
G1 Z0.200 F1200
G1 E1.9000 F1200
G1 X-0.846 Y4.896 E0.0243 F1214
G1 X-1.470 Y4.774 E0.0243
G1 X-2.078 Y4.588 E0.0243
G1 X-2.664 Y4.340 E0.0243
G1 X-3.225 Y4.028 E0.0246
G1 X-3.567 Y3.798 E0.0158
G1 X-4.066 Y3.394 E0.0246
G1 X-4.520 Y2.940 E0.0246
G1 X-4.785 Y2.624 E0.0158
G1 X-5.157 Y2.093 E0.0248
G1 X-5.363 Y1.736 E0.0158
G1 X-5.634 Y1.154 E0.0246
G1 X-5.841 Y0.553 E0.0243
G1 X-5.984 Y-0.067 E0.0243
G1 X-6.062 Y-0.698 E0.0243
G1 X-6.073 Y-1.334 E0.0243
G1 X-6.018 Y-1.968 E0.0243
G1 X-5.895 Y-2.598 E0.0246
G1 X-5.781 Y-2.994 E0.0158
G1 X-5.551 Y-3.594 E0.0246
G1 X-5.263 Y-4.160 E0.0243
G1 X-4.916 Y-4.694 E0.0243
G1 X-4.516 Y-5.188 E0.0243
G1 X-4.066 Y-5.638 E0.0243
G1 X-3.570 Y-6.040 E0.0244
G1 X-3.125 Y-6.333 E0.0204
G1 X-2.666 Y-6.583 E0.0200
G1 X-2.078 Y-6.832 E0.0244
G1 X-1.470 Y-7.018 E0.0243
G1 X-0.843 Y-7.140 E0.0244
G1 X-0.313 Y-7.190 E0.0204
G1 X0.210 Y-7.195 E0.0200
G1 X0.846 Y-7.140 E0.0244
G1 X1.470 Y-7.018 E0.0243
G1 X2.078 Y-6.832 E0.0243
G1 X2.666 Y-6.583 E0.0244
G1 X3.134 Y-6.327 E0.0204
G1 X3.575 Y-6.036 E0.0202
G1 X3.902 Y-5.781 E0.0159
G1 X4.371 Y-5.343 E0.0246
G1 X4.789 Y-4.863 E0.0243
G1 X5.153 Y-4.342 E0.0243
G1 X5.462 Y-3.786 E0.0243
G1 X5.710 Y-3.200 E0.0243
G1 X5.896 Y-2.592 E0.0243
G1 X6.018 Y-1.968 E0.0243
G1 X6.073 Y-1.334 E0.0243
G1 X6.062 Y-0.698 E0.0243
G1 X5.984 Y-0.061 E0.0246
G1 X5.898 Y0.342 E0.0158
G1 X5.710 Y0.956 E0.0246
G1 X5.459 Y1.547 E0.0246
G1 X5.266 Y1.911 E0.0158
G1 X4.916 Y2.450 E0.0246
G1 X4.516 Y2.944 E0.0243
G1 X4.062 Y3.398 E0.0246
G1 X3.746 Y3.663 E0.0158
G1 X3.220 Y4.031 E0.0246
G1 X2.662 Y4.341 E0.0244
G1 X2.173 Y4.552 E0.0204
G1 X1.677 Y4.719 E0.0200
G1 X1.055 Y4.862 E0.0244
G1 X0.424 Y4.940 E0.0243
G1 X-0.212 Y4.951 E0.0243
; feature outer perimeter
G1 X-0.228 Y5.411 F9000
G1 X-0.910 Y5.352 E0.0262 F810
G1 X-1.581 Y5.221 E0.0262
G1 X-2.236 Y5.021 E0.0262
G1 X-2.866 Y4.754 E0.0262
G1 X-3.466 Y4.421 E0.0262
G1 X-3.841 Y4.168 E0.0173
G1 X-4.374 Y3.736 E0.0262
G1 X-4.860 Y3.251 E0.0262
G1 X-5.150 Y2.904 E0.0173
G1 X-5.545 Y2.341 E0.0263
G1 X-5.771 Y1.949 E0.0173
G1 X-6.061 Y1.327 E0.0263
G1 X-6.284 Y0.680 E0.0262
G1 X-6.438 Y0.013 E0.0262
G1 X-6.521 Y-0.666 E0.0262
G1 X-6.533 Y-1.350 E0.0262
G1 X-6.474 Y-2.032 E0.0262
G1 X-6.343 Y-2.705 E0.0262
G1 X-6.218 Y-3.140 E0.0173
G1 X-5.972 Y-3.781 E0.0262
G1 X-5.661 Y-4.391 E0.0262
G1 X-5.289 Y-4.965 E0.0262
G1 X-4.858 Y-5.496 E0.0262
G1 X-4.374 Y-5.980 E0.0262
G1 X-3.842 Y-6.411 E0.0262
G1 X-3.362 Y-6.727 E0.0220
G1 X-2.867 Y-6.997 E0.0216
G1 X-2.236 Y-7.265 E0.0262
G1 X-1.581 Y-7.465 E0.0262
G1 X-0.909 Y-7.596 E0.0262
G1 X-0.337 Y-7.650 E0.0220
G1 X0.227 Y-7.655 E0.0216
G1 X0.910 Y-7.596 E0.0262
G1 X1.581 Y-7.465 E0.0262
G1 X2.236 Y-7.265 E0.0262
G1 X2.866 Y-6.997 E0.0262
G1 X3.371 Y-6.722 E0.0220
G1 X3.844 Y-6.410 E0.0217
G1 X4.201 Y-6.131 E0.0173
G1 X4.703 Y-5.663 E0.0263
G1 X5.151 Y-5.147 E0.0262
G1 X5.544 Y-4.586 E0.0262
G1 X5.876 Y-3.988 E0.0262
G1 X6.143 Y-3.358 E0.0262
G1 X6.343 Y-2.703 E0.0262
G1 X6.474 Y-2.032 E0.0262
G1 X6.533 Y-1.350 E0.0262
G1 X6.521 Y-0.666 E0.0262
G1 X6.438 Y0.015 E0.0263
G1 X6.344 Y0.458 E0.0173
G1 X6.143 Y1.114 E0.0263
G1 X5.875 Y1.746 E0.0263
G1 X5.663 Y2.145 E0.0173
G1 X5.289 Y2.721 E0.0262
G1 X4.858 Y3.252 E0.0262
G1 X4.373 Y3.738 E0.0263
G1 X4.026 Y4.028 E0.0173
G1 X3.464 Y4.422 E0.0263
G1 X2.865 Y4.754 E0.0262
G1 X2.338 Y4.982 E0.0220
G1 X1.803 Y5.162 E0.0216
G1 X1.135 Y5.316 E0.0262
G1 X0.456 Y5.399 E0.0262
G1 X-0.228 Y5.411 E0.0262
; feature solid layer
G1 X-2.450 Y4.056 F9000
G1 X-5.168 Y1.337 E0.1471 F1619
G1 X-5.314 Y1.025 E0.0132
G1 X-5.509 Y0.458 E0.0229
G1 X-5.543 Y0.312 E0.0057
G1 X-1.429 Y4.426 E0.2225
G1 X-1.387 Y4.439 E0.0017
G1 X-0.798 Y4.553 E0.0229
G1 X-0.637 Y4.568 E0.0062
G1 X-5.688 Y-0.484 E0.2732
G1 X-5.717 Y-0.722 E0.0092
G1 X-5.725 Y-1.171 E0.0172
G1 X0.048 Y4.601 E0.3123
G1 X0.400 Y4.595 E0.0135
G1 X0.660 Y4.563 E0.0100
G1 X-5.687 Y-1.784 E0.3433
G1 X-5.675 Y-1.920 E0.0052
G1 X-5.594 Y-2.341 E0.0164
G1 X1.218 Y4.471 E0.3685
G1 X1.584 Y4.386 E0.0144
G1 X1.734 Y4.336 E0.0061
G1 X-5.461 Y-2.859 E0.3892
G1 X-5.454 Y-2.885 E0.0010
G1 X-5.283 Y-3.331 E0.0183
G1 X2.209 Y4.161 E0.4052
G1 X2.509 Y4.031 E0.0125
G1 X2.651 Y3.952 E0.0062
G1 X-5.073 Y-3.772 E0.4178
G1 X-4.963 Y-3.988 E0.0093
G1 X-4.835 Y-4.185 E0.0090
G1 X3.067 Y3.717 E0.4274
G1 X3.450 Y3.450 E0.0179
G1 X-4.571 Y-4.571 E0.4339
G1 X-4.280 Y-4.931 E0.0177
G1 X3.810 Y3.159 E0.4376
G1 X3.828 Y3.144 E0.0009
G1 X4.137 Y2.835 E0.0167
G1 X-3.957 Y-5.259 E0.4378
G1 X-3.835 Y-5.381 E0.0066
G1 X-3.611 Y-5.563 E0.0110
G1 X4.441 Y2.489 E0.4355
G1 X4.637 Y2.247 E0.0119
G1 X4.720 Y2.118 E0.0059
G1 X-3.241 Y-5.843 E0.4306
G1 X-2.947 Y-6.037 E0.0135
G1 X-2.842 Y-6.094 E0.0046
G1 X4.975 Y1.723 E0.4228
G1 X5.148 Y1.399 E0.0140
G1 X5.194 Y1.290 E0.0045
G1 X-2.412 Y-6.316 E0.4114
G1 X-1.960 Y-6.508 E0.0188
G1 X-1.955 Y-6.509 E0.0002
G1 X5.387 Y0.833 E0.3972
G1 X5.539 Y0.335 E0.0199
G1 X-1.457 Y-6.661 E0.3785
G1 X-1.386 Y-6.683 E0.0028
G1 X-0.919 Y-6.774 E0.0182
G1 X5.653 Y-0.202 E0.3555
G1 X5.717 Y-0.722 E0.0201
G1 X5.718 Y-0.787 E0.0025
G1 X-0.336 Y-6.841 E0.3275
G1 X-0.295 Y-6.845 E0.0016
G1 X0.196 Y-6.850 E0.0188
G1 X0.316 Y-6.839 E0.0046
G1 X5.718 Y-1.438 E0.2922
G1 X5.675 Y-1.920 E0.0185
G1 X5.624 Y-2.182 E0.0102
G1 X1.060 Y-6.746 E0.2469
G1 X1.386 Y-6.683 E0.0127
G1 X1.945 Y-6.512 E0.0223
G1 X5.390 Y-3.067 E0.1864
G1 X5.386 Y-3.082 E0.0006
G1 X5.151 Y-3.634 E0.0230
G1 X4.860 Y-4.159 E0.0229
G1 X4.654 Y-4.453 E0.0137
G1 X3.309 Y-5.798 E0.0728
G1 E-1.9000 F1200
; feature support
G1 Z0.700 F1200
G1 X2.480 Y8.480 F9000
G1 Z0.200 F1200
G1 E1.9000 F1200
G1 X1.384 Y7.384 E0.0593 F1619
G1 X1.384 Y6.226 E0.0443
G1 X1.556 Y6.199 E0.0067
G1 X1.973 Y6.087 E0.0165
G1 X4.366 Y8.480 E0.1294
G1 X4.480 Y8.480 E0.0044
G1 X4.480 Y6.709 E0.0677
G1 X3.339 Y5.568 E0.0617
G1 X-1.735 Y6.151 F9000
G1 X-1.384 Y6.502 E0.0190 F1619
G1 X-1.384 Y8.387 E0.0721
G1 X-4.480 Y5.291 E0.1675
G1 X-4.480 Y7.177 E0.0721
G1 X-3.177 Y8.480 E0.0705
; feature dense support
G1 X-0.924 Y8.329 F9000
G1 X-0.773 Y8.480 E0.0082 F1619
G1 X-0.122 Y8.480 E0.0249
G1 X-0.924 Y7.678 E0.0434
G1 X-0.924 Y7.028 E0.0249
G1 X0.528 Y8.480 E0.0786
G1 X0.924 Y8.480 E0.0151
G1 X0.924 Y8.225 E0.0098
G1 X-0.924 Y6.377 E0.1000
G1 X-0.924 Y6.299 E0.0030
G1 X-0.782 Y6.321 E0.0055
G1 X-0.304 Y6.346 E0.0183
G1 X0.924 Y7.575 E0.0664
G1 X0.924 Y6.924 E0.0249
G1 X0.344 Y6.344 E0.0314
; layer 2, Z = 0.400
M126 S255
; feature inner perimeter
; tool H0.200 W0.400
G1 Z0.400 F1200
G1 X0.000 Y5.231 F9000
G1 X-0.664 Y5.196 E0.0221 F1439
G1 X-1.321 Y5.092 E0.0221
G1 X-1.967 Y4.919 E0.0222
G1 X-2.415 Y4.753 E0.0159
G1 X-2.987 Y4.485 E0.0210
G1 X-3.362 Y4.269 E0.0144
G1 X-3.911 Y3.884 E0.0223
G1 X-4.413 Y3.448 E0.0221
G1 X-4.867 Y2.962 E0.0221
G1 X-5.267 Y2.430 E0.0221
G1 X-5.611 Y1.857 E0.0222
G1 X-5.819 Y1.427 E0.0159
G1 X-6.042 Y0.842 E0.0208
G1 X-6.214 Y0.199 E0.0221
G1 X-6.319 Y-0.462 E0.0222
G1 X-6.350 Y-0.939 E0.0159
G1 X-6.337 Y-1.564 E0.0208
G1 X-6.256 Y-2.225 E0.0221
G1 X-6.107 Y-2.873 E0.0221
G1 X-5.890 Y-3.502 E0.0221
G1 X-5.609 Y-4.104 E0.0221
G1 X-5.267 Y-4.674 E0.0221
G1 X-4.867 Y-5.205 E0.0221
G1 X-4.410 Y-5.695 E0.0222
G1 X-4.054 Y-6.013 E0.0159
G1 X-3.553 Y-6.388 E0.0208
G1 X-2.982 Y-6.731 E0.0221
G1 X-2.380 Y-7.012 E0.0221
G1 X-1.751 Y-7.229 E0.0221
G1 X-1.099 Y-7.379 E0.0222
G1 X-0.626 Y-7.444 E0.0159
G1 X-0.001 Y-7.475 E0.0208
G1 X0.664 Y-7.440 E0.0221
G1 X1.326 Y-7.335 E0.0223
G1 X1.746 Y-7.230 E0.0144
G1 X2.380 Y-7.012 E0.0223
G1 X2.983 Y-6.731 E0.0221
G1 X3.556 Y-6.387 E0.0222
G1 X3.941 Y-6.104 E0.0159
G1 X4.413 Y-5.692 E0.0208
G1 X4.867 Y-5.205 E0.0221
G1 X5.267 Y-4.674 E0.0221
G1 X5.609 Y-4.104 E0.0221
G1 X5.890 Y-3.502 E0.0221
G1 X6.107 Y-2.873 E0.0221
G1 X6.256 Y-2.225 E0.0221
G1 X6.337 Y-1.565 E0.0221
G1 X6.349 Y-0.895 E0.0223
G1 X6.319 Y-0.463 E0.0144
G1 X6.214 Y0.199 E0.0223
G1 X6.041 Y0.846 E0.0223
G1 X5.892 Y1.253 E0.0144
G1 X5.609 Y1.860 E0.0223
G1 X5.265 Y2.434 E0.0222
G1 X4.982 Y2.819 E0.0159
G1 X4.570 Y3.291 E0.0208
G1 X4.083 Y3.745 E0.0221
G1 X3.552 Y4.145 E0.0221
G1 X2.982 Y4.487 E0.0221
G1 X2.375 Y4.770 E0.0223
G1 X1.968 Y4.919 E0.0144
G1 X1.321 Y5.092 E0.0223
G1 X0.664 Y5.196 E0.0221
G1 X0.000 Y5.231 E0.0221
; feature outer perimeter
G1 X0.000 Y5.631 F9000
G1 X-0.706 Y5.594 E0.0235 F959
G1 X-1.404 Y5.484 E0.0235
G1 X-2.088 Y5.300 E0.0236
G1 X-2.570 Y5.123 E0.0171
G1 X-3.172 Y4.840 E0.0221
G1 X-3.577 Y4.606 E0.0156
G1 X-4.158 Y4.200 E0.0236
G1 X-4.691 Y3.736 E0.0235
G1 X-5.173 Y3.219 E0.0235
G1 X-5.599 Y2.654 E0.0235
G1 X-5.963 Y2.047 E0.0236
G1 X-6.186 Y1.585 E0.0171
G1 X-6.423 Y0.965 E0.0221
G1 X-6.606 Y0.282 E0.0235
G1 X-6.717 Y-0.417 E0.0236
