; G-Code generated by Simplify3D(R) Version 4.1.2
; Apr 6, 2020 at 11:53:12 AM
; Settings Summary
;   processName,Process1
;   applyToModels,Barn Bracket,Barn Bracket(2)
;   profileName,MakerBot Replicator 2 HBP (modified)
;   profileVersion,2020-03-12 10:48:50
;   baseProfile,MakerBot Replicator 2(2)
;   printMaterial,PLA
;   printQuality,Medium
;   printExtruders,
;   extruderName,Primary Extruder
;   extruderToolheadNumber,0
;   extruderDiameter,0.4
;   extruderAutoWidth,0
;   extruderWidth,0.4
;   extrusionMultiplier,1
;   extruderUseRetract,1
;   extruderRetractionDistance,1.9
;   extruderExtraRestartDistance,0
;   extruderRetractionZLift,0.5
;   extruderRetractionSpeed,1200
;   extruderUseCoasting,0
;   extruderCoastingDistance,0.2
;   extruderUseWipe,0
;   extruderWipeDistance,5
;   primaryExtruder,0
;   layerHeight,0.2
;   topSolidLayers,3
;   bottomSolidLayers,3
;   perimeterOutlines,3
;   printPerimetersInsideOut,1
;   startPointOption,3
;   startPointOriginX,0
;   startPointOriginY,150
;   sequentialIslands,0
;   spiralVaseMode,0
;   firstLayerHeightPercentage,100
;   firstLayerWidthPercentage,115
;   firstLayerUnderspeed,0.5
;   useRaft,0
;   raftExtruder,0
;   raftTopLayers,2
;   raftBaseLayers,1
;   raftOffset,1
;   raftSeparationDistance,0.14
;   raftTopInfill,90
;   aboveRaftSpeedMultiplier,0.3
;   useSkirt,0
;   skirtExtruder,0
;   skirtLayers,1
;   skirtOutlines,5
;   skirtOffset,0
;   usePrimePillar,0
;   primePillarExtruder,999
;   primePillarWidth,12
;   primePillarLocation,7
;   primePillarSpeedMultiplier,1
;   useOozeShield,0
;   oozeShieldExtruder,999
;   oozeShieldOffset,2
;   oozeShieldOutlines,1
;   oozeShieldSidewallShape,1
;   oozeShieldSidewallAngle,30
;   oozeShieldSpeedMultiplier,1
;   infillExtruder,0
;   internalInfillPattern,Rectilinear
;   externalInfillPattern,Rectilinear
;   infillPercentage,15
;   outlineOverlapPercentage,25
;   infillExtrusionWidthPercentage,100
;   minInfillLength,5
;   infillLayerInterval,1
;   internalInfillAngles,45,-45
;   overlapInternalInfillAngles,0
;   externalInfillAngles,45,-45
;   generateSupport,1
;   supportExtruder,0
;   supportInfillPercentage,5
;   supportExtraInflation,0.5
;   supportBaseLayers,0
;   denseSupportExtruder,0
;   denseSupportLayers,2
;   denseSupportInfillPercentage,90
;   supportLayerInterval,1
;   supportHorizontalPartOffset,0.3
;   supportUpperSeparationLayers,1
;   supportLowerSeparationLayers,1
;   supportType,1
;   supportGridSpacing,2
;   maxOverhangAngle,45
;   supportAngles,45,-45
;   temperatureName,Primary Extruder,Heated Build Platform
;   temperatureNumber,0,0
;   temperatureSetpointCount,1,1
;   temperatureSetpointLayers,1,1
;   temperatureSetpointTemperatures,230,60
;   temperatureStabilizeAtStartup,1,1
;   temperatureHeatedBed,0,1
;   fanLayers,1,2
;   fanSpeeds,0,100
;   blipFanToFullPower,1
;   adjustSpeedForCooling,1
;   minSpeedLayerTime,15
;   minCoolingSpeedSlowdown,20
;   increaseFanForCooling,1
;   minFanLayerTime,45
;   maxCoolingFanSpeed,100
;   increaseFanForBridging,1
;   bridgingFanSpeed,100
;   use5D,1
;   relativeEdistances,1
;   allowEaxisZeroing,0
;   independentExtruderAxes,1
;   includeM10123,0
;   stickySupport,1
;   applyToolheadOffsets,0
;   gcodeXoffset,0
;   gcodeYoffset,0
;   gcodeZoffset,0
;   overrideMachineDefinition,1
;   machineTypeOverride,0
;   strokeXoverride,280
;   strokeYoverride,150
;   strokeZoverride,150
;   originOffsetXoverride,140
;   originOffsetYoverride,75
;   originOffsetZoverride,0
;   homeXdirOverride,1
;   homeYdirOverride,1
;   homeZdirOverride,-1
;   flipXoverride,1
;   flipYoverride,-1
;   flipZoverride,1
;   toolheadOffsets,0,0|0,0|0,0|0,0|0,0|0,0
;   overrideFirmwareConfiguration,1
;   firmwareTypeOverride,MakerBot/Sailfish Firmware
;   GPXconfigOverride,r2h
;   baudRateOverride,115200
;   overridePrinterModels,1
;   printerModelsOverride,MakerBot_Replicator2.stl
;   startingGcode,; **** Replicator 2 start.gcode ****,M73 P0 ; enable build progress,G162 X Y F3000 ; home XY maximum,G161 Z F1200 ; home Z minimum,G92 Z-5 ; set Z to -5,G1 Z0 ; move Z to 0,G161 Z F100 ; home Z slowly,M132 X Y Z A B ; recall home offsets,G1 X-145 Y-75 Z30 F9000 ; move to wait position off table,G130 X20 Y20 Z20 A20 B20 ; lower stepper Vrefs while heating,M126 S[fan_speed_pwm],M140 S[bed0_temperature] T0,M134 T0 ; stabilize bed temperature,M104 S[extruder0_temperature] T0,M133 T0 ; stabilize extruder temperature,G130 X127 Y127 Z40 A127 B127 ; default stepper Vrefs,G92 A0 ; zero extruder,G1 Z0.4 ; position nozzle,G1 E25 F300 ; purge nozzle,G1 X-140 Y-70 Z0.15 F1200 ; slow wipe,G1 X-135 Y-65 Z0.5 F1200 ; lift,G92 A0 ; zero extruder,M73 P1 ;@body (notify GPX body has started),; **** end of start.gcode ****
;   layerChangeGcode,
;   retractionGcode,
;   toolChangeGcode,
;   endingGcode,; **** Replicator 2 end.gcode ****,M73 P100 ; end build progress,G1 Z155 F1000 ; send Z axis to bottom of machine,M104 S0 T0 ; cool down extruder,M140 S0 T0 ; cool down HBP,M127 ; stop blower fan,G162 X Y F3000 ; home XY maximum,M18 ; disable stepper,M0 ; stop codes,M72 P1 ; play Ta-Da song,; **** end of end.gcode ****
;   exportFileFormat,gcode
;   celebration,0
;   celebrationSong,Random Song
;   postProcessing,
;   defaultSpeed,4800
;   outlineUnderspeed,0.5
;   solidInfillUnderspeed,1
;   supportUnderspeed,1
;   rapidXYspeed,9000
;   rapidZspeed,1200
;   minBridgingArea,50
;   bridgingExtraInflation,0
;   bridgingExtrusionMultiplier,1
;   bridgingSpeedMultiplier,0.8
;   useFixedBridgingAngle,0
;   fixedBridgingAngle,0
;   applyBridgingToPerimeters,0
;   filamentDiameters,1.75|1.75|1.75|1.75|1.75|1.75
;   filamentPricesPerKg,46|46|46|46|46|46
;   filamentDensities,1.25|1.25|1.25|1.25|1.25|1.25
;   useMinPrintHeight,0
;   minPrintHeight,0
;   useMaxPrintHeight,0
;   maxPrintHeight,4.84
;   useDiaphragm,0
;   diaphragmLayerInterval,20
;   robustSlicing,1
;   mergeAllIntoSolid,0
;   onlyRetractWhenCrossingOutline,0
;   retractBetweenLayers,0
;   useRetractionMinTravel,1
;   retractionMinTravel,7
;   retractWhileWiping,1
;   onlyWipeOutlines,1
;   avoidCrossingOutline,0
;   maxMovementDetourFactor,3
;   toolChangeRetractionDistance,12
;   toolChangeExtraRestartDistance,-0.5
;   toolChangeRetractionSpeed,600
;   externalThinWallType,0
;   internalThinWallType,0
;   thinWallAllowedOverlapPercentage,10
;   singleExtrusionMinLength,1
;   singleExtrusionMinPrintingWidthPercentage,50
;   singleExtrusionMaxPrintingWidthPercentage,200
;   singleExtrusionEndpointExtension,0.2
;   horizontalSizeCompensation,0
G90
M83
; **** Replicator 2 start.gcode ****
M73 P0 ; enable build progress
G162 X Y F3000 ; home XY maximum
G161 Z F1200 ; home Z minimum
G92 Z-5 ; set Z to -5
G1 Z0 ; move Z to 0
G161 Z F100 ; home Z slowly
M132 X Y Z A B ; recall home offsets
G1 X-145 Y-75 Z30 F9000 ; move to wait position off table
G130 X20 Y20 Z20 A20 B20 ; lower stepper Vrefs while heating
M126 S9
M140 S60 T0
M134 T0 ; stabilize bed temperature
M104 S230 T0
M133 T0 ; stabilize extruder temperature
G130 X127 Y127 Z40 A127 B127 ; default stepper Vrefs
G92 A0 ; zero extruder
G1 Z0.4 ; position nozzle
G1 E25 F300 ; purge nozzle
G1 X-140 Y-70 Z0.15 F1200 ; slow wipe
G1 X-135 Y-65 Z0.5 F1200 ; lift
G92 A0 ; zero extruder
M73 P1 ;@body (notify GPX body has started)
; **** end of start.gcode ****
; process Process1
; layer 1, Z = 0.200
M135 T0
G1 E-1.9000 F1200
; feature inner perimeter
; tool H0.200 W0.460
G1 Z0.500 F1200
G1 X-28.999 Y16.186 F9000
G1 Z0.200 F1200
G1 E1.9000 F1200
G1 X-28.999 Y15.485 E0.0268 F1800
G1 X29.013 Y15.485 E2.2189
G1 X29.013 Y-7.072 E0.8628
G1 X29.714 Y-7.072 E0.0268
G1 X29.714 Y16.196 E0.8900
G1 X-28.999 Y16.186 E2.2457
G1 X-29.459 Y16.646 F9000
G1 X-29.459 Y15.025 E0.0620 F1800
G1 X28.553 Y15.025 E2.2189
G1 X28.553 Y-7.532 E0.8628
G1 X30.174 Y-7.532 E0.0620
G1 X30.174 Y16.656 E0.9252
G1 X-29.459 Y16.646 E2.2809
; feature outer perimeter
G1 X-29.919 Y17.106 F9000
G1 X-29.919 Y14.565 E0.0972 F1200
G1 X28.093 Y14.565 E2.2189
G1 X28.093 Y-7.992 E0.8628
G1 X30.634 Y-7.992 E0.0972
G1 X30.634 Y17.116 E0.9604
G1 X-29.919 Y17.106 E2.3161
; feature solid layer
G1 X-28.557 Y15.830 F9000
G1 X-28.546 Y15.841 E0.0006 F2400
G1 X-27.895 Y15.841 E0.0249
G1 X-27.906 Y15.830 E0.0006
G1 X-27.256 Y15.830 E0.0249
G1 X-27.245 Y15.841 E0.0006
G1 X-26.594 Y15.841 E0.0249
G1 X-26.605 Y15.830 E0.0006
G1 X-25.955 Y15.830 E0.0249
G1 X-25.943 Y15.841 E0.0006
G1 X-25.293 Y15.842 E0.0249
G1 X-25.304 Y15.830 E0.0006
G1 X-24.654 Y15.830 E0.0249
G1 X-24.642 Y15.842 E0.0006
G1 X-23.991 Y15.842 E0.0249
G1 X-24.003 Y15.830 E0.0006
G1 X-23.353 Y15.830 E0.0249
G1 X-23.341 Y15.842 E0.0006
G1 X-22.690 Y15.842 E0.0249
G1 X-22.702 Y15.830 E0.0006
G1 X-22.052 Y15.830 E0.0249
G1 X-22.039 Y15.842 E0.0007
G1 X-21.389 Y15.842 E0.0249
G1 X-21.401 Y15.830 E0.0007
G1 X-20.750 Y15.830 E0.0249
G1 X-20.738 Y15.842 E0.0007
G1 X-20.088 Y15.842 E0.0249
G1 X-20.100 Y15.830 E0.0007
G1 X-19.449 Y15.830 E0.0249
G1 X-19.437 Y15.843 E0.0007
G1 X-18.786 Y15.843 E0.0249
G1 X-18.799 Y15.830 E0.0007
G1 X-18.148 Y15.830 E0.0249
G1 X-18.136 Y15.843 E0.0007
G1 X-17.485 Y15.843 E0.0249
G1 X-17.498 Y15.830 E0.0007
G1 X-16.847 Y15.830 E0.0249
G1 X-16.834 Y15.843 E0.0007
G1 X-16.184 Y15.843 E0.0249
G1 X-16.197 Y15.830 E0.0007
G1 X-15.546 Y15.830 E0.0249
G1 X-15.533 Y15.843 E0.0007
G1 X-14.882 Y15.843 E0.0249
G1 X-14.896 Y15.830 E0.0007
G1 X-14.245 Y15.830 E0.0249
G1 X-14.232 Y15.843 E0.0007
G1 X-13.581 Y15.844 E0.0249
G1 X-13.595 Y15.830 E0.0007
G1 X-12.944 Y15.830 E0.0249
G1 X-12.930 Y15.844 E0.0007
G1 X-12.280 Y15.844 E0.0249
G1 X-12.293 Y15.830 E0.0007
G1 X-11.643 Y15.830 E0.0249
G1 X-11.629 Y15.844 E0.0007
G1 X-10.978 Y15.844 E0.0249
G1 X-10.992 Y15.830 E0.0008
G1 X-10.342 Y15.830 E0.0249
G1 X-10.328 Y15.844 E0.0008
G1 X-9.677 Y15.844 E0.0249
G1 X-9.691 Y15.830 E0.0008
G1 X-9.041 Y15.830 E0.0249
G1 X-9.027 Y15.844 E0.0008
G1 X-8.376 Y15.844 E0.0249
G1 X-8.390 Y15.830 E0.0008
G1 X-7.740 Y15.830 E0.0249
G1 X-7.725 Y15.845 E0.0008
G1 X-7.075 Y15.845 E0.0249
G1 X-7.089 Y15.830 E0.0008
G1 X-6.439 Y15.830 E0.0249
G1 X-6.424 Y15.845 E0.0008
G1 X-5.773 Y15.845 E0.0249
G1 X-5.788 Y15.830 E0.0008
G1 X-5.138 Y15.830 E0.0249
G1 X-5.123 Y15.845 E0.0008
G1 X-4.472 Y15.845 E0.0249
G1 X-4.487 Y15.830 E0.0008
G1 X-3.836 Y15.830 E0.0249
G1 X-3.821 Y15.845 E0.0008
G1 X-3.171 Y15.845 E0.0249
G1 X-3.186 Y15.830 E0.0008
G1 X-2.535 Y15.830 E0.0249
G1 X-2.520 Y15.845 E0.0008
G1 X-1.869 Y15.846 E0.0249
G1 X-1.885 Y15.830 E0.0008
G1 X-1.234 Y15.830 E0.0249
G1 X-1.219 Y15.846 E0.0008
G1 X-0.568 Y15.846 E0.0249
G1 X-0.584 Y15.830 E0.0008
G1 X0.067 Y15.830 E0.0249
G1 X0.083 Y15.846 E0.0009
G1 X0.733 Y15.846 E0.0249
G1 X0.717 Y15.830 E0.0009
G1 X1.368 Y15.830 E0.0249
G1 X1.384 Y15.846 E0.0009
G1 X2.034 Y15.846 E0.0249
G1 X2.018 Y15.830 E0.0009
G1 X2.669 Y15.830 E0.0249
G1 X2.685 Y15.846 E0.0009
G1 X3.336 Y15.846 E0.0249
G1 X3.319 Y15.830 E0.0009
G1 X3.970 Y15.830 E0.0249
G1 X3.986 Y15.846 E0.0009
G1 X4.637 Y15.847 E0.0249
G1 X4.621 Y15.830 E0.0009
G1 X5.271 Y15.830 E0.0249
G1 X5.288 Y15.847 E0.0009
G1 X5.938 Y15.847 E0.0249
G1 X5.922 Y15.830 E0.0009
G1 X6.572 Y15.830 E0.0249
G1 X6.589 Y15.847 E0.0009
G1 X7.240 Y15.847 E0.0249
G1 X7.223 Y15.830 E0.0009
G1 X7.873 Y15.830 E0.0249
G1 X7.890 Y15.847 E0.0009
G1 X8.541 Y15.847 E0.0249
G1 X8.524 Y15.830 E0.0009
G1 X9.174 Y15.830 E0.0249
G1 X9.192 Y15.847 E0.0009
G1 X9.842 Y15.847 E0.0249
G1 X9.825 Y15.830 E0.0009
G1 X10.475 Y15.830 E0.0249
G1 X10.493 Y15.848 E0.0009
G1 X11.144 Y15.848 E0.0249
G1 X11.126 Y15.830 E0.0010
G1 X11.776 Y15.830 E0.0249
G1 X11.794 Y15.848 E0.0010
G1 X12.445 Y15.848 E0.0249
G1 X12.427 Y15.830 E0.0010
G1 X13.078 Y15.830 E0.0249
G1 X13.095 Y15.848 E0.0010
G1 X13.746 Y15.848 E0.0249
G1 X13.728 Y15.830 E0.0010
G1 X14.379 Y15.830 E0.0249
G1 X14.397 Y15.848 E0.0010
G1 X15.047 Y15.848 E0.0249
G1 X15.029 Y15.830 E0.0010
G1 X15.680 Y15.830 E0.0249
G1 X15.698 Y15.848 E0.0010
G1 X16.349 Y15.849 E0.0249
G1 X16.330 Y15.830 E0.0010
G1 X16.981 Y15.830 E0.0249
G1 X16.999 Y15.849 E0.0010
G1 X17.650 Y15.849 E0.0249
G1 X17.631 Y15.830 E0.0010
G1 X18.282 Y15.830 E0.0249
G1 X18.301 Y15.849 E0.0010
G1 X18.951 Y15.849 E0.0249
G1 X18.932 Y15.830 E0.0010
G1 X19.583 Y15.830 E0.0249
G1 X19.602 Y15.849 E0.0010
G1 X20.253 Y15.849 E0.0249
G1 X20.233 Y15.830 E0.0010
G1 X20.884 Y15.830 E0.0249
G1 X20.903 Y15.849 E0.0010
G1 X21.554 Y15.849 E0.0249
G1 X21.535 Y15.830 E0.0010
G1 X22.185 Y15.830 E0.0249
G1 X22.205 Y15.850 E0.0011
G1 X22.855 Y15.850 E0.0249
G1 X22.836 Y15.830 E0.0011
G1 X23.486 Y15.830 E0.0249
G1 X23.506 Y15.850 E0.0011
G1 X24.156 Y15.850 E0.0249
G1 X24.137 Y15.830 E0.0011
G1 X24.787 Y15.830 E0.0249
G1 X24.807 Y15.850 E0.0011
G1 X25.458 Y15.850 E0.0249
G1 X25.438 Y15.830 E0.0011
G1 X26.088 Y15.830 E0.0249
G1 X26.108 Y15.850 E0.0011
G1 X26.759 Y15.850 E0.0249
G1 X26.739 Y15.830 E0.0011
G1 X27.389 Y15.830 E0.0249
G1 X27.410 Y15.850 E0.0011
G1 X28.060 Y15.851 E0.0249
G1 X28.040 Y15.830 E0.0011
G1 X28.690 Y15.830 E0.0249
G1 X28.711 Y15.851 E0.0011
G1 X29.362 Y15.851 E0.0249
G1 X29.341 Y15.830 E0.0011
G1 X29.358 Y15.830 E0.0007
G1 X29.358 Y15.197 E0.0242
G1 X29.369 Y15.207 E0.0006
G1 X29.369 Y14.557 E0.0249
G1 X29.358 Y14.546 E0.0006
G1 X29.358 Y13.896 E0.0249
G1 X29.369 Y13.906 E0.0006
G1 X29.369 Y13.256 E0.0249
G1 X29.358 Y13.245 E0.0006
G1 X29.358 Y12.595 E0.0249
G1 X29.369 Y12.605 E0.0006
G1 X29.369 Y11.955 E0.0249
G1 X29.358 Y11.944 E0.0006
G1 X29.358 Y11.293 E0.0249
G1 X29.369 Y11.304 E0.0006
G1 X29.369 Y10.654 E0.0249
G1 X29.358 Y10.643 E0.0006
G1 X29.358 Y9.992 E0.0249
G1 X29.369 Y10.003 E0.0006
G1 X29.369 Y9.353 E0.0249
G1 X29.358 Y9.342 E0.0006
G1 X29.358 Y8.691 E0.0249
G1 X29.369 Y8.702 E0.0006
G1 X29.369 Y8.051 E0.0249
G1 X29.358 Y8.041 E0.0006
G1 X29.358 Y7.390 E0.0249
G1 X29.369 Y7.401 E0.0006
G1 X29.369 Y6.750 E0.0249
G1 X29.358 Y6.740 E0.0006
G1 X29.358 Y6.089 E0.0249
G1 X29.369 Y6.100 E0.0006
G1 X29.369 Y5.449 E0.0249
G1 X29.358 Y5.439 E0.0006
G1 X29.358 Y4.788 E0.0249
G1 X29.369 Y4.799 E0.0006
G1 X29.369 Y4.148 E0.0249
G1 X29.358 Y4.138 E0.0006
G1 X29.358 Y3.487 E0.0249
G1 X29.369 Y3.498 E0.0006
G1 X29.369 Y2.847 E0.0249
G1 X29.358 Y2.836 E0.0006
G1 X29.358 Y2.186 E0.0249
G1 X29.369 Y2.197 E0.0006
G1 X29.369 Y1.546 E0.0249
G1 X29.358 Y1.535 E0.0006
G1 X29.358 Y0.885 E0.0249
G1 X29.369 Y0.896 E0.0006
G1 X29.369 Y0.245 E0.0249
G1 X29.358 Y0.234 E0.0006
G1 X29.358 Y-0.416 E0.0249
G1 X29.369 Y-0.406 E0.0006
G1 X29.369 Y-1.056 E0.0249
G1 X29.358 Y-1.067 E0.0006
G1 X29.358 Y-1.717 E0.0249
G1 X29.369 Y-1.707 E0.0006
G1 X29.369 Y-2.357 E0.0249
G1 X29.358 Y-2.368 E0.0006
G1 X29.358 Y-3.018 E0.0249
G1 X29.369 Y-3.008 E0.0006
G1 X29.369 Y-3.658 E0.0249
G1 X29.358 Y-3.669 E0.0006
G1 X29.358 Y-4.319 E0.0249
G1 X29.369 Y-4.309 E0.0006
G1 X29.369 Y-4.959 E0.0249
G1 X29.358 Y-4.970 E0.0006
G1 X29.358 Y-5.621 E0.0249
G1 X29.369 Y-5.610 E0.0006
G1 X29.369 Y-6.260 E0.0249
G1 X29.358 Y-6.271 E0.0006
G1 E-1.9000 F1200
; feature inner perimeter
G1 Z0.700 F1200
G1 X-28.655 Y11.634 F9000
G1 Z0.200 F1200
G1 E1.9000 F1200
G1 X-29.356 Y11.634 E0.0268 F1800
G1 X-29.356 Y-11.634 E0.8900
G1 X-28.655 Y-11.634 E0.0268
G1 X-28.655 Y-11.624 E0.0004
G1 X29.357 Y-11.624 E2.2189
G1 X29.357 Y-10.923 E0.0268
G1 X-28.655 Y-10.923 E2.2189
G1 X-28.655 Y11.634 E0.8628
G1 X-28.195 Y12.094 F9000
G1 X-29.816 Y12.094 E0.0620 F1800
G1 X-29.816 Y-12.094 E0.9252
G1 X-28.195 Y-12.094 E0.0620
G1 X-28.195 Y-12.084 E0.0004
G1 X29.817 Y-12.084 E2.2189
G1 X29.817 Y-10.463 E0.0620
G1 X-28.195 Y-10.463 E2.2189
G1 X-28.195 Y12.094 E0.8628
; feature outer perimeter
G1 X-27.735 Y12.554 F9000
G1 X-30.276 Y12.554 E0.0972 F1200
G1 X-30.276 Y-12.554 E0.9604
G1 X-27.735 Y-12.554 E0.0972
G1 X-27.735 Y-12.544 E0.0004
G1 X30.277 Y-12.544 E2.2189
G1 X30.277 Y-10.003 E0.0972
G1 X-27.735 Y-10.003 E2.2189
G1 X-27.735 Y12.554 E0.8628
; feature solid layer
G1 X-29.011 Y10.822 F9000
G1 X-29.000 Y10.833 E0.0006 F2400
G1 X-29.000 Y10.182 E0.0249
G1 X-29.011 Y10.172 E0.0006
G1 X-29.011 Y9.521 E0.0249
G1 X-29.000 Y9.532 E0.0006
G1 X-29.000 Y8.881 E0.0249
G1 X-29.011 Y8.871 E0.0006
G1 X-29.011 Y8.220 E0.0249
