; G-Code generated by Simplify3D(R) Version 4.1.2
; Apr 6, 2020 at 11:53:31 AM
; Settings Summary
;   processName,Process1
;   applyToModels,Barn Bracket,Barn Bracket(2),Barn Bracket(3),Barn Bracket(2)(2)
;   profileName,MakerBot Replicator 2 HBP (modified)
;   profileVersion,2020-03-12 10:48:50
;   baseProfile,MakerBot Replicator 2(2)
;   printMaterial,PLA
;   printQuality,Medium
;   printExtruders,
;   extruderName,Primary Extruder
;   extruderToolheadNumber,0
;   extruderDiameter,0.4
;   extruderAutoWidth,0
;   extruderWidth,0.4
;   extrusionMultiplier,1
;   extruderUseRetract,1
;   extruderRetractionDistance,1.9
;   extruderExtraRestartDistance,0
;   extruderRetractionZLift,0.5
;   extruderRetractionSpeed,1200
;   extruderUseCoasting,0
;   extruderCoastingDistance,0.2
;   extruderUseWipe,0
;   extruderWipeDistance,5
;   primaryExtruder,0
;   layerHeight,0.2
;   topSolidLayers,3
;   bottomSolidLayers,3
;   perimeterOutlines,3
;   printPerimetersInsideOut,1
;   startPointOption,3
;   startPointOriginX,0
;   startPointOriginY,150
;   sequentialIslands,0
;   spiralVaseMode,0
;   firstLayerHeightPercentage,100
;   firstLayerWidthPercentage,115
;   firstLayerUnderspeed,0.5
;   useRaft,0
;   raftExtruder,0
;   raftTopLayers,2
;   raftBaseLayers,1
;   raftOffset,1
;   raftSeparationDistance,0.14
;   raftTopInfill,90
;   aboveRaftSpeedMultiplier,0.3
;   useSkirt,0
;   skirtExtruder,0
;   skirtLayers,1
;   skirtOutlines,5
;   skirtOffset,0
;   usePrimePillar,0
;   primePillarExtruder,999
;   primePillarWidth,12
;   primePillarLocation,7
;   primePillarSpeedMultiplier,1
;   useOozeShield,0
;   oozeShieldExtruder,999
;   oozeShieldOffset,2
;   oozeShieldOutlines,1
;   oozeShieldSidewallShape,1
;   oozeShieldSidewallAngle,30
;   oozeShieldSpeedMultiplier,1
;   infillExtruder,0
;   internalInfillPattern,Rectilinear
;   externalInfillPattern,Rectilinear
;   infillPercentage,15
;   outlineOverlapPercentage,25
;   infillExtrusionWidthPercentage,100
;   minInfillLength,5
;   infillLayerInterval,1
;   internalInfillAngles,45,-45
;   overlapInternalInfillAngles,0
;   externalInfillAngles,45,-45
;   generateSupport,1
;   supportExtruder,0
;   supportInfillPercentage,5
;   supportExtraInflation,0.5
;   supportBaseLayers,0
;   denseSupportExtruder,0
;   denseSupportLayers,2
;   denseSupportInfillPercentage,90
;   supportLayerInterval,1
;   supportHorizontalPartOffset,0.3
;   supportUpperSeparationLayers,1
;   supportLowerSeparationLayers,1
;   supportType,1
;   supportGridSpacing,2
;   maxOverhangAngle,45
;   supportAngles,45,-45
;   temperatureName,Primary Extruder,Heated Build Platform
;   temperatureNumber,0,0
;   temperatureSetpointCount,1,1
;   temperatureSetpointLayers,1,1
;   temperatureSetpointTemperatures,230,60
;   temperatureStabilizeAtStartup,1,1
;   temperatureHeatedBed,0,1
;   fanLayers,1,2
;   fanSpeeds,0,100
;   blipFanToFullPower,1
;   adjustSpeedForCooling,1
;   minSpeedLayerTime,15
;   minCoolingSpeedSlowdown,20
;   increaseFanForCooling,1
;   minFanLayerTime,45
;   maxCoolingFanSpeed,100
;   increaseFanForBridging,1
;   bridgingFanSpeed,100
;   use5D,1
;   relativeEdistances,1
;   allowEaxisZeroing,0
;   independentExtruderAxes,1
;   includeM10123,0
;   stickySupport,1
;   applyToolheadOffsets,0
;   gcodeXoffset,0
;   gcodeYoffset,0
;   gcodeZoffset,0
;   overrideMachineDefinition,1
;   machineTypeOverride,0
;   strokeXoverride,280
;   strokeYoverride,150
;   strokeZoverride,150
;   originOffsetXoverride,140
;   originOffsetYoverride,75
;   originOffsetZoverride,0
;   homeXdirOverride,1
;   homeYdirOverride,1
;   homeZdirOverride,-1
;   flipXoverride,1
;   flipYoverride,-1
;   flipZoverride,1
;   toolheadOffsets,0,0|0,0|0,0|0,0|0,0|0,0
;   overrideFirmwareConfiguration,1
;   firmwareTypeOverride,MakerBot/Sailfish Firmware
;   GPXconfigOverride,r2h
;   baudRateOverride,115200
;   overridePrinterModels,1
;   printerModelsOverride,MakerBot_Replicator2.stl
;   startingGcode,; **** Replicator 2 start.gcode ****,M73 P0 ; enable build progress,G162 X Y F3000 ; home XY maximum,G161 Z F1200 ; home Z minimum,G92 Z-5 ; set Z to -5,G1 Z0 ; move Z to 0,G161 Z F100 ; home Z slowly,M132 X Y Z A B ; recall home offsets,G1 X-145 Y-75 Z30 F9000 ; move to wait position off table,G130 X20 Y20 Z20 A20 B20 ; lower stepper Vrefs while heating,M126 S[fan_speed_pwm],M140 S[bed0_temperature] T0,M134 T0 ; stabilize bed temperature,M104 S[extruder0_temperature] T0,M133 T0 ; stabilize extruder temperature,G130 X127 Y127 Z40 A127 B127 ; default stepper Vrefs,G92 A0 ; zero extruder,G1 Z0.4 ; position nozzle,G1 E25 F300 ; purge nozzle,G1 X-140 Y-70 Z0.15 F1200 ; slow wipe,G1 X-135 Y-65 Z0.5 F1200 ; lift,G92 A0 ; zero extruder,M73 P1 ;@body (notify GPX body has started),; **** end of start.gcode ****
;   layerChangeGcode,
;   retractionGcode,
;   toolChangeGcode,
;   endingGcode,; **** Replicator 2 end.gcode ****,M73 P100 ; end build progress,G1 Z155 F1000 ; send Z axis to bottom of machine,M104 S0 T0 ; cool down extruder,M140 S0 T0 ; cool down HBP,M127 ; stop blower fan,G162 X Y F3000 ; home XY maximum,M18 ; disable stepper,M0 ; stop codes,M72 P1 ; play Ta-Da song,; **** end of end.gcode ****
;   exportFileFormat,gcode
;   celebration,0
;   celebrationSong,Random Song
;   postProcessing,
;   defaultSpeed,4800
;   outlineUnderspeed,0.5
;   solidInfillUnderspeed,1
;   supportUnderspeed,1
;   rapidXYspeed,9000
;   rapidZspeed,1200
;   minBridgingArea,50
;   bridgingExtraInflation,0
;   bridgingExtrusionMultiplier,1
;   bridgingSpeedMultiplier,0.8
;   useFixedBridgingAngle,0
;   fixedBridgingAngle,0
;   applyBridgingToPerimeters,0
;   filamentDiameters,1.75|1.75|1.75|1.75|1.75|1.75
;   filamentPricesPerKg,46|46|46|46|46|46
;   filamentDensities,1.25|1.25|1.25|1.25|1.25|1.25
;   useMinPrintHeight,0
;   minPrintHeight,0
;   useMaxPrintHeight,0
;   maxPrintHeight,4.84
;   useDiaphragm,0
;   diaphragmLayerInterval,20
;   robustSlicing,1
;   mergeAllIntoSolid,0
;   onlyRetractWhenCrossingOutline,0
;   retractBetweenLayers,0
;   useRetractionMinTravel,1
;   retractionMinTravel,7
;   retractWhileWiping,1
;   onlyWipeOutlines,1
;   avoidCrossingOutline,0
;   maxMovementDetourFactor,3
;   toolChangeRetractionDistance,12
;   toolChangeExtraRestartDistance,-0.5
;   toolChangeRetractionSpeed,600
;   externalThinWallType,0
;   internalThinWallType,0
;   thinWallAllowedOverlapPercentage,10
;   singleExtrusionMinLength,1
;   singleExtrusionMinPrintingWidthPercentage,50
;   singleExtrusionMaxPrintingWidthPercentage,200
;   singleExtrusionEndpointExtension,0.2
;   horizontalSizeCompensation,0
G90
M83
; **** Replicator 2 start.gcode ****
M73 P0 ; enable build progress
G162 X Y F3000 ; home XY maximum
G161 Z F1200 ; home Z minimum
G92 Z-5 ; set Z to -5
G1 Z0 ; move Z to 0
G161 Z F100 ; home Z slowly
M132 X Y Z A B ; recall home offsets
G1 X-145 Y-75 Z30 F9000 ; move to wait position off table
G130 X20 Y20 Z20 A20 B20 ; lower stepper Vrefs while heating
M127
M140 S60 T0
M134 T0 ; stabilize bed temperature
M104 S230 T0
M133 T0 ; stabilize extruder temperature
G130 X127 Y127 Z40 A127 B127 ; default stepper Vrefs
G92 A0 ; zero extruder
G1 Z0.4 ; position nozzle
G1 E25 F300 ; purge nozzle
G1 X-140 Y-70 Z0.15 F1200 ; slow wipe
G1 X-135 Y-65 Z0.5 F1200 ; lift
G92 A0 ; zero extruder
M73 P1 ;@body (notify GPX body has started)
; **** end of start.gcode ****
; process Process1
; layer 1, Z = 0.200
M135 T0
G1 E-1.9000 F1200
; feature inner perimeter
; tool H0.200 W0.460
G1 Z0.500 F1200
G1 X-3.708 Y14.283 F9000
G1 Z0.200 F1200
G1 E1.9000 F1200
G1 X-62.421 Y14.273 E2.2457 F1800
G1 X-62.421 Y13.572 E0.0268
G1 X-4.409 Y13.572 E2.2189
G1 X-4.409 Y-8.985 E0.8628
G1 X-3.708 Y-8.985 E0.0268
G1 X-3.708 Y14.283 E0.8900
G1 X-3.248 Y14.743 F9000
G1 X-62.881 Y14.733 E2.2809 F1800
G1 X-62.881 Y13.112 E0.0620
G1 X-4.869 Y13.112 E2.2189
G1 X-4.869 Y-9.445 E0.8628
G1 X-3.248 Y-9.445 E0.0620
G1 X-3.248 Y14.743 E0.9252
; feature outer perimeter
G1 X-2.788 Y15.203 F9000
G1 X-63.341 Y15.193 E2.3161 F1200
G1 X-63.341 Y12.652 E0.0972
G1 X-5.329 Y12.652 E2.2189
G1 X-5.329 Y-9.905 E0.8628
G1 X-2.788 Y-9.905 E0.0972
G1 X-2.788 Y15.203 E0.9604
G1 E-1.9000 F1200
; feature solid layer
G1 Z0.700 F1200
G1 X-4.064 Y-8.042 F9000
G1 Z0.200 F1200
G1 E1.9000 F1200
G1 X-4.053 Y-8.031 E0.0006 F2400
G1 X-4.053 Y-7.380 E0.0249
G1 X-4.064 Y-7.391 E0.0006
G1 X-4.064 Y-6.741 E0.0249
G1 X-4.053 Y-6.730 E0.0006
G1 X-4.053 Y-6.079 E0.0249
G1 X-4.064 Y-6.090 E0.0006
G1 X-4.064 Y-5.439 E0.0249
G1 X-4.053 Y-5.429 E0.0006
G1 X-4.053 Y-4.778 E0.0249
G1 X-4.064 Y-4.789 E0.0006
G1 X-4.064 Y-4.138 E0.0249
G1 X-4.053 Y-4.128 E0.0006
G1 X-4.053 Y-3.477 E0.0249
G1 X-4.064 Y-3.488 E0.0006
G1 X-4.064 Y-2.837 E0.0249
G1 X-4.053 Y-2.827 E0.0006
G1 X-4.053 Y-2.176 E0.0249
G1 X-4.064 Y-2.187 E0.0006
G1 X-4.064 Y-1.536 E0.0249
G1 X-4.053 Y-1.526 E0.0006
G1 X-4.053 Y-0.875 E0.0249
G1 X-4.064 Y-0.886 E0.0006
G1 X-4.064 Y-0.235 E0.0249
G1 X-4.053 Y-0.224 E0.0006
G1 X-4.053 Y0.426 E0.0249
G1 X-4.064 Y0.415 E0.0006
G1 X-4.064 Y1.066 E0.0249
G1 X-4.053 Y1.077 E0.0006
G1 X-4.053 Y1.727 E0.0249
G1 X-4.064 Y1.716 E0.0006
G1 X-4.064 Y2.367 E0.0249
G1 X-4.053 Y2.378 E0.0006
G1 X-4.053 Y3.028 E0.0249
G1 X-4.064 Y3.018 E0.0006
G1 X-4.064 Y3.668 E0.0249
G1 X-4.053 Y3.679 E0.0006
G1 X-4.053 Y4.329 E0.0249
G1 X-4.064 Y4.319 E0.0006
G1 X-4.064 Y4.969 E0.0249
G1 X-4.053 Y4.980 E0.0006
G1 X-4.053 Y5.630 E0.0249
G1 X-4.064 Y5.620 E0.0006
G1 X-4.064 Y6.270 E0.0249
G1 X-4.053 Y6.281 E0.0006
G1 X-4.053 Y6.931 E0.0249
G1 X-4.064 Y6.921 E0.0006
G1 X-4.064 Y7.571 E0.0249
G1 X-4.053 Y7.582 E0.0006
G1 X-4.053 Y8.233 E0.0249
G1 X-4.064 Y8.222 E0.0006
G1 X-4.064 Y8.872 E0.0249
G1 X-4.053 Y8.883 E0.0006
G1 X-4.053 Y9.534 E0.0249
G1 X-4.064 Y9.523 E0.0006
G1 X-4.064 Y10.173 E0.0249
G1 X-4.053 Y10.184 E0.0006
G1 X-4.053 Y10.835 E0.0249
G1 X-4.064 Y10.824 E0.0006
G1 X-4.064 Y11.475 E0.0249
G1 X-4.053 Y11.485 E0.0006
G1 X-4.053 Y12.136 E0.0249
G1 X-4.064 Y12.125 E0.0006
G1 X-4.064 Y12.776 E0.0249
G1 X-4.053 Y12.786 E0.0006
G1 X-4.053 Y13.437 E0.0249
G1 X-4.064 Y13.426 E0.0006
G1 X-4.064 Y13.917 E0.0188
G1 X-4.223 Y13.917 E0.0061
G1 X-4.203 Y13.938 E0.0011
G1 X-4.853 Y13.938 E0.0249
G1 X-4.874 Y13.917 E0.0011
G1 X-5.524 Y13.917 E0.0249
G1 X-5.504 Y13.938 E0.0011
G1 X-6.155 Y13.938 E0.0249
G1 X-6.175 Y13.917 E0.0011
G1 X-6.826 Y13.917 E0.0249
G1 X-6.805 Y13.938 E0.0011
G1 X-7.456 Y13.937 E0.0249
G1 X-7.476 Y13.917 E0.0011
G1 X-8.127 Y13.917 E0.0249
G1 X-8.107 Y13.937 E0.0011
G1 X-8.757 Y13.937 E0.0249
G1 X-8.777 Y13.917 E0.0011
G1 X-9.428 Y13.917 E0.0249
G1 X-9.408 Y13.937 E0.0011
G1 X-10.059 Y13.937 E0.0249
G1 X-10.078 Y13.917 E0.0011
G1 X-10.729 Y13.917 E0.0249
G1 X-10.709 Y13.937 E0.0011
G1 X-11.360 Y13.937 E0.0249
G1 X-11.379 Y13.917 E0.0011
G1 X-12.030 Y13.917 E0.0249
G1 X-12.010 Y13.937 E0.0010
G1 X-12.661 Y13.937 E0.0249
G1 X-12.680 Y13.917 E0.0010
G1 X-13.331 Y13.917 E0.0249
G1 X-13.312 Y13.937 E0.0010
G1 X-13.962 Y13.936 E0.0249
G1 X-13.981 Y13.917 E0.0010
G1 X-14.632 Y13.917 E0.0249
G1 X-14.613 Y13.936 E0.0010
G1 X-15.264 Y13.936 E0.0249
G1 X-15.283 Y13.917 E0.0010
G1 X-15.933 Y13.917 E0.0249
G1 X-15.914 Y13.936 E0.0010
G1 X-16.565 Y13.936 E0.0249
G1 X-16.584 Y13.917 E0.0010
G1 X-17.234 Y13.917 E0.0249
G1 X-17.216 Y13.936 E0.0010
G1 X-17.866 Y13.936 E0.0249
G1 X-17.885 Y13.917 E0.0010
G1 X-18.535 Y13.917 E0.0249
G1 X-18.517 Y13.936 E0.0010
G1 X-19.168 Y13.936 E0.0249
G1 X-19.186 Y13.917 E0.0010
G1 X-19.836 Y13.917 E0.0249
G1 X-19.818 Y13.935 E0.0010
G1 X-20.469 Y13.935 E0.0249
G1 X-20.487 Y13.917 E0.0010
G1 X-21.137 Y13.917 E0.0249
G1 X-21.120 Y13.935 E0.0010
G1 X-21.770 Y13.935 E0.0249
G1 X-21.788 Y13.917 E0.0010
G1 X-22.438 Y13.917 E0.0249
G1 X-22.421 Y13.935 E0.0010
G1 X-23.071 Y13.935 E0.0249
G1 X-23.089 Y13.917 E0.0009
G1 X-23.740 Y13.917 E0.0249
G1 X-23.722 Y13.935 E0.0009
G1 X-24.373 Y13.935 E0.0249
G1 X-24.390 Y13.917 E0.0009
G1 X-25.041 Y13.917 E0.0249
G1 X-25.023 Y13.935 E0.0009
G1 X-25.674 Y13.934 E0.0249
G1 X-25.691 Y13.917 E0.0009
G1 X-26.342 Y13.917 E0.0249
G1 X-26.325 Y13.934 E0.0009
G1 X-26.975 Y13.934 E0.0249
G1 X-26.992 Y13.917 E0.0009
G1 X-27.643 Y13.917 E0.0249
G1 X-27.626 Y13.934 E0.0009
G1 X-28.277 Y13.934 E0.0249
G1 X-28.293 Y13.917 E0.0009
G1 X-28.944 Y13.917 E0.0249
G1 X-28.927 Y13.934 E0.0009
G1 X-29.578 Y13.934 E0.0249
G1 X-29.594 Y13.917 E0.0009
G1 X-30.245 Y13.917 E0.0249
G1 X-30.229 Y13.934 E0.0009
G1 X-30.879 Y13.934 E0.0249
G1 X-30.895 Y13.917 E0.0009
G1 X-31.546 Y13.917 E0.0249
G1 X-31.530 Y13.933 E0.0009
G1 X-32.181 Y13.933 E0.0249
G1 X-32.197 Y13.917 E0.0009
G1 X-32.847 Y13.917 E0.0249
G1 X-32.831 Y13.933 E0.0009
G1 X-33.482 Y13.933 E0.0249
G1 X-33.498 Y13.917 E0.0009
G1 X-34.148 Y13.917 E0.0249
G1 X-34.132 Y13.933 E0.0008
G1 X-34.783 Y13.933 E0.0249
G1 X-34.799 Y13.917 E0.0008
G1 X-35.449 Y13.917 E0.0249
G1 X-35.434 Y13.933 E0.0008
G1 X-36.084 Y13.933 E0.0249
G1 X-36.100 Y13.917 E0.0008
G1 X-36.750 Y13.917 E0.0249
G1 X-36.735 Y13.933 E0.0008
G1 X-37.386 Y13.932 E0.0249
G1 X-37.401 Y13.917 E0.0008
G1 X-38.051 Y13.917 E0.0249
G1 X-38.036 Y13.932 E0.0008
G1 X-38.687 Y13.932 E0.0249
G1 X-38.702 Y13.917 E0.0008
G1 X-39.352 Y13.917 E0.0249
G1 X-39.338 Y13.932 E0.0008
G1 X-39.988 Y13.932 E0.0249
G1 X-40.003 Y13.917 E0.0008
G1 X-40.653 Y13.917 E0.0249
G1 X-40.639 Y13.932 E0.0008
G1 X-41.290 Y13.932 E0.0249
G1 X-41.304 Y13.917 E0.0008
G1 X-41.955 Y13.917 E0.0249
G1 X-41.940 Y13.932 E0.0008
G1 X-42.591 Y13.932 E0.0249
G1 X-42.605 Y13.917 E0.0008
G1 X-43.256 Y13.917 E0.0249
G1 X-43.242 Y13.931 E0.0008
G1 X-43.892 Y13.931 E0.0249
G1 X-43.906 Y13.917 E0.0008
G1 X-44.557 Y13.917 E0.0249
G1 X-44.543 Y13.931 E0.0008
G1 X-45.193 Y13.931 E0.0249
G1 X-45.207 Y13.917 E0.0007
G1 X-45.858 Y13.917 E0.0249
G1 X-45.844 Y13.931 E0.0007
G1 X-46.495 Y13.931 E0.0249
G1 X-46.508 Y13.917 E0.0007
G1 X-47.159 Y13.917 E0.0249
G1 X-47.145 Y13.931 E0.0007
G1 X-47.796 Y13.931 E0.0249
G1 X-47.809 Y13.917 E0.0007
G1 X-48.460 Y13.917 E0.0249
G1 X-48.447 Y13.931 E0.0007
G1 X-49.097 Y13.930 E0.0249
G1 X-49.110 Y13.917 E0.0007
G1 X-49.761 Y13.917 E0.0249
G1 X-49.748 Y13.930 E0.0007
G1 X-50.399 Y13.930 E0.0249
G1 X-50.412 Y13.917 E0.0007
G1 X-51.062 Y13.917 E0.0249
G1 X-51.049 Y13.930 E0.0007
G1 X-51.700 Y13.930 E0.0249
G1 X-51.713 Y13.917 E0.0007
G1 X-52.363 Y13.917 E0.0249
G1 X-52.351 Y13.930 E0.0007
G1 X-53.001 Y13.930 E0.0249
G1 X-53.014 Y13.917 E0.0007
G1 X-53.664 Y13.917 E0.0249
G1 X-53.652 Y13.930 E0.0007
G1 X-54.303 Y13.930 E0.0249
G1 X-54.315 Y13.917 E0.0007
G1 X-54.965 Y13.917 E0.0249
G1 X-54.953 Y13.930 E0.0007
G1 X-55.604 Y13.929 E0.0249
G1 X-55.616 Y13.917 E0.0006
G1 X-56.266 Y13.917 E0.0249
G1 X-56.254 Y13.929 E0.0006
G1 X-56.905 Y13.929 E0.0249
G1 X-56.917 Y13.917 E0.0006
G1 X-57.567 Y13.917 E0.0249
G1 X-57.556 Y13.929 E0.0006
G1 X-58.206 Y13.929 E0.0249
G1 X-58.218 Y13.917 E0.0006
G1 X-58.869 Y13.917 E0.0249
G1 X-58.857 Y13.929 E0.0006
G1 X-59.508 Y13.929 E0.0249
G1 X-59.519 Y13.917 E0.0006
G1 X-60.170 Y13.917 E0.0249
G1 X-60.158 Y13.929 E0.0006
G1 X-60.809 Y13.929 E0.0249
G1 X-60.820 Y13.917 E0.0006
G1 X-61.471 Y13.917 E0.0249
G1 X-61.460 Y13.928 E0.0006
; feature inner perimeter
G1 X-62.077 Y9.721 F9000
G1 X-62.778 Y9.721 E0.0268 F1800
G1 X-62.778 Y-13.547 E0.8900
G1 X-62.077 Y-13.547 E0.0268
G1 X-62.077 Y-13.537 E0.0004
G1 X-4.065 Y-13.537 E2.2189
G1 X-4.065 Y-12.836 E0.0268
G1 X-62.077 Y-12.836 E2.2189
G1 X-62.077 Y9.721 E0.8628
G1 X-61.617 Y10.181 F9000
G1 X-63.238 Y10.181 E0.0620 F1800
G1 X-63.238 Y-14.007 E0.9252
G1 X-61.617 Y-14.007 E0.0620
G1 X-61.617 Y-13.997 E0.0004
G1 X-3.605 Y-13.997 E2.2189
G1 X-3.605 Y-12.376 E0.0620
G1 X-61.617 Y-12.376 E2.2189
G1 X-61.617 Y10.181 E0.8628
; feature outer perimeter
G1 X-61.157 Y10.641 F9000
G1 X-63.698 Y10.641 E0.0972 F1200
G1 X-63.698 Y-14.467 E0.9604
G1 X-61.157 Y-14.467 E0.0972
G1 X-61.157 Y-14.457 E0.0004
G1 X-3.145 Y-14.457 E2.2189
G1 X-3.145 Y-11.916 E0.0972
G1 X-61.157 Y-11.916 E2.2189
G1 X-61.157 Y10.641 E0.8628
; feature solid layer
G1 X-62.433 Y9.052 F9000
G1 X-62.422 Y9.062 E0.0006 F2400
G1 X-62.422 Y8.412 E0.0249
G1 X-62.433 Y8.401 E0.0006
G1 X-62.433 Y7.751 E0.0249
