; G-Code generated by Simplify3D(R) Version 4.1.2
; Apr 6, 2020 at 11:54:30 AM
; Settings Summary
;   processName,Process1
;   applyToModels,Barn,Barn(2)
;   profileName,MakerBot Replicator 2 HBP (modified)
;   profileVersion,2020-03-12 10:48:50
;   baseProfile,MakerBot Replicator 2(2)
;   printMaterial,PLA
;   printQuality,Medium
;   printExtruders,
;   extruderName,Primary Extruder
;   extruderToolheadNumber,0
;   extruderDiameter,0.4
;   extruderAutoWidth,0
;   extruderWidth,0.4
;   extrusionMultiplier,1
;   extruderUseRetract,1
;   extruderRetractionDistance,1.9
;   extruderExtraRestartDistance,0
;   extruderRetractionZLift,0.5
;   extruderRetractionSpeed,1200
;   extruderUseCoasting,0
;   extruderCoastingDistance,0.2
;   extruderUseWipe,0
;   extruderWipeDistance,5
;   primaryExtruder,0
;   layerHeight,0.2
;   topSolidLayers,3
;   bottomSolidLayers,3
;   perimeterOutlines,3
;   printPerimetersInsideOut,1
;   startPointOption,3
;   startPointOriginX,0
;   startPointOriginY,150
;   sequentialIslands,0
;   spiralVaseMode,0
;   firstLayerHeightPercentage,100
;   firstLayerWidthPercentage,115
;   firstLayerUnderspeed,0.5
;   useRaft,0
;   raftExtruder,0
;   raftTopLayers,2
;   raftBaseLayers,1
;   raftOffset,1
;   raftSeparationDistance,0.14
;   raftTopInfill,90
;   aboveRaftSpeedMultiplier,0.3
;   useSkirt,0
;   skirtExtruder,0
;   skirtLayers,1
;   skirtOutlines,5
;   skirtOffset,0
;   usePrimePillar,0
;   primePillarExtruder,999
;   primePillarWidth,12
;   primePillarLocation,7
;   primePillarSpeedMultiplier,1
;   useOozeShield,0
;   oozeShieldExtruder,999
;   oozeShieldOffset,2
;   oozeShieldOutlines,1
;   oozeShieldSidewallShape,1
;   oozeShieldSidewallAngle,30
;   oozeShieldSpeedMultiplier,1
;   infillExtruder,0
;   internalInfillPattern,Rectilinear
;   externalInfillPattern,Rectilinear
;   infillPercentage,15
;   outlineOverlapPercentage,25
;   infillExtrusionWidthPercentage,100
;   minInfillLength,5
;   infillLayerInterval,1
;   internalInfillAngles,45,-45
;   overlapInternalInfillAngles,0
;   externalInfillAngles,45,-45
;   generateSupport,0
;   supportExtruder,0
;   supportInfillPercentage,5
;   supportExtraInflation,0.5
;   supportBaseLayers,0
;   denseSupportExtruder,0
;   denseSupportLayers,2
;   denseSupportInfillPercentage,90
;   supportLayerInterval,1
;   supportHorizontalPartOffset,0.3
;   supportUpperSeparationLayers,1
;   supportLowerSeparationLayers,1
;   supportType,1
;   supportGridSpacing,2
;   maxOverhangAngle,45
;   supportAngles,45,-45
;   temperatureName,Primary Extruder,Heated Build Platform
;   temperatureNumber,0,0
;   temperatureSetpointCount,1,1
;   temperatureSetpointLayers,1,1
;   temperatureSetpointTemperatures,230,60
;   temperatureStabilizeAtStartup,1,1
;   temperatureHeatedBed,0,1
;   fanLayers,1,2
;   fanSpeeds,0,100
;   blipFanToFullPower,1
;   adjustSpeedForCooling,1
;   minSpeedLayerTime,15
;   minCoolingSpeedSlowdown,20
;   increaseFanForCooling,1
;   minFanLayerTime,45
;   maxCoolingFanSpeed,100
;   increaseFanForBridging,1
;   bridgingFanSpeed,100
;   use5D,1
;   relativeEdistances,1
;   allowEaxisZeroing,0
;   independentExtruderAxes,1
;   includeM10123,0
;   stickySupport,1
;   applyToolheadOffsets,0
;   gcodeXoffset,0
;   gcodeYoffset,0
;   gcodeZoffset,0
;   overrideMachineDefinition,1
;   machineTypeOverride,0
;   strokeXoverride,280
;   strokeYoverride,150
;   strokeZoverride,150
;   originOffsetXoverride,140
;   originOffsetYoverride,75
;   originOffsetZoverride,0
;   homeXdirOverride,1
;   homeYdirOverride,1
;   homeZdirOverride,-1
;   flipXoverride,1
;   flipYoverride,-1
;   flipZoverride,1
;   toolheadOffsets,0,0|0,0|0,0|0,0|0,0|0,0
;   overrideFirmwareConfiguration,1
;   firmwareTypeOverride,MakerBot/Sailfish Firmware
;   GPXconfigOverride,r2h
;   baudRateOverride,115200
;   overridePrinterModels,1
;   printerModelsOverride,MakerBot_Replicator2.stl
;   startingGcode,; **** Replicator 2 start.gcode ****,M73 P0 ; enable build progress,G162 X Y F3000 ; home XY maximum,G161 Z F1200 ; home Z minimum,G92 Z-5 ; set Z to -5,G1 Z0 ; move Z to 0,G161 Z F100 ; home Z slowly,M132 X Y Z A B ; recall home offsets,G1 X-145 Y-75 Z30 F9000 ; move to wait position off table,G130 X20 Y20 Z20 A20 B20 ; lower stepper Vrefs while heating,M126 S[fan_speed_pwm],M140 S[bed0_temperature] T0,M134 T0 ; stabilize bed temperature,M104 S[extruder0_temperature] T0,M133 T0 ; stabilize extruder temperature,G130 X127 Y127 Z40 A127 B127 ; default stepper Vrefs,G92 A0 ; zero extruder,G1 Z0.4 ; position nozzle,G1 E25 F300 ; purge nozzle,G1 X-140 Y-70 Z0.15 F1200 ; slow wipe,G1 X-135 Y-65 Z0.5 F1200 ; lift,G92 A0 ; zero extruder,M73 P1 ;@body (notify GPX body has started),; **** end of start.gcode ****
;   layerChangeGcode,
;   retractionGcode,
;   toolChangeGcode,
;   endingGcode,; **** Replicator 2 end.gcode ****,M73 P100 ; end build progress,G1 Z155 F1000 ; send Z axis to bottom of machine,M104 S0 T0 ; cool down extruder,M140 S0 T0 ; cool down HBP,M127 ; stop blower fan,G162 X Y F3000 ; home XY maximum,M18 ; disable stepper,M0 ; stop codes,M72 P1 ; play Ta-Da song,; **** end of end.gcode ****
;   exportFileFormat,gcode
;   celebration,0
;   celebrationSong,Random Song
;   postProcessing,
;   defaultSpeed,4800
;   outlineUnderspeed,0.5
;   solidInfillUnderspeed,1
;   supportUnderspeed,1
;   rapidXYspeed,9000
;   rapidZspeed,1200
;   minBridgingArea,50
;   bridgingExtraInflation,0
;   bridgingExtrusionMultiplier,1
;   bridgingSpeedMultiplier,0.8
;   useFixedBridgingAngle,0
;   fixedBridgingAngle,0
;   applyBridgingToPerimeters,0
;   filamentDiameters,1.75|1.75|1.75|1.75|1.75|1.75
;   filamentPricesPerKg,46|46|46|46|46|46
;   filamentDensities,1.25|1.25|1.25|1.25|1.25|1.25
;   useMinPrintHeight,0
;   minPrintHeight,0
;   useMaxPrintHeight,0
;   maxPrintHeight,4.84
;   useDiaphragm,0
;   diaphragmLayerInterval,20
;   robustSlicing,1
;   mergeAllIntoSolid,0
;   onlyRetractWhenCrossingOutline,0
;   retractBetweenLayers,0
;   useRetractionMinTravel,1
;   retractionMinTravel,7
;   retractWhileWiping,1
;   onlyWipeOutlines,1
;   avoidCrossingOutline,0
;   maxMovementDetourFactor,3
;   toolChangeRetractionDistance,12
;   toolChangeExtraRestartDistance,-0.5
;   toolChangeRetractionSpeed,600
;   externalThinWallType,0
;   internalThinWallType,0
;   thinWallAllowedOverlapPercentage,10
;   singleExtrusionMinLength,1
;   singleExtrusionMinPrintingWidthPercentage,50
;   singleExtrusionMaxPrintingWidthPercentage,200
;   singleExtrusionEndpointExtension,0.2
;   horizontalSizeCompensation,0
G90
M83
; **** Replicator 2 start.gcode ****
M73 P0 ; enable build progress
G162 X Y F3000 ; home XY maximum
G161 Z F1200 ; home Z minimum
G92 Z-5 ; set Z to -5
G1 Z0 ; move Z to 0
G161 Z F100 ; home Z slowly
M132 X Y Z A B ; recall home offsets
G1 X-145 Y-75 Z30 F9000 ; move to wait position off table
G130 X20 Y20 Z20 A20 B20 ; lower stepper Vrefs while heating
M127
M140 S60 T0
M134 T0 ; stabilize bed temperature
M104 S230 T0
M133 T0 ; stabilize extruder temperature
G130 X127 Y127 Z40 A127 B127 ; default stepper Vrefs
G92 A0 ; zero extruder
G1 Z0.4 ; position nozzle
G1 E25 F300 ; purge nozzle
G1 X-140 Y-70 Z0.15 F1200 ; slow wipe
G1 X-135 Y-65 Z0.5 F1200 ; lift
G92 A0 ; zero extruder
M73 P1 ;@body (notify GPX body has started)
; **** end of start.gcode ****
; process Process1
; layer 1, Z = 0.200
M135 T0
G1 E-1.9000 F1200
; feature inner perimeter
; tool H0.200 W0.460
G1 Z0.500 F1200
G1 X-3.650 Y36.357 F9000
G1 Z0.200 F1200
G1 E1.9000 F1200
G1 X-56.379 Y36.357 E2.0168 F1800
G1 X-56.379 Y-36.357 E2.7812
G1 X-39.038 Y-36.357 E0.6633
G1 X-39.038 Y-35.634 E0.0277
G1 X-56.106 Y-35.634 E0.6528
G1 X-56.106 Y35.633 E2.7259
G1 X-37.461 Y35.633 E0.7131
G1 X-37.461 Y-25.464 E2.3369
G1 X-22.765 Y-25.464 E0.5621
G1 X-22.765 Y35.633 E2.3369
G1 X-3.923 Y35.633 E0.7207
G1 X-3.923 Y-35.634 E2.7259
G1 X-20.991 Y-35.634 E0.6528
G1 X-20.991 Y-36.357 E0.0277
G1 X-3.650 Y-36.357 E0.6633
G1 X-3.650 Y36.357 E2.7812
G1 X-3.190 Y36.817 F9000
G1 X-56.839 Y36.817 E2.0520 F1800
G1 X-56.839 Y-36.817 E2.8164
G1 X-38.578 Y-36.817 E0.6985
G1 X-38.578 Y-35.174 E0.0629
G1 X-55.646 Y-35.174 E0.6528
G1 X-55.646 Y35.173 E2.6907
G1 X-37.921 Y35.173 E0.6780
G1 X-37.921 Y-25.924 E2.3369
G1 X-22.305 Y-25.924 E0.5973
G1 X-22.305 Y35.173 E2.3369
G1 X-4.383 Y35.173 E0.6855
G1 X-4.383 Y-35.174 E2.6907
G1 X-21.451 Y-35.174 E0.6528
G1 X-21.451 Y-36.817 E0.0629
G1 X-3.190 Y-36.817 E0.6985
G1 X-3.190 Y36.817 E2.8164
; feature outer perimeter
G1 X-2.730 Y37.277 F9000
G1 X-57.299 Y37.277 E2.0872 F1200
G1 X-57.299 Y-37.277 E2.8516
G1 X-38.118 Y-37.277 E0.7336
G1 X-38.118 Y-34.714 E0.0980
G1 X-55.186 Y-34.714 E0.6528
G1 X-55.186 Y34.713 E2.6555
G1 X-38.381 Y34.713 E0.6428
G1 X-38.381 Y-26.384 E2.3369
G1 X-21.845 Y-26.384 E0.6325
G1 X-21.845 Y34.713 E2.3369
G1 X-4.843 Y34.713 E0.6503
G1 X-4.843 Y-34.714 E2.6555
G1 X-21.911 Y-34.714 E0.6528
G1 X-21.911 Y-37.277 E0.0980
G1 X-2.730 Y-37.277 E0.7336
G1 X-2.730 Y37.277 E2.8516
G1 E-1.9000 F1200
; feature inner perimeter
G1 Z0.700 F1200
G1 X-22.875 Y22.158 F9000
G1 Z0.200 F1200
G1 E1.9000 F1200
G1 X-22.875 Y17.918 E0.1622 F1800
G1 X-26.694 Y17.918 E0.1461
G1 X-26.960 Y17.421 E0.0215
G1 X-27.539 Y16.716 E0.0349
G1 X-28.245 Y16.137 E0.0349
G1 X-29.050 Y15.706 E0.0349
G1 X-29.923 Y15.442 E0.0349
G1 X-30.831 Y15.352 E0.0349
G1 X-31.740 Y15.442 E0.0349
G1 X-32.613 Y15.706 E0.0349
G1 X-33.418 Y16.137 E0.0349
G1 X-34.124 Y16.716 E0.0349
G1 X-34.703 Y17.421 E0.0349
G1 X-35.133 Y18.226 E0.0349
G1 X-35.398 Y19.100 E0.0349
G1 X-35.488 Y20.008 E0.0349
G1 X-35.398 Y20.917 E0.0349
G1 X-35.133 Y21.790 E0.0349
G1 X-34.703 Y22.595 E0.0349
G1 X-34.124 Y23.301 E0.0349
G1 X-33.418 Y23.880 E0.0349
G1 X-32.613 Y24.310 E0.0349
G1 X-31.740 Y24.575 E0.0349
G1 X-30.831 Y24.664 E0.0349
G1 X-29.923 Y24.575 E0.0349
G1 X-29.050 Y24.310 E0.0349
G1 X-28.245 Y23.880 E0.0349
G1 X-27.539 Y23.301 E0.0349
G1 X-26.960 Y22.595 E0.0349
G1 X-26.726 Y22.158 E0.0190
G1 X-22.875 Y22.158 E0.1473
G1 X-23.335 Y21.698 F9000
G1 X-23.335 Y18.378 E0.1270 F1800
G1 X-26.970 Y18.378 E0.1391
G1 X-27.344 Y17.678 E0.0304
G1 X-27.866 Y17.043 E0.0314
G1 X-28.501 Y16.521 E0.0314
G1 X-29.227 Y16.134 E0.0314
G1 X-30.013 Y15.895 E0.0314
G1 X-30.831 Y15.814 E0.0314
G1 X-31.650 Y15.895 E0.0314
G1 X-32.436 Y16.134 E0.0314
G1 X-33.162 Y16.521 E0.0314
G1 X-33.797 Y17.043 E0.0314
G1 X-34.319 Y17.678 E0.0314
G1 X-34.706 Y18.403 E0.0314
G1 X-34.945 Y19.190 E0.0314
G1 X-35.025 Y20.008 E0.0314
G1 X-34.945 Y20.826 E0.0314
G1 X-34.706 Y21.613 E0.0314
G1 X-34.319 Y22.338 E0.0314
G1 X-33.797 Y22.974 E0.0314
G1 X-33.162 Y23.495 E0.0314
G1 X-32.436 Y23.883 E0.0314
G1 X-31.650 Y24.122 E0.0314
G1 X-30.831 Y24.202 E0.0314
G1 X-30.013 Y24.122 E0.0314
G1 X-29.226 Y23.883 E0.0314
G1 X-28.501 Y23.495 E0.0314
G1 X-27.866 Y22.974 E0.0314
G1 X-27.344 Y22.338 E0.0314
G1 X-27.002 Y21.698 E0.0278
G1 X-23.335 Y21.698 E0.1403
; feature outer perimeter
G1 X-23.795 Y21.238 F9000
G1 X-23.795 Y18.838 E0.0918 F1200
G1 X-27.306 Y18.838 E0.1343
G1 X-27.384 Y18.580 E0.0103
G1 X-27.729 Y17.935 E0.0280
G1 X-28.193 Y17.369 E0.0280
G1 X-28.758 Y16.905 E0.0280
G1 X-29.403 Y16.561 E0.0280
G1 X-30.103 Y16.348 E0.0280
G1 X-30.831 Y16.276 E0.0280
G1 X-31.559 Y16.348 E0.0280
G1 X-32.260 Y16.561 E0.0280
G1 X-32.905 Y16.905 E0.0280
G1 X-33.470 Y17.369 E0.0280
G1 X-33.934 Y17.935 E0.0280
G1 X-34.279 Y18.580 E0.0280
G1 X-34.492 Y19.280 E0.0280
G1 X-34.563 Y20.008 E0.0280
G1 X-34.492 Y20.736 E0.0280
G1 X-34.279 Y21.436 E0.0280
G1 X-33.934 Y22.081 E0.0280
G1 X-33.470 Y22.647 E0.0280
G1 X-32.905 Y23.111 E0.0280
G1 X-32.260 Y23.456 E0.0280
G1 X-31.559 Y23.668 E0.0280
G1 X-30.831 Y23.740 E0.0280
G1 X-30.103 Y23.668 E0.0280
G1 X-29.403 Y23.456 E0.0280
G1 X-28.758 Y23.111 E0.0280
G1 X-28.193 Y22.647 E0.0280
G1 X-27.729 Y22.081 E0.0280
G1 X-27.384 Y21.436 E0.0280
G1 X-27.324 Y21.238 E0.0079
G1 X-23.795 Y21.238 E0.1350
G1 E-1.9000 F1200
; feature inner perimeter
G1 Z0.700 F1200
G1 X-26.620 Y4.567 F9000
G1 Z0.200 F1200
G1 E1.9000 F1200
G1 X-25.747 Y4.302 E0.0349 F1800
G1 X-24.942 Y3.871 E0.0349
G1 X-24.236 Y3.292 E0.0349
G1 X-23.657 Y2.587 E0.0349
G1 X-23.227 Y1.782 E0.0349
G1 X-22.962 Y0.908 E0.0349
G1 X-22.872 Y0.000 E0.0349
G1 X-22.962 Y-0.908 E0.0349
G1 X-23.227 Y-1.782 E0.0349
G1 X-23.657 Y-2.587 E0.0349
G1 X-24.236 Y-3.292 E0.0349
G1 X-24.942 Y-3.871 E0.0349
G1 X-25.747 Y-4.302 E0.0349
G1 X-26.620 Y-4.567 E0.0349
G1 X-27.529 Y-4.656 E0.0349
G1 X-28.437 Y-4.567 E0.0349
G1 X-29.311 Y-4.302 E0.0349
G1 X-30.116 Y-3.871 E0.0349
G1 X-30.821 Y-3.292 E0.0349
G1 X-31.400 Y-2.587 E0.0349
G1 X-31.634 Y-2.150 E0.0190
G1 X-35.485 Y-2.150 E0.1473
G1 X-35.485 Y2.090 E0.1622
G1 X-31.666 Y2.090 E0.1461
G1 X-31.400 Y2.587 E0.0215
G1 X-30.821 Y3.292 E0.0349
G1 X-30.116 Y3.871 E0.0349
G1 X-29.311 Y4.302 E0.0349
G1 X-28.437 Y4.567 E0.0349
G1 X-27.529 Y4.656 E0.0349
G1 X-26.620 Y4.567 E0.0349
G1 X-26.710 Y4.113 F9000
G1 X-25.924 Y3.875 E0.0314 F1800
G1 X-25.199 Y3.487 E0.0314
G1 X-24.563 Y2.966 E0.0314
G1 X-24.042 Y2.330 E0.0314
G1 X-23.654 Y1.605 E0.0314
G1 X-23.415 Y0.818 E0.0314
G1 X-23.335 Y0.000 E0.0314
G1 X-23.415 Y-0.818 E0.0314
G1 X-23.654 Y-1.605 E0.0314
G1 X-24.042 Y-2.330 E0.0314
G1 X-24.563 Y-2.966 E0.0314
G1 X-25.199 Y-3.487 E0.0314
G1 X-25.924 Y-3.875 E0.0314
G1 X-26.710 Y-4.113 E0.0314
G1 X-27.529 Y-4.194 E0.0314
G1 X-28.347 Y-4.113 E0.0314
G1 X-29.134 Y-3.875 E0.0314
G1 X-29.859 Y-3.487 E0.0314
G1 X-30.494 Y-2.966 E0.0314
G1 X-31.016 Y-2.330 E0.0314
G1 X-31.358 Y-1.690 E0.0278
G1 X-35.025 Y-1.690 E0.1403
G1 X-35.025 Y1.630 E0.1270
G1 X-31.390 Y1.630 E0.1391
G1 X-31.016 Y2.330 E0.0304
G1 X-30.494 Y2.966 E0.0314
G1 X-29.859 Y3.487 E0.0314
G1 X-29.134 Y3.875 E0.0314
G1 X-28.347 Y4.113 E0.0314
G1 X-27.529 Y4.194 E0.0314
G1 X-26.710 Y4.113 E0.0314
; feature outer perimeter
G1 X-26.801 Y3.660 F9000
G1 X-26.101 Y3.448 E0.0280 F1200
G1 X-25.455 Y3.103 E0.0280
G1 X-24.890 Y2.639 E0.0280
G1 X-24.426 Y2.073 E0.0280
G1 X-24.081 Y1.428 E0.0280
G1 X-23.869 Y0.728 E0.0280
G1 X-23.797 Y0.000 E0.0280
G1 X-23.869 Y-0.728 E0.0280
G1 X-24.081 Y-1.428 E0.0280
G1 X-24.426 Y-2.073 E0.0280
G1 X-24.890 Y-2.639 E0.0280
G1 X-25.455 Y-3.103 E0.0280
G1 X-26.101 Y-3.448 E0.0280
G1 X-26.801 Y-3.660 E0.0280
G1 X-27.529 Y-3.732 E0.0280
G1 X-28.257 Y-3.660 E0.0280
G1 X-28.957 Y-3.448 E0.0280
G1 X-29.602 Y-3.103 E0.0280
G1 X-30.167 Y-2.639 E0.0280
G1 X-30.632 Y-2.073 E0.0280
G1 X-30.976 Y-1.428 E0.0280
G1 X-31.037 Y-1.230 E0.0079
G1 X-34.565 Y-1.230 E0.1350
G1 X-34.565 Y1.170 E0.0918
G1 X-31.055 Y1.170 E0.1343
G1 X-30.976 Y1.428 E0.0103
G1 X-30.632 Y2.073 E0.0280
G1 X-30.167 Y2.639 E0.0280
G1 X-29.602 Y3.103 E0.0280
G1 X-28.957 Y3.448 E0.0280
G1 X-28.257 Y3.660 E0.0280
G1 X-27.529 Y3.732 E0.0280
G1 X-26.801 Y3.660 E0.0280
G1 E-1.9000 F1200
; feature inner perimeter
G1 Z0.700 F1200
G1 X-29.923 Y-15.307 F9000
G1 Z0.200 F1200
G1 E1.9000 F1200
G1 X-29.050 Y-15.572 E0.0349 F1800
G1 X-28.245 Y-16.002 E0.0349
G1 X-27.539 Y-16.582 E0.0349
G1 X-26.960 Y-17.287 E0.0349
G1 X-26.726 Y-17.724 E0.0190
G1 X-22.875 Y-17.724 E0.1473
G1 X-22.875 Y-21.964 E0.1622
G1 X-26.694 Y-21.964 E0.1461
G1 X-26.960 Y-22.461 E0.0215
G1 X-27.539 Y-23.166 E0.0349
G1 X-28.245 Y-23.745 E0.0349
G1 X-29.050 Y-24.176 E0.0349
G1 X-29.923 Y-24.441 E0.0349
G1 X-30.831 Y-24.530 E0.0349
G1 X-31.740 Y-24.441 E0.0349
G1 X-32.613 Y-24.176 E0.0349
G1 X-33.418 Y-23.745 E0.0349
G1 X-34.124 Y-23.166 E0.0349
G1 X-34.703 Y-22.461 E0.0349
G1 X-35.133 Y-21.656 E0.0349
G1 X-35.398 Y-20.782 E0.0349
G1 X-35.488 Y-19.874 E0.0349
G1 X-35.398 Y-18.966 E0.0349
G1 X-35.133 Y-18.092 E0.0349
G1 X-34.703 Y-17.287 E0.0349
G1 X-34.124 Y-16.582 E0.0349
G1 X-33.418 Y-16.002 E0.0349
G1 X-32.613 Y-15.572 E0.0349
G1 X-31.740 Y-15.307 E0.0349
G1 X-30.831 Y-15.218 E0.0349
G1 X-29.923 Y-15.307 E0.0349
G1 X-30.013 Y-15.761 F9000
G1 X-29.226 Y-15.999 E0.0314 F1800
G1 X-28.501 Y-16.387 E0.0314
G1 X-27.866 Y-16.908 E0.0314
G1 X-27.344 Y-17.544 E0.0314
G1 X-27.002 Y-18.184 E0.0278
G1 X-23.335 Y-18.184 E0.1403
G1 X-23.335 Y-21.504 E0.1270
G1 X-26.970 Y-21.504 E0.1391
G1 X-27.344 Y-22.204 E0.0304
G1 X-27.866 Y-22.840 E0.0314
