; G-Code generated by Simplify3D(R) Version 4.1.2
; Apr 6, 2020 at 12:09:03 PM
; Settings Summary
;   processName,Process1
;   applyToModels,CB insert15,CB insert15(2)
;   profileName,MakerBot Replicator 2 HBP (modified)
;   profileVersion,2020-03-12 10:48:50
;   baseProfile,MakerBot Replicator 2(2)
;   printMaterial,PLA
;   printQuality,Medium
;   printExtruders,
;   extruderName,Primary Extruder
;   extruderToolheadNumber,0
;   extruderDiameter,0.4
;   extruderAutoWidth,0
;   extruderWidth,0.4
;   extrusionMultiplier,1
;   extruderUseRetract,1
;   extruderRetractionDistance,1.9
;   extruderExtraRestartDistance,0
;   extruderRetractionZLift,0.5
;   extruderRetractionSpeed,1200
;   extruderUseCoasting,0
;   extruderCoastingDistance,0.2
;   extruderUseWipe,0
;   extruderWipeDistance,5
;   primaryExtruder,0
;   layerHeight,0.2
;   topSolidLayers,3
;   bottomSolidLayers,3
;   perimeterOutlines,3
;   printPerimetersInsideOut,1
;   startPointOption,3
;   startPointOriginX,0
;   startPointOriginY,150
;   sequentialIslands,0
;   spiralVaseMode,0
;   firstLayerHeightPercentage,100
;   firstLayerWidthPercentage,115
;   firstLayerUnderspeed,0.5
;   useRaft,0
;   raftExtruder,0
;   raftTopLayers,2
;   raftBaseLayers,1
;   raftOffset,1
;   raftSeparationDistance,0.14
;   raftTopInfill,90
;   aboveRaftSpeedMultiplier,0.3
;   useSkirt,0
;   skirtExtruder,0
;   skirtLayers,1
;   skirtOutlines,5
;   skirtOffset,0
;   usePrimePillar,0
;   primePillarExtruder,999
;   primePillarWidth,12
;   primePillarLocation,7
;   primePillarSpeedMultiplier,1
;   useOozeShield,0
;   oozeShieldExtruder,999
;   oozeShieldOffset,2
;   oozeShieldOutlines,1
;   oozeShieldSidewallShape,1
;   oozeShieldSidewallAngle,30
;   oozeShieldSpeedMultiplier,1
;   infillExtruder,0
;   internalInfillPattern,Rectilinear
;   externalInfillPattern,Rectilinear
;   infillPercentage,15
;   outlineOverlapPercentage,25
;   infillExtrusionWidthPercentage,100
;   minInfillLength,5
;   infillLayerInterval,1
;   internalInfillAngles,45,-45
;   overlapInternalInfillAngles,0
;   externalInfillAngles,45,-45
;   generateSupport,1
;   supportExtruder,0
;   supportInfillPercentage,15
;   supportExtraInflation,0.5
;   supportBaseLayers,0
;   denseSupportExtruder,0
;   denseSupportLayers,2
;   denseSupportInfillPercentage,90
;   supportLayerInterval,1
;   supportHorizontalPartOffset,0.3
;   supportUpperSeparationLayers,1
;   supportLowerSeparationLayers,1
;   supportType,1
;   supportGridSpacing,2
;   maxOverhangAngle,45
;   supportAngles,45,-45
;   temperatureName,Primary Extruder,Heated Build Platform
;   temperatureNumber,0,0
;   temperatureSetpointCount,1,1
;   temperatureSetpointLayers,1,1
;   temperatureSetpointTemperatures,230,60
;   temperatureStabilizeAtStartup,1,1
;   temperatureHeatedBed,0,1
;   fanLayers,1,2
;   fanSpeeds,0,100
;   blipFanToFullPower,1
;   adjustSpeedForCooling,1
;   minSpeedLayerTime,15
;   minCoolingSpeedSlowdown,20
;   increaseFanForCooling,1
;   minFanLayerTime,45
;   maxCoolingFanSpeed,100
;   increaseFanForBridging,1
;   bridgingFanSpeed,100
;   use5D,1
;   relativeEdistances,1
;   allowEaxisZeroing,0
;   independentExtruderAxes,1
;   includeM10123,0
;   stickySupport,1
;   applyToolheadOffsets,0
;   gcodeXoffset,0
;   gcodeYoffset,0
;   gcodeZoffset,0
;   overrideMachineDefinition,1
;   machineTypeOverride,0
;   strokeXoverride,280
;   strokeYoverride,150
;   strokeZoverride,150
;   originOffsetXoverride,140
;   originOffsetYoverride,75
;   originOffsetZoverride,0
;   homeXdirOverride,1
;   homeYdirOverride,1
;   homeZdirOverride,-1
;   flipXoverride,1
;   flipYoverride,-1
;   flipZoverride,1
;   toolheadOffsets,0,0|0,0|0,0|0,0|0,0|0,0
;   overrideFirmwareConfiguration,1
;   firmwareTypeOverride,MakerBot/Sailfish Firmware
;   GPXconfigOverride,r2h
;   baudRateOverride,115200
;   overridePrinterModels,1
;   printerModelsOverride,MakerBot_Replicator2.stl
;   startingGcode,; **** Replicator 2 start.gcode ****,M73 P0 ; enable build progress,G162 X Y F3000 ; home XY maximum,G161 Z F1200 ; home Z minimum,G92 Z-5 ; set Z to -5,G1 Z0 ; move Z to 0,G161 Z F100 ; home Z slowly,M132 X Y Z A B ; recall home offsets,G1 X-145 Y-75 Z30 F9000 ; move to wait position off table,G130 X20 Y20 Z20 A20 B20 ; lower stepper Vrefs while heating,M126 S[fan_speed_pwm],M140 S[bed0_temperature] T0,M134 T0 ; stabilize bed temperature,M104 S[extruder0_temperature] T0,M133 T0 ; stabilize extruder temperature,G130 X127 Y127 Z40 A127 B127 ; default stepper Vrefs,G92 A0 ; zero extruder,G1 Z0.4 ; position nozzle,G1 E25 F300 ; purge nozzle,G1 X-140 Y-70 Z0.15 F1200 ; slow wipe,G1 X-135 Y-65 Z0.5 F1200 ; lift,G92 A0 ; zero extruder,M73 P1 ;@body (notify GPX body has started),; **** end of start.gcode ****
;   layerChangeGcode,
;   retractionGcode,
;   toolChangeGcode,
;   endingGcode,; **** Replicator 2 end.gcode ****,M73 P100 ; end build progress,G1 Z155 F1000 ; send Z axis to bottom of machine,M104 S0 T0 ; cool down extruder,M140 S0 T0 ; cool down HBP,M127 ; stop blower fan,G162 X Y F3000 ; home XY maximum,M18 ; disable stepper,M0 ; stop codes,M72 P1 ; play Ta-Da song,; **** end of end.gcode ****
;   exportFileFormat,gcode
;   celebration,0
;   celebrationSong,Random Song
;   postProcessing,
;   defaultSpeed,4800
;   outlineUnderspeed,0.5
;   solidInfillUnderspeed,1
;   supportUnderspeed,1
;   rapidXYspeed,9000
;   rapidZspeed,1200
;   minBridgingArea,50
;   bridgingExtraInflation,0
;   bridgingExtrusionMultiplier,1
;   bridgingSpeedMultiplier,0.8
;   useFixedBridgingAngle,0
;   fixedBridgingAngle,0
;   applyBridgingToPerimeters,0
;   filamentDiameters,1.75|1.75|1.75|1.75|1.75|1.75
;   filamentPricesPerKg,46|46|46|46|46|46
;   filamentDensities,1.25|1.25|1.25|1.25|1.25|1.25
;   useMinPrintHeight,0
;   minPrintHeight,0
;   useMaxPrintHeight,0
;   maxPrintHeight,4.84
;   useDiaphragm,0
;   diaphragmLayerInterval,20
;   robustSlicing,1
;   mergeAllIntoSolid,0
;   onlyRetractWhenCrossingOutline,0
;   retractBetweenLayers,0
;   useRetractionMinTravel,1
;   retractionMinTravel,7
;   retractWhileWiping,1
;   onlyWipeOutlines,1
;   avoidCrossingOutline,0
;   maxMovementDetourFactor,3
;   toolChangeRetractionDistance,12
;   toolChangeExtraRestartDistance,-0.5
;   toolChangeRetractionSpeed,600
;   externalThinWallType,0
;   internalThinWallType,0
;   thinWallAllowedOverlapPercentage,10
;   singleExtrusionMinLength,1
;   singleExtrusionMinPrintingWidthPercentage,50
;   singleExtrusionMaxPrintingWidthPercentage,200
;   singleExtrusionEndpointExtension,0.2
;   horizontalSizeCompensation,0
G90
M83
; **** Replicator 2 start.gcode ****
M73 P0 ; enable build progress
G162 X Y F3000 ; home XY maximum
G161 Z F1200 ; home Z minimum
G92 Z-5 ; set Z to -5
G1 Z0 ; move Z to 0
G161 Z F100 ; home Z slowly
M132 X Y Z A B ; recall home offsets
G1 X-145 Y-75 Z30 F9000 ; move to wait position off table
G130 X20 Y20 Z20 A20 B20 ; lower stepper Vrefs while heating
M126 S170
M140 S60 T0
M134 T0 ; stabilize bed temperature
M104 S230 T0
M133 T0 ; stabilize extruder temperature
G130 X127 Y127 Z40 A127 B127 ; default stepper Vrefs
G92 A0 ; zero extruder
G1 Z0.4 ; position nozzle
G1 E25 F300 ; purge nozzle
G1 X-140 Y-70 Z0.15 F1200 ; slow wipe
G1 X-135 Y-65 Z0.5 F1200 ; lift
G92 A0 ; zero extruder
M73 P1 ;@body (notify GPX body has started)
; **** end of start.gcode ****
; process Process1
; layer 1, Z = 0.200
M135 T0
G1 E-1.9000 F1200
; feature inner perimeter
; tool H0.200 W0.460
G1 Z0.500 F1200
G1 X5.369 Y-3.653 F9000
G1 Z0.200 F1200
G1 E1.9000 F1200
G1 X5.357 Y-5.654 E0.0765 F1784
G1 X-6.618 Y-5.622 E0.4580
G1 X-6.623 Y-7.631 E0.0769
G1 X-8.623 Y-7.626 E0.0765
G1 X-8.625 Y-8.210 E0.0223
G1 X7.875 Y-8.254 E0.6311
G1 X7.877 Y-7.670 E0.0223
G1 X5.877 Y-7.665 E0.0765
G1 X5.888 Y-3.655 E0.1534
G1 X5.369 Y-3.653 E0.0198
G1 X4.912 Y-3.192 F9000
G1 X4.899 Y-5.193 E0.0765 F1784
G1 X-7.076 Y-5.161 E0.4581
G1 X-7.082 Y-7.170 E0.0769
G1 X-9.082 Y-7.165 E0.0765
G1 X-9.086 Y-8.669 E0.0575
G1 X8.334 Y-8.715 E0.6663
G1 X8.338 Y-7.211 E0.0575
G1 X6.338 Y-7.206 E0.0765
G1 X6.347 Y-3.817 E0.1296
G1 X9.193 Y-3.824 E0.1088
G1 X9.195 Y-3.204 E0.0237
G1 X4.912 Y-3.192 E0.1638
; feature outer perimeter
G1 X4.455 Y-2.731 F9000
G1 X4.442 Y-4.731 E0.0765 F1189
G1 X-7.535 Y-4.699 E0.4581
G1 X-7.541 Y-6.709 E0.0769
G1 X-9.541 Y-6.703 E0.0765
G1 X-9.547 Y-9.128 E0.0927
G1 X8.793 Y-9.177 E0.7015
G1 X8.799 Y-6.752 E0.0927
G1 X6.799 Y-6.747 E0.0765
G1 X6.806 Y-4.278 E0.0944
G1 X9.652 Y-4.285 E0.1088
G1 X9.656 Y-2.745 E0.0589
G1 X4.455 Y-2.731 E0.1989
; feature solid layer
G1 X5.109 Y-7.902 F9000
G1 X5.532 Y-7.478 E0.0229 F2378
G1 X5.534 Y-6.826 E0.0249
G1 X4.460 Y-7.900 E0.0581
G1 X3.811 Y-7.898 E0.0248
G1 X5.536 Y-6.174 E0.0933
G1 X5.536 Y-5.999 E0.0067
G1 X5.061 Y-5.998 E0.0182
G1 X3.163 Y-7.897 E0.1027
G1 X2.514 Y-7.895 E0.0248
G1 X4.412 Y-5.996 E0.1027
G1 X3.763 Y-5.995 E0.0248
G1 X1.865 Y-7.893 E0.1027
G1 X1.216 Y-7.891 E0.0248
G1 X3.115 Y-5.993 E0.1027
G1 X2.466 Y-5.991 E0.0248
G1 X0.567 Y-7.890 E0.1027
G1 X-0.081 Y-7.888 E0.0248
G1 X1.817 Y-5.989 E0.1027
G1 X1.168 Y-5.988 E0.0248
G1 X-0.730 Y-7.886 E0.1027
G1 X-1.379 Y-7.884 E0.0248
G1 X0.519 Y-5.986 E0.1027
G1 X-0.129 Y-5.984 E0.0248
G1 X-2.028 Y-7.883 E0.1027
G1 X-2.677 Y-7.881 E0.0248
G1 X-0.778 Y-5.982 E0.1027
G1 X-1.427 Y-5.981 E0.0248
G1 X-3.325 Y-7.879 E0.1027
G1 X-3.974 Y-7.877 E0.0248
G1 X-2.076 Y-5.979 E0.1027
G1 X-2.725 Y-5.977 E0.0248
G1 X-4.623 Y-7.876 E0.1027
G1 X-5.272 Y-7.874 E0.0248
G1 X-3.373 Y-5.976 E0.1027
G1 X-4.022 Y-5.974 E0.0248
G1 X-5.921 Y-7.872 E0.1027
G1 X-6.279 Y-7.871 E0.0137
G1 X-6.278 Y-7.579 E0.0112
G1 X-4.671 Y-5.972 E0.0869
G1 X-5.320 Y-5.970 E0.0248
G1 X-6.276 Y-6.927 E0.0517
G1 X-6.274 Y-6.274 E0.0249
G1 X-5.969 Y-5.969 E0.0165
G1 E-1.9000 F1200
; feature inner perimeter
G1 Z0.700 F1200
G1 X5.369 Y8.254 F9000
G1 Z0.200 F1200
G1 E1.9000 F1200
G1 X5.357 Y6.253 E0.0765 F1784
G1 X-6.618 Y6.285 E0.4580
G1 X-6.623 Y4.276 E0.0769
G1 X-8.623 Y4.282 E0.0765
G1 X-8.625 Y3.697 E0.0223
G1 X7.875 Y3.653 E0.6311
G1 X7.877 Y4.237 E0.0223
G1 X5.877 Y4.243 E0.0765
G1 X5.888 Y8.253 E0.1534
G1 X5.369 Y8.254 E0.0198
G1 X4.912 Y8.715 F9000
G1 X4.899 Y6.715 E0.0765 F1784
G1 X-7.076 Y6.747 E0.4581
G1 X-7.082 Y4.737 E0.0769
G1 X-9.082 Y4.743 E0.0765
G1 X-9.086 Y3.239 E0.0575
G1 X8.334 Y3.192 E0.6663
G1 X8.338 Y4.696 E0.0575
G1 X6.338 Y4.701 E0.0765
G1 X6.347 Y8.091 E0.1296
G1 X9.193 Y8.084 E0.1088
G1 X9.195 Y8.704 E0.0237
G1 X4.912 Y8.715 E0.1638
; feature outer perimeter
G1 X4.455 Y9.176 F9000
G1 X4.442 Y7.176 E0.0765 F1189
G1 X-7.535 Y7.208 E0.4581
G1 X-7.541 Y5.199 E0.0769
G1 X-9.541 Y5.204 E0.0765
G1 X-9.547 Y2.780 E0.0927
G1 X8.793 Y2.731 E0.7015
G1 X8.799 Y5.155 E0.0927
G1 X6.799 Y5.160 E0.0765
G1 X6.806 Y7.629 E0.0944
G1 X9.652 Y7.622 E0.1088
G1 X9.656 Y9.162 E0.0589
G1 X4.455 Y9.176 E0.1989
; feature solid layer
G1 X5.306 Y4.005 F9000
G1 X5.532 Y4.231 E0.0122 F2378
G1 X5.534 Y4.883 E0.0249
G1 X4.657 Y4.007 E0.0474
G1 X4.008 Y4.008 E0.0248
G1 X5.535 Y5.535 E0.0826
G1 X5.536 Y5.908 E0.0142
G1 X5.258 Y5.909 E0.0106
G1 X3.360 Y4.010 E0.1027
G1 X2.711 Y4.012 E0.0248
G1 X4.609 Y5.910 E0.1027
G1 X3.960 Y5.912 E0.0248
G1 X2.062 Y4.014 E0.1027
G1 X1.413 Y4.015 E0.0248
G1 X3.312 Y5.914 E0.1027
G1 X2.663 Y5.916 E0.0248
G1 X0.764 Y4.017 E0.1027
G1 X0.116 Y4.019 E0.0248
G1 X2.014 Y5.917 E0.1027
G1 X1.365 Y5.919 E0.0248
G1 X-0.533 Y4.021 E0.1027
G1 X-1.182 Y4.022 E0.0248
G1 X0.716 Y5.921 E0.1027
G1 X0.068 Y5.923 E0.0248
G1 X-1.831 Y4.024 E0.1027
G1 X-2.480 Y4.026 E0.0248
G1 X-0.581 Y5.924 E0.1027
G1 X-1.230 Y5.926 E0.0248
G1 X-3.128 Y4.028 E0.1027
G1 X-3.777 Y4.029 E0.0248
G1 X-1.879 Y5.928 E0.1027
G1 X-2.528 Y5.929 E0.0248
G1 X-4.426 Y4.031 E0.1027
G1 X-5.075 Y4.033 E0.0248
G1 X-3.176 Y5.931 E0.1027
G1 X-3.825 Y5.933 E0.0248
G1 X-5.724 Y4.035 E0.1027
G1 X-6.279 Y4.036 E0.0212
G1 X-6.278 Y4.130 E0.0036
G1 X-4.474 Y5.935 E0.0976
G1 X-5.123 Y5.936 E0.0248
G1 X-6.277 Y4.782 E0.0624
G1 X-6.275 Y5.435 E0.0249
G1 X-5.772 Y5.938 E0.0272
G1 E-1.9000 F1200
; layer 2, Z = 0.400
M126 S255
; feature inner perimeter
; tool H0.200 W0.400
G1 Z0.700 F1200
G1 X5.220 Y8.404 F9000
G1 Z0.400 F1200
G1 E1.9000 F1200
G1 X5.207 Y6.404 E0.0665 F2035
G1 X-6.768 Y6.436 E0.3983
G1 X-6.773 Y4.427 E0.0668
G1 X-8.773 Y4.432 E0.0665
G1 X-8.776 Y3.548 E0.0294
G1 X8.024 Y3.503 E0.5588
G1 X8.027 Y4.387 E0.0294
G1 X6.027 Y4.392 E0.0665
G1 X6.038 Y8.401 E0.1333
G1 X8.883 Y8.394 E0.0947
G1 X5.220 Y8.404 E0.1219
G1 X4.822 Y8.805 F9000
G1 X4.809 Y6.805 E0.0665 F2035
G1 X-7.167 Y6.837 E0.3983
G1 X-7.172 Y4.828 E0.0668
G1 X-9.172 Y4.833 E0.0665
G1 X-9.177 Y3.149 E0.0560
G1 X8.423 Y3.102 E0.5854
G1 X8.428 Y4.786 E0.0560
G1 X6.428 Y4.791 E0.0665
G1 X6.436 Y8.000 E0.1067
G1 X9.282 Y7.993 E0.0946
G1 X9.284 Y8.793 E0.0266
G1 X4.822 Y8.805 E0.1484
; feature outer perimeter
G1 X4.425 Y9.206 F9000
G1 X4.412 Y7.206 E0.0665 F1357
G1 X-7.566 Y7.238 E0.3984
G1 X-7.571 Y5.229 E0.0668
G1 X-9.571 Y5.234 E0.0665
G1 X-9.578 Y2.750 E0.0826
G1 X8.822 Y2.701 E0.6120
G1 X8.829 Y5.185 E0.0826
G1 X6.829 Y5.190 E0.0665
G1 X6.835 Y7.599 E0.0801
G1 X9.681 Y7.592 E0.0946
G1 X9.685 Y9.192 E0.0532
G1 X4.425 Y9.206 E0.1750
; feature solid layer
G1 X5.736 Y7.840 F9000
G1 X5.517 Y8.059 E0.0103 F2714
G1 X5.514 Y7.497 E0.0187
G1 X5.735 Y7.276 E0.0104
G1 X5.733 Y6.712 E0.0188
G1 X5.510 Y6.935 E0.0105
G1 X5.507 Y6.373 E0.0187
G1 X5.732 Y6.148 E0.0106
G1 X5.730 Y5.584 E0.0188
G1 X5.210 Y6.104 E0.0245
G1 X4.643 Y6.105 E0.0189
G1 X5.729 Y5.020 E0.0511
G1 X5.727 Y4.455 E0.0188
G1 X4.076 Y6.107 E0.0777
G1 X3.508 Y6.108 E0.0189
G1 X5.808 Y3.809 E0.1082
G1 X5.241 Y3.810 E0.0189
G1 X2.941 Y6.110 E0.1082
G1 X2.374 Y6.111 E0.0189
G1 X4.674 Y3.812 E0.1082
G1 X4.106 Y3.813 E0.0189
G1 X1.807 Y6.113 E0.1082
G1 X1.240 Y6.114 E0.0189
G1 X3.539 Y3.815 E0.1082
G1 X2.972 Y3.816 E0.0189
G1 X0.672 Y6.116 E0.1082
G1 X0.105 Y6.117 E0.0189
G1 X2.405 Y3.818 E0.1082
G1 X1.838 Y3.819 E0.0189
G1 X-0.462 Y6.119 E0.1082
G1 X-1.029 Y6.120 E0.0189
G1 X1.270 Y3.821 E0.1082
G1 X0.703 Y3.822 E0.0189
G1 X-1.596 Y6.122 E0.1082
G1 X-2.164 Y6.123 E0.0189
G1 X0.136 Y3.824 E0.1082
G1 X-0.431 Y3.825 E0.0189
G1 X-2.731 Y6.125 E0.1082
G1 X-3.298 Y6.127 E0.0189
G1 X-0.998 Y3.827 E0.1082
G1 X-1.566 Y3.828 E0.0189
G1 X-3.865 Y6.128 E0.1082
G1 X-4.432 Y6.130 E0.0189
G1 X-2.133 Y3.830 E0.1082
G1 X-2.700 Y3.831 E0.0189
G1 X-5.000 Y6.131 E0.1082
G1 X-5.567 Y6.133 E0.0189
G1 X-3.267 Y3.833 E0.1082
G1 X-3.834 Y3.834 E0.0189
G1 X-6.134 Y6.134 E0.1082
G1 X-6.469 Y6.135 E0.0111
G1 X-6.469 Y5.904 E0.0077
G1 X-4.402 Y3.836 E0.0973
G1 X-4.969 Y3.837 E0.0189
G1 X-6.471 Y5.339 E0.0706
G1 X-6.472 Y4.775 E0.0188
G1 X-5.536 Y3.839 E0.0440
G1 X-6.103 Y3.841 E0.0189
G1 X-6.474 Y4.211 E0.0174
G1 X-6.474 Y4.126 E0.0028
G1 X-6.955 Y4.127 E0.0160
G1 X-6.670 Y3.842 E0.0134
G1 X-7.238 Y3.844 E0.0189
G1 X-7.523 Y4.129 E0.0134
G1 X-8.090 Y4.130 E0.0189
G1 X-7.805 Y3.845 E0.0134
G1 X-8.372 Y3.847 E0.0189
G1 X-8.474 Y3.949 E0.0048
G1 E-1.9000 F1200
G1 Z0.900 F1200
G1 X6.090 Y4.092 F9000
G1 Z0.400 F1200
G1 E1.9000 F1200
G1 X6.375 Y3.807 E0.0134 F2714
G1 X6.942 Y3.806 E0.0189
G1 X6.657 Y4.091 E0.0134
G1 X7.225 Y4.089 E0.0189
G1 X7.510 Y3.804 E0.0134
G1 E-1.9000 F1200
; feature inner perimeter
G1 Z0.900 F1200
G1 X5.220 Y-3.503 F9000
G1 Z0.400 F1200
G1 E1.9000 F1200
G1 X5.207 Y-5.503 E0.0665 F2035
G1 X-6.768 Y-5.471 E0.3983
G1 X-6.773 Y-7.481 E0.0668
G1 X-8.773 Y-7.475 E0.0665
G1 X-8.776 Y-8.360 E0.0294
G1 X8.024 Y-8.405 E0.5588
G1 X8.027 Y-7.520 E0.0294
G1 X6.027 Y-7.515 E0.0665
G1 X6.038 Y-3.506 E0.1333
G1 X8.883 Y-3.513 E0.0947
G1 X5.220 Y-3.503 E0.1219
G1 X4.822 Y-3.102 F9000
G1 X4.809 Y-5.102 E0.0665 F2035
G1 X-7.167 Y-5.070 E0.3983
G1 X-7.172 Y-7.080 E0.0668
G1 X-9.172 Y-7.074 E0.0665
G1 X-9.177 Y-8.759 E0.0560
G1 X8.423 Y-8.806 E0.5854
G1 X8.428 Y-7.121 E0.0560
G1 X6.428 Y-7.116 E0.0665
G1 X6.436 Y-3.907 E0.1067
G1 X9.282 Y-3.914 E0.0946
G1 X9.284 Y-3.114 E0.0266
G1 X4.822 Y-3.102 E0.1484
; feature outer perimeter
G1 X4.425 Y-2.701 F9000
G1 X4.412 Y-4.701 E0.0665 F1357
G1 X-7.566 Y-4.669 E0.3984
G1 X-7.571 Y-6.679 E0.0668
G1 X-9.571 Y-6.673 E0.0665
G1 X-9.578 Y-9.157 E0.0826
G1 X8.822 Y-9.207 E0.6120
