; G-Code generated by Simplify3D(R) Version 4.1.2
; Apr 6, 2020 at 12:07:44 PM
; Settings Summary
;   processName,Process1
;   applyToModels,crossbow 3-9-17,crossbow 3-9-17(2)
;   profileName,MakerBot Replicator 2 HBP (modified)
;   profileVersion,2020-03-12 10:48:50
;   baseProfile,MakerBot Replicator 2(2)
;   printMaterial,PLA
;   printQuality,Medium
;   printExtruders,
;   extruderName,Primary Extruder
;   extruderToolheadNumber,0
;   extruderDiameter,0.4
;   extruderAutoWidth,0
;   extruderWidth,0.4
;   extrusionMultiplier,1
;   extruderUseRetract,1
;   extruderRetractionDistance,1.9
;   extruderExtraRestartDistance,0
;   extruderRetractionZLift,0.5
;   extruderRetractionSpeed,1200
;   extruderUseCoasting,0
;   extruderCoastingDistance,0.2
;   extruderUseWipe,0
;   extruderWipeDistance,5
;   primaryExtruder,0
;   layerHeight,0.2
;   topSolidLayers,3
;   bottomSolidLayers,3
;   perimeterOutlines,3
;   printPerimetersInsideOut,1
;   startPointOption,3
;   startPointOriginX,0
;   startPointOriginY,150
;   sequentialIslands,0
;   spiralVaseMode,0
;   firstLayerHeightPercentage,100
;   firstLayerWidthPercentage,115
;   firstLayerUnderspeed,0.5
;   useRaft,0
;   raftExtruder,0
;   raftTopLayers,2
;   raftBaseLayers,1
;   raftOffset,1
;   raftSeparationDistance,0.14
;   raftTopInfill,90
;   aboveRaftSpeedMultiplier,0.3
;   useSkirt,0
;   skirtExtruder,0
;   skirtLayers,1
;   skirtOutlines,5
;   skirtOffset,0
;   usePrimePillar,0
;   primePillarExtruder,999
;   primePillarWidth,12
;   primePillarLocation,7
;   primePillarSpeedMultiplier,1
;   useOozeShield,0
;   oozeShieldExtruder,999
;   oozeShieldOffset,2
;   oozeShieldOutlines,1
;   oozeShieldSidewallShape,1
;   oozeShieldSidewallAngle,30
;   oozeShieldSpeedMultiplier,1
;   infillExtruder,0
;   internalInfillPattern,Rectilinear
;   externalInfillPattern,Rectilinear
;   infillPercentage,15
;   outlineOverlapPercentage,25
;   infillExtrusionWidthPercentage,100
;   minInfillLength,5
;   infillLayerInterval,1
;   internalInfillAngles,45,-45
;   overlapInternalInfillAngles,0
;   externalInfillAngles,45,-45
;   generateSupport,1
;   supportExtruder,0
;   supportInfillPercentage,15
;   supportExtraInflation,0.5
;   supportBaseLayers,0
;   denseSupportExtruder,0
;   denseSupportLayers,2
;   denseSupportInfillPercentage,90
;   supportLayerInterval,1
;   supportHorizontalPartOffset,0.3
;   supportUpperSeparationLayers,1
;   supportLowerSeparationLayers,1
;   supportType,1
;   supportGridSpacing,2
;   maxOverhangAngle,45
;   supportAngles,45,-45
;   temperatureName,Primary Extruder,Heated Build Platform
;   temperatureNumber,0,0
;   temperatureSetpointCount,1,1
;   temperatureSetpointLayers,1,1
;   temperatureSetpointTemperatures,230,60
;   temperatureStabilizeAtStartup,1,1
;   temperatureHeatedBed,0,1
;   fanLayers,1,2
;   fanSpeeds,0,100
;   blipFanToFullPower,1
;   adjustSpeedForCooling,1
;   minSpeedLayerTime,15
;   minCoolingSpeedSlowdown,20
;   increaseFanForCooling,1
;   minFanLayerTime,45
;   maxCoolingFanSpeed,100
;   increaseFanForBridging,1
;   bridgingFanSpeed,100
;   use5D,1
;   relativeEdistances,1
;   allowEaxisZeroing,0
;   independentExtruderAxes,1
;   includeM10123,0
;   stickySupport,1
;   applyToolheadOffsets,0
;   gcodeXoffset,0
;   gcodeYoffset,0
;   gcodeZoffset,0
;   overrideMachineDefinition,1
;   machineTypeOverride,0
;   strokeXoverride,280
;   strokeYoverride,150
;   strokeZoverride,150
;   originOffsetXoverride,140
;   originOffsetYoverride,75
;   originOffsetZoverride,0
;   homeXdirOverride,1
;   homeYdirOverride,1
;   homeZdirOverride,-1
;   flipXoverride,1
;   flipYoverride,-1
;   flipZoverride,1
;   toolheadOffsets,0,0|0,0|0,0|0,0|0,0|0,0
;   overrideFirmwareConfiguration,1
;   firmwareTypeOverride,MakerBot/Sailfish Firmware
;   GPXconfigOverride,r2h
;   baudRateOverride,115200
;   overridePrinterModels,1
;   printerModelsOverride,MakerBot_Replicator2.stl
;   startingGcode,; **** Replicator 2 start.gcode ****,M73 P0 ; enable build progress,G162 X Y F3000 ; home XY maximum,G161 Z F1200 ; home Z minimum,G92 Z-5 ; set Z to -5,G1 Z0 ; move Z to 0,G161 Z F100 ; home Z slowly,M132 X Y Z A B ; recall home offsets,G1 X-145 Y-75 Z30 F9000 ; move to wait position off table,G130 X20 Y20 Z20 A20 B20 ; lower stepper Vrefs while heating,M126 S[fan_speed_pwm],M140 S[bed0_temperature] T0,M134 T0 ; stabilize bed temperature,M104 S[extruder0_temperature] T0,M133 T0 ; stabilize extruder temperature,G130 X127 Y127 Z40 A127 B127 ; default stepper Vrefs,G92 A0 ; zero extruder,G1 Z0.4 ; position nozzle,G1 E25 F300 ; purge nozzle,G1 X-140 Y-70 Z0.15 F1200 ; slow wipe,G1 X-135 Y-65 Z0.5 F1200 ; lift,G92 A0 ; zero extruder,M73 P1 ;@body (notify GPX body has started),; **** end of start.gcode ****
;   layerChangeGcode,
;   retractionGcode,
;   toolChangeGcode,
;   endingGcode,; **** Replicator 2 end.gcode ****,M73 P100 ; end build progress,G1 Z155 F1000 ; send Z axis to bottom of machine,M104 S0 T0 ; cool down extruder,M140 S0 T0 ; cool down HBP,M127 ; stop blower fan,G162 X Y F3000 ; home XY maximum,M18 ; disable stepper,M0 ; stop codes,M72 P1 ; play Ta-Da song,; **** end of end.gcode ****
;   exportFileFormat,gcode
;   celebration,0
;   celebrationSong,Random Song
;   postProcessing,
;   defaultSpeed,4800
;   outlineUnderspeed,0.5
;   solidInfillUnderspeed,1
;   supportUnderspeed,1
;   rapidXYspeed,9000
;   rapidZspeed,1200
;   minBridgingArea,50
;   bridgingExtraInflation,0
;   bridgingExtrusionMultiplier,1
;   bridgingSpeedMultiplier,0.8
;   useFixedBridgingAngle,0
;   fixedBridgingAngle,0
;   applyBridgingToPerimeters,0
;   filamentDiameters,1.75|1.75|1.75|1.75|1.75|1.75
;   filamentPricesPerKg,46|46|46|46|46|46
;   filamentDensities,1.25|1.25|1.25|1.25|1.25|1.25
;   useMinPrintHeight,0
;   minPrintHeight,0
;   useMaxPrintHeight,0
;   maxPrintHeight,4.84
;   useDiaphragm,0
;   diaphragmLayerInterval,20
;   robustSlicing,1
;   mergeAllIntoSolid,0
;   onlyRetractWhenCrossingOutline,0
;   retractBetweenLayers,0
;   useRetractionMinTravel,1
;   retractionMinTravel,7
;   retractWhileWiping,1
;   onlyWipeOutlines,1
;   avoidCrossingOutline,0
;   maxMovementDetourFactor,3
;   toolChangeRetractionDistance,12
;   toolChangeExtraRestartDistance,-0.5
;   toolChangeRetractionSpeed,600
;   externalThinWallType,0
;   internalThinWallType,0
;   thinWallAllowedOverlapPercentage,10
;   singleExtrusionMinLength,1
;   singleExtrusionMinPrintingWidthPercentage,50
;   singleExtrusionMaxPrintingWidthPercentage,200
;   singleExtrusionEndpointExtension,0.2
;   horizontalSizeCompensation,0
G90
M83
; **** Replicator 2 start.gcode ****
M73 P0 ; enable build progress
G162 X Y F3000 ; home XY maximum
G161 Z F1200 ; home Z minimum
G92 Z-5 ; set Z to -5
G1 Z0 ; move Z to 0
G161 Z F100 ; home Z slowly
M132 X Y Z A B ; recall home offsets
G1 X-145 Y-75 Z30 F9000 ; move to wait position off table
G130 X20 Y20 Z20 A20 B20 ; lower stepper Vrefs while heating
M127
M140 S60 T0
M134 T0 ; stabilize bed temperature
M104 S230 T0
M133 T0 ; stabilize extruder temperature
G130 X127 Y127 Z40 A127 B127 ; default stepper Vrefs
G92 A0 ; zero extruder
G1 Z0.4 ; position nozzle
G1 E25 F300 ; purge nozzle
G1 X-140 Y-70 Z0.15 F1200 ; slow wipe
G1 X-135 Y-65 Z0.5 F1200 ; lift
G92 A0 ; zero extruder
M73 P1 ;@body (notify GPX body has started)
; **** end of start.gcode ****
; process Process1
; layer 1, Z = 0.200
M135 T0
G1 E-1.9000 F1200
; feature inner perimeter
; tool H0.200 W0.460
G1 Z0.500 F1200
G1 X1.511 Y-9.044 F9000
G1 Z0.200 F1200
G1 E1.9000 F1200
G1 X-18.550 Y-9.137 E0.7673 F1800
G1 X-19.788 Y-8.192 E0.0596
G1 X-19.815 Y-8.270 E0.0032
G1 X-19.775 Y-8.270 E0.0015
G1 X-19.775 Y-12.846 E0.1750
G1 X-19.798 Y-12.846 E0.0009
G1 X-19.788 Y-12.874 E0.0011
G1 X-18.550 Y-11.928 E0.0596
G1 X2.698 Y-12.034 E0.8127
G1 X2.695 Y-12.118 E0.0032
G1 X36.067 Y-12.292 E1.2765
G1 X36.067 Y-8.854 E0.1315
G1 X1.511 Y-9.044 E1.3217
G1 E-1.9000 F1200
G1 Z0.700 F1200
G1 X-84.696 Y-8.240 F9000
G1 Z0.200 F1200
G1 E1.9000 F1200
G1 X-83.466 Y10.715 E0.7265 F1800
G1 X-84.427 Y-1.058 E0.4518
G1 X-86.540 Y-1.065 E0.0808
G1 X-87.289 Y7.409 E0.3254
G1 X-86.103 Y-6.942 E0.5508
G1 X-87.805 Y-7.519 E0.0688
G1 X-88.847 Y-5.895 E0.0738
G1 X-90.648 Y-2.550 E0.1453
G1 X-91.940 Y0.352 E0.1215
G1 X-92.085 Y-0.566 E0.0356
G1 X-92.188 Y-0.768 E0.0087
G1 X-92.602 Y-1.580 E0.0349
G1 X-93.407 Y-2.385 E0.0435
G1 X-94.421 Y-2.901 E0.0435
G1 X-95.545 Y-3.079 E0.0435
G1 X-96.669 Y-2.901 E0.0435
G1 X-97.683 Y-2.385 E0.0435
G1 X-98.487 Y-1.580 E0.0435
G1 X-99.004 Y-0.566 E0.0435
G1 X-99.182 Y0.558 E0.0435
G1 X-99.019 Y1.586 E0.0398
G1 X-98.499 Y2.684 E0.0465
G1 X-97.683 Y3.500 E0.0442
G1 X-97.588 Y3.548 E0.0040
G1 X-97.646 Y3.581 E0.0025
G1 X-98.161 Y4.095 E0.0278
G1 X-98.526 Y4.811 E0.0308
G1 X-98.651 Y5.606 E0.0308
G1 X-98.526 Y6.400 E0.0308
G1 X-98.161 Y7.116 E0.0308
G1 X-97.592 Y7.685 E0.0308
G1 X-97.469 Y7.748 E0.0053
G1 X-97.571 Y7.800 E0.0044
G1 X-98.020 Y8.249 E0.0243
G1 X-98.308 Y8.815 E0.0243
G1 X-98.408 Y9.442 E0.0243
G1 X-98.308 Y10.069 E0.0243
G1 X-98.020 Y10.634 E0.0243
G1 X-97.589 Y11.065 E0.0233
G1 X-97.015 Y11.370 E0.0249
G1 X-96.378 Y11.471 E0.0247
G1 X-95.751 Y11.372 E0.0243
G1 X-95.372 Y11.178 E0.0163
G1 X-95.896 Y14.081 E0.1128
G1 X-96.047 Y14.844 E0.0297
G1 X-96.352 Y15.301 E0.0210
G1 X-96.733 Y15.556 E0.0175
G1 X-98.192 Y15.622 E0.0559
G1 X-96.122 Y23.293 E0.3039
G1 X-94.331 Y28.439 E0.2084
G1 X-92.214 Y33.507 E0.2101
G1 X-91.228 Y35.276 E0.0774
G1 X-89.724 Y34.950 E0.0589
G1 X-89.999 Y38.066 E0.1197
G1 X-92.549 Y34.216 E0.1766
G1 X-95.143 Y29.050 E0.2211
G1 X-97.412 Y23.701 E0.2222
G1 X-99.672 Y17.018 E0.2698
G1 X-100.910 Y12.599 E0.1755
G1 X-102.116 Y6.915 E0.2222
G1 X-102.824 Y1.165 E0.2216
G1 X-103.069 Y-3.252 E0.1692
G1 X-98.018 Y-3.279 E0.1932
G1 X-98.018 Y-8.234 E0.1895
G1 X-84.696 Y-8.240 E0.5096
G1 X-84.695 Y-12.834 F9000
G1 X-98.018 Y-12.831 E0.5096 F1800
G1 X-98.018 Y-17.792 E0.1897
G1 X-103.069 Y-17.819 E0.1932
G1 X-102.824 Y-22.237 E0.1692
G1 X-102.116 Y-27.986 E0.2216
G1 X-100.910 Y-33.670 E0.2222
G1 X-99.668 Y-38.101 E0.1760
G1 X-97.412 Y-44.772 E0.2694
G1 X-95.143 Y-50.121 E0.2222
G1 X-92.549 Y-55.287 E0.2211
G1 X-90.111 Y-58.964 E0.1688
G1 X-89.915 Y-56.810 E0.0827
G1 X-90.990 Y-57.022 E0.0419
G1 X-92.224 Y-54.554 E0.1055
G1 X-94.331 Y-49.510 E0.2091
G1 X-96.122 Y-44.364 E0.2084
G1 X-98.181 Y-36.738 E0.3021
G1 X-96.746 Y-36.637 E0.0550
G1 X-96.351 Y-36.373 E0.0182
G1 X-96.046 Y-35.916 E0.0210
G1 X-95.895 Y-35.152 E0.0298
G1 X-95.370 Y-32.248 E0.1129
G1 X-95.777 Y-32.447 E0.0173
G1 X-96.378 Y-32.542 E0.0233
G1 X-97.006 Y-32.443 E0.0243
G1 X-97.571 Y-32.155 E0.0243
G1 X-98.002 Y-31.724 E0.0233
G1 X-98.307 Y-31.150 E0.0249
G1 X-98.408 Y-30.513 E0.0247
G1 X-98.308 Y-29.886 E0.0243
G1 X-98.020 Y-29.320 E0.0243
G1 X-97.571 Y-28.871 E0.0243
G1 X-97.469 Y-28.819 E0.0044
G1 X-97.592 Y-28.756 E0.0053
G1 X-98.161 Y-28.188 E0.0308
G1 X-98.526 Y-27.471 E0.0308
G1 X-98.651 Y-26.677 E0.0308
G1 X-98.526 Y-25.883 E0.0308
G1 X-98.161 Y-25.166 E0.0308
G1 X-97.606 Y-24.611 E0.0300
G1 X-97.683 Y-24.572 E0.0033
G1 X-98.488 Y-23.767 E0.0435
G1 X-99.005 Y-22.753 E0.0435
G1 X-99.183 Y-21.629 E0.0435
G1 X-99.005 Y-20.505 E0.0435
G1 X-98.488 Y-19.491 E0.0435
G1 X-97.683 Y-18.686 E0.0435
G1 X-96.669 Y-18.170 E0.0435
G1 X-95.545 Y-17.992 E0.0435
G1 X-94.645 Y-18.134 E0.0349
G1 X-94.421 Y-18.170 E0.0087
G1 X-93.407 Y-18.686 E0.0435
G1 X-92.603 Y-19.491 E0.0435
G1 X-92.086 Y-20.505 E0.0435
G1 X-91.939 Y-21.435 E0.0360
G1 X-90.642 Y-18.522 E0.1220
G1 X-88.843 Y-15.179 E0.1452
G1 X-87.812 Y-13.557 E0.0735
G1 X-86.109 Y-14.122 E0.0686
G1 X-86.543 Y-19.957 E0.2238
G1 X-84.453 Y-19.966 E0.0800
G1 X-83.633 Y-29.925 E0.3822
G1 X-84.695 Y-12.834 E0.6550
G1 E-1.9000 F1200
G1 Z0.700 F1200
G1 X-93.015 Y-24.179 F9000
G1 Z0.200 F1200
G1 E1.9000 F1200
G1 X-93.407 Y-24.572 E0.0212 F1800
G1 X-94.195 Y-24.973 E0.0338
G1 X-94.002 Y-25.166 E0.0105
G1 X-93.637 Y-25.883 E0.0308
G1 X-93.631 Y-25.917 E0.0013
G1 X-93.399 Y-25.185 E0.0294
G1 X-93.015 Y-24.179 E0.0412
G1 X-94.497 Y-28.683 F9000
G1 X-94.570 Y-28.756 E0.0040 F1800
G1 X-95.054 Y-29.003 E0.0208
G1 X-94.737 Y-29.320 E0.0172
G1 X-94.684 Y-29.423 E0.0044
G1 X-94.497 Y-28.683 E0.0292
G1 E-1.9000 F1200
G1 Z0.700 F1200
G1 X-87.424 Y-59.166 F9000
G1 Z0.200 F1200
G1 E1.9000 F1200
G1 X-87.691 Y-59.228 E0.0105 F1800
G1 X-87.955 Y-59.304 E0.0105
G1 X-89.509 Y-59.871 E0.0633
G1 X-89.498 Y-59.888 E0.0008
G1 X-90.595 Y-61.004 E0.0598
G1 X-90.953 Y-61.448 E0.0218
G1 X-91.078 Y-61.628 E0.0084
G1 X-90.809 Y-61.513 E0.0112
G1 X-90.315 Y-61.411 E0.0193
G1 X-89.809 Y-61.406 E0.0193
G1 X-89.313 Y-61.501 E0.0193
G1 X-88.845 Y-61.690 E0.0193
G1 X-88.422 Y-61.967 E0.0193
G1 X-88.062 Y-62.321 E0.0193
G1 X-87.778 Y-62.739 E0.0193
G1 X-87.581 Y-63.204 E0.0193
G1 X-87.475 Y-63.712 E0.0199
G1 X-87.484 Y-64.301 E0.0225
G1 X-87.573 Y-64.713 E0.0161
G1 X-87.757 Y-65.168 E0.0188
G1 X-88.034 Y-65.591 E0.0193
G1 X-88.388 Y-65.951 E0.0193
G1 X-88.806 Y-66.235 E0.0193
G1 X-89.271 Y-66.432 E0.0193
G1 X-89.766 Y-66.535 E0.0193
G1 X-90.271 Y-66.539 E0.0193
G1 X-90.767 Y-66.445 E0.0193
G1 X-91.235 Y-66.256 E0.0193
G1 X-91.658 Y-65.979 E0.0193
G1 X-92.018 Y-65.625 E0.0193
G1 X-92.038 Y-65.596 E0.0013
G1 X-92.011 Y-65.798 E0.0078
G1 X-91.891 Y-66.375 E0.0225
G1 X-91.719 Y-66.925 E0.0220
G1 X-91.496 Y-67.451 E0.0218
G1 X-91.370 Y-67.699 E0.0107
G1 X-91.063 Y-68.200 E0.0225
G1 X-90.708 Y-68.671 E0.0225
G1 X-90.537 Y-68.866 E0.0099
G1 X-90.106 Y-69.289 E0.0231
G1 X-89.909 Y-69.457 E0.0099
G1 X-89.506 Y-69.750 E0.0191
G1 X-89.629 Y-69.460 E0.0120
G1 X-89.732 Y-68.966 E0.0193
G1 X-89.736 Y-68.461 E0.0193
G1 X-89.642 Y-67.964 E0.0193
G1 X-89.452 Y-67.496 E0.0193
G1 X-89.175 Y-67.073 E0.0193
G1 X-88.821 Y-66.713 E0.0193
G1 X-88.404 Y-66.429 E0.0193
G1 X-87.939 Y-66.232 E0.0193
G1 X-87.444 Y-66.129 E0.0193
G1 X-86.939 Y-66.125 E0.0193
G1 X-86.442 Y-66.219 E0.0193
G1 X-85.974 Y-66.408 E0.0193
G1 X-85.552 Y-66.685 E0.0193
G1 X-85.192 Y-67.039 E0.0193
G1 X-84.907 Y-67.457 E0.0193
G1 X-84.710 Y-67.922 E0.0193
G1 X-84.607 Y-68.417 E0.0193
G1 X-84.603 Y-68.922 E0.0193
G1 X-84.697 Y-69.418 E0.0193
G1 X-84.886 Y-69.886 E0.0193
G1 X-85.164 Y-70.309 E0.0193
G1 X-85.518 Y-70.669 E0.0193
G1 X-85.609 Y-70.731 E0.0042
G1 X-85.593 Y-70.730 E0.0006
G1 X-85.025 Y-70.641 E0.0220
G1 X-84.468 Y-70.497 E0.0220
G1 X-83.928 Y-70.298 E0.0220
G1 X-83.411 Y-70.048 E0.0220
G1 X-82.908 Y-69.740 E0.0225
G1 X-82.697 Y-69.589 E0.0099
G1 X-82.244 Y-69.211 E0.0225
G1 X-81.831 Y-68.791 E0.0225
G1 X-81.663 Y-68.593 E0.0099
G1 X-81.305 Y-68.102 E0.0232
G1 X-81.559 Y-68.225 E0.0108
G1 X-82.048 Y-68.351 E0.0193
G1 X-82.552 Y-68.381 E0.0193
G1 X-83.052 Y-68.311 E0.0193
G1 X-83.529 Y-68.145 E0.0193
G1 X-83.965 Y-67.889 E0.0193
G1 X-84.342 Y-67.553 E0.0193
G1 X-84.647 Y-67.149 E0.0193
G1 X-84.866 Y-66.695 E0.0193
G1 X-84.993 Y-66.206 E0.0193
G1 X-85.022 Y-65.701 E0.0193
G1 X-84.953 Y-65.201 E0.0193
G1 X-84.787 Y-64.724 E0.0193
G1 X-84.531 Y-64.288 E0.0193
G1 X-84.194 Y-63.911 E0.0193
G1 X-83.791 Y-63.607 E0.0193
G1 X-83.337 Y-63.387 E0.0193
G1 X-82.848 Y-63.260 E0.0193
G1 X-82.343 Y-63.231 E0.0193
G1 X-81.843 Y-63.301 E0.0193
G1 X-81.366 Y-63.467 E0.0193
G1 X-80.930 Y-63.723 E0.0193
G1 X-80.553 Y-64.059 E0.0193
G1 X-80.398 Y-64.264 E0.0098
G1 X-80.427 Y-63.993 E0.0104
G1 X-80.547 Y-63.416 E0.0225
G1 X-80.619 Y-63.166 E0.0099
G1 X-80.822 Y-62.613 E0.0225
G1 X-81.079 Y-62.083 E0.0225
G1 X-81.210 Y-61.856 E0.0100
G1 X-82.106 Y-60.527 E0.0613
G1 X-83.040 Y-59.979 E0.0414
G1 X-83.024 Y-60.006 E0.0012
G1 X-82.849 Y-60.480 E0.0193
G1 X-82.771 Y-60.979 E0.0193
G1 X-82.791 Y-61.484 E0.0193
G1 X-82.910 Y-61.975 E0.0193
G1 X-83.122 Y-62.434 E0.0193
G1 X-83.420 Y-62.842 E0.0193
G1 X-83.791 Y-63.184 E0.0193
G1 X-84.222 Y-63.448 E0.0193
G1 X-84.696 Y-63.622 E0.0193
G1 X-85.195 Y-63.700 E0.0193
G1 X-85.700 Y-63.680 E0.0193
G1 X-86.191 Y-63.561 E0.0193
G1 X-86.649 Y-63.349 E0.0193
G1 X-87.058 Y-63.052 E0.0193
G1 X-87.400 Y-62.681 E0.0193
G1 X-87.664 Y-62.250 E0.0193
G1 X-87.838 Y-61.775 E0.0193
G1 X-87.916 Y-61.276 E0.0193
G1 X-87.896 Y-60.772 E0.0193
G1 X-87.777 Y-60.281 E0.0193
