; G-Code generated by Simplify3D(R) Version 4.1.2
; Apr 6, 2020 at 12:09:15 PM
; Settings Summary
;   processName,Process1
;   applyToModels,CB insert15,CB insert15(2),CB insert15(3),CB insert15(2)(2)
;   profileName,MakerBot Replicator 2 HBP (modified)
;   profileVersion,2020-03-12 10:48:50
;   baseProfile,MakerBot Replicator 2(2)
;   printMaterial,PLA
;   printQuality,Medium
;   printExtruders,
;   extruderName,Primary Extruder
;   extruderToolheadNumber,0
;   extruderDiameter,0.4
;   extruderAutoWidth,0
;   extruderWidth,0.4
;   extrusionMultiplier,1
;   extruderUseRetract,1
;   extruderRetractionDistance,1.9
;   extruderExtraRestartDistance,0
;   extruderRetractionZLift,0.5
;   extruderRetractionSpeed,1200
;   extruderUseCoasting,0
;   extruderCoastingDistance,0.2
;   extruderUseWipe,0
;   extruderWipeDistance,5
;   primaryExtruder,0
;   layerHeight,0.2
;   topSolidLayers,3
;   bottomSolidLayers,3
;   perimeterOutlines,3
;   printPerimetersInsideOut,1
;   startPointOption,3
;   startPointOriginX,0
;   startPointOriginY,150
;   sequentialIslands,0
;   spiralVaseMode,0
;   firstLayerHeightPercentage,100
;   firstLayerWidthPercentage,115
;   firstLayerUnderspeed,0.5
;   useRaft,0
;   raftExtruder,0
;   raftTopLayers,2
;   raftBaseLayers,1
;   raftOffset,1
;   raftSeparationDistance,0.14
;   raftTopInfill,90
;   aboveRaftSpeedMultiplier,0.3
;   useSkirt,0
;   skirtExtruder,0
;   skirtLayers,1
;   skirtOutlines,5
;   skirtOffset,0
;   usePrimePillar,0
;   primePillarExtruder,999
;   primePillarWidth,12
;   primePillarLocation,7
;   primePillarSpeedMultiplier,1
;   useOozeShield,0
;   oozeShieldExtruder,999
;   oozeShieldOffset,2
;   oozeShieldOutlines,1
;   oozeShieldSidewallShape,1
;   oozeShieldSidewallAngle,30
;   oozeShieldSpeedMultiplier,1
;   infillExtruder,0
;   internalInfillPattern,Rectilinear
;   externalInfillPattern,Rectilinear
;   infillPercentage,15
;   outlineOverlapPercentage,25
;   infillExtrusionWidthPercentage,100
;   minInfillLength,5
;   infillLayerInterval,1
;   internalInfillAngles,45,-45
;   overlapInternalInfillAngles,0
;   externalInfillAngles,45,-45
;   generateSupport,1
;   supportExtruder,0
;   supportInfillPercentage,15
;   supportExtraInflation,0.5
;   supportBaseLayers,0
;   denseSupportExtruder,0
;   denseSupportLayers,2
;   denseSupportInfillPercentage,90
;   supportLayerInterval,1
;   supportHorizontalPartOffset,0.3
;   supportUpperSeparationLayers,1
;   supportLowerSeparationLayers,1
;   supportType,1
;   supportGridSpacing,2
;   maxOverhangAngle,45
;   supportAngles,45,-45
;   temperatureName,Primary Extruder,Heated Build Platform
;   temperatureNumber,0,0
;   temperatureSetpointCount,1,1
;   temperatureSetpointLayers,1,1
;   temperatureSetpointTemperatures,230,60
;   temperatureStabilizeAtStartup,1,1
;   temperatureHeatedBed,0,1
;   fanLayers,1,2
;   fanSpeeds,0,100
;   blipFanToFullPower,1
;   adjustSpeedForCooling,1
;   minSpeedLayerTime,15
;   minCoolingSpeedSlowdown,20
;   increaseFanForCooling,1
;   minFanLayerTime,45
;   maxCoolingFanSpeed,100
;   increaseFanForBridging,1
;   bridgingFanSpeed,100
;   use5D,1
;   relativeEdistances,1
;   allowEaxisZeroing,0
;   independentExtruderAxes,1
;   includeM10123,0
;   stickySupport,1
;   applyToolheadOffsets,0
;   gcodeXoffset,0
;   gcodeYoffset,0
;   gcodeZoffset,0
;   overrideMachineDefinition,1
;   machineTypeOverride,0
;   strokeXoverride,280
;   strokeYoverride,150
;   strokeZoverride,150
;   originOffsetXoverride,140
;   originOffsetYoverride,75
;   originOffsetZoverride,0
;   homeXdirOverride,1
;   homeYdirOverride,1
;   homeZdirOverride,-1
;   flipXoverride,1
;   flipYoverride,-1
;   flipZoverride,1
;   toolheadOffsets,0,0|0,0|0,0|0,0|0,0|0,0
;   overrideFirmwareConfiguration,1
;   firmwareTypeOverride,MakerBot/Sailfish Firmware
;   GPXconfigOverride,r2h
;   baudRateOverride,115200
;   overridePrinterModels,1
;   printerModelsOverride,MakerBot_Replicator2.stl
;   startingGcode,; **** Replicator 2 start.gcode ****,M73 P0 ; enable build progress,G162 X Y F3000 ; home XY maximum,G161 Z F1200 ; home Z minimum,G92 Z-5 ; set Z to -5,G1 Z0 ; move Z to 0,G161 Z F100 ; home Z slowly,M132 X Y Z A B ; recall home offsets,G1 X-145 Y-75 Z30 F9000 ; move to wait position off table,G130 X20 Y20 Z20 A20 B20 ; lower stepper Vrefs while heating,M126 S[fan_speed_pwm],M140 S[bed0_temperature] T0,M134 T0 ; stabilize bed temperature,M104 S[extruder0_temperature] T0,M133 T0 ; stabilize extruder temperature,G130 X127 Y127 Z40 A127 B127 ; default stepper Vrefs,G92 A0 ; zero extruder,G1 Z0.4 ; position nozzle,G1 E25 F300 ; purge nozzle,G1 X-140 Y-70 Z0.15 F1200 ; slow wipe,G1 X-135 Y-65 Z0.5 F1200 ; lift,G92 A0 ; zero extruder,M73 P1 ;@body (notify GPX body has started),; **** end of start.gcode ****
;   layerChangeGcode,
;   retractionGcode,
;   toolChangeGcode,
;   endingGcode,; **** Replicator 2 end.gcode ****,M73 P100 ; end build progress,G1 Z155 F1000 ; send Z axis to bottom of machine,M104 S0 T0 ; cool down extruder,M140 S0 T0 ; cool down HBP,M127 ; stop blower fan,G162 X Y F3000 ; home XY maximum,M18 ; disable stepper,M0 ; stop codes,M72 P1 ; play Ta-Da song,; **** end of end.gcode ****
;   exportFileFormat,gcode
;   celebration,0
;   celebrationSong,Random Song
;   postProcessing,
;   defaultSpeed,4800
;   outlineUnderspeed,0.5
;   solidInfillUnderspeed,1
;   supportUnderspeed,1
;   rapidXYspeed,9000
;   rapidZspeed,1200
;   minBridgingArea,50
;   bridgingExtraInflation,0
;   bridgingExtrusionMultiplier,1
;   bridgingSpeedMultiplier,0.8
;   useFixedBridgingAngle,0
;   fixedBridgingAngle,0
;   applyBridgingToPerimeters,0
;   filamentDiameters,1.75|1.75|1.75|1.75|1.75|1.75
;   filamentPricesPerKg,46|46|46|46|46|46
;   filamentDensities,1.25|1.25|1.25|1.25|1.25|1.25
;   useMinPrintHeight,0
;   minPrintHeight,0
;   useMaxPrintHeight,0
;   maxPrintHeight,4.84
;   useDiaphragm,0
;   diaphragmLayerInterval,20
;   robustSlicing,1
;   mergeAllIntoSolid,0
;   onlyRetractWhenCrossingOutline,0
;   retractBetweenLayers,0
;   useRetractionMinTravel,1
;   retractionMinTravel,7
;   retractWhileWiping,1
;   onlyWipeOutlines,1
;   avoidCrossingOutline,0
;   maxMovementDetourFactor,3
;   toolChangeRetractionDistance,12
;   toolChangeExtraRestartDistance,-0.5
;   toolChangeRetractionSpeed,600
;   externalThinWallType,0
;   internalThinWallType,0
;   thinWallAllowedOverlapPercentage,10
;   singleExtrusionMinLength,1
;   singleExtrusionMinPrintingWidthPercentage,50
;   singleExtrusionMaxPrintingWidthPercentage,200
;   singleExtrusionEndpointExtension,0.2
;   horizontalSizeCompensation,0
G90
M83
; **** Replicator 2 start.gcode ****
M73 P0 ; enable build progress
G162 X Y F3000 ; home XY maximum
G161 Z F1200 ; home Z minimum
G92 Z-5 ; set Z to -5
G1 Z0 ; move Z to 0
G161 Z F100 ; home Z slowly
M132 X Y Z A B ; recall home offsets
G1 X-145 Y-75 Z30 F9000 ; move to wait position off table
G130 X20 Y20 Z20 A20 B20 ; lower stepper Vrefs while heating
M126 S87
M140 S60 T0
M134 T0 ; stabilize bed temperature
M104 S230 T0
M133 T0 ; stabilize extruder temperature
G130 X127 Y127 Z40 A127 B127 ; default stepper Vrefs
G92 A0 ; zero extruder
G1 Z0.4 ; position nozzle
G1 E25 F300 ; purge nozzle
G1 X-140 Y-70 Z0.15 F1200 ; slow wipe
G1 X-135 Y-65 Z0.5 F1200 ; lift
G92 A0 ; zero extruder
M73 P1 ;@body (notify GPX body has started)
; **** end of start.gcode ****
; process Process1
; layer 1, Z = 0.200
M135 T0
G1 E-1.9000 F1200
; feature inner perimeter
; tool H0.200 W0.460
G1 Z0.500 F1200
G1 X-6.499 Y-3.655 F9000
G1 Z0.200 F1200
G1 E1.9000 F1200
G1 X-7.017 Y-3.653 E0.0198 F1800
G1 X-7.030 Y-5.654 E0.0765
G1 X-19.004 Y-5.622 E0.4580
G1 X-19.010 Y-7.631 E0.0769
G1 X-21.010 Y-7.626 E0.0765
G1 X-21.011 Y-8.210 E0.0223
G1 X-4.511 Y-8.254 E0.6311
G1 X-4.510 Y-7.670 E0.0223
G1 X-6.510 Y-7.665 E0.0765
G1 X-6.499 Y-3.655 E0.1534
G1 X-6.039 Y-3.817 F9000
G1 X-3.194 Y-3.824 E0.1088 F1800
G1 X-3.192 Y-3.204 E0.0237
G1 X-7.475 Y-3.192 E0.1638
G1 X-7.487 Y-5.193 E0.0765
G1 X-19.463 Y-5.161 E0.4581
G1 X-19.468 Y-7.170 E0.0769
G1 X-21.468 Y-7.165 E0.0765
G1 X-21.472 Y-8.669 E0.0575
G1 X-4.052 Y-8.715 E0.6663
G1 X-4.048 Y-7.211 E0.0575
G1 X-6.048 Y-7.206 E0.0765
G1 X-6.039 Y-3.817 E0.1296
; feature outer perimeter
G1 X-5.581 Y-4.278 F9000
G1 X-2.735 Y-4.285 E0.1088 F1200
G1 X-2.731 Y-2.745 E0.0589
G1 X-7.932 Y-2.731 E0.1989
G1 X-7.944 Y-4.731 E0.0765
G1 X-19.922 Y-4.699 E0.4581
G1 X-19.927 Y-6.709 E0.0769
G1 X-21.927 Y-6.703 E0.0765
G1 X-21.934 Y-9.128 E0.0927
G1 X-3.594 Y-9.177 E0.7015
G1 X-3.587 Y-6.752 E0.0927
G1 X-5.587 Y-6.747 E0.0765
G1 X-5.581 Y-4.278 E0.0944
; feature solid layer
G1 X-7.251 Y-7.902 F9000
G1 X-6.854 Y-7.505 E0.0215 F2400
G1 X-6.852 Y-6.852 E0.0249
G1 X-7.900 Y-7.900 E0.0567
G1 X-8.549 Y-7.898 E0.0248
G1 X-6.851 Y-6.200 E0.0919
G1 X-6.850 Y-5.999 E0.0077
G1 X-7.299 Y-5.998 E0.0172
G1 X-9.198 Y-7.897 E0.1027
G1 X-9.846 Y-7.895 E0.0248
G1 X-7.948 Y-5.996 E0.1027
G1 X-8.597 Y-5.995 E0.0248
G1 X-10.495 Y-7.893 E0.1027
G1 X-11.144 Y-7.891 E0.0248
G1 X-9.246 Y-5.993 E0.1027
G1 X-9.894 Y-5.991 E0.0248
G1 X-11.793 Y-7.890 E0.1027
G1 X-12.442 Y-7.888 E0.0248
G1 X-10.543 Y-5.989 E0.1027
G1 X-11.192 Y-5.988 E0.0248
G1 X-13.090 Y-7.886 E0.1027
G1 X-13.739 Y-7.884 E0.0248
G1 X-11.841 Y-5.986 E0.1027
G1 X-12.490 Y-5.984 E0.0248
G1 X-14.388 Y-7.883 E0.1027
G1 X-15.037 Y-7.881 E0.0248
G1 X-13.138 Y-5.983 E0.1027
G1 X-13.787 Y-5.981 E0.0248
G1 X-15.686 Y-7.879 E0.1027
G1 X-16.334 Y-7.878 E0.0248
G1 X-14.436 Y-5.979 E0.1027
G1 X-15.085 Y-5.977 E0.0248
G1 X-16.983 Y-7.876 E0.1027
G1 X-17.632 Y-7.874 E0.0248
G1 X-15.734 Y-5.976 E0.1027
G1 X-16.382 Y-5.974 E0.0248
G1 X-18.281 Y-7.872 E0.1027
G1 X-18.665 Y-7.871 E0.0147
G1 X-18.665 Y-7.605 E0.0102
G1 X-17.031 Y-5.972 E0.0883
G1 X-17.680 Y-5.970 E0.0248
G1 X-18.663 Y-6.953 E0.0532
G1 X-18.661 Y-6.301 E0.0249
G1 X-18.329 Y-5.969 E0.0180
G1 E-1.9000 F1200
; feature inner perimeter
G1 Z0.700 F1200
G1 X-6.499 Y8.253 F9000
G1 Z0.200 F1200
G1 E1.9000 F1200
G1 X-7.017 Y8.254 E0.0198 F1800
G1 X-7.030 Y6.253 E0.0765
G1 X-19.004 Y6.285 E0.4580
G1 X-19.010 Y4.276 E0.0769
G1 X-21.010 Y4.282 E0.0765
G1 X-21.011 Y3.697 E0.0223
G1 X-4.511 Y3.653 E0.6311
G1 X-4.510 Y4.237 E0.0223
G1 X-6.510 Y4.243 E0.0765
G1 X-6.499 Y8.253 E0.1534
G1 X-6.039 Y8.091 F9000
G1 X-3.194 Y8.084 E0.1088 F1800
G1 X-3.192 Y8.704 E0.0237
G1 X-7.475 Y8.715 E0.1638
G1 X-7.487 Y6.715 E0.0765
G1 X-19.463 Y6.747 E0.4581
G1 X-19.468 Y4.737 E0.0769
G1 X-21.468 Y4.743 E0.0765
G1 X-21.472 Y3.239 E0.0575
G1 X-4.052 Y3.192 E0.6663
G1 X-4.048 Y4.696 E0.0575
G1 X-6.048 Y4.701 E0.0765
G1 X-6.039 Y8.091 E0.1296
; feature outer perimeter
G1 X-5.581 Y7.629 F9000
G1 X-2.735 Y7.622 E0.1088 F1200
G1 X-2.731 Y9.162 E0.0589
G1 X-7.932 Y9.176 E0.1989
G1 X-7.944 Y7.176 E0.0765
G1 X-19.922 Y7.208 E0.4581
G1 X-19.927 Y5.199 E0.0769
G1 X-21.927 Y5.204 E0.0765
G1 X-21.934 Y2.780 E0.0927
G1 X-3.594 Y2.731 E0.7015
G1 X-3.587 Y5.155 E0.0927
G1 X-5.587 Y5.160 E0.0765
G1 X-5.581 Y7.629 E0.0944
; feature solid layer
G1 X-7.054 Y4.005 F9000
G1 X-6.855 Y4.204 E0.0108 F2400
G1 X-6.853 Y4.857 E0.0249
G1 X-7.703 Y4.007 E0.0460
G1 X-8.352 Y4.008 E0.0248
G1 X-6.851 Y5.509 E0.0812
G1 X-6.850 Y5.908 E0.0153
G1 X-7.102 Y5.909 E0.0096
G1 X-9.001 Y4.010 E0.1027
G1 X-9.649 Y4.012 E0.0248
G1 X-7.751 Y5.910 E0.1027
G1 X-8.400 Y5.912 E0.0248
G1 X-10.298 Y4.014 E0.1027
G1 X-10.947 Y4.015 E0.0248
G1 X-9.049 Y5.914 E0.1027
G1 X-9.697 Y5.916 E0.0248
G1 X-11.596 Y4.017 E0.1027
G1 X-12.245 Y4.019 E0.0248
G1 X-10.346 Y5.917 E0.1027
G1 X-10.995 Y5.919 E0.0248
G1 X-12.893 Y4.021 E0.1027
G1 X-13.542 Y4.022 E0.0248
G1 X-11.644 Y5.921 E0.1027
G1 X-12.293 Y5.922 E0.0248
G1 X-14.191 Y4.024 E0.1027
G1 X-14.840 Y4.026 E0.0248
G1 X-12.941 Y5.924 E0.1027
G1 X-13.590 Y5.926 E0.0248
G1 X-15.489 Y4.027 E0.1027
G1 X-16.137 Y4.029 E0.0248
G1 X-14.239 Y5.928 E0.1027
G1 X-14.888 Y5.929 E0.0248
G1 X-16.786 Y4.031 E0.1027
G1 X-17.435 Y4.033 E0.0248
G1 X-15.537 Y5.931 E0.1027
G1 X-16.185 Y5.933 E0.0248
G1 X-18.084 Y4.034 E0.1027
G1 X-18.665 Y4.036 E0.0222
G1 X-18.665 Y4.104 E0.0026
G1 X-16.834 Y5.935 E0.0990
G1 X-17.483 Y5.936 E0.0248
G1 X-18.663 Y4.756 E0.0638
G1 X-18.662 Y5.408 E0.0249
G1 X-18.132 Y5.938 E0.0287
G1 E-1.9000 F1200
; feature inner perimeter
G1 Z0.700 F1200
G1 X17.756 Y8.254 F9000
G1 Z0.200 F1200
G1 E1.9000 F1200
G1 X17.743 Y6.253 E0.0765 F1800
G1 X5.769 Y6.285 E0.4580
G1 X5.764 Y4.276 E0.0769
G1 X3.764 Y4.282 E0.0765
G1 X3.762 Y3.697 E0.0223
G1 X20.262 Y3.653 E0.6311
G1 X20.264 Y4.237 E0.0223
G1 X18.264 Y4.243 E0.0765
G1 X18.274 Y8.253 E0.1534
G1 X17.756 Y8.254 E0.0198
G1 X17.299 Y8.715 F9000
G1 X17.286 Y6.715 E0.0765 F1800
G1 X5.310 Y6.747 E0.4581
G1 X5.305 Y4.737 E0.0769
G1 X3.305 Y4.743 E0.0765
G1 X3.301 Y3.239 E0.0575
G1 X20.721 Y3.192 E0.6663
G1 X20.725 Y4.696 E0.0575
G1 X18.725 Y4.701 E0.0765
G1 X18.734 Y8.091 E0.1296
G1 X21.579 Y8.084 E0.1088
G1 X21.581 Y8.704 E0.0237
G1 X17.299 Y8.715 E0.1638
; feature outer perimeter
G1 X16.842 Y9.176 F9000
G1 X16.829 Y7.176 E0.0765 F1200
G1 X4.851 Y7.208 E0.4581
G1 X4.846 Y5.199 E0.0769
G1 X2.846 Y5.204 E0.0765
G1 X2.840 Y2.780 E0.0927
G1 X21.180 Y2.731 E0.7015
G1 X21.186 Y5.155 E0.0927
G1 X19.186 Y5.160 E0.0765
G1 X19.193 Y7.629 E0.0944
G1 X22.038 Y7.622 E0.1088
G1 X22.042 Y9.162 E0.0589
G1 X16.842 Y9.176 E0.1989
; feature solid layer
G1 X17.666 Y4.005 F9000
G1 X17.919 Y4.257 E0.0136 F2400
G1 X17.920 Y4.910 E0.0249
G1 X17.018 Y4.007 E0.0488
G1 X16.369 Y4.009 E0.0248
G1 X17.922 Y5.562 E0.0840
G1 X17.923 Y5.908 E0.0132
G1 X17.618 Y5.909 E0.0117
G1 X15.720 Y4.010 E0.1027
G1 X15.071 Y4.012 E0.0248
G1 X16.970 Y5.910 E0.1027
G1 X16.321 Y5.912 E0.0248
G1 X14.422 Y4.014 E0.1027
G1 X13.774 Y4.015 E0.0248
G1 X15.672 Y5.914 E0.1027
G1 X15.023 Y5.916 E0.0248
G1 X13.125 Y4.017 E0.1027
G1 X12.476 Y4.019 E0.0248
G1 X14.374 Y5.917 E0.1027
G1 X13.726 Y5.919 E0.0248
G1 X11.827 Y4.021 E0.1027
G1 X11.178 Y4.022 E0.0248
G1 X13.077 Y5.921 E0.1027
G1 X12.428 Y5.923 E0.0248
G1 X10.530 Y4.024 E0.1027
G1 X9.881 Y4.026 E0.0248
G1 X11.779 Y5.924 E0.1027
G1 X11.130 Y5.926 E0.0248
G1 X9.232 Y4.028 E0.1027
G1 X8.583 Y4.029 E0.0248
G1 X10.482 Y5.928 E0.1027
G1 X9.833 Y5.930 E0.0248
G1 X7.934 Y4.031 E0.1027
G1 X7.286 Y4.033 E0.0248
G1 X9.184 Y5.931 E0.1027
G1 X8.535 Y5.933 E0.0248
G1 X6.637 Y4.035 E0.1027
G1 X6.108 Y4.036 E0.0202
G1 X6.108 Y4.157 E0.0046
G1 X7.886 Y5.935 E0.0962
G1 X7.238 Y5.936 E0.0248
G1 X6.110 Y4.809 E0.0610
G1 X6.112 Y5.461 E0.0249
G1 X6.589 Y5.938 E0.0258
G1 E-1.9000 F1200
; feature inner perimeter
G1 Z0.700 F1200
G1 X17.756 Y-3.653 F9000
G1 Z0.200 F1200
G1 E1.9000 F1200
G1 X17.743 Y-5.654 E0.0765 F1800
G1 X5.769 Y-5.622 E0.4580
G1 X5.764 Y-7.631 E0.0769
G1 X3.764 Y-7.626 E0.0765
G1 X3.762 Y-8.210 E0.0223
G1 X20.262 Y-8.254 E0.6311
G1 X20.264 Y-7.670 E0.0223
G1 X18.264 Y-7.665 E0.0765
G1 X18.274 Y-3.655 E0.1534
G1 X17.756 Y-3.653 E0.0198
G1 X17.299 Y-3.192 F9000
G1 X17.286 Y-5.193 E0.0765 F1800
G1 X5.310 Y-5.161 E0.4581
G1 X5.305 Y-7.170 E0.0769
G1 X3.305 Y-7.165 E0.0765
G1 X3.301 Y-8.669 E0.0575
G1 X20.721 Y-8.715 E0.6663
G1 X20.725 Y-7.211 E0.0575
G1 X18.725 Y-7.206 E0.0765
G1 X18.734 Y-3.817 E0.1296
G1 X21.579 Y-3.824 E0.1088
G1 X21.581 Y-3.204 E0.0237
G1 X17.299 Y-3.192 E0.1638
; feature outer perimeter
G1 X16.842 Y-2.731 F9000
G1 X16.829 Y-4.731 E0.0765 F1200
G1 X4.851 Y-4.699 E0.4581
G1 X4.846 Y-6.709 E0.0769
G1 X2.846 Y-6.703 E0.0765
G1 X2.840 Y-9.128 E0.0927
G1 X21.180 Y-9.177 E0.7015
G1 X21.186 Y-6.752 E0.0927
G1 X19.186 Y-6.747 E0.0765
G1 X19.193 Y-4.278 E0.0944
G1 X22.038 Y-4.285 E0.1088
G1 X22.042 Y-2.745 E0.0589
G1 X16.842 Y-2.731 E0.1989
; feature solid layer
G1 X17.469 Y-7.902 F9000
G1 X17.919 Y-7.452 E0.0243 F2400
G1 X17.921 Y-6.800 E0.0249
G1 X16.821 Y-7.900 E0.0595
G1 X16.172 Y-7.898 E0.0248
G1 X17.923 Y-6.147 E0.0947
G1 X17.923 Y-5.999 E0.0057
G1 X17.421 Y-5.998 E0.0192
G1 X15.523 Y-7.896 E0.1027
G1 X14.874 Y-7.895 E0.0248
G1 X16.773 Y-5.996 E0.1027
G1 X16.124 Y-5.995 E0.0248
G1 X14.225 Y-7.893 E0.1027
G1 X13.577 Y-7.891 E0.0248
G1 X15.475 Y-5.993 E0.1027
G1 X14.826 Y-5.991 E0.0248
G1 X12.928 Y-7.890 E0.1027
G1 X12.279 Y-7.888 E0.0248
G1 X14.177 Y-5.989 E0.1027
