; G-Code generated by Simplify3D(R) Version 4.1.2
; Apr 6, 2020 at 11:58:23 AM
; Settings Summary
;   processName,Process1
;   applyToModels,Prison sign4,Prison sign4(2)
;   profileName,MakerBot Replicator 2 HBP (modified)
;   profileVersion,2020-03-12 10:48:50
;   baseProfile,MakerBot Replicator 2(2)
;   printMaterial,PLA
;   printQuality,Medium
;   printExtruders,
;   extruderName,Primary Extruder
;   extruderToolheadNumber,0
;   extruderDiameter,0.4
;   extruderAutoWidth,0
;   extruderWidth,0.4
;   extrusionMultiplier,1
;   extruderUseRetract,1
;   extruderRetractionDistance,1.9
;   extruderExtraRestartDistance,0
;   extruderRetractionZLift,0.5
;   extruderRetractionSpeed,1200
;   extruderUseCoasting,0
;   extruderCoastingDistance,0.2
;   extruderUseWipe,0
;   extruderWipeDistance,5
;   primaryExtruder,0
;   layerHeight,0.2
;   topSolidLayers,3
;   bottomSolidLayers,3
;   perimeterOutlines,3
;   printPerimetersInsideOut,1
;   startPointOption,3
;   startPointOriginX,0
;   startPointOriginY,150
;   sequentialIslands,0
;   spiralVaseMode,0
;   firstLayerHeightPercentage,100
;   firstLayerWidthPercentage,115
;   firstLayerUnderspeed,0.5
;   useRaft,0
;   raftExtruder,0
;   raftTopLayers,2
;   raftBaseLayers,1
;   raftOffset,1
;   raftSeparationDistance,0.14
;   raftTopInfill,90
;   aboveRaftSpeedMultiplier,0.3
;   useSkirt,0
;   skirtExtruder,0
;   skirtLayers,1
;   skirtOutlines,5
;   skirtOffset,0
;   usePrimePillar,0
;   primePillarExtruder,999
;   primePillarWidth,12
;   primePillarLocation,7
;   primePillarSpeedMultiplier,1
;   useOozeShield,0
;   oozeShieldExtruder,999
;   oozeShieldOffset,2
;   oozeShieldOutlines,1
;   oozeShieldSidewallShape,1
;   oozeShieldSidewallAngle,30
;   oozeShieldSpeedMultiplier,1
;   infillExtruder,0
;   internalInfillPattern,Rectilinear
;   externalInfillPattern,Rectilinear
;   infillPercentage,15
;   outlineOverlapPercentage,25
;   infillExtrusionWidthPercentage,100
;   minInfillLength,5
;   infillLayerInterval,1
;   internalInfillAngles,45,-45
;   overlapInternalInfillAngles,0
;   externalInfillAngles,45,-45
;   generateSupport,1
;   supportExtruder,0
;   supportInfillPercentage,30
;   supportExtraInflation,0.5
;   supportBaseLayers,0
;   denseSupportExtruder,0
;   denseSupportLayers,2
;   denseSupportInfillPercentage,90
;   supportLayerInterval,1
;   supportHorizontalPartOffset,0.3
;   supportUpperSeparationLayers,1
;   supportLowerSeparationLayers,1
;   supportType,1
;   supportGridSpacing,2
;   maxOverhangAngle,45
;   supportAngles,45,-45
;   temperatureName,Primary Extruder,Heated Build Platform
;   temperatureNumber,0,0
;   temperatureSetpointCount,1,1
;   temperatureSetpointLayers,1,1
;   temperatureSetpointTemperatures,230,60
;   temperatureStabilizeAtStartup,1,1
;   temperatureHeatedBed,0,1
;   fanLayers,1,2
;   fanSpeeds,0,100
;   blipFanToFullPower,1
;   adjustSpeedForCooling,1
;   minSpeedLayerTime,15
;   minCoolingSpeedSlowdown,20
;   increaseFanForCooling,1
;   minFanLayerTime,45
;   maxCoolingFanSpeed,100
;   increaseFanForBridging,1
;   bridgingFanSpeed,100
;   use5D,1
;   relativeEdistances,1
;   allowEaxisZeroing,0
;   independentExtruderAxes,1
;   includeM10123,0
;   stickySupport,1
;   applyToolheadOffsets,0
;   gcodeXoffset,0
;   gcodeYoffset,0
;   gcodeZoffset,0
;   overrideMachineDefinition,1
;   machineTypeOverride,0
;   strokeXoverride,280
;   strokeYoverride,150
;   strokeZoverride,150
;   originOffsetXoverride,140
;   originOffsetYoverride,75
;   originOffsetZoverride,0
;   homeXdirOverride,1
;   homeYdirOverride,1
;   homeZdirOverride,-1
;   flipXoverride,1
;   flipYoverride,-1
;   flipZoverride,1
;   toolheadOffsets,0,0|0,0|0,0|0,0|0,0|0,0
;   overrideFirmwareConfiguration,1
;   firmwareTypeOverride,MakerBot/Sailfish Firmware
;   GPXconfigOverride,r2h
;   baudRateOverride,115200
;   overridePrinterModels,1
;   printerModelsOverride,MakerBot_Replicator2.stl
;   startingGcode,; **** Replicator 2 start.gcode ****,M73 P0 ; enable build progress,G162 X Y F3000 ; home XY maximum,G161 Z F1200 ; home Z minimum,G92 Z-5 ; set Z to -5,G1 Z0 ; move Z to 0,G161 Z F100 ; home Z slowly,M132 X Y Z A B ; recall home offsets,G1 X-145 Y-75 Z30 F9000 ; move to wait position off table,G130 X20 Y20 Z20 A20 B20 ; lower stepper Vrefs while heating,M126 S[fan_speed_pwm],M140 S[bed0_temperature] T0,M134 T0 ; stabilize bed temperature,M104 S[extruder0_temperature] T0,M133 T0 ; stabilize extruder temperature,G130 X127 Y127 Z40 A127 B127 ; default stepper Vrefs,G92 A0 ; zero extruder,G1 Z0.4 ; position nozzle,G1 E25 F300 ; purge nozzle,G1 X-140 Y-70 Z0.15 F1200 ; slow wipe,G1 X-135 Y-65 Z0.5 F1200 ; lift,G92 A0 ; zero extruder,M73 P1 ;@body (notify GPX body has started),; **** end of start.gcode ****
;   layerChangeGcode,
;   retractionGcode,
;   toolChangeGcode,
;   endingGcode,; **** Replicator 2 end.gcode ****,M73 P100 ; end build progress,G1 Z155 F1000 ; send Z axis to bottom of machine,M104 S0 T0 ; cool down extruder,M140 S0 T0 ; cool down HBP,M127 ; stop blower fan,G162 X Y F3000 ; home XY maximum,M18 ; disable stepper,M0 ; stop codes,M72 P1 ; play Ta-Da song,; **** end of end.gcode ****
;   exportFileFormat,gcode
;   celebration,0
;   celebrationSong,Random Song
;   postProcessing,
;   defaultSpeed,4800
;   outlineUnderspeed,0.5
;   solidInfillUnderspeed,1
;   supportUnderspeed,1
;   rapidXYspeed,9000
;   rapidZspeed,1200
;   minBridgingArea,50
;   bridgingExtraInflation,0
;   bridgingExtrusionMultiplier,1
;   bridgingSpeedMultiplier,0.8
;   useFixedBridgingAngle,0
;   fixedBridgingAngle,0
;   applyBridgingToPerimeters,0
;   filamentDiameters,1.75|1.75|1.75|1.75|1.75|1.75
;   filamentPricesPerKg,46|46|46|46|46|46
;   filamentDensities,1.25|1.25|1.25|1.25|1.25|1.25
;   useMinPrintHeight,0
;   minPrintHeight,0
;   useMaxPrintHeight,0
;   maxPrintHeight,4.84
;   useDiaphragm,0
;   diaphragmLayerInterval,20
;   robustSlicing,1
;   mergeAllIntoSolid,0
;   onlyRetractWhenCrossingOutline,0
;   retractBetweenLayers,0
;   useRetractionMinTravel,1
;   retractionMinTravel,7
;   retractWhileWiping,1
;   onlyWipeOutlines,1
;   avoidCrossingOutline,0
;   maxMovementDetourFactor,3
;   toolChangeRetractionDistance,12
;   toolChangeExtraRestartDistance,-0.5
;   toolChangeRetractionSpeed,600
;   externalThinWallType,0
;   internalThinWallType,0
;   thinWallAllowedOverlapPercentage,10
;   singleExtrusionMinLength,1
;   singleExtrusionMinPrintingWidthPercentage,50
;   singleExtrusionMaxPrintingWidthPercentage,200
;   singleExtrusionEndpointExtension,0.2
;   horizontalSizeCompensation,0
G90
M83
; **** Replicator 2 start.gcode ****
M73 P0 ; enable build progress
G162 X Y F3000 ; home XY maximum
G161 Z F1200 ; home Z minimum
G92 Z-5 ; set Z to -5
G1 Z0 ; move Z to 0
G161 Z F100 ; home Z slowly
M132 X Y Z A B ; recall home offsets
G1 X-145 Y-75 Z30 F9000 ; move to wait position off table
G130 X20 Y20 Z20 A20 B20 ; lower stepper Vrefs while heating
M126 S158
M140 S60 T0
M134 T0 ; stabilize bed temperature
M104 S230 T0
M133 T0 ; stabilize extruder temperature
G130 X127 Y127 Z40 A127 B127 ; default stepper Vrefs
G92 A0 ; zero extruder
G1 Z0.4 ; position nozzle
G1 E25 F300 ; purge nozzle
G1 X-140 Y-70 Z0.15 F1200 ; slow wipe
G1 X-135 Y-65 Z0.5 F1200 ; lift
G92 A0 ; zero extruder
M73 P1 ;@body (notify GPX body has started)
; **** end of start.gcode ****
; process Process1
; layer 1, Z = 0.200
M135 T0
G1 E-1.9000 F1200
; feature inner perimeter
; tool H0.200 W0.460
G1 Z0.500 F1200
G1 X3.948 Y8.970 F9000
G1 Z0.200 F1200
G1 E1.9000 F1200
G1 X3.805 Y7.887 E0.0418 F1800
G1 X9.945 Y8.970 E0.2385
G1 X3.948 Y8.970 E0.2294
G1 X3.545 Y9.430 F9000
G1 X3.197 Y6.799 E0.1015 F1800
G1 X3.862 Y2.629 E0.1615
G1 X4.456 Y2.629 E0.0227
G1 X3.632 Y7.389 E0.1848
G1 X15.198 Y9.431 E0.4492
G1 X3.545 Y9.430 E0.4457
G1 E-1.9000 F1200
G1 Z0.700 F1200
G1 X15.660 Y9.431 F9000
G1 Z0.200 F1200
G1 E1.9000 F1200
G1 X16.496 Y4.490 E0.1917 F1800
G1 X16.611 Y4.510 E0.0045
G1 X16.486 Y8.844 E0.1658
G1 X29.293 Y8.844 E0.4898
G1 X29.293 Y9.431 E0.0224
G1 X15.660 Y9.431 E0.5214
; feature outer perimeter
G1 X15.270 Y8.976 F9000
G1 X16.013 Y4.584 E0.1704 F1200
G1 X13.270 Y4.100 E0.1065
G1 X13.351 Y3.468 E0.0244
G1 X17.082 Y4.126 E0.1449
G1 X16.959 Y8.384 E0.1629
G1 X29.753 Y8.384 E0.4893
G1 X29.753 Y9.891 E0.0576
G1 X3.142 Y9.890 E1.0178
G1 X2.732 Y6.793 E0.1195
G1 X3.470 Y2.169 E0.1791
G1 X5.983 Y2.169 E0.0961
G1 X7.574 Y2.450 E0.0618
G1 X7.506 Y3.060 E0.0235
G1 X4.927 Y2.605 E0.1002
G1 X4.163 Y7.016 E0.1712
G1 X15.270 Y8.976 E0.4314
G1 E-1.9000 F1200
; feature solid layer
G1 Z0.700 F1200
G1 X5.237 Y8.490 F9000
G1 Z0.200 F1200
G1 E1.9000 F1200
G1 X5.373 Y8.625 E0.0073 F2400
G1 X4.722 Y8.625 E0.0249
G1 X4.447 Y8.351 E0.0149
G1 E-1.9000 F1200
; feature inner perimeter
G1 Z0.700 F1200
G1 X-22.538 Y8.970 F9000
G1 Z0.200 F1200
G1 E1.9000 F1200
G1 X-28.534 Y8.970 E0.2294 F1800
G1 X-28.678 Y7.887 E0.0418
G1 X-22.538 Y8.970 E0.2385
G1 X-17.284 Y9.431 F9000
G1 X-28.938 Y9.430 E0.4457 F1800
G1 X-29.285 Y6.799 E0.1015
G1 X-28.620 Y2.629 E0.1615
G1 X-28.027 Y2.629 E0.0227
G1 X-28.851 Y7.389 E0.1848
G1 X-17.284 Y9.431 E0.4492
G1 X-16.823 Y9.431 F9000
G1 X-15.987 Y4.490 E0.1917 F1800
G1 X-15.872 Y4.510 E0.0045
G1 X-15.997 Y8.844 E0.1658
G1 X-3.190 Y8.844 E0.4898
G1 X-3.190 Y9.431 E0.0224
G1 X-16.823 Y9.431 E0.5214
; feature outer perimeter
G1 X-17.212 Y8.976 F9000
G1 X-16.469 Y4.584 E0.1704 F1200
G1 X-19.212 Y4.100 E0.1065
G1 X-19.132 Y3.468 E0.0244
G1 X-15.400 Y4.126 E0.1449
G1 X-15.523 Y8.384 E0.1629
G1 X-2.730 Y8.384 E0.4893
G1 X-2.730 Y9.891 E0.0576
G1 X-29.341 Y9.890 E1.0178
G1 X-29.750 Y6.793 E0.1195
G1 X-29.013 Y2.169 E0.1791
G1 X-26.500 Y2.169 E0.0961
G1 X-24.909 Y2.450 E0.0618
G1 X-24.977 Y3.060 E0.0235
G1 X-27.556 Y2.605 E0.1002
G1 X-28.319 Y7.016 E0.1712
G1 X-17.212 Y8.976 E0.4314
G1 E-1.9000 F1200
; feature solid layer
G1 Z0.700 F1200
G1 X-26.509 Y8.620 F9000
G1 Z0.200 F1200
G1 E1.9000 F1200
G1 X-26.504 Y8.625 E0.0003 F2400
G1 X-27.154 Y8.625 E0.0249
G1 X-27.299 Y8.481 E0.0078
G1 X-28.089 Y8.341 E0.0307
G1 X-27.805 Y8.625 E0.0154
G1 E-1.9000 F1200
; feature support
G1 Z0.700 F1200
G1 X-15.721 Y2.792 F9000
G1 Z0.200 F1200
G1 E1.9000 F1200
G1 X-15.119 Y3.394 E0.0326 F2400
G1 X-14.835 Y3.444 E0.0110
G1 X-14.612 Y3.484 E0.0087
G1 X-14.623 Y3.890 E0.0155
G1 X-14.033 Y4.480 E0.0319
G1 X-12.761 Y4.480 E0.0486
G1 X-12.761 Y3.866 E0.0235
G1 X-15.721 Y0.906 E0.1601
G1 X-15.721 Y-0.979 E0.0721
G1 X-12.761 Y1.981 E0.1601
G1 X-12.761 Y0.095 E0.0721
G1 X-15.721 Y-2.865 E0.1601
G1 X-15.721 Y-4.751 E0.0721
G1 X-12.761 Y-1.791 E0.1601
G1 X-12.761 Y-3.676 E0.0721
G1 X-15.721 Y-6.636 E0.1601
G1 X-15.721 Y-8.480 E0.0705
G1 X-15.679 Y-8.480 E0.0016
G1 X-12.761 Y-5.562 E0.1578
G1 X-12.761 Y-7.448 E0.0721
G1 X-13.794 Y-8.480 E0.0558
G1 X-13.721 Y-8.480 E0.0028
G1 X-13.721 Y-10.293 E0.0694
G1 X-10.948 Y-7.520 E0.1500
G1 X-10.761 Y-7.520 E0.0071
G1 X-10.761 Y-9.219 E0.0650
G1 X-12.022 Y-10.480 E0.0682
G1 E-1.9000 F1200
G1 Z0.700 F1200
G1 X16.761 Y3.219 F9000
G1 Z0.200 F1200
G1 E1.9000 F1200
G1 X16.845 Y3.303 E0.0045 F2400
G1 X17.647 Y3.444 E0.0312
G1 X17.871 Y3.484 E0.0087
G1 X17.847 Y4.305 E0.0314
G1 X18.023 Y4.480 E0.0095
G1 X19.721 Y4.480 E0.0650
G1 X19.721 Y4.293 E0.0071
G1 X16.761 Y1.333 E0.1601
G1 X16.761 Y-0.552 E0.0721
G1 X19.721 Y2.408 E0.1601
G1 X19.721 Y0.522 E0.0721
G1 X16.761 Y-2.438 E0.1601
G1 X16.761 Y-4.324 E0.0721
G1 X19.721 Y-1.364 E0.1601
G1 X19.721 Y-3.249 E0.0721
G1 X16.761 Y-6.209 E0.1601
G1 X16.761 Y-8.095 E0.0721
G1 X19.721 Y-5.135 E0.1601
G1 X19.721 Y-7.021 E0.0721
G1 X18.262 Y-8.480 E0.0789
G1 X18.761 Y-8.480 E0.0191
G1 X18.761 Y-9.866 E0.0530
G1 X21.107 Y-7.520 E0.1269
G1 X21.721 Y-7.520 E0.0235
G1 X21.721 Y-8.792 E0.0486
G1 X20.033 Y-10.480 E0.0913
G1 E-1.9000 F1200
; layer 2, Z = 0.400
M126 S255
; feature inner perimeter
; tool H0.200 W0.400
G1 Z0.700 F1200
G1 X16.027 Y9.121 F9000
G1 Z0.400 F1200
G1 E1.9000 F1200
G1 X16.197 Y8.115 E0.0339 F2145
G1 X16.168 Y9.121 E0.0335
G1 X16.027 Y9.121 E0.0047
G1 X11.658 Y9.121 F9000
G1 X3.817 Y9.120 E0.2608 F2145
G1 X3.629 Y7.704 E0.0475
G1 X11.658 Y9.121 E0.2711
G1 X15.573 Y9.405 F9000
G1 X16.422 Y4.386 E0.1693 F2145
G1 X16.703 Y4.435 E0.0095
G1 X16.579 Y8.754 E0.1437
G1 X29.383 Y8.754 E0.4259
G1 X29.383 Y9.521 E0.0255
G1 X3.466 Y9.520 E0.8620
G1 X3.106 Y6.798 E0.0913
G1 X3.786 Y2.539 E0.1434
G1 X4.563 Y2.539 E0.0258
G1 X3.736 Y7.316 E0.1612
G1 X15.573 Y9.405 E0.3998
; feature outer perimeter
G1 X15.246 Y8.941 F9000
G1 X15.979 Y4.608 E0.1462 F1430
G1 X13.237 Y4.125 E0.0926
G1 X13.325 Y3.433 E0.0232
G1 X17.113 Y4.101 E0.1279
G1 X16.990 Y8.354 E0.1415
G1 X29.782 Y8.354 E0.4255
G1 X29.782 Y9.921 E0.0521
G1 X3.115 Y9.920 E0.8870
G1 X2.702 Y6.793 E0.1049
G1 X3.444 Y2.139 E0.1567
G1 X5.985 Y2.139 E0.0845
G1 X7.607 Y2.425 E0.0548
G1 X7.532 Y3.095 E0.0224
G1 X4.951 Y2.640 E0.0872
G1 X4.198 Y6.992 E0.1469
G1 X15.246 Y8.941 E0.3731
G1 E-1.9000 F1200
; feature solid layer
G1 Z0.900 F1200
G1 X8.162 Y8.808 F9000
G1 Z0.400 F1200
G1 E1.9000 F1200
G1 X8.150 Y8.820 E0.0006 F2860
G1 X7.584 Y8.820 E0.0188
G1 X7.682 Y8.723 E0.0046
G1 X7.201 Y8.639 E0.0162
G1 X7.019 Y8.820 E0.0086
G1 X6.453 Y8.820 E0.0188
G1 X6.720 Y8.554 E0.0125
G1 X6.239 Y8.469 E0.0162
G1 X5.887 Y8.820 E0.0165
G1 X5.322 Y8.820 E0.0188
G1 X5.758 Y8.384 E0.0205
G1 X5.277 Y8.299 E0.0162
G1 X4.756 Y8.820 E0.0245
G1 X4.190 Y8.820 E0.0188
G1 X4.797 Y8.214 E0.0285
G1 X4.316 Y8.129 E0.0162
G1 X4.027 Y8.419 E0.0136
G1 E-1.9000 F1200
; feature inner perimeter
G1 Z0.900 F1200
G1 X-16.315 Y9.121 F9000
G1 Z0.400 F1200
G1 E1.9000 F1200
G1 X-16.456 Y9.121 E0.0047 F2145
G1 X-16.286 Y8.115 E0.0339
G1 X-16.315 Y9.121 E0.0335
G1 X-20.825 Y9.121 F9000
G1 X-28.666 Y9.120 E0.2608 F2145
G1 X-28.853 Y7.704 E0.0475
G1 X-20.825 Y9.121 E0.2711
G1 X-16.910 Y9.405 F9000
G1 X-16.060 Y4.386 E0.1693 F2145
G1 X-15.779 Y4.435 E0.0095
G1 X-15.904 Y8.754 E0.1437
G1 X-3.100 Y8.754 E0.4259
G1 X-3.100 Y9.521 E0.0255
G1 X-29.016 Y9.520 E0.8620
G1 X-29.376 Y6.798 E0.0913
G1 X-28.697 Y2.539 E0.1434
G1 X-27.920 Y2.539 E0.0258
G1 X-28.747 Y7.316 E0.1612
G1 X-16.910 Y9.405 E0.3998
; feature outer perimeter
G1 X-17.237 Y8.941 F9000
G1 X-16.504 Y4.608 E0.1462 F1430
G1 X-19.245 Y4.125 E0.0926
G1 X-19.158 Y3.433 E0.0232
G1 X-15.370 Y4.101 E0.1279
G1 X-15.492 Y8.354 E0.1415
G1 X-2.700 Y8.354 E0.4255
G1 X-2.700 Y9.921 E0.0521
G1 X-29.367 Y9.920 E0.8870
G1 X-29.780 Y6.793 E0.1049
G1 X-29.038 Y2.139 E0.1567
G1 X-26.497 Y2.139 E0.0845
G1 X-24.876 Y2.425 E0.0548
G1 X-24.951 Y3.095 E0.0224
G1 X-27.531 Y2.640 E0.0872
G1 X-28.285 Y6.992 E0.1469
G1 X-17.237 Y8.941 E0.3731
G1 E-1.9000 F1200
; feature solid layer
G1 Z0.900 F1200
G1 X-24.598 Y8.759 F9000
G1 Z0.400 F1200
G1 E1.9000 F1200
G1 X-24.660 Y8.820 E0.0029 F2860
G1 X-25.225 Y8.820 E0.0188
G1 X-25.079 Y8.674 E0.0069
G1 X-25.560 Y8.589 E0.0162
G1 X-25.791 Y8.820 E0.0109
G1 X-26.357 Y8.820 E0.0188
G1 X-26.041 Y8.505 E0.0149
G1 X-26.522 Y8.420 E0.0162
G1 X-26.922 Y8.820 E0.0188
G1 X-27.488 Y8.820 E0.0188
G1 X-27.002 Y8.335 E0.0228
G1 X-27.483 Y8.250 E0.0162
G1 X-28.054 Y8.820 E0.0268
G1 X-28.403 Y8.820 E0.0116
G1 X-28.428 Y8.629 E0.0064
G1 X-27.964 Y8.165 E0.0218
G1 X-28.445 Y8.080 E0.0162
G1 X-28.494 Y8.130 E0.0023
G1 E-1.9000 F1200
; feature support
G1 Z0.900 F1200
G1 X-13.938 Y4.510 F9000
G1 Z0.400 F1200
G1 E1.9000 F1200
G1 X-12.731 Y3.303 E0.0568 F2860
G1 X-12.731 Y1.418 E0.0627
G1 X-14.795 Y3.482 E0.0971
G1 X-14.840 Y3.474 E0.0015
G1 X-15.751 Y3.313 E0.0308
G1 X-15.751 Y2.552 E0.0253
G1 X-12.731 Y-0.468 E0.1421
G1 X-12.731 Y-2.354 E0.0627
G1 X-15.751 Y0.666 E0.1421
G1 X-15.751 Y-1.219 E0.0627
G1 X-12.731 Y-4.239 E0.1421
G1 X-12.731 Y-6.125 E0.0627
G1 X-15.751 Y-3.105 E0.1421
G1 X-15.751 Y-4.991 E0.0627
G1 X-10.731 Y-10.011 E0.2361
G1 X-10.731 Y-10.510 E0.0166
G1 X-12.117 Y-10.510 E0.0461
G1 X-13.751 Y-8.876 E0.0769
G1 X-13.751 Y-8.510 E0.0122
G1 X-14.117 Y-8.510 E0.0122
G1 X-15.751 Y-6.876 E0.0769
G1 X-11.366 Y-7.490 F9000
G1 X-10.731 Y-8.125 E0.0299 F2860
G1 E-1.9000 F1200
G1 Z0.900 F1200
G1 X18.117 Y4.510 F9000
G1 Z0.400 F1200
G1 E1.9000 F1200
G1 X19.751 Y2.876 E0.0768 F2860
G1 X19.751 Y0.991 E0.0627
G1 X17.324 Y3.418 E0.1142
