; G-Code generated by Simplify3D(R) Version 4.1.2
; Apr 6, 2020 at 11:59:42 AM
; Settings Summary
;   processName,Process1
;   applyToModels,Prison Door,Prison Door(2)
;   profileName,MakerBot Replicator 2 HBP (modified)
;   profileVersion,2020-03-12 10:48:50
;   baseProfile,MakerBot Replicator 2(2)
;   printMaterial,PLA
;   printQuality,Medium
;   printExtruders,
;   extruderName,Primary Extruder
;   extruderToolheadNumber,0
;   extruderDiameter,0.4
;   extruderAutoWidth,0
;   extruderWidth,0.4
;   extrusionMultiplier,1
;   extruderUseRetract,1
;   extruderRetractionDistance,1.9
;   extruderExtraRestartDistance,0
;   extruderRetractionZLift,0.5
;   extruderRetractionSpeed,1200
;   extruderUseCoasting,0
;   extruderCoastingDistance,0.2
;   extruderUseWipe,0
;   extruderWipeDistance,5
;   primaryExtruder,0
;   layerHeight,0.2
;   topSolidLayers,3
;   bottomSolidLayers,3
;   perimeterOutlines,3
;   printPerimetersInsideOut,1
;   startPointOption,3
;   startPointOriginX,0
;   startPointOriginY,150
;   sequentialIslands,0
;   spiralVaseMode,0
;   firstLayerHeightPercentage,100
;   firstLayerWidthPercentage,115
;   firstLayerUnderspeed,0.5
;   useRaft,0
;   raftExtruder,0
;   raftTopLayers,2
;   raftBaseLayers,1
;   raftOffset,1
;   raftSeparationDistance,0.14
;   raftTopInfill,90
;   aboveRaftSpeedMultiplier,0.3
;   useSkirt,0
;   skirtExtruder,0
;   skirtLayers,1
;   skirtOutlines,5
;   skirtOffset,0
;   usePrimePillar,0
;   primePillarExtruder,999
;   primePillarWidth,12
;   primePillarLocation,7
;   primePillarSpeedMultiplier,1
;   useOozeShield,0
;   oozeShieldExtruder,999
;   oozeShieldOffset,2
;   oozeShieldOutlines,1
;   oozeShieldSidewallShape,1
;   oozeShieldSidewallAngle,30
;   oozeShieldSpeedMultiplier,1
;   infillExtruder,0
;   internalInfillPattern,Rectilinear
;   externalInfillPattern,Rectilinear
;   infillPercentage,15
;   outlineOverlapPercentage,25
;   infillExtrusionWidthPercentage,100
;   minInfillLength,5
;   infillLayerInterval,1
;   internalInfillAngles,45,-45
;   overlapInternalInfillAngles,0
;   externalInfillAngles,45,-45
;   generateSupport,1
;   supportExtruder,0
;   supportInfillPercentage,30
;   supportExtraInflation,0.5
;   supportBaseLayers,0
;   denseSupportExtruder,0
;   denseSupportLayers,2
;   denseSupportInfillPercentage,90
;   supportLayerInterval,1
;   supportHorizontalPartOffset,0.3
;   supportUpperSeparationLayers,1
;   supportLowerSeparationLayers,1
;   supportType,1
;   supportGridSpacing,2
;   maxOverhangAngle,45
;   supportAngles,45,-45
;   temperatureName,Primary Extruder,Heated Build Platform
;   temperatureNumber,0,0
;   temperatureSetpointCount,1,1
;   temperatureSetpointLayers,1,1
;   temperatureSetpointTemperatures,230,60
;   temperatureStabilizeAtStartup,1,1
;   temperatureHeatedBed,0,1
;   fanLayers,1,2
;   fanSpeeds,0,100
;   blipFanToFullPower,1
;   adjustSpeedForCooling,1
;   minSpeedLayerTime,15
;   minCoolingSpeedSlowdown,20
;   increaseFanForCooling,1
;   minFanLayerTime,45
;   maxCoolingFanSpeed,100
;   increaseFanForBridging,1
;   bridgingFanSpeed,100
;   use5D,1
;   relativeEdistances,1
;   allowEaxisZeroing,0
;   independentExtruderAxes,1
;   includeM10123,0
;   stickySupport,1
;   applyToolheadOffsets,0
;   gcodeXoffset,0
;   gcodeYoffset,0
;   gcodeZoffset,0
;   overrideMachineDefinition,1
;   machineTypeOverride,0
;   strokeXoverride,280
;   strokeYoverride,150
;   strokeZoverride,150
;   originOffsetXoverride,140
;   originOffsetYoverride,75
;   originOffsetZoverride,0
;   homeXdirOverride,1
;   homeYdirOverride,1
;   homeZdirOverride,-1
;   flipXoverride,1
;   flipYoverride,-1
;   flipZoverride,1
;   toolheadOffsets,0,0|0,0|0,0|0,0|0,0|0,0
;   overrideFirmwareConfiguration,1
;   firmwareTypeOverride,MakerBot/Sailfish Firmware
;   GPXconfigOverride,r2h
;   baudRateOverride,115200
;   overridePrinterModels,1
;   printerModelsOverride,MakerBot_Replicator2.stl
;   startingGcode,; **** Replicator 2 start.gcode ****,M73 P0 ; enable build progress,G162 X Y F3000 ; home XY maximum,G161 Z F1200 ; home Z minimum,G92 Z-5 ; set Z to -5,G1 Z0 ; move Z to 0,G161 Z F100 ; home Z slowly,M132 X Y Z A B ; recall home offsets,G1 X-145 Y-75 Z30 F9000 ; move to wait position off table,G130 X20 Y20 Z20 A20 B20 ; lower stepper Vrefs while heating,M126 S[fan_speed_pwm],M140 S[bed0_temperature] T0,M134 T0 ; stabilize bed temperature,M104 S[extruder0_temperature] T0,M133 T0 ; stabilize extruder temperature,G130 X127 Y127 Z40 A127 B127 ; default stepper Vrefs,G92 A0 ; zero extruder,G1 Z0.4 ; position nozzle,G1 E25 F300 ; purge nozzle,G1 X-140 Y-70 Z0.15 F1200 ; slow wipe,G1 X-135 Y-65 Z0.5 F1200 ; lift,G92 A0 ; zero extruder,M73 P1 ;@body (notify GPX body has started),; **** end of start.gcode ****
;   layerChangeGcode,
;   retractionGcode,
;   toolChangeGcode,
;   endingGcode,; **** Replicator 2 end.gcode ****,M73 P100 ; end build progress,G1 Z155 F1000 ; send Z axis to bottom of machine,M104 S0 T0 ; cool down extruder,M140 S0 T0 ; cool down HBP,M127 ; stop blower fan,G162 X Y F3000 ; home XY maximum,M18 ; disable stepper,M0 ; stop codes,M72 P1 ; play Ta-Da song,; **** end of end.gcode ****
;   exportFileFormat,gcode
;   celebration,0
;   celebrationSong,Random Song
;   postProcessing,
;   defaultSpeed,4800
;   outlineUnderspeed,0.5
;   solidInfillUnderspeed,1
;   supportUnderspeed,1
;   rapidXYspeed,9000
;   rapidZspeed,1200
;   minBridgingArea,50
;   bridgingExtraInflation,0
;   bridgingExtrusionMultiplier,1
;   bridgingSpeedMultiplier,0.8
;   useFixedBridgingAngle,0
;   fixedBridgingAngle,0
;   applyBridgingToPerimeters,0
;   filamentDiameters,1.75|1.75|1.75|1.75|1.75|1.75
;   filamentPricesPerKg,46|46|46|46|46|46
;   filamentDensities,1.25|1.25|1.25|1.25|1.25|1.25
;   useMinPrintHeight,0
;   minPrintHeight,0
;   useMaxPrintHeight,0
;   maxPrintHeight,4.84
;   useDiaphragm,0
;   diaphragmLayerInterval,20
;   robustSlicing,1
;   mergeAllIntoSolid,0
;   onlyRetractWhenCrossingOutline,0
;   retractBetweenLayers,0
;   useRetractionMinTravel,1
;   retractionMinTravel,7
;   retractWhileWiping,1
;   onlyWipeOutlines,1
;   avoidCrossingOutline,0
;   maxMovementDetourFactor,3
;   toolChangeRetractionDistance,12
;   toolChangeExtraRestartDistance,-0.5
;   toolChangeRetractionSpeed,600
;   externalThinWallType,0
;   internalThinWallType,0
;   thinWallAllowedOverlapPercentage,10
;   singleExtrusionMinLength,1
;   singleExtrusionMinPrintingWidthPercentage,50
;   singleExtrusionMaxPrintingWidthPercentage,200
;   singleExtrusionEndpointExtension,0.2
;   horizontalSizeCompensation,0
G90
M83
; **** Replicator 2 start.gcode ****
M73 P0 ; enable build progress
G162 X Y F3000 ; home XY maximum
G161 Z F1200 ; home Z minimum
G92 Z-5 ; set Z to -5
G1 Z0 ; move Z to 0
G161 Z F100 ; home Z slowly
M132 X Y Z A B ; recall home offsets
G1 X-145 Y-75 Z30 F9000 ; move to wait position off table
G130 X20 Y20 Z20 A20 B20 ; lower stepper Vrefs while heating
M127
M140 S60 T0
M134 T0 ; stabilize bed temperature
M104 S230 T0
M133 T0 ; stabilize extruder temperature
G130 X127 Y127 Z40 A127 B127 ; default stepper Vrefs
G92 A0 ; zero extruder
G1 Z0.4 ; position nozzle
G1 E25 F300 ; purge nozzle
G1 X-140 Y-70 Z0.15 F1200 ; slow wipe
G1 X-135 Y-65 Z0.5 F1200 ; lift
G92 A0 ; zero extruder
M73 P1 ;@body (notify GPX body has started)
; **** end of start.gcode ****
; process Process1
; layer 1, Z = 0.200
M135 T0
G1 E-1.9000 F1200
; feature inner perimeter
; tool H0.200 W0.460
G1 Z0.500 F1200
G1 X1.644 Y-3.650 F9000
G1 Z0.200 F1200
G1 E1.9000 F1200
G1 X0.000 Y-5.293 E0.0889 F1800
G1 X-1.644 Y-3.650 E0.0889
G1 X-8.356 Y-3.650 E0.2568
G1 X-10.000 Y-5.293 E0.0889
G1 X-11.644 Y-3.650 E0.0889
G1 X-18.356 Y-3.650 E0.2568
G1 X-20.000 Y-5.294 E0.0889
G1 X-21.644 Y-3.650 E0.0889
G1 X-28.356 Y-3.650 E0.2568
G1 X-30.000 Y-5.294 E0.0889
G1 X-31.644 Y-3.650 E0.0889
G1 X-36.980 Y-3.650 E0.2041
G1 X-37.350 Y-4.020 E0.0200
G1 X-37.350 Y-11.230 E0.2758
G1 X-36.080 Y-12.500 E0.0687
G1 X-37.350 Y-13.770 E0.0687
G1 X-37.350 Y-21.350 E0.2899
G1 X-13.707 Y-21.350 E0.9043
G1 X-13.707 Y-10.471 E0.4161
G1 X13.707 Y-10.471 E1.0485
G1 X13.707 Y-21.350 E0.4161
G1 X37.350 Y-21.350 E0.9043
G1 X37.350 Y-13.770 E0.2899
G1 X36.080 Y-12.500 E0.0687
G1 X37.350 Y-11.230 E0.0687
G1 X37.350 Y-4.020 E0.2758
G1 X36.980 Y-3.650 E0.0200
G1 X31.644 Y-3.650 E0.2041
G1 X30.000 Y-5.293 E0.0889
G1 X28.356 Y-3.650 E0.0889
G1 X21.644 Y-3.650 E0.2568
G1 X20.000 Y-5.293 E0.0889
G1 X18.356 Y-3.650 E0.0889
G1 X11.644 Y-3.650 E0.2568
G1 X10.000 Y-5.293 E0.0889
G1 X8.356 Y-3.650 E0.0889
G1 X1.644 Y-3.650 E0.2568
G1 X1.453 Y-3.190 F9000
G1 X0.000 Y-4.643 E0.0786 F1800
G1 X-1.453 Y-3.190 E0.0786
G1 X-8.547 Y-3.190 E0.2713
G1 X-10.000 Y-4.643 E0.0786
G1 X-11.453 Y-3.190 E0.0786
G1 X-18.547 Y-3.190 E0.2713
G1 X-20.000 Y-4.643 E0.0786
G1 X-21.453 Y-3.190 E0.0786
G1 X-28.547 Y-3.190 E0.2713
G1 X-30.000 Y-4.643 E0.0786
G1 X-31.453 Y-3.190 E0.0786
G1 X-37.171 Y-3.190 E0.2187
G1 X-37.810 Y-3.829 E0.0346
G1 X-37.810 Y-11.421 E0.2904
G1 X-36.731 Y-12.500 E0.0584
G1 X-37.810 Y-13.579 E0.0584
G1 X-37.810 Y-21.810 E0.3148
G1 X-13.247 Y-21.810 E0.9395
G1 X-13.247 Y-10.931 E0.4161
G1 X13.247 Y-10.931 E1.0134
G1 X13.247 Y-21.810 E0.4161
G1 X37.810 Y-21.810 E0.9395
G1 X37.810 Y-13.579 E0.3148
G1 X36.731 Y-12.500 E0.0584
G1 X37.810 Y-11.421 E0.0584
G1 X37.810 Y-3.829 E0.2904
G1 X37.171 Y-3.190 E0.0346
G1 X31.453 Y-3.190 E0.2187
G1 X30.000 Y-4.643 E0.0786
G1 X28.547 Y-3.190 E0.0786
G1 X21.453 Y-3.190 E0.2713
G1 X20.000 Y-4.643 E0.0786
G1 X18.547 Y-3.190 E0.0786
G1 X11.453 Y-3.190 E0.2713
G1 X10.000 Y-4.643 E0.0786
G1 X8.547 Y-3.190 E0.0786
G1 X1.453 Y-3.190 E0.2713
; feature outer perimeter
G1 X1.262 Y-2.730 F9000
G1 X0.000 Y-3.992 E0.0683 F1200
G1 X-1.262 Y-2.730 E0.0683
G1 X-8.738 Y-2.730 E0.2859
G1 X-10.000 Y-3.992 E0.0683
G1 X-11.262 Y-2.730 E0.0683
G1 X-18.738 Y-2.730 E0.2859
G1 X-20.000 Y-3.992 E0.0683
G1 X-21.262 Y-2.730 E0.0683
G1 X-28.738 Y-2.730 E0.2859
G1 X-30.000 Y-3.992 E0.0683
G1 X-31.262 Y-2.730 E0.0683
G1 X-37.361 Y-2.730 E0.2333
G1 X-38.270 Y-3.639 E0.0492
G1 X-38.270 Y-11.611 E0.3049
G1 X-37.381 Y-12.500 E0.0481
G1 X-38.270 Y-13.389 E0.0481
G1 X-38.270 Y-22.270 E0.3397
G1 X-12.787 Y-22.270 E0.9747
G1 X-12.787 Y-11.391 E0.4161
G1 X12.787 Y-11.391 E0.9782
G1 X12.787 Y-22.270 E0.4161
G1 X38.270 Y-22.270 E0.9747
G1 X38.270 Y-13.389 E0.3397
G1 X37.381 Y-12.500 E0.0481
G1 X38.270 Y-11.611 E0.0481
G1 X38.270 Y-3.639 E0.3049
G1 X37.361 Y-2.730 E0.0492
G1 X31.262 Y-2.730 E0.2333
G1 X30.000 Y-3.992 E0.0683
G1 X28.738 Y-2.730 E0.0683
G1 X21.262 Y-2.730 E0.2859
G1 X20.000 Y-3.992 E0.0683
G1 X18.738 Y-2.730 E0.0683
G1 X11.262 Y-2.730 E0.2859
G1 X10.000 Y-3.992 E0.0683
G1 X8.738 Y-2.730 E0.0683
G1 X1.262 Y-2.730 E0.2859
G1 E-1.9000 F1200
; feature inner perimeter
G1 Z0.700 F1200
G1 X24.794 Y-10.565 F9000
G1 Z0.200 F1200
G1 E1.9000 F1200
G1 X24.941 Y-10.241 E0.0136 F1800
G1 X25.109 Y-9.927 E0.0136
G1 X25.472 Y-9.383 E0.0251
G1 X25.904 Y-8.890 E0.0251
G1 X26.178 Y-8.634 E0.0143
G1 X26.683 Y-8.247 E0.0243
G1 X27.001 Y-8.049 E0.0143
G1 X27.572 Y-7.767 E0.0243
G1 X27.922 Y-7.635 E0.0143
G1 X28.537 Y-7.471 E0.0243
G1 X28.907 Y-7.410 E0.0143
G1 X29.541 Y-7.368 E0.0243
G1 X29.916 Y-7.380 E0.0143
G1 X30.547 Y-7.463 E0.0243
G1 X30.893 Y-7.544 E0.0136
G1 X31.234 Y-7.647 E0.0136
G1 X31.822 Y-7.891 E0.0243
G1 X32.152 Y-8.068 E0.0143
G1 X32.681 Y-8.421 E0.0243
G1 X32.971 Y-8.659 E0.0143
G1 X33.434 Y-9.122 E0.0251
G1 X33.833 Y-9.642 E0.0251
G1 X34.031 Y-9.960 E0.0143
G1 X34.312 Y-10.530 E0.0243
G1 X34.444 Y-10.881 E0.0143
G1 X34.609 Y-11.496 E0.0243
G1 X34.670 Y-11.865 E0.0143
G1 X34.713 Y-12.519 E0.0251
G1 X34.670 Y-13.173 E0.0251
G1 X34.609 Y-13.543 E0.0143
G1 X34.444 Y-14.157 E0.0243
G1 X34.319 Y-14.490 E0.0136
G1 X34.172 Y-14.814 E0.0136
G1 X33.844 Y-15.382 E0.0251
G1 X33.446 Y-15.901 E0.0251
G1 X33.189 Y-16.175 E0.0143
G1 X32.711 Y-16.594 E0.0243
G1 X32.422 Y-16.802 E0.0136
G1 X32.120 Y-16.990 E0.0136
G1 X31.532 Y-17.279 E0.0251
G1 X30.912 Y-17.490 E0.0251
G1 X30.565 Y-17.571 E0.0136
G1 X30.214 Y-17.629 E0.0136
G1 X29.579 Y-17.670 E0.0243
G1 X29.204 Y-17.658 E0.0143
G1 X28.555 Y-17.573 E0.0251
G1 X27.922 Y-17.403 E0.0251
G1 X27.572 Y-17.271 E0.0143
G1 X27.001 Y-16.990 E0.0243
G1 X26.699 Y-16.802 E0.0136
G1 X26.409 Y-16.594 E0.0136
G1 X25.917 Y-16.163 E0.0251
G1 X25.485 Y-15.670 E0.0251
G1 X25.267 Y-15.365 E0.0143
G1 X24.949 Y-14.814 E0.0243
G1 X24.802 Y-14.490 E0.0136
G1 X24.676 Y-14.157 E0.0136
G1 X24.507 Y-13.524 E0.0251
G1 X24.419 Y-12.856 E0.0258
G1 X24.419 Y-12.201 E0.0251
G1 X24.456 Y-11.828 E0.0143
G1 X24.583 Y-11.186 E0.0251
G1 X24.794 Y-10.565 E0.0251
G1 X25.222 Y-10.735 F9000
G1 X25.354 Y-10.445 E0.0122 F1800
G1 X25.504 Y-10.164 E0.0122
G1 X25.838 Y-9.663 E0.0230
G1 X26.235 Y-9.210 E0.0230
G1 X26.476 Y-8.985 E0.0126
G1 X26.945 Y-8.625 E0.0226
G1 X27.225 Y-8.451 E0.0126
G1 X27.755 Y-8.190 E0.0226
G1 X28.063 Y-8.074 E0.0126
G1 X28.634 Y-7.921 E0.0226
G1 X28.959 Y-7.867 E0.0126
G1 X29.549 Y-7.828 E0.0226
G1 X29.878 Y-7.839 E0.0126
G1 X30.464 Y-7.916 E0.0226
G1 X30.774 Y-7.989 E0.0122
G1 X31.079 Y-8.081 E0.0122
G1 X31.625 Y-8.307 E0.0226
G1 X31.915 Y-8.463 E0.0126
G1 X32.407 Y-8.791 E0.0226
G1 X32.662 Y-9.000 E0.0126
G1 X33.087 Y-9.426 E0.0230
G1 X33.454 Y-9.904 E0.0230
G1 X33.628 Y-10.184 E0.0126
G1 X33.890 Y-10.714 E0.0226
G1 X34.006 Y-11.022 E0.0126
G1 X34.159 Y-11.593 E0.0226
G1 X34.212 Y-11.918 E0.0126
G1 X34.252 Y-12.519 E0.0230
G1 X34.212 Y-13.120 E0.0230
G1 X34.159 Y-13.445 E0.0126
G1 X34.006 Y-14.016 E0.0226
G1 X33.894 Y-14.314 E0.0122
G1 X33.762 Y-14.604 E0.0122
G1 X33.461 Y-15.126 E0.0230
G1 X33.094 Y-15.603 E0.0230
G1 X32.869 Y-15.844 E0.0126
G1 X32.425 Y-16.234 E0.0226
G1 X32.166 Y-16.419 E0.0122
G1 X31.896 Y-16.587 E0.0122
G1 X31.356 Y-16.854 E0.0230
G1 X30.785 Y-17.047 E0.0230
G1 X30.475 Y-17.119 E0.0122
G1 X30.161 Y-17.171 E0.0122
G1 X29.572 Y-17.210 E0.0226
G1 X29.242 Y-17.199 E0.0126
G1 X28.645 Y-17.120 E0.0230
G1 X28.063 Y-16.965 E0.0230
G1 X27.755 Y-16.849 E0.0126
G1 X27.225 Y-16.587 E0.0226
G1 X26.954 Y-16.419 E0.0122
G1 X26.696 Y-16.234 E0.0122
G1 X26.243 Y-15.837 E0.0230
G1 X25.846 Y-15.384 E0.0230
G1 X25.654 Y-15.116 E0.0126
G1 X25.358 Y-14.604 E0.0226
G1 X25.227 Y-14.314 E0.0122
G1 X25.115 Y-14.016 E0.0122
G1 X24.959 Y-13.434 E0.0230
G1 X24.879 Y-12.826 E0.0235
G1 X24.879 Y-12.224 E0.0230
G1 X24.911 Y-11.896 E0.0126
G1 X25.029 Y-11.305 E0.0230
G1 X25.222 Y-10.735 E0.0230
; feature outer perimeter
G1 X25.651 Y-10.904 F9000
G1 X25.766 Y-10.648 E0.0107 F1200
G1 X25.899 Y-10.401 E0.0107
G1 X26.204 Y-9.944 E0.0210
G1 X26.566 Y-9.531 E0.0210
G1 X26.774 Y-9.336 E0.0109
G1 X27.207 Y-9.004 E0.0209
G1 X27.448 Y-8.854 E0.0109
G1 X27.938 Y-8.612 E0.0209
G1 X28.204 Y-8.512 E0.0109
G1 X28.731 Y-8.371 E0.0209
G1 X29.012 Y-8.325 E0.0109
G1 X29.556 Y-8.289 E0.0209
G1 X29.841 Y-8.298 E0.0109
G1 X30.382 Y-8.370 E0.0209
G1 X30.655 Y-8.433 E0.0107
G1 X30.924 Y-8.515 E0.0107
G1 X31.428 Y-8.724 E0.0209
G1 X31.679 Y-8.858 E0.0109
G1 X32.132 Y-9.161 E0.0209
G1 X32.352 Y-9.341 E0.0109
G1 X32.741 Y-9.730 E0.0210
G1 X33.075 Y-10.166 E0.0210
G1 X33.226 Y-10.407 E0.0109
G1 X33.467 Y-10.897 E0.0209
G1 X33.567 Y-11.163 E0.0109
G1 X33.708 Y-11.690 E0.0209
G1 X33.755 Y-11.971 E0.0109
G1 X33.791 Y-12.519 E0.0210
G1 X33.755 Y-13.068 E0.0210
G1 X33.708 Y-13.348 E0.0109
G1 X33.567 Y-13.875 E0.0209
G1 X33.468 Y-14.138 E0.0107
G1 X33.353 Y-14.394 E0.0107
G1 X33.078 Y-14.870 E0.0210
G1 X32.743 Y-15.306 E0.0210
G1 X32.549 Y-15.513 E0.0109
G1 X32.138 Y-15.873 E0.0209
G1 X31.910 Y-16.036 E0.0107
G1 X31.672 Y-16.185 E0.0107
G1 X31.179 Y-16.428 E0.0210
G1 X30.659 Y-16.604 E0.0210
G1 X30.385 Y-16.668 E0.0107
G1 X30.109 Y-16.714 E0.0107
G1 X29.564 Y-16.749 E0.0209
G1 X29.280 Y-16.740 E0.0109
G1 X28.735 Y-16.668 E0.0210
G1 X28.204 Y-16.526 E0.0210
G1 X27.938 Y-16.426 E0.0109
G1 X27.448 Y-16.185 E0.0209
G1 X27.210 Y-16.036 E0.0107
G1 X26.982 Y-15.873 E0.0107
G1 X26.569 Y-15.511 E0.0210
G1 X26.206 Y-15.097 E0.0210
G1 X26.041 Y-14.866 E0.0109
G1 X25.768 Y-14.394 E0.0209
G1 X25.652 Y-14.138 E0.0107
G1 X25.553 Y-13.875 E0.0107
G1 X25.411 Y-13.345 E0.0210
G1 X25.339 Y-12.796 E0.0212
