; G-Code generated by Simplify3D(R) Version 4.1.2
; Apr 6, 2020 at 11:55:47 AM
; Settings Summary
;   processName,Process1
;   applyToModels,TankJV,TankJV(2)
;   profileName,MakerBot Replicator 2 HBP (modified)
;   profileVersion,2020-03-12 10:48:50
;   baseProfile,MakerBot Replicator 2(2)
;   printMaterial,PLA
;   printQuality,Medium
;   printExtruders,
;   extruderName,Primary Extruder
;   extruderToolheadNumber,0
;   extruderDiameter,0.4
;   extruderAutoWidth,0
;   extruderWidth,0.4
;   extrusionMultiplier,1
;   extruderUseRetract,1
;   extruderRetractionDistance,1.9
;   extruderExtraRestartDistance,0
;   extruderRetractionZLift,0.5
;   extruderRetractionSpeed,1200
;   extruderUseCoasting,0
;   extruderCoastingDistance,0.2
;   extruderUseWipe,0
;   extruderWipeDistance,5
;   primaryExtruder,0
;   layerHeight,0.2
;   topSolidLayers,3
;   bottomSolidLayers,3
;   perimeterOutlines,3
;   printPerimetersInsideOut,1
;   startPointOption,3
;   startPointOriginX,0
;   startPointOriginY,150
;   sequentialIslands,0
;   spiralVaseMode,0
;   firstLayerHeightPercentage,100
;   firstLayerWidthPercentage,115
;   firstLayerUnderspeed,0.5
;   useRaft,0
;   raftExtruder,0
;   raftTopLayers,2
;   raftBaseLayers,1
;   raftOffset,1
;   raftSeparationDistance,0.14
;   raftTopInfill,90
;   aboveRaftSpeedMultiplier,0.3
;   useSkirt,0
;   skirtExtruder,0
;   skirtLayers,1
;   skirtOutlines,5
;   skirtOffset,0
;   usePrimePillar,0
;   primePillarExtruder,999
;   primePillarWidth,12
;   primePillarLocation,7
;   primePillarSpeedMultiplier,1
;   useOozeShield,0
;   oozeShieldExtruder,999
;   oozeShieldOffset,2
;   oozeShieldOutlines,1
;   oozeShieldSidewallShape,1
;   oozeShieldSidewallAngle,30
;   oozeShieldSpeedMultiplier,1
;   infillExtruder,0
;   internalInfillPattern,Rectilinear
;   externalInfillPattern,Rectilinear
;   infillPercentage,15
;   outlineOverlapPercentage,25
;   infillExtrusionWidthPercentage,100
;   minInfillLength,5
;   infillLayerInterval,1
;   internalInfillAngles,45,-45
;   overlapInternalInfillAngles,0
;   externalInfillAngles,45,-45
;   generateSupport,0
;   supportExtruder,0
;   supportInfillPercentage,5
;   supportExtraInflation,0.5
;   supportBaseLayers,0
;   denseSupportExtruder,0
;   denseSupportLayers,2
;   denseSupportInfillPercentage,90
;   supportLayerInterval,1
;   supportHorizontalPartOffset,0.3
;   supportUpperSeparationLayers,1
;   supportLowerSeparationLayers,1
;   supportType,1
;   supportGridSpacing,2
;   maxOverhangAngle,45
;   supportAngles,45,-45
;   temperatureName,Primary Extruder,Heated Build Platform
;   temperatureNumber,0,0
;   temperatureSetpointCount,1,1
;   temperatureSetpointLayers,1,1
;   temperatureSetpointTemperatures,230,60
;   temperatureStabilizeAtStartup,1,1
;   temperatureHeatedBed,0,1
;   fanLayers,1,2
;   fanSpeeds,0,100
;   blipFanToFullPower,1
;   adjustSpeedForCooling,1
;   minSpeedLayerTime,15
;   minCoolingSpeedSlowdown,20
;   increaseFanForCooling,1
;   minFanLayerTime,45
;   maxCoolingFanSpeed,100
;   increaseFanForBridging,1
;   bridgingFanSpeed,100
;   use5D,1
;   relativeEdistances,1
;   allowEaxisZeroing,0
;   independentExtruderAxes,1
;   includeM10123,0
;   stickySupport,1
;   applyToolheadOffsets,0
;   gcodeXoffset,0
;   gcodeYoffset,0
;   gcodeZoffset,0
;   overrideMachineDefinition,1
;   machineTypeOverride,0
;   strokeXoverride,280
;   strokeYoverride,150
;   strokeZoverride,150
;   originOffsetXoverride,140
;   originOffsetYoverride,75
;   originOffsetZoverride,0
;   homeXdirOverride,1
;   homeYdirOverride,1
;   homeZdirOverride,-1
;   flipXoverride,1
;   flipYoverride,-1
;   flipZoverride,1
;   toolheadOffsets,0,0|0,0|0,0|0,0|0,0|0,0
;   overrideFirmwareConfiguration,1
;   firmwareTypeOverride,MakerBot/Sailfish Firmware
;   GPXconfigOverride,r2h
;   baudRateOverride,115200
;   overridePrinterModels,1
;   printerModelsOverride,MakerBot_Replicator2.stl
;   startingGcode,; **** Replicator 2 start.gcode ****,M73 P0 ; enable build progress,G162 X Y F3000 ; home XY maximum,G161 Z F1200 ; home Z minimum,G92 Z-5 ; set Z to -5,G1 Z0 ; move Z to 0,G161 Z F100 ; home Z slowly,M132 X Y Z A B ; recall home offsets,G1 X-145 Y-75 Z30 F9000 ; move to wait position off table,G130 X20 Y20 Z20 A20 B20 ; lower stepper Vrefs while heating,M126 S[fan_speed_pwm],M140 S[bed0_temperature] T0,M134 T0 ; stabilize bed temperature,M104 S[extruder0_temperature] T0,M133 T0 ; stabilize extruder temperature,G130 X127 Y127 Z40 A127 B127 ; default stepper Vrefs,G92 A0 ; zero extruder,G1 Z0.4 ; position nozzle,G1 E25 F300 ; purge nozzle,G1 X-140 Y-70 Z0.15 F1200 ; slow wipe,G1 X-135 Y-65 Z0.5 F1200 ; lift,G92 A0 ; zero extruder,M73 P1 ;@body (notify GPX body has started),; **** end of start.gcode ****
;   layerChangeGcode,
;   retractionGcode,
;   toolChangeGcode,
;   endingGcode,; **** Replicator 2 end.gcode ****,M73 P100 ; end build progress,G1 Z155 F1000 ; send Z axis to bottom of machine,M104 S0 T0 ; cool down extruder,M140 S0 T0 ; cool down HBP,M127 ; stop blower fan,G162 X Y F3000 ; home XY maximum,M18 ; disable stepper,M0 ; stop codes,M72 P1 ; play Ta-Da song,; **** end of end.gcode ****
;   exportFileFormat,gcode
;   celebration,0
;   celebrationSong,Random Song
;   postProcessing,
;   defaultSpeed,4800
;   outlineUnderspeed,0.5
;   solidInfillUnderspeed,1
;   supportUnderspeed,1
;   rapidXYspeed,9000
;   rapidZspeed,1200
;   minBridgingArea,50
;   bridgingExtraInflation,0
;   bridgingExtrusionMultiplier,1
;   bridgingSpeedMultiplier,0.8
;   useFixedBridgingAngle,0
;   fixedBridgingAngle,0
;   applyBridgingToPerimeters,0
;   filamentDiameters,1.75|1.75|1.75|1.75|1.75|1.75
;   filamentPricesPerKg,46|46|46|46|46|46
;   filamentDensities,1.25|1.25|1.25|1.25|1.25|1.25
;   useMinPrintHeight,0
;   minPrintHeight,0
;   useMaxPrintHeight,0
;   maxPrintHeight,4.84
;   useDiaphragm,0
;   diaphragmLayerInterval,20
;   robustSlicing,1
;   mergeAllIntoSolid,0
;   onlyRetractWhenCrossingOutline,0
;   retractBetweenLayers,0
;   useRetractionMinTravel,1
;   retractionMinTravel,7
;   retractWhileWiping,1
;   onlyWipeOutlines,1
;   avoidCrossingOutline,0
;   maxMovementDetourFactor,3
;   toolChangeRetractionDistance,12
;   toolChangeExtraRestartDistance,-0.5
;   toolChangeRetractionSpeed,600
;   externalThinWallType,0
;   internalThinWallType,0
;   thinWallAllowedOverlapPercentage,10
;   singleExtrusionMinLength,1
;   singleExtrusionMinPrintingWidthPercentage,50
;   singleExtrusionMaxPrintingWidthPercentage,200
;   singleExtrusionEndpointExtension,0.2
;   horizontalSizeCompensation,0
G90
M83
; **** Replicator 2 start.gcode ****
M73 P0 ; enable build progress
G162 X Y F3000 ; home XY maximum
G161 Z F1200 ; home Z minimum
G92 Z-5 ; set Z to -5
G1 Z0 ; move Z to 0
G161 Z F100 ; home Z slowly
M132 X Y Z A B ; recall home offsets
G1 X-145 Y-75 Z30 F9000 ; move to wait position off table
G130 X20 Y20 Z20 A20 B20 ; lower stepper Vrefs while heating
M127
M140 S60 T0
M134 T0 ; stabilize bed temperature
M104 S230 T0
M133 T0 ; stabilize extruder temperature
G130 X127 Y127 Z40 A127 B127 ; default stepper Vrefs
G92 A0 ; zero extruder
G1 Z0.4 ; position nozzle
G1 E25 F300 ; purge nozzle
G1 X-140 Y-70 Z0.15 F1200 ; slow wipe
G1 X-135 Y-65 Z0.5 F1200 ; lift
G92 A0 ; zero extruder
M73 P1 ;@body (notify GPX body has started)
; **** end of start.gcode ****
; process Process1
; layer 1, Z = 0.200
M135 T0
G1 E-1.9000 F1200
; feature inner perimeter
; tool H0.200 W0.460
G1 Z0.500 F1200
G1 X6.642 Y7.881 F9000
G1 Z0.200 F1200
G1 E1.9000 F1200
G1 X6.615 Y7.792 E0.0036 F1800
G1 X5.953 Y6.554 E0.0537
G1 X5.063 Y5.469 E0.0537
G1 X3.978 Y4.579 E0.0537
G1 X2.740 Y3.917 E0.0537
G1 X1.858 Y3.650 E0.0352
G1 X20.068 Y3.650 E0.6965
G1 X18.892 Y4.007 E0.0470
G1 X17.481 Y4.761 E0.0612
G1 X16.245 Y5.776 E0.0612
G1 X15.230 Y7.012 E0.0612
G1 X14.766 Y7.881 E0.0377
G1 X6.642 Y7.881 E0.3108
G1 X6.642 Y13.183 F9000
G1 X14.025 Y13.183 E0.2824 F1800
G1 X14.476 Y14.669 E0.0594
G1 X15.230 Y16.079 E0.0612
G1 X16.245 Y17.316 E0.0612
G1 X17.481 Y18.331 E0.0612
G1 X18.892 Y19.085 E0.0612
G1 X19.806 Y19.362 E0.0365
G1 X-53.887 Y19.362 E2.8187
G1 X-53.887 Y3.650 E0.6010
G1 X-45.888 Y3.650 E0.3060
G1 X-46.770 Y3.917 E0.0352
G1 X-48.007 Y4.579 E0.0537
G1 X-49.092 Y5.469 E0.0537
G1 X-49.983 Y6.554 E0.0537
G1 X-50.646 Y7.795 E0.0538
G1 X-51.055 Y9.172 E0.0549
G1 X-51.189 Y10.532 E0.0523
G1 X-51.052 Y11.929 E0.0537
G1 X-50.644 Y13.272 E0.0537
G1 X-49.983 Y14.510 E0.0537
G1 X-49.092 Y15.595 E0.0537
G1 X-48.007 Y16.485 E0.0537
G1 X-46.770 Y17.147 E0.0537
G1 X-45.426 Y17.554 E0.0537
G1 X-44.030 Y17.692 E0.0537
G1 X-42.633 Y17.554 E0.0537
G1 X-41.290 Y17.147 E0.0537
G1 X-40.052 Y16.485 E0.0537
G1 X-38.967 Y15.595 E0.0537
G1 X-38.077 Y14.510 E0.0537
G1 X-37.415 Y13.272 E0.0537
G1 X-37.388 Y13.183 E0.0036
G1 X-6.642 Y13.183 E1.1760
G1 X-6.615 Y13.272 E0.0036
G1 X-5.953 Y14.510 E0.0537
G1 X-5.063 Y15.595 E0.0537
G1 X-3.978 Y16.485 E0.0537
G1 X-2.740 Y17.147 E0.0537
G1 X-1.397 Y17.554 E0.0537
G1 X0.000 Y17.692 E0.0537
G1 X1.397 Y17.554 E0.0537
G1 X2.740 Y17.147 E0.0537
G1 X3.978 Y16.485 E0.0537
G1 X5.063 Y15.595 E0.0537
G1 X5.953 Y14.510 E0.0537
G1 X6.615 Y13.272 E0.0537
G1 X6.642 Y13.183 E0.0036
G1 E-1.9000 F1200
G1 Z0.700 F1200
G1 X-1.859 Y3.650 F9000
G1 Z0.200 F1200
G1 E1.9000 F1200
G1 X-2.740 Y3.917 E0.0352 F1800
G1 X-3.978 Y4.579 E0.0537
G1 X-5.063 Y5.469 E0.0537
G1 X-5.953 Y6.554 E0.0537
G1 X-6.615 Y7.792 E0.0537
G1 X-6.642 Y7.881 E0.0036
G1 X-37.388 Y7.881 E1.1760
G1 X-37.415 Y7.792 E0.0036
G1 X-38.077 Y6.554 E0.0537
G1 X-38.967 Y5.469 E0.0537
G1 X-40.052 Y4.579 E0.0537
G1 X-41.290 Y3.917 E0.0537
G1 X-42.171 Y3.650 E0.0352
G1 X-1.859 Y3.650 E1.5419
G1 E-1.9000 F1200
G1 Z0.700 F1200
G1 X23.962 Y3.650 F9000
G1 Z0.200 F1200
G1 E1.9000 F1200
G1 X42.171 Y3.650 E0.6965 F1800
G1 X41.290 Y3.917 E0.0352
G1 X40.052 Y4.579 E0.0537
G1 X38.967 Y5.469 E0.0537
G1 X38.077 Y6.554 E0.0537
G1 X37.415 Y7.792 E0.0537
G1 X37.388 Y7.881 E0.0036
G1 X29.264 Y7.881 E0.3107
G1 X28.800 Y7.012 E0.0377
G1 X27.785 Y5.776 E0.0612
G1 X26.548 Y4.761 E0.0612
G1 X25.138 Y4.007 E0.0612
G1 X23.962 Y3.650 E0.0470
G1 E-1.9000 F1200
G1 Z0.700 F1200
G1 X30.005 Y13.183 F9000
G1 Z0.200 F1200
G1 E1.9000 F1200
G1 X37.388 Y13.183 E0.2824 F1800
G1 X37.415 Y13.272 E0.0036
G1 X38.077 Y14.510 E0.0537
G1 X38.967 Y15.595 E0.0537
G1 X40.052 Y16.485 E0.0537
G1 X41.290 Y17.147 E0.0537
G1 X42.633 Y17.554 E0.0537
G1 X44.030 Y17.692 E0.0537
G1 X45.426 Y17.554 E0.0537
G1 X46.770 Y17.147 E0.0537
G1 X48.007 Y16.485 E0.0537
G1 X49.092 Y15.595 E0.0537
G1 X49.983 Y14.510 E0.0537
G1 X50.644 Y13.272 E0.0537
G1 X51.052 Y11.929 E0.0537
G1 X51.189 Y10.532 E0.0537
G1 X51.052 Y9.135 E0.0537
G1 X50.644 Y7.792 E0.0537
G1 X49.983 Y6.554 E0.0537
G1 X49.092 Y5.469 E0.0537
G1 X48.007 Y4.579 E0.0537
G1 X46.770 Y3.917 E0.0537
G1 X45.888 Y3.650 E0.0352
G1 X53.887 Y3.650 E0.3060
G1 X53.887 Y19.362 E0.6010
G1 X24.224 Y19.362 E1.1346
G1 X25.138 Y19.085 E0.0365
G1 X26.548 Y18.331 E0.0612
G1 X27.785 Y17.316 E0.0612
G1 X28.800 Y16.079 E0.0612
G1 X29.554 Y14.669 E0.0612
G1 X30.005 Y13.183 E0.0594
G1 E-1.9000 F1200
G1 Z0.700 F1200
G1 X54.347 Y19.822 F9000
G1 Z0.200 F1200
G1 E1.9000 F1200
G1 X-54.347 Y19.822 E4.1575 F1800
G1 X-54.347 Y3.190 E0.6362
G1 X54.347 Y3.190 E4.1575
G1 X54.347 Y19.822 E0.6362
; feature outer perimeter
G1 X54.807 Y20.282 F9000
G1 X-54.807 Y20.282 E4.1926 F1200
G1 X-54.807 Y2.730 E0.6714
G1 X54.807 Y2.730 E4.1926
G1 X54.807 Y20.282 E0.6714
G1 E-1.9000 F1200
; feature inner perimeter
G1 Z0.700 F1200
G1 X48.765 Y15.268 F9000
G1 Z0.200 F1200
G1 E1.9000 F1200
G1 X49.598 Y14.253 E0.0502 F1800
G1 X50.217 Y13.095 E0.0502
G1 X50.598 Y11.839 E0.0502
G1 X50.727 Y10.532 E0.0502
G1 X50.598 Y9.225 E0.0502
G1 X50.217 Y7.969 E0.0502
G1 X49.598 Y6.811 E0.0502
G1 X48.765 Y5.796 E0.0502
G1 X47.751 Y4.963 E0.0502
G1 X46.593 Y4.344 E0.0502
G1 X45.336 Y3.963 E0.0502
G1 X44.030 Y3.835 E0.0502
G1 X42.723 Y3.963 E0.0502
G1 X41.467 Y4.344 E0.0502
G1 X40.309 Y4.963 E0.0502
G1 X39.294 Y5.796 E0.0502
G1 X38.461 Y6.811 E0.0502
G1 X37.842 Y7.969 E0.0502
G1 X37.729 Y8.341 E0.0149
G1 X28.989 Y8.341 E0.3343
G1 X28.416 Y7.269 E0.0465
G1 X27.458 Y6.102 E0.0577
G1 X26.292 Y5.145 E0.0577
G1 X24.961 Y4.434 E0.0577
G1 X23.517 Y3.996 E0.0577
G1 X22.015 Y3.848 E0.0577
G1 X20.513 Y3.996 E0.0577
G1 X19.069 Y4.434 E0.0577
G1 X17.738 Y5.145 E0.0577
G1 X16.571 Y6.102 E0.0577
G1 X15.614 Y7.269 E0.0577
G1 X15.042 Y8.341 E0.0465
G1 X6.300 Y8.341 E0.3344
G1 X6.188 Y7.969 E0.0149
G1 X5.569 Y6.811 E0.0502
G1 X4.736 Y5.796 E0.0502
G1 X3.721 Y4.963 E0.0502
G1 X2.563 Y4.344 E0.0502
G1 X1.307 Y3.963 E0.0502
G1 X0.000 Y3.835 E0.0502
G1 X-1.307 Y3.963 E0.0502
G1 X-2.563 Y4.344 E0.0502
G1 X-3.721 Y4.963 E0.0502
G1 X-4.736 Y5.796 E0.0502
G1 X-5.569 Y6.811 E0.0502
G1 X-6.188 Y7.969 E0.0502
G1 X-6.300 Y8.341 E0.0149
G1 X-37.729 Y8.341 E1.2021
G1 X-37.842 Y7.969 E0.0149
G1 X-38.461 Y6.811 E0.0502
G1 X-39.294 Y5.796 E0.0502
G1 X-40.309 Y4.963 E0.0502
G1 X-41.467 Y4.344 E0.0502
G1 X-42.723 Y3.963 E0.0502
G1 X-44.030 Y3.835 E0.0502
G1 X-45.336 Y3.963 E0.0502
G1 X-46.593 Y4.344 E0.0502
G1 X-47.751 Y4.963 E0.0502
G1 X-48.765 Y5.796 E0.0502
G1 X-49.598 Y6.811 E0.0502
G1 X-50.218 Y7.971 E0.0503
G1 X-50.602 Y9.261 E0.0515
G1 X-50.727 Y10.532 E0.0489
G1 X-50.598 Y11.839 E0.0502
G1 X-50.217 Y13.095 E0.0502
G1 X-49.598 Y14.253 E0.0502
G1 X-48.765 Y15.268 E0.0502
G1 X-47.751 Y16.101 E0.0502
G1 X-46.593 Y16.720 E0.0502
G1 X-45.336 Y17.101 E0.0502
G1 X-44.030 Y17.229 E0.0502
G1 X-42.723 Y17.101 E0.0502
G1 X-41.467 Y16.720 E0.0502
G1 X-40.309 Y16.101 E0.0502
G1 X-39.294 Y15.268 E0.0502
G1 X-38.461 Y14.253 E0.0502
G1 X-37.842 Y13.095 E0.0502
G1 X-37.729 Y12.723 E0.0149
G1 X-6.300 Y12.723 E1.2021
G1 X-6.188 Y13.095 E0.0149
G1 X-5.569 Y14.253 E0.0502
G1 X-4.736 Y15.268 E0.0502
G1 X-3.721 Y16.101 E0.0502
G1 X-2.563 Y16.720 E0.0502
G1 X-1.307 Y17.101 E0.0502
G1 X0.000 Y17.229 E0.0502
G1 X1.307 Y17.101 E0.0502
G1 X2.563 Y16.720 E0.0502
G1 X3.721 Y16.101 E0.0502
G1 X4.736 Y15.268 E0.0502
G1 X5.569 Y14.253 E0.0502
G1 X6.188 Y13.095 E0.0502
G1 X6.300 Y12.723 E0.0149
G1 X14.433 Y12.723 E0.3111
G1 X14.465 Y13.048 E0.0125
G1 X14.903 Y14.492 E0.0577
G1 X15.614 Y15.823 E0.0577
G1 X16.571 Y16.989 E0.0577
G1 X17.738 Y17.946 E0.0577
G1 X19.069 Y18.658 E0.0577
G1 X20.513 Y19.096 E0.0577
G1 X22.015 Y19.244 E0.0577
G1 X23.517 Y19.096 E0.0577
G1 X24.961 Y18.658 E0.0577
G1 X26.292 Y17.946 E0.0577
G1 X27.458 Y16.989 E0.0577
G1 X28.416 Y15.823 E0.0577
G1 X29.127 Y14.492 E0.0577
G1 X29.565 Y13.048 E0.0577
G1 X29.597 Y12.723 E0.0125
G1 X37.729 Y12.723 E0.3111
G1 X37.842 Y13.095 E0.0149
G1 X38.461 Y14.253 E0.0502
G1 X39.294 Y15.268 E0.0502
G1 X40.309 Y16.101 E0.0502
G1 X41.467 Y16.720 E0.0502
G1 X42.723 Y17.101 E0.0502
G1 X44.030 Y17.229 E0.0502
G1 X45.336 Y17.101 E0.0502
G1 X46.593 Y16.720 E0.0502
G1 X47.751 Y16.101 E0.0502
G1 X48.765 Y15.268 E0.0502
; feature outer perimeter
G1 X48.439 Y14.941 F9000
G1 X49.214 Y13.996 E0.0468 F1200
G1 X49.790 Y12.918 E0.0468
G1 X50.145 Y11.748 E0.0468
G1 X50.265 Y10.532 E0.0468
G1 X50.145 Y9.316 E0.0468
G1 X49.790 Y8.146 E0.0468
G1 X49.214 Y7.068 E0.0468
G1 X48.439 Y6.123 E0.0468
G1 X47.494 Y5.348 E0.0468
G1 X46.416 Y4.771 E0.0468
G1 X45.246 Y4.417 E0.0468
G1 X44.030 Y4.297 E0.0468
G1 X42.813 Y4.417 E0.0468
G1 X41.644 Y4.771 E0.0468
G1 X40.566 Y5.348 E0.0468
G1 X39.621 Y6.123 E0.0468
G1 X38.845 Y7.068 E0.0468
G1 X38.269 Y8.146 E0.0468
G1 X38.070 Y8.801 E0.0262
G1 X28.707 Y8.801 E0.3581
G1 X28.700 Y8.777 E0.0010
G1 X28.031 Y7.526 E0.0543
G1 X27.131 Y6.429 E0.0543
G1 X26.035 Y5.529 E0.0543
G1 X24.784 Y4.861 E0.0543
G1 X23.426 Y4.449 E0.0543
G1 X22.015 Y4.310 E0.0543
G1 X20.603 Y4.449 E0.0543
G1 X19.246 Y4.861 E0.0543
G1 X17.995 Y5.529 E0.0543
G1 X16.898 Y6.429 E0.0543
G1 X15.998 Y7.526 E0.0543
G1 X15.328 Y8.782 E0.0544
G1 X15.322 Y8.801 E0.0008
G1 X5.959 Y8.801 E0.3581
G1 X5.761 Y8.146 E0.0262
G1 X5.184 Y7.068 E0.0468
G1 X4.409 Y6.123 E0.0468
G1 X3.464 Y5.348 E0.0468
G1 X2.386 Y4.771 E0.0468
G1 X1.216 Y4.417 E0.0468
G1 X0.000 Y4.297 E0.0468
G1 X-1.216 Y4.417 E0.0468
G1 X-2.386 Y4.771 E0.0468
G1 X-3.464 Y5.348 E0.0468
G1 X-4.409 Y6.123 E0.0468
G1 X-5.184 Y7.068 E0.0468
