; G-Code generated by Simplify3D(R) Version 4.1.2
; Apr 6, 2020 at 12:01:28 PM
; Settings Summary
;   processName,Process1
;   applyToModels,Tower floor,Tower floor(2)
;   profileName,MakerBot Replicator 2 HBP (modified)
;   profileVersion,2020-03-12 10:48:50
;   baseProfile,MakerBot Replicator 2(2)
;   printMaterial,PLA
;   printQuality,Medium
;   printExtruders,
;   extruderName,Primary Extruder
;   extruderToolheadNumber,0
;   extruderDiameter,0.4
;   extruderAutoWidth,0
;   extruderWidth,0.4
;   extrusionMultiplier,1
;   extruderUseRetract,1
;   extruderRetractionDistance,1.9
;   extruderExtraRestartDistance,0
;   extruderRetractionZLift,0.5
;   extruderRetractionSpeed,1200
;   extruderUseCoasting,0
;   extruderCoastingDistance,0.2
;   extruderUseWipe,0
;   extruderWipeDistance,5
;   primaryExtruder,0
;   layerHeight,0.2
;   topSolidLayers,3
;   bottomSolidLayers,3
;   perimeterOutlines,3
;   printPerimetersInsideOut,1
;   startPointOption,3
;   startPointOriginX,0
;   startPointOriginY,150
;   sequentialIslands,0
;   spiralVaseMode,0
;   firstLayerHeightPercentage,100
;   firstLayerWidthPercentage,115
;   firstLayerUnderspeed,0.5
;   useRaft,0
;   raftExtruder,0
;   raftTopLayers,2
;   raftBaseLayers,1
;   raftOffset,1
;   raftSeparationDistance,0.14
;   raftTopInfill,90
;   aboveRaftSpeedMultiplier,0.3
;   useSkirt,0
;   skirtExtruder,0
;   skirtLayers,1
;   skirtOutlines,5
;   skirtOffset,0
;   usePrimePillar,0
;   primePillarExtruder,999
;   primePillarWidth,12
;   primePillarLocation,7
;   primePillarSpeedMultiplier,1
;   useOozeShield,0
;   oozeShieldExtruder,999
;   oozeShieldOffset,2
;   oozeShieldOutlines,1
;   oozeShieldSidewallShape,1
;   oozeShieldSidewallAngle,30
;   oozeShieldSpeedMultiplier,1
;   infillExtruder,0
;   internalInfillPattern,Rectilinear
;   externalInfillPattern,Rectilinear
;   infillPercentage,15
;   outlineOverlapPercentage,25
;   infillExtrusionWidthPercentage,100
;   minInfillLength,5
;   infillLayerInterval,1
;   internalInfillAngles,45,-45
;   overlapInternalInfillAngles,0
;   externalInfillAngles,45,-45
;   generateSupport,1
;   supportExtruder,0
;   supportInfillPercentage,30
;   supportExtraInflation,0.5
;   supportBaseLayers,0
;   denseSupportExtruder,0
;   denseSupportLayers,2
;   denseSupportInfillPercentage,90
;   supportLayerInterval,1
;   supportHorizontalPartOffset,0.3
;   supportUpperSeparationLayers,1
;   supportLowerSeparationLayers,1
;   supportType,1
;   supportGridSpacing,2
;   maxOverhangAngle,45
;   supportAngles,45,-45
;   temperatureName,Primary Extruder,Heated Build Platform
;   temperatureNumber,0,0
;   temperatureSetpointCount,1,1
;   temperatureSetpointLayers,1,1
;   temperatureSetpointTemperatures,230,60
;   temperatureStabilizeAtStartup,1,1
;   temperatureHeatedBed,0,1
;   fanLayers,1,2
;   fanSpeeds,0,100
;   blipFanToFullPower,1
;   adjustSpeedForCooling,1
;   minSpeedLayerTime,15
;   minCoolingSpeedSlowdown,20
;   increaseFanForCooling,1
;   minFanLayerTime,45
;   maxCoolingFanSpeed,100
;   increaseFanForBridging,1
;   bridgingFanSpeed,100
;   use5D,1
;   relativeEdistances,1
;   allowEaxisZeroing,0
;   independentExtruderAxes,1
;   includeM10123,0
;   stickySupport,1
;   applyToolheadOffsets,0
;   gcodeXoffset,0
;   gcodeYoffset,0
;   gcodeZoffset,0
;   overrideMachineDefinition,1
;   machineTypeOverride,0
;   strokeXoverride,280
;   strokeYoverride,150
;   strokeZoverride,150
;   originOffsetXoverride,140
;   originOffsetYoverride,75
;   originOffsetZoverride,0
;   homeXdirOverride,1
;   homeYdirOverride,1
;   homeZdirOverride,-1
;   flipXoverride,1
;   flipYoverride,-1
;   flipZoverride,1
;   toolheadOffsets,0,0|0,0|0,0|0,0|0,0|0,0
;   overrideFirmwareConfiguration,1
;   firmwareTypeOverride,MakerBot/Sailfish Firmware
;   GPXconfigOverride,r2h
;   baudRateOverride,115200
;   overridePrinterModels,1
;   printerModelsOverride,MakerBot_Replicator2.stl
;   startingGcode,; **** Replicator 2 start.gcode ****,M73 P0 ; enable build progress,G162 X Y F3000 ; home XY maximum,G161 Z F1200 ; home Z minimum,G92 Z-5 ; set Z to -5,G1 Z0 ; move Z to 0,G161 Z F100 ; home Z slowly,M132 X Y Z A B ; recall home offsets,G1 X-145 Y-75 Z30 F9000 ; move to wait position off table,G130 X20 Y20 Z20 A20 B20 ; lower stepper Vrefs while heating,M126 S[fan_speed_pwm],M140 S[bed0_temperature] T0,M134 T0 ; stabilize bed temperature,M104 S[extruder0_temperature] T0,M133 T0 ; stabilize extruder temperature,G130 X127 Y127 Z40 A127 B127 ; default stepper Vrefs,G92 A0 ; zero extruder,G1 Z0.4 ; position nozzle,G1 E25 F300 ; purge nozzle,G1 X-140 Y-70 Z0.15 F1200 ; slow wipe,G1 X-135 Y-65 Z0.5 F1200 ; lift,G92 A0 ; zero extruder,M73 P1 ;@body (notify GPX body has started),; **** end of start.gcode ****
;   layerChangeGcode,
;   retractionGcode,
;   toolChangeGcode,
;   endingGcode,; **** Replicator 2 end.gcode ****,M73 P100 ; end build progress,G1 Z155 F1000 ; send Z axis to bottom of machine,M104 S0 T0 ; cool down extruder,M140 S0 T0 ; cool down HBP,M127 ; stop blower fan,G162 X Y F3000 ; home XY maximum,M18 ; disable stepper,M0 ; stop codes,M72 P1 ; play Ta-Da song,; **** end of end.gcode ****
;   exportFileFormat,gcode
;   celebration,0
;   celebrationSong,Random Song
;   postProcessing,
;   defaultSpeed,4800
;   outlineUnderspeed,0.5
;   solidInfillUnderspeed,1
;   supportUnderspeed,1
;   rapidXYspeed,9000
;   rapidZspeed,1200
;   minBridgingArea,50
;   bridgingExtraInflation,0
;   bridgingExtrusionMultiplier,1
;   bridgingSpeedMultiplier,0.8
;   useFixedBridgingAngle,0
;   fixedBridgingAngle,0
;   applyBridgingToPerimeters,0
;   filamentDiameters,1.75|1.75|1.75|1.75|1.75|1.75
;   filamentPricesPerKg,46|46|46|46|46|46
;   filamentDensities,1.25|1.25|1.25|1.25|1.25|1.25
;   useMinPrintHeight,0
;   minPrintHeight,0
;   useMaxPrintHeight,0
;   maxPrintHeight,4.84
;   useDiaphragm,0
;   diaphragmLayerInterval,20
;   robustSlicing,1
;   mergeAllIntoSolid,0
;   onlyRetractWhenCrossingOutline,0
;   retractBetweenLayers,0
;   useRetractionMinTravel,1
;   retractionMinTravel,7
;   retractWhileWiping,1
;   onlyWipeOutlines,1
;   avoidCrossingOutline,0
;   maxMovementDetourFactor,3
;   toolChangeRetractionDistance,12
;   toolChangeExtraRestartDistance,-0.5
;   toolChangeRetractionSpeed,600
;   externalThinWallType,0
;   internalThinWallType,0
;   thinWallAllowedOverlapPercentage,10
;   singleExtrusionMinLength,1
;   singleExtrusionMinPrintingWidthPercentage,50
;   singleExtrusionMaxPrintingWidthPercentage,200
;   singleExtrusionEndpointExtension,0.2
;   horizontalSizeCompensation,0
G90
M83
; **** Replicator 2 start.gcode ****
M73 P0 ; enable build progress
G162 X Y F3000 ; home XY maximum
G161 Z F1200 ; home Z minimum
G92 Z-5 ; set Z to -5
G1 Z0 ; move Z to 0
G161 Z F100 ; home Z slowly
M132 X Y Z A B ; recall home offsets
G1 X-145 Y-75 Z30 F9000 ; move to wait position off table
G130 X20 Y20 Z20 A20 B20 ; lower stepper Vrefs while heating
M127
M140 S60 T0
M134 T0 ; stabilize bed temperature
M104 S230 T0
M133 T0 ; stabilize extruder temperature
G130 X127 Y127 Z40 A127 B127 ; default stepper Vrefs
G92 A0 ; zero extruder
G1 Z0.4 ; position nozzle
G1 E25 F300 ; purge nozzle
G1 X-140 Y-70 Z0.15 F1200 ; slow wipe
G1 X-135 Y-65 Z0.5 F1200 ; lift
G92 A0 ; zero extruder
M73 P1 ;@body (notify GPX body has started)
; **** end of start.gcode ****
; process Process1
; layer 1, Z = 0.200
M135 T0
G1 E-1.9000 F1200
; feature inner perimeter
; tool H0.200 W0.460
G1 Z0.500 F1200
G1 X-28.378 Y29.134 F9000
G1 Z0.200 F1200
G1 E1.9000 F1200
G1 X-28.378 Y-8.502 E1.4395 F1800
G1 X-14.502 Y-8.502 E0.5307
G1 X-14.502 Y13.118 E0.8269
G1 X-12.636 Y14.960 E0.1003
G1 X33.452 Y14.960 E1.7628
G1 X35.318 Y13.118 E0.1003
G1 X35.318 Y-8.502 E0.8269
G1 X49.193 Y-8.502 E0.5307
G1 X49.193 Y29.134 E1.4395
G1 X-28.378 Y29.134 E2.9670
G1 X-28.837 Y29.594 F9000
G1 X-28.837 Y-8.962 E1.4747 F1800
G1 X-14.042 Y-8.962 E0.5659
G1 X-14.042 Y12.926 E0.8372
G1 X-12.447 Y14.500 E0.0857
G1 X33.263 Y14.500 E1.7484
G1 X34.858 Y12.926 E0.0857
G1 X34.858 Y-8.962 E0.8372
G1 X49.653 Y-8.962 E0.5659
G1 X49.653 Y29.594 E1.4747
G1 X-28.837 Y29.594 E3.0022
; feature outer perimeter
G1 X-29.297 Y30.054 F9000
G1 X-29.297 Y-9.422 E1.5099 F1200
G1 X-13.582 Y-9.422 E0.6011
G1 X-13.582 Y12.733 E0.8474
G1 X-12.258 Y14.040 E0.0711
G1 X33.074 Y14.040 E1.7339
G1 X34.398 Y12.733 E0.0711
G1 X34.398 Y-9.422 E0.8474
G1 X50.113 Y-9.422 E0.6011
G1 X50.113 Y30.054 E1.5099
G1 X-29.297 Y30.054 E3.0374
; feature solid layer
G1 X-27.746 Y28.789 F9000
G1 X-28.032 Y28.503 E0.0155 F2400
G1 X-28.032 Y27.852 E0.0249
G1 X-27.096 Y28.789 E0.0507
G1 X-26.445 Y28.789 E0.0249
G1 X-28.032 Y27.202 E0.0858
G1 X-28.032 Y26.551 E0.0249
G1 X-25.795 Y28.789 E0.1210
G1 X-25.144 Y28.789 E0.0249
G1 X-28.032 Y25.901 E0.1562
G1 X-28.032 Y25.250 E0.0249
G1 X-24.494 Y28.789 E0.1914
G1 X-23.843 Y28.789 E0.0249
G1 X-28.032 Y24.599 E0.2266
G1 X-28.032 Y23.949 E0.0249
G1 X-23.193 Y28.789 E0.2618
G1 X-22.542 Y28.789 E0.0249
G1 X-28.032 Y23.298 E0.2970
G1 X-28.032 Y22.648 E0.0249
G1 X-21.892 Y28.789 E0.3322
G1 X-21.241 Y28.789 E0.0249
G1 X-28.032 Y21.997 E0.3674
G1 X-28.032 Y21.347 E0.0249
G1 X-20.591 Y28.789 E0.4026
G1 X-19.940 Y28.789 E0.0249
G1 X-28.032 Y20.696 E0.4377
G1 X-28.032 Y20.046 E0.0249
G1 X-19.289 Y28.789 E0.4729
G1 X-18.639 Y28.789 E0.0249
G1 X-28.032 Y19.395 E0.5081
G1 X-28.032 Y18.745 E0.0249
G1 X-17.988 Y28.789 E0.5433
G1 X-17.338 Y28.789 E0.0249
G1 X-28.032 Y18.094 E0.5785
G1 X-28.032 Y17.444 E0.0249
G1 X-16.687 Y28.789 E0.6137
G1 X-16.037 Y28.789 E0.0249
G1 X-28.032 Y16.793 E0.6489
G1 X-28.032 Y16.142 E0.0249
G1 X-15.386 Y28.789 E0.6841
G1 X-14.736 Y28.789 E0.0249
G1 X-28.032 Y15.492 E0.7193
G1 X-28.032 Y14.841 E0.0249
G1 X-14.085 Y28.789 E0.7544
G1 X-13.435 Y28.789 E0.0249
G1 X-28.032 Y14.191 E0.7896
G1 X-28.032 Y13.540 E0.0249
G1 X-12.784 Y28.789 E0.8248
G1 X-12.134 Y28.789 E0.0249
G1 X-28.032 Y12.890 E0.8600
G1 X-28.032 Y12.239 E0.0249
G1 X-11.483 Y28.789 E0.8952
G1 X-10.832 Y28.789 E0.0249
G1 X-28.032 Y11.589 E0.9304
G1 X-28.032 Y10.938 E0.0249
G1 X-10.182 Y28.789 E0.9656
G1 X-9.531 Y28.789 E0.0249
G1 X-28.032 Y10.288 E1.0008
G1 X-28.032 Y9.637 E0.0249
G1 X-8.881 Y28.789 E1.0360
G1 X-8.230 Y28.789 E0.0249
G1 X-28.032 Y8.987 E1.0711
G1 X-28.032 Y8.336 E0.0249
G1 X-7.580 Y28.789 E1.1063
G1 X-6.929 Y28.789 E0.0249
G1 X-28.032 Y7.685 E1.1415
G1 X-28.032 Y7.035 E0.0249
G1 X-6.279 Y28.789 E1.1767
G1 X-5.628 Y28.789 E0.0249
G1 X-28.032 Y6.384 E1.2119
G1 X-28.032 Y5.734 E0.0249
G1 X-4.978 Y28.789 E1.2471
G1 X-4.327 Y28.789 E0.0249
G1 X-28.032 Y5.083 E1.2823
G1 X-28.032 Y4.433 E0.0249
G1 X-3.677 Y28.789 E1.3175
G1 X-3.026 Y28.789 E0.0249
G1 X-28.032 Y3.782 E1.3527
G1 X-28.032 Y3.132 E0.0249
G1 X-2.375 Y28.789 E1.3879
G1 X-1.725 Y28.789 E0.0249
G1 X-28.032 Y2.481 E1.4230
G1 X-28.032 Y1.831 E0.0249
G1 X-1.074 Y28.789 E1.4582
G1 X-0.424 Y28.789 E0.0249
G1 X-28.032 Y1.180 E1.4934
G1 E-1.9000 F1200
G1 Z0.700 F1200
G1 X-14.847 Y-7.753 F9000
G1 Z0.200 F1200
G1 E1.9000 F1200
G1 X-15.251 Y-8.157 E0.0218 F2400
G1 X-15.901 Y-8.157 E0.0249
G1 X-14.847 Y-7.102 E0.0570
G1 X-14.847 Y-6.452 E0.0249
G1 X-16.552 Y-8.157 E0.0922
G1 X-17.203 Y-8.157 E0.0249
G1 X-14.847 Y-5.801 E0.1274
G1 X-14.847 Y-5.151 E0.0249
G1 X-17.853 Y-8.157 E0.1626
G1 X-18.504 Y-8.157 E0.0249
G1 X-14.847 Y-4.500 E0.1978
G1 X-14.847 Y-3.850 E0.0249
G1 X-19.154 Y-8.157 E0.2330
G1 X-19.805 Y-8.157 E0.0249
G1 X-14.847 Y-3.199 E0.2682
G1 X-14.847 Y-2.548 E0.0249
G1 X-20.455 Y-8.157 E0.3034
G1 X-21.106 Y-8.157 E0.0249
G1 X-14.847 Y-1.898 E0.3385
G1 X-14.847 Y-1.247 E0.0249
G1 X-21.756 Y-8.157 E0.3737
G1 X-22.407 Y-8.157 E0.0249
G1 X-14.847 Y-0.597 E0.4089
G1 X-14.847 Y0.054 E0.0249
G1 X-23.057 Y-8.157 E0.4441
G1 X-23.708 Y-8.157 E0.0249
G1 X-14.847 Y0.704 E0.4793
G1 X-14.847 Y1.355 E0.0249
G1 X-24.358 Y-8.157 E0.5145
G1 X-25.009 Y-8.157 E0.0249
G1 X-14.847 Y2.005 E0.5497
G1 X-14.847 Y2.656 E0.0249
G1 X-25.660 Y-8.157 E0.5849
G1 X-26.310 Y-8.157 E0.0249
G1 X-14.847 Y3.306 E0.6201
G1 X-14.847 Y3.957 E0.0249
G1 X-26.961 Y-8.157 E0.6553
G1 X-27.611 Y-8.157 E0.0249
G1 X-14.847 Y4.607 E0.6904
G1 X-14.847 Y5.258 E0.0249
G1 X-28.032 Y-7.927 E0.7132
G1 X-28.032 Y-7.277 E0.0249
G1 X-14.847 Y5.909 E0.7132
G1 X-14.847 Y6.559 E0.0249
G1 X-28.032 Y-6.626 E0.7132
G1 X-28.032 Y-5.976 E0.0249
G1 X-14.847 Y7.210 E0.7132
G1 X-14.847 Y7.860 E0.0249
G1 X-28.032 Y-5.325 E0.7132
G1 X-28.032 Y-4.675 E0.0249
G1 X-14.847 Y8.511 E0.7132
G1 X-14.847 Y9.161 E0.0249
G1 X-28.032 Y-4.024 E0.7132
G1 X-28.032 Y-3.374 E0.0249
G1 X-14.847 Y9.812 E0.7132
G1 X-14.847 Y10.462 E0.0249
G1 X-28.032 Y-2.723 E0.7132
G1 X-28.032 Y-2.073 E0.0249
G1 X-14.847 Y11.113 E0.7132
G1 X-14.847 Y11.763 E0.0249
G1 X-28.032 Y-1.422 E0.7132
G1 X-28.032 Y-0.772 E0.0249
G1 X-14.847 Y12.414 E0.7132
G1 X-14.847 Y13.064 E0.0249
G1 X-28.032 Y-0.121 E0.7132
G1 X-28.032 Y0.530 E0.0249
G1 X0.227 Y28.789 E1.5286
G1 X0.877 Y28.789 E0.0249
G1 X-12.606 Y15.305 E0.7293
G1 X-11.956 Y15.305 E0.0249
G1 X1.528 Y28.789 E0.7293
G1 X2.178 Y28.789 E0.0249
G1 X-11.305 Y15.305 E0.7293
G1 X-10.655 Y15.305 E0.0249
G1 X2.829 Y28.789 E0.7293
G1 X3.479 Y28.789 E0.0249
G1 X-10.004 Y15.305 E0.7293
G1 X-9.353 Y15.305 E0.0249
G1 X4.130 Y28.789 E0.7293
G1 X4.780 Y28.789 E0.0249
G1 X-8.703 Y15.305 E0.7293
G1 X-8.052 Y15.305 E0.0249
G1 X5.431 Y28.789 E0.7293
G1 X6.081 Y28.789 E0.0249
G1 X-7.402 Y15.305 E0.7293
G1 X-6.751 Y15.305 E0.0249
G1 X6.732 Y28.789 E0.7293
G1 X7.383 Y28.789 E0.0249
G1 X-6.101 Y15.305 E0.7293
G1 X-5.450 Y15.305 E0.0249
G1 X8.033 Y28.789 E0.7293
G1 X8.684 Y28.789 E0.0249
G1 X-4.800 Y15.305 E0.7293
G1 X-4.149 Y15.305 E0.0249
G1 X9.334 Y28.789 E0.7293
G1 X9.985 Y28.789 E0.0249
G1 X-3.499 Y15.305 E0.7293
G1 X-2.848 Y15.305 E0.0249
G1 X10.635 Y28.789 E0.7293
G1 X11.286 Y28.789 E0.0249
G1 X-2.198 Y15.305 E0.7293
G1 X-1.547 Y15.305 E0.0249
G1 X11.936 Y28.789 E0.7293
G1 X12.587 Y28.789 E0.0249
G1 X-0.896 Y15.305 E0.7293
G1 X-0.246 Y15.305 E0.0249
G1 X13.237 Y28.789 E0.7293
G1 X13.888 Y28.789 E0.0249
G1 X0.405 Y15.305 E0.7293
G1 X1.055 Y15.305 E0.0249
G1 X14.538 Y28.789 E0.7293
G1 X15.189 Y28.789 E0.0249
G1 X1.706 Y15.305 E0.7293
G1 X2.356 Y15.305 E0.0249
G1 X15.840 Y28.789 E0.7293
G1 X16.490 Y28.789 E0.0249
G1 X3.007 Y15.305 E0.7293
G1 X3.657 Y15.305 E0.0249
G1 X17.141 Y28.789 E0.7293
G1 X17.791 Y28.789 E0.0249
G1 X4.308 Y15.305 E0.7293
G1 X4.958 Y15.305 E0.0249
G1 X18.442 Y28.789 E0.7293
G1 X19.092 Y28.789 E0.0249
G1 X5.609 Y15.305 E0.7293
G1 X6.259 Y15.305 E0.0249
G1 X19.743 Y28.789 E0.7293
G1 X20.393 Y28.789 E0.0249
G1 X6.910 Y15.305 E0.7293
G1 X7.561 Y15.305 E0.0249
G1 X21.044 Y28.789 E0.7293
G1 X21.694 Y28.789 E0.0249
G1 X8.211 Y15.305 E0.7293
G1 X8.862 Y15.305 E0.0249
G1 X22.345 Y28.789 E0.7293
G1 X22.995 Y28.789 E0.0249
G1 X9.512 Y15.305 E0.7293
G1 X10.163 Y15.305 E0.0249
G1 X23.646 Y28.789 E0.7293
G1 X24.297 Y28.789 E0.0249
G1 X10.813 Y15.305 E0.7293
G1 X11.464 Y15.305 E0.0249
G1 X24.947 Y28.789 E0.7293
G1 X25.598 Y28.789 E0.0249
G1 X12.114 Y15.305 E0.7293
G1 X12.765 Y15.305 E0.0249
G1 X26.248 Y28.789 E0.7293
G1 X26.899 Y28.789 E0.0249
G1 X13.415 Y15.305 E0.7293
G1 X14.066 Y15.305 E0.0249
G1 X27.549 Y28.789 E0.7293
G1 X28.200 Y28.789 E0.0249
G1 X14.716 Y15.305 E0.7293
G1 X15.367 Y15.305 E0.0249
G1 X28.850 Y28.789 E0.7293
G1 X29.501 Y28.789 E0.0249
G1 X16.018 Y15.305 E0.7293
G1 X16.668 Y15.305 E0.0249
G1 X30.151 Y28.789 E0.7293
G1 X30.802 Y28.789 E0.0249
G1 X17.319 Y15.305 E0.7293
G1 X17.969 Y15.305 E0.0249
G1 X31.452 Y28.789 E0.7293
G1 X32.103 Y28.789 E0.0249
G1 X18.620 Y15.305 E0.7293
G1 X19.270 Y15.305 E0.0249
G1 X32.754 Y28.789 E0.7293
G1 X33.404 Y28.789 E0.0249
G1 X19.921 Y15.305 E0.7293
G1 X20.571 Y15.305 E0.0249
G1 X34.055 Y28.789 E0.7293
G1 X34.705 Y28.789 E0.0249
G1 X21.222 Y15.305 E0.7293
G1 X21.872 Y15.305 E0.0249
G1 X35.356 Y28.789 E0.7293
G1 X36.006 Y28.789 E0.0249
G1 X22.523 Y15.305 E0.7293
G1 X23.173 Y15.305 E0.0249
G1 X36.657 Y28.789 E0.7293
G1 X37.307 Y28.789 E0.0249
G1 X23.824 Y15.305 E0.7293
G1 X24.475 Y15.305 E0.0249
G1 X37.958 Y28.789 E0.7293
G1 X38.608 Y28.789 E0.0249
G1 X25.125 Y15.305 E0.7293
G1 X25.776 Y15.305 E0.0249
G1 X39.259 Y28.789 E0.7293
