; G-Code generated by Simplify3D(R) Version 4.1.2
; Apr 6, 2020 at 12:05:33 PM
; Settings Summary
;   processName,Process1
;   applyToModels,Tower roof,Tower roof(2)
;   profileName,MakerBot Replicator 2 HBP (modified)
;   profileVersion,2020-03-12 10:48:50
;   baseProfile,MakerBot Replicator 2(2)
;   printMaterial,PLA
;   printQuality,Medium
;   printExtruders,
;   extruderName,Primary Extruder
;   extruderToolheadNumber,0
;   extruderDiameter,0.4
;   extruderAutoWidth,0
;   extruderWidth,0.4
;   extrusionMultiplier,1
;   extruderUseRetract,1
;   extruderRetractionDistance,1.9
;   extruderExtraRestartDistance,0
;   extruderRetractionZLift,0.5
;   extruderRetractionSpeed,1200
;   extruderUseCoasting,0
;   extruderCoastingDistance,0.2
;   extruderUseWipe,0
;   extruderWipeDistance,5
;   primaryExtruder,0
;   layerHeight,0.2
;   topSolidLayers,3
;   bottomSolidLayers,3
;   perimeterOutlines,3
;   printPerimetersInsideOut,1
;   startPointOption,3
;   startPointOriginX,0
;   startPointOriginY,150
;   sequentialIslands,0
;   spiralVaseMode,0
;   firstLayerHeightPercentage,100
;   firstLayerWidthPercentage,115
;   firstLayerUnderspeed,0.5
;   useRaft,0
;   raftExtruder,0
;   raftTopLayers,2
;   raftBaseLayers,1
;   raftOffset,1
;   raftSeparationDistance,0.14
;   raftTopInfill,90
;   aboveRaftSpeedMultiplier,0.3
;   useSkirt,0
;   skirtExtruder,0
;   skirtLayers,1
;   skirtOutlines,5
;   skirtOffset,0
;   usePrimePillar,0
;   primePillarExtruder,999
;   primePillarWidth,12
;   primePillarLocation,7
;   primePillarSpeedMultiplier,1
;   useOozeShield,0
;   oozeShieldExtruder,999
;   oozeShieldOffset,2
;   oozeShieldOutlines,1
;   oozeShieldSidewallShape,1
;   oozeShieldSidewallAngle,30
;   oozeShieldSpeedMultiplier,1
;   infillExtruder,0
;   internalInfillPattern,Rectilinear
;   externalInfillPattern,Rectilinear
;   infillPercentage,15
;   outlineOverlapPercentage,25
;   infillExtrusionWidthPercentage,100
;   minInfillLength,5
;   infillLayerInterval,1
;   internalInfillAngles,45,-45
;   overlapInternalInfillAngles,0
;   externalInfillAngles,45,-45
;   generateSupport,1
;   supportExtruder,0
;   supportInfillPercentage,15
;   supportExtraInflation,0.5
;   supportBaseLayers,0
;   denseSupportExtruder,0
;   denseSupportLayers,2
;   denseSupportInfillPercentage,90
;   supportLayerInterval,1
;   supportHorizontalPartOffset,0.3
;   supportUpperSeparationLayers,1
;   supportLowerSeparationLayers,1
;   supportType,1
;   supportGridSpacing,2
;   maxOverhangAngle,45
;   supportAngles,45,-45
;   temperatureName,Primary Extruder,Heated Build Platform
;   temperatureNumber,0,0
;   temperatureSetpointCount,1,1
;   temperatureSetpointLayers,1,1
;   temperatureSetpointTemperatures,230,60
;   temperatureStabilizeAtStartup,1,1
;   temperatureHeatedBed,0,1
;   fanLayers,1,2
;   fanSpeeds,0,100
;   blipFanToFullPower,1
;   adjustSpeedForCooling,1
;   minSpeedLayerTime,15
;   minCoolingSpeedSlowdown,20
;   increaseFanForCooling,1
;   minFanLayerTime,45
;   maxCoolingFanSpeed,100
;   increaseFanForBridging,1
;   bridgingFanSpeed,100
;   use5D,1
;   relativeEdistances,1
;   allowEaxisZeroing,0
;   independentExtruderAxes,1
;   includeM10123,0
;   stickySupport,1
;   applyToolheadOffsets,0
;   gcodeXoffset,0
;   gcodeYoffset,0
;   gcodeZoffset,0
;   overrideMachineDefinition,1
;   machineTypeOverride,0
;   strokeXoverride,280
;   strokeYoverride,150
;   strokeZoverride,150
;   originOffsetXoverride,140
;   originOffsetYoverride,75
;   originOffsetZoverride,0
;   homeXdirOverride,1
;   homeYdirOverride,1
;   homeZdirOverride,-1
;   flipXoverride,1
;   flipYoverride,-1
;   flipZoverride,1
;   toolheadOffsets,0,0|0,0|0,0|0,0|0,0|0,0
;   overrideFirmwareConfiguration,1
;   firmwareTypeOverride,MakerBot/Sailfish Firmware
;   GPXconfigOverride,r2h
;   baudRateOverride,115200
;   overridePrinterModels,1
;   printerModelsOverride,MakerBot_Replicator2.stl
;   startingGcode,; **** Replicator 2 start.gcode ****,M73 P0 ; enable build progress,G162 X Y F3000 ; home XY maximum,G161 Z F1200 ; home Z minimum,G92 Z-5 ; set Z to -5,G1 Z0 ; move Z to 0,G161 Z F100 ; home Z slowly,M132 X Y Z A B ; recall home offsets,G1 X-145 Y-75 Z30 F9000 ; move to wait position off table,G130 X20 Y20 Z20 A20 B20 ; lower stepper Vrefs while heating,M126 S[fan_speed_pwm],M140 S[bed0_temperature] T0,M134 T0 ; stabilize bed temperature,M104 S[extruder0_temperature] T0,M133 T0 ; stabilize extruder temperature,G130 X127 Y127 Z40 A127 B127 ; default stepper Vrefs,G92 A0 ; zero extruder,G1 Z0.4 ; position nozzle,G1 E25 F300 ; purge nozzle,G1 X-140 Y-70 Z0.15 F1200 ; slow wipe,G1 X-135 Y-65 Z0.5 F1200 ; lift,G92 A0 ; zero extruder,M73 P1 ;@body (notify GPX body has started),; **** end of start.gcode ****
;   layerChangeGcode,
;   retractionGcode,
;   toolChangeGcode,
;   endingGcode,; **** Replicator 2 end.gcode ****,M73 P100 ; end build progress,G1 Z155 F1000 ; send Z axis to bottom of machine,M104 S0 T0 ; cool down extruder,M140 S0 T0 ; cool down HBP,M127 ; stop blower fan,G162 X Y F3000 ; home XY maximum,M18 ; disable stepper,M0 ; stop codes,M72 P1 ; play Ta-Da song,; **** end of end.gcode ****
;   exportFileFormat,gcode
;   celebration,0
;   celebrationSong,Random Song
;   postProcessing,
;   defaultSpeed,4800
;   outlineUnderspeed,0.5
;   solidInfillUnderspeed,1
;   supportUnderspeed,1
;   rapidXYspeed,9000
;   rapidZspeed,1200
;   minBridgingArea,50
;   bridgingExtraInflation,0
;   bridgingExtrusionMultiplier,1
;   bridgingSpeedMultiplier,0.8
;   useFixedBridgingAngle,0
;   fixedBridgingAngle,0
;   applyBridgingToPerimeters,0
;   filamentDiameters,1.75|1.75|1.75|1.75|1.75|1.75
;   filamentPricesPerKg,46|46|46|46|46|46
;   filamentDensities,1.25|1.25|1.25|1.25|1.25|1.25
;   useMinPrintHeight,0
;   minPrintHeight,0
;   useMaxPrintHeight,0
;   maxPrintHeight,4.84
;   useDiaphragm,0
;   diaphragmLayerInterval,20
;   robustSlicing,1
;   mergeAllIntoSolid,0
;   onlyRetractWhenCrossingOutline,0
;   retractBetweenLayers,0
;   useRetractionMinTravel,1
;   retractionMinTravel,7
;   retractWhileWiping,1
;   onlyWipeOutlines,1
;   avoidCrossingOutline,0
;   maxMovementDetourFactor,3
;   toolChangeRetractionDistance,12
;   toolChangeExtraRestartDistance,-0.5
;   toolChangeRetractionSpeed,600
;   externalThinWallType,0
;   internalThinWallType,0
;   thinWallAllowedOverlapPercentage,10
;   singleExtrusionMinLength,1
;   singleExtrusionMinPrintingWidthPercentage,50
;   singleExtrusionMaxPrintingWidthPercentage,200
;   singleExtrusionEndpointExtension,0.2
;   horizontalSizeCompensation,0
G90
M83
; **** Replicator 2 start.gcode ****
M73 P0 ; enable build progress
G162 X Y F3000 ; home XY maximum
G161 Z F1200 ; home Z minimum
G92 Z-5 ; set Z to -5
G1 Z0 ; move Z to 0
G161 Z F100 ; home Z slowly
M132 X Y Z A B ; recall home offsets
G1 X-145 Y-75 Z30 F9000 ; move to wait position off table
G130 X20 Y20 Z20 A20 B20 ; lower stepper Vrefs while heating
M127
M140 S60 T0
M134 T0 ; stabilize bed temperature
M104 S230 T0
M133 T0 ; stabilize extruder temperature
G130 X127 Y127 Z40 A127 B127 ; default stepper Vrefs
G92 A0 ; zero extruder
G1 Z0.4 ; position nozzle
G1 E25 F300 ; purge nozzle
G1 X-140 Y-70 Z0.15 F1200 ; slow wipe
G1 X-135 Y-65 Z0.5 F1200 ; lift
G92 A0 ; zero extruder
M73 P1 ;@body (notify GPX body has started)
; **** end of start.gcode ****
; process Process1
; layer 1, Z = 0.200
M135 T0
G1 E-1.9000 F1200
; feature inner perimeter
; tool H0.200 W0.460
G1 Z0.500 F1200
G1 X-24.866 Y-3.650 F9000
G1 Z0.200 F1200
G1 E1.9000 F1200
G1 X-39.394 Y-3.650 E0.5557 F1800
G1 X-39.394 Y-41.894 E1.4628
G1 X39.394 Y-41.894 E3.0136
G1 X39.394 Y-3.650 E1.4628
G1 X24.866 Y-3.650 E0.5557
G1 X24.866 Y-25.506 E0.8360
G1 X23.006 Y-27.366 E0.1006
G1 X-23.006 Y-27.366 E1.7599
G1 X-24.866 Y-25.506 E0.1006
G1 X-24.866 Y-3.650 E0.8360
G1 X-24.406 Y-3.190 F9000
G1 X-39.854 Y-3.190 E0.5909 F1800
G1 X-39.854 Y-42.354 E1.4980
G1 X39.854 Y-42.354 E3.0487
G1 X39.854 Y-3.190 E1.4980
G1 X24.406 Y-3.190 E0.5909
G1 X24.406 Y-25.316 E0.8463
G1 X22.816 Y-26.906 E0.0860
G1 X-22.816 Y-26.906 E1.7454
G1 X-24.406 Y-25.316 E0.0860
G1 X-24.406 Y-3.190 E0.8463
; feature outer perimeter
G1 X-23.946 Y-2.730 F9000
G1 X-40.314 Y-2.730 E0.6261 F1200
G1 X-40.314 Y-42.814 E1.5332
G1 X40.314 Y-42.814 E3.0839
G1 X40.314 Y-2.730 E1.5332
G1 X23.946 Y-2.730 E0.6261
G1 X23.946 Y-25.125 E0.8566
G1 X22.625 Y-26.446 E0.0714
G1 X-22.625 Y-26.446 E1.7308
G1 X-23.946 Y-25.125 E0.0714
G1 X-23.946 Y-2.730 E0.8566
G1 E-1.9000 F1200
; feature solid layer
G1 Z0.700 F1200
G1 X-38.474 Y-3.995 F9000
G1 Z0.200 F1200
G1 E1.9000 F1200
G1 X-39.049 Y-4.570 E0.0311 F2400
G1 X-39.049 Y-5.221 E0.0249
G1 X-37.823 Y-3.995 E0.0663
G1 X-37.172 Y-3.995 E0.0249
G1 X-39.049 Y-5.871 E0.1015
G1 X-39.049 Y-6.522 E0.0249
G1 X-36.522 Y-3.995 E0.1367
G1 X-35.871 Y-3.995 E0.0249
G1 X-39.049 Y-7.172 E0.1719
G1 X-39.049 Y-7.823 E0.0249
G1 X-35.221 Y-3.995 E0.2071
G1 X-34.570 Y-3.995 E0.0249
G1 X-39.049 Y-8.473 E0.2423
G1 X-39.049 Y-9.124 E0.0249
G1 X-33.920 Y-3.995 E0.2774
G1 X-33.269 Y-3.995 E0.0249
G1 X-39.049 Y-9.775 E0.3126
G1 X-39.049 Y-10.425 E0.0249
G1 X-32.619 Y-3.995 E0.3478
G1 X-31.968 Y-3.995 E0.0249
G1 X-39.049 Y-11.076 E0.3830
G1 X-39.049 Y-11.726 E0.0249
G1 X-31.318 Y-3.995 E0.4182
G1 X-30.667 Y-3.995 E0.0249
G1 X-39.049 Y-12.377 E0.4534
G1 X-39.049 Y-13.027 E0.0249
G1 X-30.017 Y-3.995 E0.4886
G1 X-29.366 Y-3.995 E0.0249
G1 X-39.049 Y-13.678 E0.5238
G1 X-39.049 Y-14.328 E0.0249
G1 X-28.715 Y-3.995 E0.5590
G1 X-28.065 Y-3.995 E0.0249
G1 X-39.049 Y-14.979 E0.5941
G1 X-39.049 Y-15.629 E0.0249
G1 X-27.414 Y-3.995 E0.6293
G1 X-26.764 Y-3.995 E0.0249
G1 X-39.049 Y-16.280 E0.6645
G1 X-39.049 Y-16.930 E0.0249
G1 X-26.113 Y-3.995 E0.6997
G1 X-25.463 Y-3.995 E0.0249
G1 X-39.049 Y-17.581 E0.7349
G1 X-39.049 Y-18.232 E0.0249
G1 X-25.211 Y-4.393 E0.7485
G1 X-25.211 Y-5.044 E0.0249
G1 X-39.049 Y-18.882 E0.7485
G1 X-39.049 Y-19.533 E0.0249
G1 X-25.211 Y-5.694 E0.7485
G1 X-25.211 Y-6.345 E0.0249
G1 X-39.049 Y-20.183 E0.7485
G1 X-39.049 Y-20.834 E0.0249
G1 X-25.211 Y-6.996 E0.7485
G1 X-25.211 Y-7.646 E0.0249
G1 X-39.049 Y-21.484 E0.7485
G1 X-39.049 Y-22.135 E0.0249
G1 X-25.211 Y-8.297 E0.7485
G1 X-25.211 Y-8.947 E0.0249
G1 X-39.049 Y-22.785 E0.7485
G1 X-39.049 Y-23.436 E0.0249
G1 X-25.211 Y-9.598 E0.7485
G1 X-25.211 Y-10.248 E0.0249
G1 X-39.049 Y-24.086 E0.7485
G1 X-39.049 Y-24.737 E0.0249
G1 X-25.211 Y-10.899 E0.7485
G1 X-25.211 Y-11.549 E0.0249
G1 X-39.049 Y-25.387 E0.7485
G1 X-39.049 Y-26.038 E0.0249
G1 X-25.211 Y-12.200 E0.7485
G1 X-25.211 Y-12.850 E0.0249
G1 X-39.049 Y-26.689 E0.7485
G1 X-39.049 Y-27.339 E0.0249
G1 X-25.211 Y-13.501 E0.7485
G1 X-25.211 Y-14.151 E0.0249
G1 X-39.049 Y-27.990 E0.7485
G1 X-39.049 Y-28.640 E0.0249
G1 X-25.211 Y-14.802 E0.7485
G1 X-25.211 Y-15.453 E0.0249
G1 X-39.049 Y-29.291 E0.7485
G1 X-39.049 Y-29.941 E0.0249
G1 X-25.211 Y-16.103 E0.7485
G1 X-25.211 Y-16.754 E0.0249
G1 X-39.049 Y-30.592 E0.7485
G1 X-39.049 Y-31.242 E0.0249
G1 X-25.211 Y-17.404 E0.7485
G1 X-25.211 Y-18.055 E0.0249
G1 X-39.049 Y-31.893 E0.7485
G1 X-39.049 Y-32.543 E0.0249
G1 X-25.211 Y-18.705 E0.7485
G1 X-25.211 Y-19.356 E0.0249
G1 X-39.049 Y-33.194 E0.7485
G1 X-39.049 Y-33.844 E0.0249
G1 X-25.211 Y-20.006 E0.7485
G1 X-25.211 Y-20.657 E0.0249
G1 X-39.049 Y-34.495 E0.7485
G1 X-39.049 Y-35.146 E0.0249
G1 X-25.211 Y-21.307 E0.7485
G1 X-25.211 Y-21.958 E0.0249
G1 X-39.049 Y-35.796 E0.7485
G1 X-39.049 Y-36.447 E0.0249
G1 X-25.211 Y-22.608 E0.7485
G1 X-25.211 Y-23.259 E0.0249
G1 X-39.049 Y-37.097 E0.7485
G1 X-39.049 Y-37.748 E0.0249
G1 X-25.211 Y-23.910 E0.7485
G1 X-25.211 Y-24.560 E0.0249
G1 X-39.049 Y-38.398 E0.7485
G1 X-39.049 Y-39.049 E0.0249
G1 X-25.211 Y-25.211 E0.7485
G1 X-25.211 Y-25.649 E0.0168
G1 X-25.105 Y-25.755 E0.0057
G1 X-39.049 Y-39.699 E0.7543
G1 X-39.049 Y-40.350 E0.0249
G1 X-24.779 Y-26.081 E0.7719
G1 X-24.454 Y-26.406 E0.0176
G1 X-39.049 Y-41.000 E0.7895
G1 X-39.049 Y-41.549 E0.0210
G1 X-38.947 Y-41.549 E0.0039
G1 X-24.129 Y-26.731 E0.8015
G1 X-23.804 Y-27.056 E0.0176
G1 X-38.296 Y-41.549 E0.7839
G1 X-37.646 Y-41.549 E0.0249
G1 X-23.478 Y-27.382 E0.7663
G1 X-23.153 Y-27.707 E0.0176
G1 X-36.995 Y-41.549 E0.7487
G1 X-36.344 Y-41.549 E0.0249
G1 X-22.507 Y-27.711 E0.7485
G1 X-21.856 Y-27.711 E0.0249
G1 X-35.694 Y-41.549 E0.7485
G1 X-35.043 Y-41.549 E0.0249
G1 X-21.205 Y-27.711 E0.7485
G1 X-20.555 Y-27.711 E0.0249
G1 X-34.393 Y-41.549 E0.7485
G1 X-33.742 Y-41.549 E0.0249
G1 X-19.904 Y-27.711 E0.7485
G1 X-19.254 Y-27.711 E0.0249
G1 X-33.092 Y-41.549 E0.7485
G1 X-32.441 Y-41.549 E0.0249
G1 X-18.603 Y-27.711 E0.7485
G1 X-17.953 Y-27.711 E0.0249
G1 X-31.791 Y-41.549 E0.7485
G1 X-31.140 Y-41.549 E0.0249
G1 X-17.302 Y-27.711 E0.7485
G1 X-16.652 Y-27.711 E0.0249
G1 X-30.490 Y-41.549 E0.7485
G1 X-29.839 Y-41.549 E0.0249
G1 X-16.001 Y-27.711 E0.7485
G1 X-15.351 Y-27.711 E0.0249
G1 X-29.189 Y-41.549 E0.7485
G1 X-28.538 Y-41.549 E0.0249
G1 X-14.700 Y-27.711 E0.7485
G1 X-14.050 Y-27.711 E0.0249
G1 X-27.887 Y-41.549 E0.7485
G1 X-27.237 Y-41.549 E0.0249
G1 X-13.399 Y-27.711 E0.7485
G1 X-12.749 Y-27.711 E0.0249
G1 X-26.586 Y-41.549 E0.7485
G1 X-25.936 Y-41.549 E0.0249
G1 X-12.098 Y-27.711 E0.7485
G1 X-11.447 Y-27.711 E0.0249
G1 X-25.285 Y-41.549 E0.7485
G1 X-24.635 Y-41.549 E0.0249
G1 X-10.797 Y-27.711 E0.7485
G1 X-10.146 Y-27.711 E0.0249
G1 X-23.984 Y-41.549 E0.7485
G1 X-23.334 Y-41.549 E0.0249
G1 X-9.496 Y-27.711 E0.7485
G1 X-8.845 Y-27.711 E0.0249
G1 X-22.683 Y-41.549 E0.7485
G1 X-22.033 Y-41.549 E0.0249
G1 X-8.195 Y-27.711 E0.7485
G1 X-7.544 Y-27.711 E0.0249
G1 X-21.382 Y-41.549 E0.7485
G1 X-20.732 Y-41.549 E0.0249
G1 X-6.894 Y-27.711 E0.7485
G1 X-6.243 Y-27.711 E0.0249
G1 X-20.081 Y-41.549 E0.7485
G1 X-19.430 Y-41.549 E0.0249
G1 X-5.593 Y-27.711 E0.7485
G1 X-4.942 Y-27.711 E0.0249
G1 X-18.780 Y-41.549 E0.7485
G1 X-18.129 Y-41.549 E0.0249
G1 X-4.292 Y-27.711 E0.7485
G1 X-3.641 Y-27.711 E0.0249
G1 X-17.479 Y-41.549 E0.7485
G1 X-16.828 Y-41.549 E0.0249
G1 X-2.990 Y-27.711 E0.7485
G1 X-2.340 Y-27.711 E0.0249
G1 X-16.178 Y-41.549 E0.7485
G1 X-15.527 Y-41.549 E0.0249
G1 X-1.689 Y-27.711 E0.7485
G1 X-1.039 Y-27.711 E0.0249
G1 X-14.877 Y-41.549 E0.7485
G1 X-14.226 Y-41.549 E0.0249
G1 X-0.388 Y-27.711 E0.7485
G1 X0.262 Y-27.711 E0.0249
G1 X-13.576 Y-41.549 E0.7485
G1 X-12.925 Y-41.549 E0.0249
G1 X0.913 Y-27.711 E0.7485
G1 X1.563 Y-27.711 E0.0249
G1 X-12.275 Y-41.549 E0.7485
G1 X-11.624 Y-41.549 E0.0249
G1 X2.214 Y-27.711 E0.7485
G1 X2.864 Y-27.711 E0.0249
G1 X-10.973 Y-41.549 E0.7485
G1 X-10.323 Y-41.549 E0.0249
G1 X3.515 Y-27.711 E0.7485
G1 X4.165 Y-27.711 E0.0249
G1 X-9.672 Y-41.549 E0.7485
G1 X-9.022 Y-41.549 E0.0249
G1 X4.816 Y-27.711 E0.7485
G1 X5.467 Y-27.711 E0.0249
G1 X-8.371 Y-41.549 E0.7485
G1 X-7.721 Y-41.549 E0.0249
G1 X6.117 Y-27.711 E0.7485
G1 X6.768 Y-27.711 E0.0249
G1 X-7.070 Y-41.549 E0.7485
G1 X-6.420 Y-41.549 E0.0249
G1 X7.418 Y-27.711 E0.7485
G1 X8.069 Y-27.711 E0.0249
G1 X-5.769 Y-41.549 E0.7485
G1 X-5.119 Y-41.549 E0.0249
G1 X8.719 Y-27.711 E0.7485
G1 X9.370 Y-27.711 E0.0249
G1 X-4.468 Y-41.549 E0.7485
G1 X-3.818 Y-41.549 E0.0249
G1 X10.020 Y-27.711 E0.7485
G1 X10.671 Y-27.711 E0.0249
G1 X-3.167 Y-41.549 E0.7485
G1 X-2.516 Y-41.549 E0.0249
G1 X11.321 Y-27.711 E0.7485
G1 X11.972 Y-27.711 E0.0249
G1 X-1.866 Y-41.549 E0.7485
G1 X-1.215 Y-41.549 E0.0249
G1 X12.622 Y-27.711 E0.7485
G1 X13.273 Y-27.711 E0.0249
G1 X-0.565 Y-41.549 E0.7485
G1 X0.086 Y-41.549 E0.0249
G1 X13.924 Y-27.711 E0.7485
G1 X14.574 Y-27.711 E0.0249
G1 X0.736 Y-41.549 E0.7485
G1 X1.387 Y-41.549 E0.0249
G1 X15.225 Y-27.711 E0.7485
G1 X15.875 Y-27.711 E0.0249
G1 X2.037 Y-41.549 E0.7485
G1 X2.688 Y-41.549 E0.0249
G1 X16.526 Y-27.711 E0.7485
G1 X17.176 Y-27.711 E0.0249
G1 X3.338 Y-41.549 E0.7485
G1 X3.989 Y-41.549 E0.0249
G1 X17.827 Y-27.711 E0.7485
G1 X18.477 Y-27.711 E0.0249
G1 X4.639 Y-41.549 E0.7485
G1 X5.290 Y-41.549 E0.0249
G1 X19.128 Y-27.711 E0.7485
G1 X19.778 Y-27.711 E0.0249
G1 X5.941 Y-41.549 E0.7485
G1 X6.591 Y-41.549 E0.0249
G1 X20.429 Y-27.711 E0.7485
G1 X21.079 Y-27.711 E0.0249
G1 X7.242 Y-41.549 E0.7485
G1 X7.892 Y-41.549 E0.0249
G1 X21.730 Y-27.711 E0.7485
G1 X22.381 Y-27.711 E0.0249
