; G-Code generated by Simplify3D(R) Version 4.1.2
; Apr 6, 2020 at 12:04:28 PM
; Settings Summary
;   processName,Process1
;   applyToModels,Prison TowerJV,Prison TowerJV(2)
;   profileName,MakerBot Replicator 2 HBP (modified)
;   profileVersion,2020-03-12 10:48:50
;   baseProfile,MakerBot Replicator 2(2)
;   printMaterial,PLA
;   printQuality,Medium
;   printExtruders,
;   extruderName,Primary Extruder
;   extruderToolheadNumber,0
;   extruderDiameter,0.4
;   extruderAutoWidth,0
;   extruderWidth,0.4
;   extrusionMultiplier,1
;   extruderUseRetract,1
;   extruderRetractionDistance,1.9
;   extruderExtraRestartDistance,0
;   extruderRetractionZLift,0.5
;   extruderRetractionSpeed,1200
;   extruderUseCoasting,0
;   extruderCoastingDistance,0.2
;   extruderUseWipe,0
;   extruderWipeDistance,5
;   primaryExtruder,0
;   layerHeight,0.2
;   topSolidLayers,3
;   bottomSolidLayers,3
;   perimeterOutlines,3
;   printPerimetersInsideOut,1
;   startPointOption,3
;   startPointOriginX,0
;   startPointOriginY,150
;   sequentialIslands,0
;   spiralVaseMode,0
;   firstLayerHeightPercentage,100
;   firstLayerWidthPercentage,115
;   firstLayerUnderspeed,0.5
;   useRaft,0
;   raftExtruder,0
;   raftTopLayers,2
;   raftBaseLayers,1
;   raftOffset,1
;   raftSeparationDistance,0.14
;   raftTopInfill,90
;   aboveRaftSpeedMultiplier,0.3
;   useSkirt,0
;   skirtExtruder,0
;   skirtLayers,1
;   skirtOutlines,5
;   skirtOffset,0
;   usePrimePillar,0
;   primePillarExtruder,999
;   primePillarWidth,12
;   primePillarLocation,7
;   primePillarSpeedMultiplier,1
;   useOozeShield,0
;   oozeShieldExtruder,999
;   oozeShieldOffset,2
;   oozeShieldOutlines,1
;   oozeShieldSidewallShape,1
;   oozeShieldSidewallAngle,30
;   oozeShieldSpeedMultiplier,1
;   infillExtruder,0
;   internalInfillPattern,Rectilinear
;   externalInfillPattern,Rectilinear
;   infillPercentage,15
;   outlineOverlapPercentage,25
;   infillExtrusionWidthPercentage,100
;   minInfillLength,5
;   infillLayerInterval,1
;   internalInfillAngles,45,-45
;   overlapInternalInfillAngles,0
;   externalInfillAngles,45,-45
;   generateSupport,1
;   supportExtruder,0
;   supportInfillPercentage,15
;   supportExtraInflation,0.5
;   supportBaseLayers,0
;   denseSupportExtruder,0
;   denseSupportLayers,2
;   denseSupportInfillPercentage,90
;   supportLayerInterval,1
;   supportHorizontalPartOffset,0.3
;   supportUpperSeparationLayers,1
;   supportLowerSeparationLayers,1
;   supportType,1
;   supportGridSpacing,2
;   maxOverhangAngle,45
;   supportAngles,45,-45
;   temperatureName,Primary Extruder,Heated Build Platform
;   temperatureNumber,0,0
;   temperatureSetpointCount,1,1
;   temperatureSetpointLayers,1,1
;   temperatureSetpointTemperatures,230,60
;   temperatureStabilizeAtStartup,1,1
;   temperatureHeatedBed,0,1
;   fanLayers,1,2
;   fanSpeeds,0,100
;   blipFanToFullPower,1
;   adjustSpeedForCooling,1
;   minSpeedLayerTime,15
;   minCoolingSpeedSlowdown,20
;   increaseFanForCooling,1
;   minFanLayerTime,45
;   maxCoolingFanSpeed,100
;   increaseFanForBridging,1
;   bridgingFanSpeed,100
;   use5D,1
;   relativeEdistances,1
;   allowEaxisZeroing,0
;   independentExtruderAxes,1
;   includeM10123,0
;   stickySupport,1
;   applyToolheadOffsets,0
;   gcodeXoffset,0
;   gcodeYoffset,0
;   gcodeZoffset,0
;   overrideMachineDefinition,1
;   machineTypeOverride,0
;   strokeXoverride,280
;   strokeYoverride,150
;   strokeZoverride,150
;   originOffsetXoverride,140
;   originOffsetYoverride,75
;   originOffsetZoverride,0
;   homeXdirOverride,1
;   homeYdirOverride,1
;   homeZdirOverride,-1
;   flipXoverride,1
;   flipYoverride,-1
;   flipZoverride,1
;   toolheadOffsets,0,0|0,0|0,0|0,0|0,0|0,0
;   overrideFirmwareConfiguration,1
;   firmwareTypeOverride,MakerBot/Sailfish Firmware
;   GPXconfigOverride,r2h
;   baudRateOverride,115200
;   overridePrinterModels,1
;   printerModelsOverride,MakerBot_Replicator2.stl
;   startingGcode,; **** Replicator 2 start.gcode ****,M73 P0 ; enable build progress,G162 X Y F3000 ; home XY maximum,G161 Z F1200 ; home Z minimum,G92 Z-5 ; set Z to -5,G1 Z0 ; move Z to 0,G161 Z F100 ; home Z slowly,M132 X Y Z A B ; recall home offsets,G1 X-145 Y-75 Z30 F9000 ; move to wait position off table,G130 X20 Y20 Z20 A20 B20 ; lower stepper Vrefs while heating,M126 S[fan_speed_pwm],M140 S[bed0_temperature] T0,M134 T0 ; stabilize bed temperature,M104 S[extruder0_temperature] T0,M133 T0 ; stabilize extruder temperature,G130 X127 Y127 Z40 A127 B127 ; default stepper Vrefs,G92 A0 ; zero extruder,G1 Z0.4 ; position nozzle,G1 E25 F300 ; purge nozzle,G1 X-140 Y-70 Z0.15 F1200 ; slow wipe,G1 X-135 Y-65 Z0.5 F1200 ; lift,G92 A0 ; zero extruder,M73 P1 ;@body (notify GPX body has started),; **** end of start.gcode ****
;   layerChangeGcode,
;   retractionGcode,
;   toolChangeGcode,
;   endingGcode,; **** Replicator 2 end.gcode ****,M73 P100 ; end build progress,G1 Z155 F1000 ; send Z axis to bottom of machine,M104 S0 T0 ; cool down extruder,M140 S0 T0 ; cool down HBP,M127 ; stop blower fan,G162 X Y F3000 ; home XY maximum,M18 ; disable stepper,M0 ; stop codes,M72 P1 ; play Ta-Da song,; **** end of end.gcode ****
;   exportFileFormat,gcode
;   celebration,0
;   celebrationSong,Random Song
;   postProcessing,
;   defaultSpeed,4800
;   outlineUnderspeed,0.5
;   solidInfillUnderspeed,1
;   supportUnderspeed,1
;   rapidXYspeed,9000
;   rapidZspeed,1200
;   minBridgingArea,50
;   bridgingExtraInflation,0
;   bridgingExtrusionMultiplier,1
;   bridgingSpeedMultiplier,0.8
;   useFixedBridgingAngle,0
;   fixedBridgingAngle,0
;   applyBridgingToPerimeters,0
;   filamentDiameters,1.75|1.75|1.75|1.75|1.75|1.75
;   filamentPricesPerKg,46|46|46|46|46|46
;   filamentDensities,1.25|1.25|1.25|1.25|1.25|1.25
;   useMinPrintHeight,0
;   minPrintHeight,0
;   useMaxPrintHeight,0
;   maxPrintHeight,4.84
;   useDiaphragm,0
;   diaphragmLayerInterval,20
;   robustSlicing,1
;   mergeAllIntoSolid,0
;   onlyRetractWhenCrossingOutline,0
;   retractBetweenLayers,0
;   useRetractionMinTravel,1
;   retractionMinTravel,7
;   retractWhileWiping,1
;   onlyWipeOutlines,1
;   avoidCrossingOutline,0
;   maxMovementDetourFactor,3
;   toolChangeRetractionDistance,12
;   toolChangeExtraRestartDistance,-0.5
;   toolChangeRetractionSpeed,600
;   externalThinWallType,0
;   internalThinWallType,0
;   thinWallAllowedOverlapPercentage,10
;   singleExtrusionMinLength,1
;   singleExtrusionMinPrintingWidthPercentage,50
;   singleExtrusionMaxPrintingWidthPercentage,200
;   singleExtrusionEndpointExtension,0.2
;   horizontalSizeCompensation,0
G90
M83
; **** Replicator 2 start.gcode ****
M73 P0 ; enable build progress
G162 X Y F3000 ; home XY maximum
G161 Z F1200 ; home Z minimum
G92 Z-5 ; set Z to -5
G1 Z0 ; move Z to 0
G161 Z F100 ; home Z slowly
M132 X Y Z A B ; recall home offsets
G1 X-145 Y-75 Z30 F9000 ; move to wait position off table
G130 X20 Y20 Z20 A20 B20 ; lower stepper Vrefs while heating
M127
M140 S60 T0
M134 T0 ; stabilize bed temperature
M104 S230 T0
M133 T0 ; stabilize extruder temperature
G130 X127 Y127 Z40 A127 B127 ; default stepper Vrefs
G92 A0 ; zero extruder
G1 Z0.4 ; position nozzle
G1 E25 F300 ; purge nozzle
G1 X-140 Y-70 Z0.15 F1200 ; slow wipe
G1 X-135 Y-65 Z0.5 F1200 ; lift
G92 A0 ; zero extruder
M73 P1 ;@body (notify GPX body has started)
; **** end of start.gcode ****
; process Process1
; layer 1, Z = 0.200
M135 T0
G1 E-1.9000 F1200
; feature inner perimeter
; tool H0.200 W0.460
G1 Z0.500 F1200
G1 X21.500 Y3.936 F9000
G1 Z0.200 F1200
G1 E1.9000 F1200
G1 X-22.897 Y3.935 E1.6982 F1800
G1 X-22.611 Y3.650 E0.0155
G1 X21.214 Y3.650 E1.6763
G1 X21.500 Y3.936 E0.0155
G1 X24.209 Y3.961 F9000
G1 X24.522 Y3.650 E0.0169 F1800
G1 X68.347 Y3.650 E1.6763
G1 X68.850 Y4.152 E0.0272
G1 X68.850 Y4.351 E0.0076
G1 X44.452 Y4.351 E0.9332
G1 X24.209 Y3.961 E0.7744
G1 E-1.9000 F1200
G1 Z0.700 F1200
G1 X24.210 Y48.039 F9000
G1 Z0.200 F1200
G1 E1.9000 F1200
G1 X44.453 Y47.650 E0.7744 F1800
G1 X68.850 Y47.650 E0.9332
G1 X68.850 Y47.848 E0.0075
G1 X68.347 Y48.350 E0.0272
G1 X24.522 Y48.350 E1.6763
G1 X24.210 Y48.039 E0.0168
G1 X21.500 Y48.065 F9000
G1 X21.214 Y48.350 E0.0154 F1800
G1 X-22.611 Y48.350 E1.6763
G1 X-22.897 Y48.065 E0.0154
G1 X21.500 Y48.065 E1.6981
G1 E-1.9000 F1200
G1 Z0.700 F1200
G1 X-25.633 Y48.065 F9000
G1 Z0.200 F1200
G1 E1.9000 F1200
G1 X-25.919 Y48.350 E0.0154 F1800
G1 X-68.850 Y48.350 E1.6421
G1 X-68.850 Y48.065 E0.0109
G1 X-25.633 Y48.065 E1.6530
G1 E-1.9000 F1200
G1 Z0.700 F1200
G1 X-25.632 Y3.935 F9000
G1 Z0.200 F1200
G1 E1.9000 F1200
G1 X-57.357 Y3.935 E1.2134 F1800
G1 X-57.357 Y3.650 E0.0109
G1 X-25.919 Y3.650 E1.2025
G1 X-25.632 Y3.935 E0.0155
G1 X-25.729 Y3.190 F9000
G1 X-24.519 Y4.395 E0.0653 F1800
G1 X-69.311 Y4.395 E1.7132
G1 X-69.311 Y3.943 E0.0173
G1 X-57.817 Y3.943 E0.4396
G1 X-57.818 Y3.190 E0.0288
G1 X-25.729 Y3.190 E1.2274
G1 X-24.010 Y4.395 F9000
G1 X-22.801 Y3.190 E0.0653 F1800
G1 X21.404 Y3.190 E1.6908
G1 X22.613 Y4.396 E0.0653
G1 X-24.010 Y4.395 E1.7833
G1 E-1.9000 F1200
G1 Z0.700 F1200
G1 X-24.009 Y47.605 F9000
G1 Z0.200 F1200
G1 E1.9000 F1200
G1 X22.612 Y47.605 E1.7832 F1800
G1 X21.404 Y48.810 E0.0653
G1 X-22.801 Y48.810 E1.6908
G1 X-24.009 Y47.605 E0.0653
G1 X-24.519 Y47.605 F9000
G1 X-25.729 Y48.810 E0.0653 F1800
G1 X-69.311 Y48.810 E1.6670
G1 X-69.311 Y47.605 E0.0461
G1 X-24.519 Y47.605 E1.7132
G1 E-1.9000 F1200
G1 Z0.700 F1200
G1 X23.118 Y47.600 F9000
G1 Z0.200 F1200
G1 E1.9000 F1200
G1 X44.449 Y47.190 E0.8160 F1800
G1 X68.430 Y47.190 E0.9173
G1 X68.430 Y4.811 E1.6210
G1 X44.448 Y4.811 E0.9173
G1 X23.117 Y4.400 E0.8160
G1 X24.332 Y3.190 E0.0656
G1 X68.537 Y3.190 E1.6908
G1 X69.311 Y3.961 E0.0418
G1 X69.311 Y48.038 E1.6859
G1 X68.537 Y48.810 E0.0418
G1 X24.332 Y48.810 E1.6908
G1 X23.118 Y47.600 E0.0655
; feature outer perimeter
G1 X22.867 Y48.000 F9000
G1 X21.594 Y49.270 E0.0688 F1200
G1 X-22.991 Y49.270 E1.7054
G1 X-24.264 Y48.000 E0.0688
G1 X-25.539 Y49.270 E0.0688
G1 X-69.770 Y49.270 E1.6918
G1 X-69.770 Y47.145 E0.0813
G1 X22.870 Y47.145 E3.5434
G1 X44.444 Y46.730 E0.8253
G1 X67.971 Y46.730 E0.8999
G1 X67.971 Y5.271 E1.5858
G1 X44.444 Y5.271 E0.8999
G1 X22.870 Y4.856 E0.8253
G1 X-69.770 Y4.855 E3.5434
G1 X-69.770 Y3.483 E0.0525
G1 X-58.277 Y3.483 E0.4396
G1 X-58.278 Y2.730 E0.0288
G1 X-25.539 Y2.730 E1.2523
G1 X-24.264 Y4.000 E0.0688
G1 X-22.991 Y2.730 E0.0688
G1 X21.594 Y2.730 E1.7054
G1 X22.867 Y4.000 E0.0688
G1 X24.142 Y2.730 E0.0688
G1 X68.727 Y2.730 E1.7054
G1 X69.770 Y3.770 E0.0563
G1 X69.770 Y48.229 E1.7005
G1 X68.727 Y49.270 E0.0564
G1 X24.142 Y49.270 E1.7054
G1 X22.867 Y48.000 E0.0688
G1 E-1.9000 F1200
; feature solid layer
G1 Z0.700 F1200
G1 X44.099 Y48.002 F9000
G1 Z0.200 F1200
G1 E1.9000 F1200
G1 X44.752 Y48.005 E0.0250 F2400
G1 X44.743 Y47.995 E0.0005
G1 X45.393 Y47.995 E0.0249
G1 X45.403 Y48.005 E0.0005
G1 X46.053 Y48.005 E0.0249
G1 X46.044 Y47.995 E0.0005
G1 X46.694 Y47.995 E0.0249
G1 X46.704 Y48.005 E0.0005
G1 X47.354 Y48.005 E0.0249
G1 X47.345 Y47.995 E0.0005
G1 X47.995 Y47.995 E0.0249
G1 X48.005 Y48.005 E0.0005
G1 X48.655 Y48.005 E0.0249
G1 X48.646 Y47.995 E0.0005
G1 X49.296 Y47.995 E0.0249
G1 X49.306 Y48.005 E0.0005
G1 X49.956 Y48.005 E0.0249
G1 X49.947 Y47.995 E0.0005
G1 X50.598 Y47.995 E0.0249
G1 X50.607 Y48.005 E0.0005
G1 X51.258 Y48.005 E0.0249
G1 X51.248 Y47.995 E0.0005
G1 X51.899 Y47.995 E0.0249
G1 X51.908 Y48.005 E0.0005
G1 X52.559 Y48.005 E0.0249
G1 X52.549 Y47.995 E0.0005
G1 X53.200 Y47.995 E0.0249
G1 X53.209 Y48.005 E0.0005
G1 X53.860 Y48.005 E0.0249
G1 X53.850 Y47.995 E0.0005
G1 X54.501 Y47.995 E0.0249
G1 X54.510 Y48.005 E0.0005
G1 X55.161 Y48.005 E0.0249
G1 X55.151 Y47.995 E0.0005
G1 X55.802 Y47.995 E0.0249
G1 X55.811 Y48.005 E0.0005
G1 X56.462 Y48.005 E0.0249
G1 X56.452 Y47.995 E0.0005
G1 X57.103 Y47.995 E0.0249
G1 X57.112 Y48.005 E0.0005
G1 X57.763 Y48.005 E0.0249
G1 X57.753 Y47.995 E0.0005
G1 X58.404 Y47.995 E0.0249
G1 X58.413 Y48.005 E0.0005
G1 X59.064 Y48.005 E0.0249
G1 X59.055 Y47.995 E0.0005
G1 X59.705 Y47.995 E0.0249
G1 X59.715 Y48.005 E0.0005
G1 X60.365 Y48.005 E0.0249
G1 X60.356 Y47.995 E0.0005
G1 X61.006 Y47.995 E0.0249
G1 X61.016 Y48.005 E0.0005
G1 X61.666 Y48.005 E0.0249
G1 X61.657 Y47.995 E0.0005
G1 X62.307 Y47.995 E0.0249
G1 X62.317 Y48.005 E0.0005
G1 X62.967 Y48.005 E0.0249
G1 X62.958 Y47.995 E0.0005
G1 X63.608 Y47.995 E0.0249
G1 X63.618 Y48.005 E0.0005
G1 X64.268 Y48.005 E0.0249
G1 X64.259 Y47.995 E0.0005
G1 X64.909 Y47.995 E0.0249
G1 X64.919 Y48.005 E0.0005
G1 X65.569 Y48.005 E0.0249
G1 X65.560 Y47.995 E0.0005
G1 X66.210 Y47.995 E0.0249
G1 X66.220 Y48.005 E0.0005
G1 X66.870 Y48.005 E0.0249
G1 X66.861 Y47.995 E0.0005
G1 X67.512 Y47.995 E0.0249
G1 X67.521 Y48.005 E0.0005
G1 X68.171 Y48.005 E0.0249
G1 X68.162 Y47.995 E0.0005
G1 E-1.9000 F1200
G1 Z0.700 F1200
G1 X67.748 Y3.995 F9000
G1 Z0.200 F1200
G1 E1.9000 F1200
G1 X67.759 Y4.006 E0.0006 F2400
G1 X67.109 Y4.006 E0.0249
G1 X67.097 Y3.995 E0.0006
G1 X66.447 Y3.995 E0.0249
G1 X66.458 Y4.006 E0.0006
G1 X65.808 Y4.006 E0.0249
G1 X65.796 Y3.995 E0.0006
G1 X65.146 Y3.995 E0.0249
G1 X65.157 Y4.006 E0.0006
G1 X64.506 Y4.006 E0.0249
G1 X64.495 Y3.995 E0.0006
G1 X63.845 Y3.995 E0.0249
G1 X63.856 Y4.006 E0.0006
G1 X63.205 Y4.006 E0.0249
G1 X63.194 Y3.995 E0.0006
G1 X62.543 Y3.995 E0.0249
G1 X62.555 Y4.006 E0.0006
G1 X61.904 Y4.006 E0.0249
G1 X61.893 Y3.995 E0.0006
G1 X61.242 Y3.995 E0.0249
G1 X61.254 Y4.006 E0.0006
G1 X60.603 Y4.006 E0.0249
G1 X60.592 Y3.995 E0.0006
G1 X59.941 Y3.995 E0.0249
G1 X59.953 Y4.006 E0.0006
G1 X59.302 Y4.006 E0.0249
G1 X59.291 Y3.995 E0.0006
G1 X58.640 Y3.995 E0.0249
G1 X58.652 Y4.006 E0.0006
G1 X58.001 Y4.006 E0.0249
G1 X57.990 Y3.995 E0.0006
G1 X57.339 Y3.995 E0.0249
G1 X57.351 Y4.006 E0.0006
G1 X56.700 Y4.006 E0.0249
G1 X56.689 Y3.995 E0.0006
G1 X56.038 Y3.995 E0.0249
G1 X56.049 Y4.006 E0.0006
G1 X55.399 Y4.006 E0.0249
G1 X55.388 Y3.995 E0.0006
G1 X54.737 Y3.995 E0.0249
G1 X54.748 Y4.006 E0.0006
G1 X54.098 Y4.006 E0.0249
G1 X54.086 Y3.995 E0.0006
G1 X53.436 Y3.995 E0.0249
G1 X53.447 Y4.006 E0.0006
G1 X52.797 Y4.006 E0.0249
G1 X52.785 Y3.995 E0.0006
G1 X52.135 Y3.995 E0.0249
G1 X52.146 Y4.006 E0.0006
G1 X51.496 Y4.006 E0.0249
G1 X51.484 Y3.995 E0.0006
G1 X50.834 Y3.995 E0.0249
G1 X50.845 Y4.006 E0.0006
G1 X50.195 Y4.006 E0.0249
G1 X50.183 Y3.995 E0.0006
G1 X49.533 Y3.995 E0.0249
G1 X49.544 Y4.006 E0.0006
G1 X48.893 Y4.006 E0.0249
G1 X48.882 Y3.995 E0.0006
G1 X48.232 Y3.995 E0.0249
G1 X48.243 Y4.006 E0.0006
G1 X47.592 Y4.006 E0.0249
G1 X47.581 Y3.995 E0.0006
G1 X46.931 Y3.995 E0.0249
G1 X46.942 Y4.006 E0.0006
G1 X46.291 Y4.006 E0.0249
G1 X46.280 Y3.995 E0.0006
G1 X45.629 Y3.995 E0.0249
G1 X45.641 Y4.006 E0.0006
G1 X44.990 Y4.006 E0.0249
G1 X44.979 Y3.995 E0.0006
G1 X44.328 Y3.995 E0.0249
G1 X44.337 Y4.004 E0.0005
G1 E-1.9000 F1200
; feature inner perimeter
G1 Z0.700 F1200
G1 X24.522 Y-3.650 F9000
G1 Z0.200 F1200
G1 E1.9000 F1200
G1 X24.210 Y-3.961 E0.0168 F1800
G1 X44.453 Y-4.349 E0.7744
G1 X68.850 Y-4.349 E0.9332
G1 X68.850 Y-4.152 E0.0075
G1 X68.347 Y-3.650 E0.0272
G1 X24.522 Y-3.650 E1.6763
G1 X21.500 Y-3.935 F9000
G1 X21.214 Y-3.650 E0.0154 F1800
G1 X-22.611 Y-3.650 E1.6763
G1 X-22.897 Y-3.935 E0.0154
G1 X21.500 Y-3.935 E1.6981
G1 E-1.9000 F1200
G1 Z0.700 F1200
G1 X21.500 Y-48.064 F9000
G1 Z0.200 F1200
G1 E1.9000 F1200
G1 X-22.897 Y-48.064 E1.6982 F1800
G1 X-22.611 Y-48.350 E0.0155
G1 X21.214 Y-48.350 E1.6763
G1 X21.500 Y-48.064 E0.0155
G1 X24.209 Y-48.039 F9000
G1 X24.522 Y-48.350 E0.0169 F1800
G1 X68.347 Y-48.350 E1.6763
G1 X68.850 Y-47.848 E0.0272
G1 X68.850 Y-47.648 E0.0076
G1 X44.452 Y-47.648 E0.9332
G1 X24.209 Y-48.039 E0.7744
G1 E-1.9000 F1200
G1 Z0.700 F1200
G1 X-25.632 Y-48.064 F9000
G1 Z0.200 F1200
G1 E1.9000 F1200
G1 X-57.357 Y-48.064 E1.2134 F1800
G1 X-57.357 Y-48.350 E0.0109
G1 X-25.919 Y-48.350 E1.2025
G1 X-25.632 Y-48.064 E0.0155
G1 E-1.9000 F1200
G1 Z0.700 F1200
G1 X-25.633 Y-3.935 F9000
G1 Z0.200 F1200
G1 E1.9000 F1200
G1 X-25.919 Y-3.650 E0.0154 F1800
G1 X-68.850 Y-3.650 E1.6421
G1 X-68.850 Y-3.935 E0.0109
G1 X-25.633 Y-3.935 E1.6530
G1 X-25.729 Y-3.190 F9000
G1 X-69.311 Y-3.190 E1.6670 F1800
G1 X-69.311 Y-4.395 E0.0461
