; G-Code generated by Simplify3D(R) Version 4.1.2
; Apr 6, 2020 at 12:02:45 PM
; Settings Summary
;   processName,Process1
;   applyToModels,LED holderV3R2,LED holderV3R2(2),LED holderV3R2(3),LED holderV3R2(2)(2)
;   profileName,MakerBot Replicator 2 HBP (modified)
;   profileVersion,2020-03-12 10:48:50
;   baseProfile,MakerBot Replicator 2(2)
;   printMaterial,PLA
;   printQuality,Medium
;   printExtruders,
;   extruderName,Primary Extruder
;   extruderToolheadNumber,0
;   extruderDiameter,0.4
;   extruderAutoWidth,0
;   extruderWidth,0.4
;   extrusionMultiplier,1
;   extruderUseRetract,1
;   extruderRetractionDistance,1.9
;   extruderExtraRestartDistance,0
;   extruderRetractionZLift,0.5
;   extruderRetractionSpeed,1200
;   extruderUseCoasting,0
;   extruderCoastingDistance,0.2
;   extruderUseWipe,0
;   extruderWipeDistance,5
;   primaryExtruder,0
;   layerHeight,0.2
;   topSolidLayers,3
;   bottomSolidLayers,3
;   perimeterOutlines,3
;   printPerimetersInsideOut,1
;   startPointOption,3
;   startPointOriginX,0
;   startPointOriginY,150
;   sequentialIslands,0
;   spiralVaseMode,0
;   firstLayerHeightPercentage,100
;   firstLayerWidthPercentage,115
;   firstLayerUnderspeed,0.5
;   useRaft,0
;   raftExtruder,0
;   raftTopLayers,2
;   raftBaseLayers,1
;   raftOffset,1
;   raftSeparationDistance,0.14
;   raftTopInfill,90
;   aboveRaftSpeedMultiplier,0.3
;   useSkirt,0
;   skirtExtruder,0
;   skirtLayers,1
;   skirtOutlines,5
;   skirtOffset,0
;   usePrimePillar,0
;   primePillarExtruder,999
;   primePillarWidth,12
;   primePillarLocation,7
;   primePillarSpeedMultiplier,1
;   useOozeShield,0
;   oozeShieldExtruder,999
;   oozeShieldOffset,2
;   oozeShieldOutlines,1
;   oozeShieldSidewallShape,1
;   oozeShieldSidewallAngle,30
;   oozeShieldSpeedMultiplier,1
;   infillExtruder,0
;   internalInfillPattern,Rectilinear
;   externalInfillPattern,Rectilinear
;   infillPercentage,15
;   outlineOverlapPercentage,25
;   infillExtrusionWidthPercentage,100
;   minInfillLength,5
;   infillLayerInterval,1
;   internalInfillAngles,45,-45
;   overlapInternalInfillAngles,0
;   externalInfillAngles,45,-45
;   generateSupport,1
;   supportExtruder,0
;   supportInfillPercentage,30
;   supportExtraInflation,0.5
;   supportBaseLayers,0
;   denseSupportExtruder,0
;   denseSupportLayers,2
;   denseSupportInfillPercentage,90
;   supportLayerInterval,1
;   supportHorizontalPartOffset,0.3
;   supportUpperSeparationLayers,1
;   supportLowerSeparationLayers,1
;   supportType,1
;   supportGridSpacing,2
;   maxOverhangAngle,45
;   supportAngles,45,-45
;   temperatureName,Primary Extruder,Heated Build Platform
;   temperatureNumber,0,0
;   temperatureSetpointCount,1,1
;   temperatureSetpointLayers,1,1
;   temperatureSetpointTemperatures,230,60
;   temperatureStabilizeAtStartup,1,1
;   temperatureHeatedBed,0,1
;   fanLayers,1,2
;   fanSpeeds,0,100
;   blipFanToFullPower,1
;   adjustSpeedForCooling,1
;   minSpeedLayerTime,15
;   minCoolingSpeedSlowdown,20
;   increaseFanForCooling,1
;   minFanLayerTime,45
;   maxCoolingFanSpeed,100
;   increaseFanForBridging,1
;   bridgingFanSpeed,100
;   use5D,1
;   relativeEdistances,1
;   allowEaxisZeroing,0
;   independentExtruderAxes,1
;   includeM10123,0
;   stickySupport,1
;   applyToolheadOffsets,0
;   gcodeXoffset,0
;   gcodeYoffset,0
;   gcodeZoffset,0
;   overrideMachineDefinition,1
;   machineTypeOverride,0
;   strokeXoverride,280
;   strokeYoverride,150
;   strokeZoverride,150
;   originOffsetXoverride,140
;   originOffsetYoverride,75
;   originOffsetZoverride,0
;   homeXdirOverride,1
;   homeYdirOverride,1
;   homeZdirOverride,-1
;   flipXoverride,1
;   flipYoverride,-1
;   flipZoverride,1
;   toolheadOffsets,0,0|0,0|0,0|0,0|0,0|0,0
;   overrideFirmwareConfiguration,1
;   firmwareTypeOverride,MakerBot/Sailfish Firmware
;   GPXconfigOverride,r2h
;   baudRateOverride,115200
;   overridePrinterModels,1
;   printerModelsOverride,MakerBot_Replicator2.stl
;   startingGcode,; **** Replicator 2 start.gcode ****,M73 P0 ; enable build progress,G162 X Y F3000 ; home XY maximum,G161 Z F1200 ; home Z minimum,G92 Z-5 ; set Z to -5,G1 Z0 ; move Z to 0,G161 Z F100 ; home Z slowly,M132 X Y Z A B ; recall home offsets,G1 X-145 Y-75 Z30 F9000 ; move to wait position off table,G130 X20 Y20 Z20 A20 B20 ; lower stepper Vrefs while heating,M126 S[fan_speed_pwm],M140 S[bed0_temperature] T0,M134 T0 ; stabilize bed temperature,M104 S[extruder0_temperature] T0,M133 T0 ; stabilize extruder temperature,G130 X127 Y127 Z40 A127 B127 ; default stepper Vrefs,G92 A0 ; zero extruder,G1 Z0.4 ; position nozzle,G1 E25 F300 ; purge nozzle,G1 X-140 Y-70 Z0.15 F1200 ; slow wipe,G1 X-135 Y-65 Z0.5 F1200 ; lift,G92 A0 ; zero extruder,M73 P1 ;@body (notify GPX body has started),; **** end of start.gcode ****
;   layerChangeGcode,
;   retractionGcode,
;   toolChangeGcode,
;   endingGcode,; **** Replicator 2 end.gcode ****,M73 P100 ; end build progress,G1 Z155 F1000 ; send Z axis to bottom of machine,M104 S0 T0 ; cool down extruder,M140 S0 T0 ; cool down HBP,M127 ; stop blower fan,G162 X Y F3000 ; home XY maximum,M18 ; disable stepper,M0 ; stop codes,M72 P1 ; play Ta-Da song,; **** end of end.gcode ****
;   exportFileFormat,gcode
;   celebration,0
;   celebrationSong,Random Song
;   postProcessing,
;   defaultSpeed,4800
;   outlineUnderspeed,0.5
;   solidInfillUnderspeed,1
;   supportUnderspeed,1
;   rapidXYspeed,9000
;   rapidZspeed,1200
;   minBridgingArea,50
;   bridgingExtraInflation,0
;   bridgingExtrusionMultiplier,1
;   bridgingSpeedMultiplier,0.8
;   useFixedBridgingAngle,0
;   fixedBridgingAngle,0
;   applyBridgingToPerimeters,0
;   filamentDiameters,1.75|1.75|1.75|1.75|1.75|1.75
;   filamentPricesPerKg,46|46|46|46|46|46
;   filamentDensities,1.25|1.25|1.25|1.25|1.25|1.25
;   useMinPrintHeight,0
;   minPrintHeight,0
;   useMaxPrintHeight,0
;   maxPrintHeight,4.84
;   useDiaphragm,0
;   diaphragmLayerInterval,20
;   robustSlicing,1
;   mergeAllIntoSolid,0
;   onlyRetractWhenCrossingOutline,0
;   retractBetweenLayers,0
;   useRetractionMinTravel,1
;   retractionMinTravel,7
;   retractWhileWiping,1
;   onlyWipeOutlines,1
;   avoidCrossingOutline,0
;   maxMovementDetourFactor,3
;   toolChangeRetractionDistance,12
;   toolChangeExtraRestartDistance,-0.5
;   toolChangeRetractionSpeed,600
;   externalThinWallType,0
;   internalThinWallType,0
;   thinWallAllowedOverlapPercentage,10
;   singleExtrusionMinLength,1
;   singleExtrusionMinPrintingWidthPercentage,50
;   singleExtrusionMaxPrintingWidthPercentage,200
;   singleExtrusionEndpointExtension,0.2
;   horizontalSizeCompensation,0
G90
M83
; **** Replicator 2 start.gcode ****
M73 P0 ; enable build progress
G162 X Y F3000 ; home XY maximum
G161 Z F1200 ; home Z minimum
G92 Z-5 ; set Z to -5
G1 Z0 ; move Z to 0
G161 Z F100 ; home Z slowly
M132 X Y Z A B ; recall home offsets
G1 X-145 Y-75 Z30 F9000 ; move to wait position off table
G130 X20 Y20 Z20 A20 B20 ; lower stepper Vrefs while heating
M127
M140 S60 T0
M134 T0 ; stabilize bed temperature
M104 S230 T0
M133 T0 ; stabilize extruder temperature
G130 X127 Y127 Z40 A127 B127 ; default stepper Vrefs
G92 A0 ; zero extruder
G1 Z0.4 ; position nozzle
G1 E25 F300 ; purge nozzle
G1 X-140 Y-70 Z0.15 F1200 ; slow wipe
G1 X-135 Y-65 Z0.5 F1200 ; lift
G92 A0 ; zero extruder
M73 P1 ;@body (notify GPX body has started)
; **** end of start.gcode ****
; process Process1
; layer 1, Z = 0.200
M135 T0
G1 E-1.9000 F1200
; feature inner perimeter
; tool H0.200 W0.460
G1 Z0.500 F1200
G1 X-15.950 Y8.915 F9000
G1 Z0.200 F1200
G1 E1.9000 F1200
G1 X-17.951 Y8.915 E0.0765 F1800
G1 X-17.951 Y3.650 E0.2014
G1 X-15.950 Y3.650 E0.0765
G1 X-15.950 Y8.915 E0.2014
G1 E-1.9000 F1200
G1 Z0.700 F1200
G1 X-31.251 Y8.915 F9000
G1 Z0.200 F1200
G1 E1.9000 F1200
G1 X-33.251 Y8.915 E0.0765 F1800
G1 X-33.251 Y3.650 E0.2014
G1 X-31.251 Y3.650 E0.0765
G1 X-31.251 Y8.915 E0.2014
G1 X-33.711 Y9.375 F9000
G1 X-33.711 Y3.190 E0.2366 F1800
G1 X-15.490 Y3.190 E0.6969
G1 X-15.490 Y9.375 E0.2366
G1 X-33.711 Y9.375 E0.6969
; feature outer perimeter
G1 X-34.171 Y9.835 F9000
G1 X-34.171 Y2.730 E0.2718 F1200
G1 X-15.030 Y2.730 E0.7321
G1 X-15.030 Y9.835 E0.2718
G1 X-34.171 Y9.835 E0.7321
; feature inner perimeter
G1 X-30.791 Y9.226 F9000
G1 X-18.411 Y9.226 E0.4735 F1800
G1 X-18.411 Y3.339 E0.2252
G1 X-30.791 Y3.349 E0.4735
G1 X-30.791 Y9.226 E0.2248
; feature outer perimeter
G1 X-30.331 Y8.766 F9000
G1 X-18.871 Y8.766 E0.4384 F1200
G1 X-18.871 Y3.799 E0.1900
G1 X-30.331 Y3.808 E0.4384
G1 X-30.331 Y8.766 E0.1896
; feature solid layer
G1 X-32.414 Y8.570 F9000
G1 X-32.906 Y8.078 E0.0266 F2400
G1 X-32.906 Y7.427 E0.0249
G1 X-31.763 Y8.570 E0.0618
G1 X-31.596 Y8.570 E0.0064
G1 X-31.596 Y8.087 E0.0185
G1 X-32.906 Y6.777 E0.0709
G1 X-32.906 Y6.126 E0.0249
G1 X-31.596 Y7.436 E0.0709
G1 X-31.596 Y6.786 E0.0249
G1 X-32.906 Y5.476 E0.0709
G1 X-32.906 Y4.825 E0.0249
G1 X-31.596 Y6.135 E0.0709
G1 X-31.596 Y5.485 E0.0249
G1 X-32.906 Y4.175 E0.0709
G1 X-32.906 Y3.995 E0.0069
G1 X-32.435 Y3.995 E0.0180
G1 X-31.596 Y4.834 E0.0454
G1 X-31.596 Y4.184 E0.0249
G1 X-31.785 Y3.995 E0.0102
G1 E-1.9000 F1200
G1 Z0.700 F1200
G1 X-16.822 Y3.995 F9000
G1 Z0.200 F1200
G1 E1.9000 F1200
G1 X-16.295 Y4.522 E0.0285 F2400
G1 X-16.295 Y5.172 E0.0249
G1 X-17.473 Y3.995 E0.0637
G1 X-17.606 Y3.995 E0.0051
G1 X-17.606 Y4.513 E0.0198
G1 X-16.295 Y5.823 E0.0709
G1 X-16.295 Y6.473 E0.0249
G1 X-17.606 Y5.163 E0.0709
G1 X-17.606 Y5.814 E0.0249
G1 X-16.295 Y7.124 E0.0709
G1 X-16.295 Y7.774 E0.0249
G1 X-17.606 Y6.464 E0.0709
G1 X-17.606 Y7.115 E0.0249
G1 X-16.295 Y8.425 E0.0709
G1 X-16.295 Y8.570 E0.0056
G1 X-16.801 Y8.570 E0.0193
G1 X-17.606 Y7.765 E0.0435
G1 X-17.606 Y8.416 E0.0249
G1 X-17.451 Y8.570 E0.0083
G1 E-1.9000 F1200
; feature inner perimeter
G1 Z0.700 F1200
G1 X-15.950 Y-13.775 F9000
G1 Z0.200 F1200
G1 E1.9000 F1200
G1 X-17.951 Y-13.775 E0.0765 F1800
G1 X-17.951 Y-19.041 E0.2014
G1 X-15.950 Y-19.041 E0.0765
G1 X-15.950 Y-13.775 E0.2014
G1 E-1.9000 F1200
G1 Z0.700 F1200
G1 X-31.251 Y-13.775 F9000
G1 Z0.200 F1200
G1 E1.9000 F1200
G1 X-33.251 Y-13.775 E0.0765 F1800
G1 X-33.251 Y-19.041 E0.2014
G1 X-31.251 Y-19.041 E0.0765
G1 X-31.251 Y-13.775 E0.2014
G1 X-33.711 Y-13.315 F9000
G1 X-33.711 Y-19.501 E0.2366 F1800
G1 X-15.490 Y-19.501 E0.6969
G1 X-15.490 Y-13.315 E0.2366
G1 X-33.711 Y-13.315 E0.6969
; feature outer perimeter
G1 X-34.171 Y-12.855 F9000
G1 X-34.171 Y-19.961 E0.2718 F1200
G1 X-15.030 Y-19.961 E0.7321
G1 X-15.030 Y-12.855 E0.2718
G1 X-34.171 Y-12.855 E0.7321
; feature inner perimeter
G1 X-30.791 Y-13.465 F9000
G1 X-18.411 Y-13.465 E0.4735 F1800
G1 X-18.411 Y-19.352 E0.2252
G1 X-30.791 Y-19.342 E0.4735
G1 X-30.791 Y-13.465 E0.2248
; feature outer perimeter
G1 X-30.331 Y-13.925 F9000
G1 X-18.871 Y-13.925 E0.4384 F1200
G1 X-18.871 Y-18.892 E0.1900
G1 X-30.331 Y-18.882 E0.4384
G1 X-30.331 Y-13.925 E0.1896
; feature solid layer
G1 X-32.335 Y-14.120 F9000
G1 X-32.906 Y-14.691 E0.0309 F2400
G1 X-32.906 Y-15.342 E0.0249
G1 X-31.685 Y-14.120 E0.0661
G1 X-31.596 Y-14.120 E0.0034
G1 X-31.596 Y-14.682 E0.0215
G1 X-32.906 Y-15.992 E0.0709
G1 X-32.906 Y-16.643 E0.0249
G1 X-31.596 Y-15.333 E0.0709
G1 X-31.596 Y-15.983 E0.0249
G1 X-32.906 Y-17.293 E0.0709
G1 X-32.906 Y-17.944 E0.0249
G1 X-31.596 Y-16.634 E0.0709
G1 X-31.596 Y-17.284 E0.0249
G1 X-32.906 Y-18.594 E0.0709
G1 X-32.906 Y-18.696 E0.0039
G1 X-32.357 Y-18.696 E0.0210
G1 X-31.596 Y-17.935 E0.0412
G1 X-31.596 Y-18.585 E0.0249
G1 X-31.706 Y-18.696 E0.0060
G1 E-1.9000 F1200
G1 Z0.700 F1200
G1 X-16.744 Y-18.696 F9000
G1 Z0.200 F1200
G1 E1.9000 F1200
G1 X-16.295 Y-18.247 E0.0243 F2400
G1 X-16.295 Y-17.597 E0.0249
G1 X-17.395 Y-18.696 E0.0595
G1 X-17.606 Y-18.696 E0.0081
G1 X-17.606 Y-18.256 E0.0168
G1 X-16.295 Y-16.946 E0.0709
G1 X-16.295 Y-16.295 E0.0249
G1 X-17.606 Y-17.606 E0.0709
G1 X-17.606 Y-16.955 E0.0249
G1 X-16.295 Y-15.645 E0.0709
G1 X-16.295 Y-14.994 E0.0249
G1 X-17.606 Y-16.305 E0.0709
G1 X-17.606 Y-15.654 E0.0249
G1 X-16.295 Y-14.344 E0.0709
G1 X-16.295 Y-14.120 E0.0085
G1 X-16.723 Y-14.120 E0.0163
G1 X-17.606 Y-15.003 E0.0478
G1 X-17.606 Y-14.353 E0.0249
G1 X-17.373 Y-14.120 E0.0126
G1 E-1.9000 F1200
; feature inner perimeter
G1 Z0.700 F1200
G1 X-6.650 Y-13.775 F9000
G1 Z0.200 F1200
G1 E1.9000 F1200
G1 X-8.650 Y-13.775 E0.0765 F1800
G1 X-8.650 Y-19.041 E0.2014
G1 X-6.650 Y-19.041 E0.0765
G1 X-6.650 Y-13.775 E0.2014
G1 E-1.9000 F1200
G1 Z0.700 F1200
G1 X6.650 Y-13.775 F9000
G1 Z0.200 F1200
G1 E1.9000 F1200
G1 X6.650 Y-19.041 E0.2014 F1800
G1 X8.650 Y-19.041 E0.0765
G1 X8.650 Y-13.775 E0.2014
G1 X6.650 Y-13.775 E0.0765
G1 X9.110 Y-13.315 F9000
G1 X-9.110 Y-13.315 E0.6969 F1800
G1 X-9.110 Y-19.501 E0.2366
G1 X9.110 Y-19.501 E0.6969
G1 X9.110 Y-13.315 E0.2366
; feature outer perimeter
G1 X9.570 Y-12.855 F9000
G1 X-9.570 Y-12.855 E0.7321 F1200
G1 X-9.570 Y-19.961 E0.2718
G1 X9.570 Y-19.961 E0.7321
G1 X9.570 Y-12.855 E0.2718
; feature inner perimeter
G1 X6.190 Y-13.465 F9000
G1 X6.190 Y-19.352 E0.2252 F1800
G1 X-6.190 Y-19.342 E0.4735
G1 X-6.190 Y-13.465 E0.2248
G1 X6.190 Y-13.465 E0.4735
; feature outer perimeter
G1 X5.730 Y-13.925 F9000
G1 X5.730 Y-18.892 E0.1900 F1200
G1 X-5.730 Y-18.882 E0.4384
G1 X-5.730 Y-13.925 E0.1896
G1 X5.730 Y-13.925 E0.4384
; feature solid layer
G1 X7.347 Y-14.120 F9000
G1 X6.995 Y-14.473 E0.0190 F2400
G1 X6.995 Y-15.123 E0.0249
G1 X7.998 Y-14.120 E0.0542
G1 X8.305 Y-14.120 E0.0118
G1 X8.305 Y-14.464 E0.0131
G1 X6.995 Y-15.774 E0.0709
G1 X6.995 Y-16.424 E0.0249
G1 X8.305 Y-15.114 E0.0709
G1 X8.305 Y-15.765 E0.0249
G1 X6.995 Y-17.075 E0.0709
G1 X6.995 Y-17.725 E0.0249
G1 X8.305 Y-16.415 E0.0709
G1 X8.305 Y-17.066 E0.0249
G1 X6.995 Y-18.376 E0.0709
G1 X6.995 Y-18.696 E0.0122
G1 X7.326 Y-18.696 E0.0126
G1 X8.305 Y-17.716 E0.0530
G1 X8.305 Y-18.367 E0.0249
G1 X7.976 Y-18.696 E0.0178
G1 E-1.9000 F1200
G1 Z0.700 F1200
G1 X-7.636 Y-18.696 F9000
G1 Z0.200 F1200
G1 E1.9000 F1200
G1 X-6.995 Y-18.054 E0.0347 F2400
G1 X-6.995 Y-17.404 E0.0249
G1 X-8.287 Y-18.696 E0.0699
G1 X-8.305 Y-18.696 E0.0007
G1 X-8.305 Y-18.063 E0.0242
G1 X-6.995 Y-16.753 E0.0709
G1 X-6.995 Y-16.103 E0.0249
G1 X-8.305 Y-17.413 E0.0709
G1 X-8.305 Y-16.762 E0.0249
G1 X-6.995 Y-15.452 E0.0709
G1 X-6.995 Y-14.802 E0.0249
G1 X-8.305 Y-16.112 E0.0709
G1 X-8.305 Y-15.461 E0.0249
G1 X-6.995 Y-14.151 E0.0709
G1 X-6.995 Y-14.120 E0.0012
G1 X-7.615 Y-14.120 E0.0237
G1 X-8.305 Y-14.811 E0.0373
G1 X-8.305 Y-14.160 E0.0249
G1 X-8.266 Y-14.120 E0.0022
G1 E-1.9000 F1200
; feature inner perimeter
G1 Z0.700 F1200
G1 X15.950 Y-13.775 F9000
G1 Z0.200 F1200
G1 E1.9000 F1200
G1 X15.950 Y-19.041 E0.2014 F1800
G1 X17.951 Y-19.041 E0.0765
G1 X17.951 Y-13.775 E0.2014
G1 X15.950 Y-13.775 E0.0765
G1 E-1.9000 F1200
G1 Z0.700 F1200
G1 X31.251 Y-13.775 F9000
G1 Z0.200 F1200
G1 E1.9000 F1200
G1 X31.251 Y-19.041 E0.2014 F1800
G1 X33.251 Y-19.041 E0.0765
G1 X33.251 Y-13.775 E0.2014
G1 X31.251 Y-13.775 E0.0765
G1 X33.711 Y-13.315 F9000
G1 X15.490 Y-13.315 E0.6969 F1800
G1 X15.490 Y-19.501 E0.2366
G1 X33.711 Y-19.501 E0.6969
G1 X33.711 Y-13.315 E0.2366
; feature outer perimeter
G1 X34.171 Y-12.855 F9000
G1 X15.030 Y-12.855 E0.7321 F1200
G1 X15.030 Y-19.961 E0.2718
G1 X34.171 Y-19.961 E0.7321
G1 X34.171 Y-12.855 E0.2718
; feature inner perimeter
G1 X30.791 Y-13.465 F9000
G1 X30.791 Y-19.352 E0.2252 F1800
G1 X18.411 Y-19.342 E0.4735
G1 X18.411 Y-13.465 E0.2248
G1 X30.791 Y-13.465 E0.4735
; feature outer perimeter
G1 X30.331 Y-13.925 F9000
G1 X30.331 Y-18.892 E0.1900 F1200
G1 X18.871 Y-18.882 E0.4384
G1 X18.871 Y-13.925 E0.1896
G1 X30.331 Y-13.925 E0.4384
; feature solid layer
G1 X32.068 Y-14.120 F9000
G1 X31.596 Y-14.592 E0.0255 F2400
G1 X31.596 Y-15.243 E0.0249
G1 X32.718 Y-14.120 E0.0607
G1 X32.906 Y-14.120 E0.0072
G1 X32.906 Y-14.583 E0.0177
G1 X31.596 Y-15.893 E0.0709
G1 X31.596 Y-16.544 E0.0249
G1 X32.906 Y-15.234 E0.0709
G1 X32.906 Y-15.884 E0.0249
G1 X31.596 Y-17.194 E0.0709
G1 X31.596 Y-17.845 E0.0249
G1 X32.906 Y-16.535 E0.0709
G1 X32.906 Y-17.185 E0.0249
G1 X31.596 Y-18.496 E0.0709
G1 X31.596 Y-18.696 E0.0077
G1 X32.046 Y-18.696 E0.0172
G1 X32.906 Y-17.836 E0.0465
G1 X32.906 Y-18.486 E0.0249
