; G-Code generated by Simplify3D(R) Version 4.1.2
; Apr 6, 2020 at 12:02:33 PM
; Settings Summary
;   processName,Process1
;   applyToModels,LED holderV3R2,LED holderV3R2(2)
;   profileName,MakerBot Replicator 2 HBP (modified)
;   profileVersion,2020-03-12 10:48:50
;   baseProfile,MakerBot Replicator 2(2)
;   printMaterial,PLA
;   printQuality,Medium
;   printExtruders,
;   extruderName,Primary Extruder
;   extruderToolheadNumber,0
;   extruderDiameter,0.4
;   extruderAutoWidth,0
;   extruderWidth,0.4
;   extrusionMultiplier,1
;   extruderUseRetract,1
;   extruderRetractionDistance,1.9
;   extruderExtraRestartDistance,0
;   extruderRetractionZLift,0.5
;   extruderRetractionSpeed,1200
;   extruderUseCoasting,0
;   extruderCoastingDistance,0.2
;   extruderUseWipe,0
;   extruderWipeDistance,5
;   primaryExtruder,0
;   layerHeight,0.2
;   topSolidLayers,3
;   bottomSolidLayers,3
;   perimeterOutlines,3
;   printPerimetersInsideOut,1
;   startPointOption,3
;   startPointOriginX,0
;   startPointOriginY,150
;   sequentialIslands,0
;   spiralVaseMode,0
;   firstLayerHeightPercentage,100
;   firstLayerWidthPercentage,115
;   firstLayerUnderspeed,0.5
;   useRaft,0
;   raftExtruder,0
;   raftTopLayers,2
;   raftBaseLayers,1
;   raftOffset,1
;   raftSeparationDistance,0.14
;   raftTopInfill,90
;   aboveRaftSpeedMultiplier,0.3
;   useSkirt,0
;   skirtExtruder,0
;   skirtLayers,1
;   skirtOutlines,5
;   skirtOffset,0
;   usePrimePillar,0
;   primePillarExtruder,999
;   primePillarWidth,12
;   primePillarLocation,7
;   primePillarSpeedMultiplier,1
;   useOozeShield,0
;   oozeShieldExtruder,999
;   oozeShieldOffset,2
;   oozeShieldOutlines,1
;   oozeShieldSidewallShape,1
;   oozeShieldSidewallAngle,30
;   oozeShieldSpeedMultiplier,1
;   infillExtruder,0
;   internalInfillPattern,Rectilinear
;   externalInfillPattern,Rectilinear
;   infillPercentage,15
;   outlineOverlapPercentage,25
;   infillExtrusionWidthPercentage,100
;   minInfillLength,5
;   infillLayerInterval,1
;   internalInfillAngles,45,-45
;   overlapInternalInfillAngles,0
;   externalInfillAngles,45,-45
;   generateSupport,1
;   supportExtruder,0
;   supportInfillPercentage,30
;   supportExtraInflation,0.5
;   supportBaseLayers,0
;   denseSupportExtruder,0
;   denseSupportLayers,2
;   denseSupportInfillPercentage,90
;   supportLayerInterval,1
;   supportHorizontalPartOffset,0.3
;   supportUpperSeparationLayers,1
;   supportLowerSeparationLayers,1
;   supportType,1
;   supportGridSpacing,2
;   maxOverhangAngle,45
;   supportAngles,45,-45
;   temperatureName,Primary Extruder,Heated Build Platform
;   temperatureNumber,0,0
;   temperatureSetpointCount,1,1
;   temperatureSetpointLayers,1,1
;   temperatureSetpointTemperatures,230,60
;   temperatureStabilizeAtStartup,1,1
;   temperatureHeatedBed,0,1
;   fanLayers,1,2
;   fanSpeeds,0,100
;   blipFanToFullPower,1
;   adjustSpeedForCooling,1
;   minSpeedLayerTime,15
;   minCoolingSpeedSlowdown,20
;   increaseFanForCooling,1
;   minFanLayerTime,45
;   maxCoolingFanSpeed,100
;   increaseFanForBridging,1
;   bridgingFanSpeed,100
;   use5D,1
;   relativeEdistances,1
;   allowEaxisZeroing,0
;   independentExtruderAxes,1
;   includeM10123,0
;   stickySupport,1
;   applyToolheadOffsets,0
;   gcodeXoffset,0
;   gcodeYoffset,0
;   gcodeZoffset,0
;   overrideMachineDefinition,1
;   machineTypeOverride,0
;   strokeXoverride,280
;   strokeYoverride,150
;   strokeZoverride,150
;   originOffsetXoverride,140
;   originOffsetYoverride,75
;   originOffsetZoverride,0
;   homeXdirOverride,1
;   homeYdirOverride,1
;   homeZdirOverride,-1
;   flipXoverride,1
;   flipYoverride,-1
;   flipZoverride,1
;   toolheadOffsets,0,0|0,0|0,0|0,0|0,0|0,0
;   overrideFirmwareConfiguration,1
;   firmwareTypeOverride,MakerBot/Sailfish Firmware
;   GPXconfigOverride,r2h
;   baudRateOverride,115200
;   overridePrinterModels,1
;   printerModelsOverride,MakerBot_Replicator2.stl
;   startingGcode,; **** Replicator 2 start.gcode ****,M73 P0 ; enable build progress,G162 X Y F3000 ; home XY maximum,G161 Z F1200 ; home Z minimum,G92 Z-5 ; set Z to -5,G1 Z0 ; move Z to 0,G161 Z F100 ; home Z slowly,M132 X Y Z A B ; recall home offsets,G1 X-145 Y-75 Z30 F9000 ; move to wait position off table,G130 X20 Y20 Z20 A20 B20 ; lower stepper Vrefs while heating,M126 S[fan_speed_pwm],M140 S[bed0_temperature] T0,M134 T0 ; stabilize bed temperature,M104 S[extruder0_temperature] T0,M133 T0 ; stabilize extruder temperature,G130 X127 Y127 Z40 A127 B127 ; default stepper Vrefs,G92 A0 ; zero extruder,G1 Z0.4 ; position nozzle,G1 E25 F300 ; purge nozzle,G1 X-140 Y-70 Z0.15 F1200 ; slow wipe,G1 X-135 Y-65 Z0.5 F1200 ; lift,G92 A0 ; zero extruder,M73 P1 ;@body (notify GPX body has started),; **** end of start.gcode ****
;   layerChangeGcode,
;   retractionGcode,
;   toolChangeGcode,
;   endingGcode,; **** Replicator 2 end.gcode ****,M73 P100 ; end build progress,G1 Z155 F1000 ; send Z axis to bottom of machine,M104 S0 T0 ; cool down extruder,M140 S0 T0 ; cool down HBP,M127 ; stop blower fan,G162 X Y F3000 ; home XY maximum,M18 ; disable stepper,M0 ; stop codes,M72 P1 ; play Ta-Da song,; **** end of end.gcode ****
;   exportFileFormat,gcode
;   celebration,0
;   celebrationSong,Random Song
;   postProcessing,
;   defaultSpeed,4800
;   outlineUnderspeed,0.5
;   solidInfillUnderspeed,1
;   supportUnderspeed,1
;   rapidXYspeed,9000
;   rapidZspeed,1200
;   minBridgingArea,50
;   bridgingExtraInflation,0
;   bridgingExtrusionMultiplier,1
;   bridgingSpeedMultiplier,0.8
;   useFixedBridgingAngle,0
;   fixedBridgingAngle,0
;   applyBridgingToPerimeters,0
;   filamentDiameters,1.75|1.75|1.75|1.75|1.75|1.75
;   filamentPricesPerKg,46|46|46|46|46|46
;   filamentDensities,1.25|1.25|1.25|1.25|1.25|1.25
;   useMinPrintHeight,0
;   minPrintHeight,0
;   useMaxPrintHeight,0
;   maxPrintHeight,4.84
;   useDiaphragm,0
;   diaphragmLayerInterval,20
;   robustSlicing,1
;   mergeAllIntoSolid,0
;   onlyRetractWhenCrossingOutline,0
;   retractBetweenLayers,0
;   useRetractionMinTravel,1
;   retractionMinTravel,7
;   retractWhileWiping,1
;   onlyWipeOutlines,1
;   avoidCrossingOutline,0
;   maxMovementDetourFactor,3
;   toolChangeRetractionDistance,12
;   toolChangeExtraRestartDistance,-0.5
;   toolChangeRetractionSpeed,600
;   externalThinWallType,0
;   internalThinWallType,0
;   thinWallAllowedOverlapPercentage,10
;   singleExtrusionMinLength,1
;   singleExtrusionMinPrintingWidthPercentage,50
;   singleExtrusionMaxPrintingWidthPercentage,200
;   singleExtrusionEndpointExtension,0.2
;   horizontalSizeCompensation,0
G90
M83
; **** Replicator 2 start.gcode ****
M73 P0 ; enable build progress
G162 X Y F3000 ; home XY maximum
G161 Z F1200 ; home Z minimum
G92 Z-5 ; set Z to -5
G1 Z0 ; move Z to 0
G161 Z F100 ; home Z slowly
M132 X Y Z A B ; recall home offsets
G1 X-145 Y-75 Z30 F9000 ; move to wait position off table
G130 X20 Y20 Z20 A20 B20 ; lower stepper Vrefs while heating
M126 S113
M140 S60 T0
M134 T0 ; stabilize bed temperature
M104 S230 T0
M133 T0 ; stabilize extruder temperature
G130 X127 Y127 Z40 A127 B127 ; default stepper Vrefs
G92 A0 ; zero extruder
G1 Z0.4 ; position nozzle
G1 E25 F300 ; purge nozzle
G1 X-140 Y-70 Z0.15 F1200 ; slow wipe
G1 X-135 Y-65 Z0.5 F1200 ; lift
G92 A0 ; zero extruder
M73 P1 ;@body (notify GPX body has started)
; **** end of start.gcode ****
; process Process1
; layer 1, Z = 0.200
M135 T0
G1 E-1.9000 F1200
; feature inner perimeter
; tool H0.200 W0.460
G1 Z0.500 F1200
G1 X3.650 Y-2.430 F9000
G1 Z0.200 F1200
G1 E1.9000 F1200
G1 X3.650 Y-7.695 E0.2014 F1800
G1 X5.650 Y-7.695 E0.0765
G1 X5.650 Y-2.430 E0.2014
G1 X3.650 Y-2.430 E0.0765
G1 E-1.9000 F1200
G1 Z0.700 F1200
G1 X18.951 Y-2.430 F9000
G1 Z0.200 F1200
G1 E1.9000 F1200
G1 X18.951 Y-7.695 E0.2014 F1800
G1 X20.951 Y-7.695 E0.0765
G1 X20.951 Y-2.430 E0.2014
G1 X18.951 Y-2.430 E0.0765
G1 X21.411 Y-1.970 F9000
G1 X3.190 Y-1.970 E0.6969 F1800
G1 X3.190 Y-8.155 E0.2366
G1 X21.411 Y-8.155 E0.6969
G1 X21.411 Y-1.970 E0.2366
; feature outer perimeter
G1 X21.871 Y-1.510 F9000
G1 X2.730 Y-1.510 E0.7321 F1200
G1 X2.730 Y-8.615 E0.2718
G1 X21.871 Y-8.615 E0.7321
G1 X21.871 Y-1.510 E0.2718
; feature inner perimeter
G1 X18.491 Y-2.119 F9000
G1 X18.491 Y-8.007 E0.2252 F1800
G1 X6.110 Y-7.997 E0.4735
G1 X6.110 Y-2.119 E0.2248
G1 X18.491 Y-2.119 E0.4735
; feature outer perimeter
G1 X18.031 Y-2.579 F9000
G1 X18.031 Y-7.546 E0.1900 F1200
G1 X6.570 Y-7.537 E0.4384
G1 X6.570 Y-2.579 E0.1896
G1 X18.031 Y-2.579 E0.4384
; feature solid layer
G1 X19.343 Y-2.775 F9000
G1 X19.296 Y-2.823 E0.0026 F2400
G1 X19.296 Y-3.473 E0.0249
G1 X19.994 Y-2.775 E0.0378
G1 X20.606 Y-2.775 E0.0234
G1 X20.606 Y-2.814 E0.0015
G1 X19.296 Y-4.124 E0.0709
G1 X19.296 Y-4.774 E0.0249
G1 X20.606 Y-3.464 E0.0709
G1 X20.606 Y-4.115 E0.0249
G1 X19.296 Y-5.425 E0.0709
G1 X19.296 Y-6.075 E0.0249
G1 X20.606 Y-4.765 E0.0709
G1 X20.606 Y-5.416 E0.0249
G1 X19.296 Y-6.726 E0.0709
G1 X19.296 Y-7.350 E0.0239
G1 X19.322 Y-7.350 E0.0010
G1 X20.606 Y-6.066 E0.0695
G1 X20.606 Y-6.717 E0.0249
G1 X19.972 Y-7.350 E0.0343
G1 E-1.9000 F1200
G1 Z0.700 F1200
G1 X5.010 Y-7.350 F9000
G1 Z0.200 F1200
G1 E1.9000 F1200
G1 X5.305 Y-7.055 E0.0160 F2400
G1 X5.305 Y-6.405 E0.0249
G1 X4.359 Y-7.350 E0.0512
G1 X3.995 Y-7.350 E0.0139
G1 X3.995 Y-7.064 E0.0109
G1 X5.305 Y-5.754 E0.0709
G1 X5.305 Y-5.103 E0.0249
G1 X3.995 Y-6.414 E0.0709
G1 X3.995 Y-5.763 E0.0249
G1 X5.305 Y-4.453 E0.0709
G1 X5.305 Y-3.802 E0.0249
G1 X3.995 Y-5.113 E0.0709
G1 X3.995 Y-4.462 E0.0249
G1 X5.305 Y-3.152 E0.0709
G1 X5.305 Y-2.775 E0.0144
G1 X5.031 Y-2.775 E0.0105
G1 X3.995 Y-3.811 E0.0561
G1 X3.995 Y-3.161 E0.0249
G1 X4.381 Y-2.775 E0.0209
G1 E-1.9000 F1200
; feature inner perimeter
G1 Z0.700 F1200
G1 X-3.650 Y-2.430 F9000
G1 Z0.200 F1200
G1 E1.9000 F1200
G1 X-5.650 Y-2.430 E0.0765 F1800
G1 X-5.650 Y-7.695 E0.2014
G1 X-3.650 Y-7.695 E0.0765
G1 X-3.650 Y-2.430 E0.2014
G1 E-1.9000 F1200
G1 Z0.700 F1200
G1 X-18.951 Y-2.430 F9000
G1 Z0.200 F1200
G1 E1.9000 F1200
G1 X-20.951 Y-2.430 E0.0765 F1800
G1 X-20.951 Y-7.695 E0.2014
G1 X-18.951 Y-7.695 E0.0765
G1 X-18.951 Y-2.430 E0.2014
G1 X-21.411 Y-1.970 F9000
G1 X-21.411 Y-8.155 E0.2366 F1800
G1 X-3.190 Y-8.155 E0.6969
G1 X-3.190 Y-1.970 E0.2366
G1 X-21.411 Y-1.970 E0.6969
; feature outer perimeter
G1 X-21.871 Y-1.510 F9000
G1 X-21.871 Y-8.615 E0.2718 F1200
G1 X-2.730 Y-8.615 E0.7321
G1 X-2.730 Y-1.510 E0.2718
G1 X-21.871 Y-1.510 E0.7321
; feature inner perimeter
G1 X-18.491 Y-2.119 F9000
G1 X-6.110 Y-2.119 E0.4735 F1800
G1 X-6.110 Y-8.007 E0.2252
G1 X-18.491 Y-7.997 E0.4735
G1 X-18.491 Y-2.119 E0.2248
; feature outer perimeter
G1 X-18.031 Y-2.579 F9000
G1 X-6.570 Y-2.579 E0.4384 F1200
G1 X-6.570 Y-7.546 E0.1900
G1 X-18.031 Y-7.537 E0.4384
G1 X-18.031 Y-2.579 E0.1896
; feature solid layer
G1 X-20.340 Y-2.775 F9000
G1 X-20.606 Y-3.041 E0.0144 F2400
G1 X-20.606 Y-3.692 E0.0249
G1 X-19.689 Y-2.775 E0.0496
G1 X-19.296 Y-2.775 E0.0151
G1 X-19.296 Y-3.032 E0.0098
G1 X-20.606 Y-4.342 E0.0709
G1 X-20.606 Y-4.993 E0.0249
G1 X-19.296 Y-3.683 E0.0709
G1 X-19.296 Y-4.333 E0.0249
G1 X-20.606 Y-5.643 E0.0709
G1 X-20.606 Y-6.294 E0.0249
G1 X-19.296 Y-4.984 E0.0709
G1 X-19.296 Y-5.634 E0.0249
G1 X-20.606 Y-6.944 E0.0709
G1 X-20.606 Y-7.350 E0.0155
G1 X-20.361 Y-7.350 E0.0094
G1 X-19.296 Y-6.285 E0.0576
G1 X-19.296 Y-6.935 E0.0249
G1 X-19.711 Y-7.350 E0.0224
G1 E-1.9000 F1200
G1 Z0.700 F1200
G1 X-4.098 Y-7.350 F9000
G1 Z0.200 F1200
G1 E1.9000 F1200
G1 X-3.995 Y-7.248 E0.0055 F2400
G1 X-3.995 Y-6.597 E0.0249
G1 X-4.748 Y-7.350 E0.0407
G1 X-5.305 Y-7.350 E0.0213
G1 X-5.305 Y-7.257 E0.0036
G1 X-3.995 Y-5.947 E0.0709
G1 X-3.995 Y-5.296 E0.0249
G1 X-5.305 Y-6.606 E0.0709
G1 X-5.305 Y-5.956 E0.0249
G1 X-3.995 Y-4.646 E0.0709
G1 X-3.995 Y-3.995 E0.0249
G1 X-5.305 Y-5.305 E0.0709
G1 X-5.305 Y-4.655 E0.0249
G1 X-3.995 Y-3.345 E0.0709
G1 X-3.995 Y-2.775 E0.0218
G1 X-4.076 Y-2.775 E0.0031
G1 X-5.305 Y-4.004 E0.0665
G1 X-5.305 Y-3.354 E0.0249
G1 X-4.727 Y-2.775 E0.0313
G1 E-1.9000 F1200
; feature support
G1 Z0.700 F1200
G1 X-19.780 Y6.269 F9000
G1 Z0.200 F1200
G1 E1.9000 F1200
G1 X-19.569 Y6.480 E0.0114 F2400
G1 X-19.044 Y6.480 E0.0201
G1 X-19.044 Y7.005 E0.0201
G1 X-18.320 Y7.729 E0.0392
G1 X-17.808 Y7.729 E0.0196
G1 X-17.808 Y8.241 E0.0196
G1 X-16.472 Y9.577 E0.0722
G1 X-15.819 Y9.577 E0.0250
G1 X-15.819 Y10.002 E0.0163
G1 X-14.161 Y10.002 E0.0634
G1 X-19.780 Y4.383 E0.3039
G1 X-19.780 Y3.865 E0.0198
G1 X-20.298 Y3.865 E0.0198
G1 X-20.980 Y3.184 E0.0369
G1 X-20.980 Y2.480 E0.0269
G1 X-21.683 Y2.480 E0.0269
G1 X-21.780 Y2.383 E0.0052
G1 X-21.780 Y0.497 E0.0721
G1 X-12.383 Y9.895 E0.5083
G1 X-10.714 Y9.895 E0.0638
G1 X-10.714 Y9.857 E0.0014
G1 X-10.535 Y9.857 E0.0069
G1 X-13.457 Y6.935 E0.1581
G1 X-13.674 Y6.935 E0.0083
G1 X-13.674 Y7.042 E0.0041
G1 X-14.820 Y7.042 E0.0438
G1 X-14.820 Y5.572 E0.0562
G1 X-21.132 Y-0.740 E0.3414
G1 X-19.247 Y-0.740 E0.0721
G1 X-14.820 Y3.686 E0.2394
G1 X-14.820 Y2.480 E0.0461
G1 X-14.141 Y2.480 E0.0260
G1 X-17.361 Y-0.740 E0.1742
G1 X-15.475 Y-0.740 E0.0721
G1 X-12.255 Y2.480 E0.1742
G1 X-10.370 Y2.480 E0.0721
G1 X-13.590 Y-0.740 E0.1742
G1 X-11.704 Y-0.740 E0.0721
G1 X-8.484 Y2.480 E0.1742
G1 X-7.780 Y2.480 E0.0269
G1 X-7.780 Y3.184 E0.0269
G1 X-4.820 Y6.144 E0.1601
G1 X-4.820 Y4.258 E0.0721
G1 X-9.818 Y-0.740 E0.2704
G1 X-7.933 Y-0.740 E0.0721
G1 X-3.748 Y3.444 E0.2263
G1 X-3.748 Y2.480 E0.0369
G1 X-2.827 Y2.480 E0.0352
G1 X-6.047 Y-0.740 E0.1742
G1 X-4.162 Y-0.740 E0.0721
G1 X-2.244 Y1.177 E0.1037
G1 X-2.142 Y1.177 E0.0039
G1 X-2.142 Y-0.606 E0.0682
G1 X-2.276 Y-0.740 E0.0073
G1 E-1.9000 F1200
G1 Z0.700 F1200
G1 X-7.912 Y4.938 F9000
G1 Z0.200 F1200
G1 E1.9000 F1200
G1 X-5.955 Y6.894 E0.1058 F2400
G1 X-5.955 Y7.898 E0.0384
G1 X-6.650 Y7.898 E0.0266
G1 X-6.650 Y8.085 E0.0072
G1 X-8.915 Y5.820 E0.1226
G1 X-8.915 Y6.592 E0.0295
G1 X-9.610 Y6.592 E0.0266
G1 X-9.610 Y6.897 E0.0117
G1 X-9.724 Y6.897 E0.0044
G1 X-7.068 Y9.552 E0.1436
G1 X-8.600 Y9.552 E0.0586
G1 X-8.600 Y9.857 E0.0117
G1 X-8.649 Y9.857 E0.0019
G1 X-11.572 Y6.935 E0.1581
G1 E-1.9000 F1200
G1 Z0.700 F1200
G1 X4.820 Y6.356 F9000
G1 Z0.200 F1200
G1 E1.9000 F1200
G1 X4.944 Y6.480 E0.0067 F2400
G1 X5.556 Y6.480 E0.0234
G1 X5.556 Y7.092 E0.0234
G1 X6.193 Y7.729 E0.0344
G1 X6.793 Y7.729 E0.0229
G1 X6.793 Y8.329 E0.0229
G1 X8.041 Y9.577 E0.0675
G1 X8.782 Y9.577 E0.0283
G1 X8.782 Y10.002 E0.0163
G1 X10.352 Y10.002 E0.0600
G1 X4.820 Y4.471 E0.2992
G1 X4.820 Y3.865 E0.0232
G1 X4.215 Y3.865 E0.0232
G1 X3.621 Y3.271 E0.0321
G1 X3.621 Y2.480 E0.0303
G1 X2.830 Y2.480 E0.0303
G1 X2.820 Y2.471 E0.0005
G1 X2.820 Y0.585 E0.0721
G1 X12.130 Y9.895 E0.5036
G1 X13.887 Y9.895 E0.0672
G1 X13.887 Y9.857 E0.0014
G1 X13.978 Y9.857 E0.0035
G1 X11.056 Y6.935 E0.1581
G1 X10.927 Y6.935 E0.0049
G1 X10.927 Y7.042 E0.0041
G1 X9.780 Y7.042 E0.0438
G1 X9.780 Y5.659 E0.0529
G1 X3.381 Y-0.740 E0.3462
G1 X5.266 Y-0.740 E0.0721
G1 X9.780 Y3.774 E0.2442
G1 X9.780 Y2.480 E0.0495
G1 X10.372 Y2.480 E0.0226
G1 X7.152 Y-0.740 E0.1742
G1 X9.038 Y-0.740 E0.0721
G1 X12.258 Y2.480 E0.1742
G1 X14.143 Y2.480 E0.0721
G1 X10.923 Y-0.740 E0.1742
G1 X12.809 Y-0.740 E0.0721
G1 X16.029 Y2.480 E0.1742
G1 X16.820 Y2.480 E0.0303
G1 X16.820 Y3.271 E0.0303
G1 X19.780 Y6.231 E0.1601
G1 X19.780 Y4.346 E0.0721
G1 X14.695 Y-0.740 E0.2751
G1 X16.580 Y-0.740 E0.0721
G1 X20.852 Y3.532 E0.2311
G1 X20.852 Y2.480 E0.0402
G1 X21.686 Y2.480 E0.0319
G1 X18.466 Y-0.740 E0.1742
G1 X20.351 Y-0.740 E0.0721
G1 X22.269 Y1.177 E0.1037
G1 X22.459 Y1.177 E0.0073
G1 X22.459 Y-0.518 E0.0648
G1 X22.237 Y-0.740 E0.0120
G1 E-1.9000 F1200
G1 Z0.700 F1200
G1 X16.601 Y4.938 F9000
G1 Z0.200 F1200
G1 E1.9000 F1200
G1 X18.645 Y6.982 E0.1106 F2400
G1 X18.645 Y7.898 E0.0350
G1 X17.951 Y7.898 E0.0266
G1 X17.951 Y8.173 E0.0105
G1 X15.685 Y5.908 E0.1226
G1 X15.685 Y6.592 E0.0262
G1 X14.991 Y6.592 E0.0266
G1 X14.991 Y6.897 E0.0117
G1 X14.789 Y6.897 E0.0077
G1 X17.445 Y9.552 E0.1436
G1 X16.001 Y9.552 E0.0552
G1 X16.001 Y9.857 E0.0117
G1 X15.864 Y9.857 E0.0052
G1 X12.941 Y6.935 E0.1581
G1 E-1.9000 F1200
; layer 2, Z = 0.400
M126 S255
; feature inner perimeter
; tool H0.200 W0.400
G1 Z0.700 F1200
