; G-Code generated by Simplify3D(R) Version 4.1.2
; Apr 6, 2020 at 12:05:48 PM
; Settings Summary
;   processName,Process1
;   applyToModels,Tower roof,Tower roof(2),Tower roof(3),Tower roof(2)(2)
;   profileName,MakerBot Replicator 2 HBP (modified)
;   profileVersion,2020-03-12 10:48:50
;   baseProfile,MakerBot Replicator 2(2)
;   printMaterial,PLA
;   printQuality,Medium
;   printExtruders,
;   extruderName,Primary Extruder
;   extruderToolheadNumber,0
;   extruderDiameter,0.4
;   extruderAutoWidth,0
;   extruderWidth,0.4
;   extrusionMultiplier,1
;   extruderUseRetract,1
;   extruderRetractionDistance,1.9
;   extruderExtraRestartDistance,0
;   extruderRetractionZLift,0.5
;   extruderRetractionSpeed,1200
;   extruderUseCoasting,0
;   extruderCoastingDistance,0.2
;   extruderUseWipe,0
;   extruderWipeDistance,5
;   primaryExtruder,0
;   layerHeight,0.2
;   topSolidLayers,3
;   bottomSolidLayers,3
;   perimeterOutlines,3
;   printPerimetersInsideOut,1
;   startPointOption,3
;   startPointOriginX,0
;   startPointOriginY,150
;   sequentialIslands,0
;   spiralVaseMode,0
;   firstLayerHeightPercentage,100
;   firstLayerWidthPercentage,115
;   firstLayerUnderspeed,0.5
;   useRaft,0
;   raftExtruder,0
;   raftTopLayers,2
;   raftBaseLayers,1
;   raftOffset,1
;   raftSeparationDistance,0.14
;   raftTopInfill,90
;   aboveRaftSpeedMultiplier,0.3
;   useSkirt,0
;   skirtExtruder,0
;   skirtLayers,1
;   skirtOutlines,5
;   skirtOffset,0
;   usePrimePillar,0
;   primePillarExtruder,999
;   primePillarWidth,12
;   primePillarLocation,7
;   primePillarSpeedMultiplier,1
;   useOozeShield,0
;   oozeShieldExtruder,999
;   oozeShieldOffset,2
;   oozeShieldOutlines,1
;   oozeShieldSidewallShape,1
;   oozeShieldSidewallAngle,30
;   oozeShieldSpeedMultiplier,1
;   infillExtruder,0
;   internalInfillPattern,Rectilinear
;   externalInfillPattern,Rectilinear
;   infillPercentage,15
;   outlineOverlapPercentage,25
;   infillExtrusionWidthPercentage,100
;   minInfillLength,5
;   infillLayerInterval,1
;   internalInfillAngles,45,-45
;   overlapInternalInfillAngles,0
;   externalInfillAngles,45,-45
;   generateSupport,1
;   supportExtruder,0
;   supportInfillPercentage,15
;   supportExtraInflation,0.5
;   supportBaseLayers,0
;   denseSupportExtruder,0
;   denseSupportLayers,2
;   denseSupportInfillPercentage,90
;   supportLayerInterval,1
;   supportHorizontalPartOffset,0.3
;   supportUpperSeparationLayers,1
;   supportLowerSeparationLayers,1
;   supportType,1
;   supportGridSpacing,2
;   maxOverhangAngle,45
;   supportAngles,45,-45
;   temperatureName,Primary Extruder,Heated Build Platform
;   temperatureNumber,0,0
;   temperatureSetpointCount,1,1
;   temperatureSetpointLayers,1,1
;   temperatureSetpointTemperatures,230,60
;   temperatureStabilizeAtStartup,1,1
;   temperatureHeatedBed,0,1
;   fanLayers,1,2
;   fanSpeeds,0,100
;   blipFanToFullPower,1
;   adjustSpeedForCooling,1
;   minSpeedLayerTime,15
;   minCoolingSpeedSlowdown,20
;   increaseFanForCooling,1
;   minFanLayerTime,45
;   maxCoolingFanSpeed,100
;   increaseFanForBridging,1
;   bridgingFanSpeed,100
;   use5D,1
;   relativeEdistances,1
;   allowEaxisZeroing,0
;   independentExtruderAxes,1
;   includeM10123,0
;   stickySupport,1
;   applyToolheadOffsets,0
;   gcodeXoffset,0
;   gcodeYoffset,0
;   gcodeZoffset,0
;   overrideMachineDefinition,1
;   machineTypeOverride,0
;   strokeXoverride,280
;   strokeYoverride,150
;   strokeZoverride,150
;   originOffsetXoverride,140
;   originOffsetYoverride,75
;   originOffsetZoverride,0
;   homeXdirOverride,1
;   homeYdirOverride,1
;   homeZdirOverride,-1
;   flipXoverride,1
;   flipYoverride,-1
;   flipZoverride,1
;   toolheadOffsets,0,0|0,0|0,0|0,0|0,0|0,0
;   overrideFirmwareConfiguration,1
;   firmwareTypeOverride,MakerBot/Sailfish Firmware
;   GPXconfigOverride,r2h
;   baudRateOverride,115200
;   overridePrinterModels,1
;   printerModelsOverride,MakerBot_Replicator2.stl
;   startingGcode,; **** Replicator 2 start.gcode ****,M73 P0 ; enable build progress,G162 X Y F3000 ; home XY maximum,G161 Z F1200 ; home Z minimum,G92 Z-5 ; set Z to -5,G1 Z0 ; move Z to 0,G161 Z F100 ; home Z slowly,M132 X Y Z A B ; recall home offsets,G1 X-145 Y-75 Z30 F9000 ; move to wait position off table,G130 X20 Y20 Z20 A20 B20 ; lower stepper Vrefs while heating,M126 S[fan_speed_pwm],M140 S[bed0_temperature] T0,M134 T0 ; stabilize bed temperature,M104 S[extruder0_temperature] T0,M133 T0 ; stabilize extruder temperature,G130 X127 Y127 Z40 A127 B127 ; default stepper Vrefs,G92 A0 ; zero extruder,G1 Z0.4 ; position nozzle,G1 E25 F300 ; purge nozzle,G1 X-140 Y-70 Z0.15 F1200 ; slow wipe,G1 X-135 Y-65 Z0.5 F1200 ; lift,G92 A0 ; zero extruder,M73 P1 ;@body (notify GPX body has started),; **** end of start.gcode ****
;   layerChangeGcode,
;   retractionGcode,
;   toolChangeGcode,
;   endingGcode,; **** Replicator 2 end.gcode ****,M73 P100 ; end build progress,G1 Z155 F1000 ; send Z axis to bottom of machine,M104 S0 T0 ; cool down extruder,M140 S0 T0 ; cool down HBP,M127 ; stop blower fan,G162 X Y F3000 ; home XY maximum,M18 ; disable stepper,M0 ; stop codes,M72 P1 ; play Ta-Da song,; **** end of end.gcode ****
;   exportFileFormat,gcode
;   celebration,0
;   celebrationSong,Random Song
;   postProcessing,
;   defaultSpeed,4800
;   outlineUnderspeed,0.5
;   solidInfillUnderspeed,1
;   supportUnderspeed,1
;   rapidXYspeed,9000
;   rapidZspeed,1200
;   minBridgingArea,50
;   bridgingExtraInflation,0
;   bridgingExtrusionMultiplier,1
;   bridgingSpeedMultiplier,0.8
;   useFixedBridgingAngle,0
;   fixedBridgingAngle,0
;   applyBridgingToPerimeters,0
;   filamentDiameters,1.75|1.75|1.75|1.75|1.75|1.75
;   filamentPricesPerKg,46|46|46|46|46|46
;   filamentDensities,1.25|1.25|1.25|1.25|1.25|1.25
;   useMinPrintHeight,0
;   minPrintHeight,0
;   useMaxPrintHeight,0
;   maxPrintHeight,4.84
;   useDiaphragm,0
;   diaphragmLayerInterval,20
;   robustSlicing,1
;   mergeAllIntoSolid,0
;   onlyRetractWhenCrossingOutline,0
;   retractBetweenLayers,0
;   useRetractionMinTravel,1
;   retractionMinTravel,7
;   retractWhileWiping,1
;   onlyWipeOutlines,1
;   avoidCrossingOutline,0
;   maxMovementDetourFactor,3
;   toolChangeRetractionDistance,12
;   toolChangeExtraRestartDistance,-0.5
;   toolChangeRetractionSpeed,600
;   externalThinWallType,0
;   internalThinWallType,0
;   thinWallAllowedOverlapPercentage,10
;   singleExtrusionMinLength,1
;   singleExtrusionMinPrintingWidthPercentage,50
;   singleExtrusionMaxPrintingWidthPercentage,200
;   singleExtrusionEndpointExtension,0.2
;   horizontalSizeCompensation,0
G90
M83
; **** Replicator 2 start.gcode ****
M73 P0 ; enable build progress
G162 X Y F3000 ; home XY maximum
G161 Z F1200 ; home Z minimum
G92 Z-5 ; set Z to -5
G1 Z0 ; move Z to 0
G161 Z F100 ; home Z slowly
M132 X Y Z A B ; recall home offsets
G1 X-145 Y-75 Z30 F9000 ; move to wait position off table
G130 X20 Y20 Z20 A20 B20 ; lower stepper Vrefs while heating
M127
M140 S60 T0
M134 T0 ; stabilize bed temperature
M104 S230 T0
M133 T0 ; stabilize extruder temperature
G130 X127 Y127 Z40 A127 B127 ; default stepper Vrefs
G92 A0 ; zero extruder
G1 Z0.4 ; position nozzle
G1 E25 F300 ; purge nozzle
G1 X-140 Y-70 Z0.15 F1200 ; slow wipe
G1 X-135 Y-65 Z0.5 F1200 ; lift
G92 A0 ; zero extruder
M73 P1 ;@body (notify GPX body has started)
; **** end of start.gcode ****
; process Process1
; layer 1, Z = 0.200
M135 T0
G1 E-1.9000 F1200
; feature inner perimeter
; tool H0.200 W0.460
G1 Z0.500 F1200
G1 X3.650 Y-3.650 F9000
G1 Z0.200 F1200
G1 E1.9000 F1200
G1 X3.650 Y-41.894 E1.4628 F1800
G1 X82.438 Y-41.894 E3.0136
G1 X82.438 Y-3.650 E1.4628
G1 X67.909 Y-3.650 E0.5557
G1 X67.909 Y-25.506 E0.8360
G1 X66.050 Y-27.366 E0.1006
G1 X20.038 Y-27.366 E1.7599
G1 X18.178 Y-25.506 E0.1006
G1 X18.178 Y-3.650 E0.8360
G1 X3.650 Y-3.650 E0.5557
G1 X3.190 Y-3.190 F9000
G1 X3.190 Y-42.354 E1.4980 F1800
G1 X82.898 Y-42.354 E3.0487
G1 X82.898 Y-3.190 E1.4980
G1 X67.449 Y-3.190 E0.5909
G1 X67.449 Y-25.316 E0.8463
G1 X65.859 Y-26.906 E0.0860
G1 X20.228 Y-26.906 E1.7454
G1 X18.638 Y-25.316 E0.0860
G1 X18.638 Y-3.190 E0.8463
G1 X3.190 Y-3.190 E0.5909
; feature outer perimeter
G1 X2.730 Y-2.730 F9000
G1 X2.730 Y-42.814 E1.5332 F1200
G1 X83.358 Y-42.814 E3.0839
G1 X83.358 Y-2.730 E1.5332
G1 X66.989 Y-2.730 E0.6261
G1 X66.989 Y-25.125 E0.8566
G1 X65.669 Y-26.446 E0.0714
G1 X20.419 Y-26.446 E1.7308
G1 X19.098 Y-25.125 E0.0714
G1 X19.098 Y-2.730 E0.8566
G1 X2.730 Y-2.730 E0.6261
; feature solid layer
G1 X3.995 Y-4.462 F9000
G1 X4.462 Y-3.995 E0.0253 F2400
G1 X5.113 Y-3.995 E0.0249
G1 X3.995 Y-5.113 E0.0605
G1 X3.995 Y-5.763 E0.0249
G1 X5.763 Y-3.995 E0.0956
G1 X6.414 Y-3.995 E0.0249
G1 X3.995 Y-6.414 E0.1308
G1 X3.995 Y-7.064 E0.0249
G1 X7.064 Y-3.995 E0.1660
G1 X7.715 Y-3.995 E0.0249
G1 X3.995 Y-7.715 E0.2012
G1 X3.995 Y-8.365 E0.0249
G1 X8.365 Y-3.995 E0.2364
G1 X9.016 Y-3.995 E0.0249
G1 X3.995 Y-9.016 E0.2716
G1 X3.995 Y-9.666 E0.0249
G1 X9.666 Y-3.995 E0.3068
G1 X10.317 Y-3.995 E0.0249
G1 X3.995 Y-10.317 E0.3420
G1 X3.995 Y-10.967 E0.0249
G1 X10.967 Y-3.995 E0.3772
G1 X11.618 Y-3.995 E0.0249
G1 X3.995 Y-11.618 E0.4123
G1 X3.995 Y-12.268 E0.0249
G1 X12.268 Y-3.995 E0.4475
G1 X12.919 Y-3.995 E0.0249
G1 X3.995 Y-12.919 E0.4827
G1 X3.995 Y-13.570 E0.0249
G1 X13.570 Y-3.995 E0.5179
G1 X14.220 Y-3.995 E0.0249
G1 X3.995 Y-14.220 E0.5531
G1 X3.995 Y-14.871 E0.0249
G1 X14.871 Y-3.995 E0.5883
G1 X15.521 Y-3.995 E0.0249
G1 X3.995 Y-15.521 E0.6235
G1 X3.995 Y-16.172 E0.0249
G1 X16.172 Y-3.995 E0.6587
G1 X16.822 Y-3.995 E0.0249
G1 X3.995 Y-16.822 E0.6939
G1 X3.995 Y-17.473 E0.0249
G1 X17.473 Y-3.995 E0.7290
G1 X17.833 Y-3.995 E0.0138
G1 X17.833 Y-4.285 E0.0111
G1 X3.995 Y-18.123 E0.7485
G1 X3.995 Y-18.774 E0.0249
G1 X17.833 Y-4.936 E0.7485
G1 X17.833 Y-5.586 E0.0249
G1 X3.995 Y-19.424 E0.7485
G1 X3.995 Y-20.075 E0.0249
G1 X17.833 Y-6.237 E0.7485
G1 X17.833 Y-6.887 E0.0249
G1 X3.995 Y-20.725 E0.7485
G1 X3.995 Y-21.376 E0.0249
G1 X17.833 Y-7.538 E0.7485
G1 X17.833 Y-8.188 E0.0249
G1 X3.995 Y-22.027 E0.7485
G1 X3.995 Y-22.677 E0.0249
G1 X17.833 Y-8.839 E0.7485
G1 X17.833 Y-9.489 E0.0249
G1 X3.995 Y-23.328 E0.7485
G1 X3.995 Y-23.978 E0.0249
G1 X17.833 Y-10.140 E0.7485
G1 X17.833 Y-10.791 E0.0249
G1 X3.995 Y-24.629 E0.7485
G1 X3.995 Y-25.279 E0.0249
G1 X17.833 Y-11.441 E0.7485
G1 X17.833 Y-12.092 E0.0249
G1 X3.995 Y-25.930 E0.7485
G1 X3.995 Y-26.580 E0.0249
G1 X17.833 Y-12.742 E0.7485
G1 X17.833 Y-13.393 E0.0249
G1 X3.995 Y-27.231 E0.7485
G1 X3.995 Y-27.881 E0.0249
G1 X17.833 Y-14.043 E0.7485
G1 X17.833 Y-14.694 E0.0249
G1 X3.995 Y-28.532 E0.7485
G1 X3.995 Y-29.182 E0.0249
G1 X17.833 Y-15.344 E0.7485
G1 X17.833 Y-15.995 E0.0249
G1 X3.995 Y-29.833 E0.7485
G1 X3.995 Y-30.484 E0.0249
G1 X17.833 Y-16.645 E0.7485
G1 X17.833 Y-17.296 E0.0249
G1 X3.995 Y-31.134 E0.7485
G1 X3.995 Y-31.785 E0.0249
G1 X17.833 Y-17.946 E0.7485
G1 X17.833 Y-18.597 E0.0249
G1 X3.995 Y-32.435 E0.7485
G1 X3.995 Y-33.086 E0.0249
G1 X17.833 Y-19.248 E0.7485
G1 X17.833 Y-19.898 E0.0249
G1 X3.995 Y-33.736 E0.7485
G1 X3.995 Y-34.387 E0.0249
G1 X17.833 Y-20.549 E0.7485
G1 X17.833 Y-21.199 E0.0249
G1 X3.995 Y-35.037 E0.7485
G1 X3.995 Y-35.688 E0.0249
G1 X17.833 Y-21.850 E0.7485
G1 X17.833 Y-22.500 E0.0249
G1 X3.995 Y-36.338 E0.7485
G1 X3.995 Y-36.989 E0.0249
G1 X17.833 Y-23.151 E0.7485
G1 X17.833 Y-23.801 E0.0249
G1 X3.995 Y-37.639 E0.7485
G1 X3.995 Y-38.290 E0.0249
G1 X17.833 Y-24.452 E0.7485
G1 X17.833 Y-25.102 E0.0249
G1 X3.995 Y-38.941 E0.7485
G1 X3.995 Y-39.591 E0.0249
G1 X17.885 Y-25.701 E0.7513
G1 X18.210 Y-26.026 E0.0176
G1 X3.995 Y-40.242 E0.7689
G1 X3.995 Y-40.892 E0.0249
G1 X18.535 Y-26.352 E0.7865
G1 X18.861 Y-26.677 E0.0176
G1 X3.995 Y-41.543 E0.8041
G1 X3.995 Y-41.549 E0.0002
G1 X4.639 Y-41.549 E0.0246
G1 X19.186 Y-27.002 E0.7869
G1 X19.511 Y-27.327 E0.0176
G1 X5.290 Y-41.549 E0.7693
G1 X5.940 Y-41.549 E0.0249
G1 X19.837 Y-27.653 E0.7517
G1 X19.895 Y-27.711 E0.0031
G1 X20.429 Y-27.711 E0.0204
G1 X6.591 Y-41.549 E0.7485
G1 X7.242 Y-41.549 E0.0249
G1 X21.079 Y-27.711 E0.7485
G1 X21.730 Y-27.711 E0.0249
G1 X7.892 Y-41.549 E0.7485
G1 X8.543 Y-41.549 E0.0249
G1 X22.381 Y-27.711 E0.7485
G1 X23.031 Y-27.711 E0.0249
G1 X9.193 Y-41.549 E0.7485
G1 X9.844 Y-41.549 E0.0249
G1 X23.682 Y-27.711 E0.7485
G1 X24.332 Y-27.711 E0.0249
G1 X10.494 Y-41.549 E0.7485
G1 X11.145 Y-41.549 E0.0249
G1 X24.983 Y-27.711 E0.7485
G1 X25.633 Y-27.711 E0.0249
G1 X11.795 Y-41.549 E0.7485
G1 X12.446 Y-41.549 E0.0249
G1 X26.284 Y-27.711 E0.7485
G1 X26.934 Y-27.711 E0.0249
G1 X13.096 Y-41.549 E0.7485
G1 X13.747 Y-41.549 E0.0249
G1 X27.585 Y-27.711 E0.7485
G1 X28.235 Y-27.711 E0.0249
G1 X14.397 Y-41.549 E0.7485
G1 X15.048 Y-41.549 E0.0249
G1 X28.886 Y-27.711 E0.7485
G1 X29.536 Y-27.711 E0.0249
G1 X15.699 Y-41.549 E0.7485
G1 X16.349 Y-41.549 E0.0249
G1 X30.187 Y-27.711 E0.7485
G1 X30.838 Y-27.711 E0.0249
G1 X17.000 Y-41.549 E0.7485
G1 X17.650 Y-41.549 E0.0249
G1 X31.488 Y-27.711 E0.7485
G1 X32.139 Y-27.711 E0.0249
G1 X18.301 Y-41.549 E0.7485
G1 X18.951 Y-41.549 E0.0249
G1 X32.789 Y-27.711 E0.7485
G1 X33.440 Y-27.711 E0.0249
G1 X19.602 Y-41.549 E0.7485
G1 X20.252 Y-41.549 E0.0249
G1 X34.090 Y-27.711 E0.7485
G1 X34.741 Y-27.711 E0.0249
G1 X20.903 Y-41.549 E0.7485
G1 X21.553 Y-41.549 E0.0249
G1 X35.391 Y-27.711 E0.7485
G1 X36.042 Y-27.711 E0.0249
G1 X22.204 Y-41.549 E0.7485
G1 X22.854 Y-41.549 E0.0249
G1 X36.692 Y-27.711 E0.7485
G1 X37.343 Y-27.711 E0.0249
G1 X23.505 Y-41.549 E0.7485
G1 X24.156 Y-41.549 E0.0249
G1 X37.993 Y-27.711 E0.7485
G1 X38.644 Y-27.711 E0.0249
G1 X24.806 Y-41.549 E0.7485
G1 X25.457 Y-41.549 E0.0249
G1 X39.295 Y-27.711 E0.7485
G1 X39.945 Y-27.711 E0.0249
G1 X26.107 Y-41.549 E0.7485
G1 X26.758 Y-41.549 E0.0249
G1 X40.596 Y-27.711 E0.7485
G1 X41.246 Y-27.711 E0.0249
G1 X27.408 Y-41.549 E0.7485
G1 X28.059 Y-41.549 E0.0249
G1 X41.897 Y-27.711 E0.7485
G1 X42.547 Y-27.711 E0.0249
G1 X28.709 Y-41.549 E0.7485
G1 X29.360 Y-41.549 E0.0249
G1 X43.198 Y-27.711 E0.7485
G1 X43.848 Y-27.711 E0.0249
G1 X30.010 Y-41.549 E0.7485
G1 X30.661 Y-41.549 E0.0249
G1 X44.499 Y-27.711 E0.7485
G1 X45.149 Y-27.711 E0.0249
G1 X31.311 Y-41.549 E0.7485
G1 X31.962 Y-41.549 E0.0249
G1 X45.800 Y-27.711 E0.7485
G1 X46.450 Y-27.711 E0.0249
G1 X32.613 Y-41.549 E0.7485
G1 X33.263 Y-41.549 E0.0249
G1 X47.101 Y-27.711 E0.7485
G1 X47.752 Y-27.711 E0.0249
G1 X33.914 Y-41.549 E0.7485
G1 X34.564 Y-41.549 E0.0249
G1 X48.402 Y-27.711 E0.7485
G1 X49.053 Y-27.711 E0.0249
G1 X35.215 Y-41.549 E0.7485
G1 X35.865 Y-41.549 E0.0249
G1 X49.703 Y-27.711 E0.7485
G1 X50.354 Y-27.711 E0.0249
G1 X36.516 Y-41.549 E0.7485
G1 X37.166 Y-41.549 E0.0249
G1 X51.004 Y-27.711 E0.7485
G1 X51.655 Y-27.711 E0.0249
G1 X37.817 Y-41.549 E0.7485
G1 X38.467 Y-41.549 E0.0249
G1 X52.305 Y-27.711 E0.7485
G1 X52.956 Y-27.711 E0.0249
G1 X39.118 Y-41.549 E0.7485
G1 X39.768 Y-41.549 E0.0249
G1 X53.606 Y-27.711 E0.7485
G1 X54.257 Y-27.711 E0.0249
G1 X40.419 Y-41.549 E0.7485
G1 X41.070 Y-41.549 E0.0249
G1 X54.907 Y-27.711 E0.7485
G1 X55.558 Y-27.711 E0.0249
G1 X41.720 Y-41.549 E0.7485
G1 X42.371 Y-41.549 E0.0249
G1 X56.209 Y-27.711 E0.7485
G1 X56.859 Y-27.711 E0.0249
G1 X43.021 Y-41.549 E0.7485
G1 X43.672 Y-41.549 E0.0249
G1 X57.510 Y-27.711 E0.7485
G1 X58.160 Y-27.711 E0.0249
G1 X44.322 Y-41.549 E0.7485
G1 X44.973 Y-41.549 E0.0249
G1 X58.811 Y-27.711 E0.7485
G1 X59.461 Y-27.711 E0.0249
G1 X45.623 Y-41.549 E0.7485
G1 X46.274 Y-41.549 E0.0249
G1 X60.112 Y-27.711 E0.7485
G1 X60.762 Y-27.711 E0.0249
G1 X46.924 Y-41.549 E0.7485
G1 X47.575 Y-41.549 E0.0249
G1 X61.413 Y-27.711 E0.7485
G1 X62.063 Y-27.711 E0.0249
G1 X48.225 Y-41.549 E0.7485
G1 X48.876 Y-41.549 E0.0249
G1 X62.714 Y-27.711 E0.7485
G1 X63.364 Y-27.711 E0.0249
G1 X49.527 Y-41.549 E0.7485
G1 X50.177 Y-41.549 E0.0249
G1 X64.015 Y-27.711 E0.7485
G1 X64.666 Y-27.711 E0.0249
G1 X50.828 Y-41.549 E0.7485
G1 X51.478 Y-41.549 E0.0249
G1 X65.316 Y-27.711 E0.7485
G1 X65.967 Y-27.711 E0.0249
G1 X52.129 Y-41.549 E0.7485
G1 X52.779 Y-41.549 E0.0249
G1 X82.093 Y-12.236 E1.5856
G1 X82.093 Y-12.886 E0.0249
G1 X53.430 Y-41.549 E1.5504
G1 X54.080 Y-41.549 E0.0249
G1 X82.093 Y-13.537 E1.5152
