; G-Code generated by Simplify3D(R) Version 4.1.2
; Apr 2, 2020 at 4:23:47 PM
; Settings Summary
;   processName,Process1
;   applyToModels,CanStandoff
;   profileName,MakerBot Replicator 2 HBP (modified)
;   profileVersion,2020-03-12 10:48:50
;   baseProfile,MakerBot Replicator 2(2)
;   printMaterial,PLA
;   printQuality,Medium
;   printExtruders,
;   extruderName,Primary Extruder
;   extruderToolheadNumber,0
;   extruderDiameter,0.4
;   extruderAutoWidth,0
;   extruderWidth,0.4
;   extrusionMultiplier,1
;   extruderUseRetract,1
;   extruderRetractionDistance,1.9
;   extruderExtraRestartDistance,0
;   extruderRetractionZLift,0.5
;   extruderRetractionSpeed,1200
;   extruderUseCoasting,0
;   extruderCoastingDistance,0.2
;   extruderUseWipe,0
;   extruderWipeDistance,5
;   primaryExtruder,0
;   layerHeight,0.2
;   topSolidLayers,3
;   bottomSolidLayers,3
;   perimeterOutlines,2
;   printPerimetersInsideOut,1
;   startPointOption,3
;   startPointOriginX,0
;   startPointOriginY,150
;   sequentialIslands,0
;   spiralVaseMode,0
;   firstLayerHeightPercentage,100
;   firstLayerWidthPercentage,115
;   firstLayerUnderspeed,0.5
;   useRaft,0
;   raftExtruder,0
;   raftTopLayers,2
;   raftBaseLayers,1
;   raftOffset,1
;   raftSeparationDistance,0.14
;   raftTopInfill,90
;   aboveRaftSpeedMultiplier,0.3
;   useSkirt,0
;   skirtExtruder,0
;   skirtLayers,1
;   skirtOutlines,5
;   skirtOffset,0
;   usePrimePillar,0
;   primePillarExtruder,999
;   primePillarWidth,12
;   primePillarLocation,7
;   primePillarSpeedMultiplier,1
;   useOozeShield,0
;   oozeShieldExtruder,999
;   oozeShieldOffset,2
;   oozeShieldOutlines,1
;   oozeShieldSidewallShape,1
;   oozeShieldSidewallAngle,30
;   oozeShieldSpeedMultiplier,1
;   infillExtruder,0
;   internalInfillPattern,Rectilinear
;   externalInfillPattern,Rectilinear
;   infillPercentage,15
;   outlineOverlapPercentage,25
;   infillExtrusionWidthPercentage,100
;   minInfillLength,5
;   infillLayerInterval,1
;   internalInfillAngles,45,-45
;   overlapInternalInfillAngles,0
;   externalInfillAngles,45,-45
;   generateSupport,0
;   supportExtruder,0
;   supportInfillPercentage,30
;   supportExtraInflation,0.5
;   supportBaseLayers,0
;   denseSupportExtruder,0
;   denseSupportLayers,2
;   denseSupportInfillPercentage,90
;   supportLayerInterval,1
;   supportHorizontalPartOffset,0.3
;   supportUpperSeparationLayers,1
;   supportLowerSeparationLayers,1
;   supportType,1
;   supportGridSpacing,2
;   maxOverhangAngle,45
;   supportAngles,45,-45
;   temperatureName,Primary Extruder,Heated Build Platform
;   temperatureNumber,0,0
;   temperatureSetpointCount,1,1
;   temperatureSetpointLayers,1,1
;   temperatureSetpointTemperatures,230,60
;   temperatureStabilizeAtStartup,1,1
;   temperatureHeatedBed,0,1
;   fanLayers,1,2
;   fanSpeeds,0,100
;   blipFanToFullPower,1
;   adjustSpeedForCooling,1
;   minSpeedLayerTime,15
;   minCoolingSpeedSlowdown,20
;   increaseFanForCooling,1
;   minFanLayerTime,45
;   maxCoolingFanSpeed,100
;   increaseFanForBridging,1
;   bridgingFanSpeed,100
;   use5D,1
;   relativeEdistances,1
;   allowEaxisZeroing,0
;   independentExtruderAxes,1
;   includeM10123,0
;   stickySupport,1
;   applyToolheadOffsets,0
;   gcodeXoffset,0
;   gcodeYoffset,0
;   gcodeZoffset,0
;   overrideMachineDefinition,1
;   machineTypeOverride,0
;   strokeXoverride,280
;   strokeYoverride,150
;   strokeZoverride,150
;   originOffsetXoverride,140
;   originOffsetYoverride,75
;   originOffsetZoverride,0
;   homeXdirOverride,1
;   homeYdirOverride,1
;   homeZdirOverride,-1
;   flipXoverride,1
;   flipYoverride,-1
;   flipZoverride,1
;   toolheadOffsets,0,0|0,0|0,0|0,0|0,0|0,0
;   overrideFirmwareConfiguration,1
;   firmwareTypeOverride,MakerBot/Sailfish Firmware
;   GPXconfigOverride,r2h
;   baudRateOverride,115200
;   overridePrinterModels,1
;   printerModelsOverride,MakerBot_Replicator2.stl
;   startingGcode,; **** Replicator 2 start.gcode ****,M73 P0 ; enable build progress,G162 X Y F3000 ; home XY maximum,G161 Z F1200 ; home Z minimum,G92 Z-5 ; set Z to -5,G1 Z0 ; move Z to 0,G161 Z F100 ; home Z slowly,M132 X Y Z A B ; recall home offsets,G1 X-145 Y-75 Z30 F9000 ; move to wait position off table,G130 X20 Y20 Z20 A20 B20 ; lower stepper Vrefs while heating,M126 S[fan_speed_pwm],M140 S[bed0_temperature] T0,M134 T0 ; stabilize bed temperature,M104 S[extruder0_temperature] T0,M133 T0 ; stabilize extruder temperature,G130 X127 Y127 Z40 A127 B127 ; default stepper Vrefs,G92 A0 ; zero extruder,G1 Z0.4 ; position nozzle,G1 E25 F300 ; purge nozzle,G1 X-140 Y-70 Z0.15 F1200 ; slow wipe,G1 X-135 Y-65 Z0.5 F1200 ; lift,G92 A0 ; zero extruder,M73 P1 ;@body (notify GPX body has started),; **** end of start.gcode ****
;   layerChangeGcode,
;   retractionGcode,
;   toolChangeGcode,
;   endingGcode,; **** Replicator 2 end.gcode ****,M73 P100 ; end build progress,G1 Z155 F1000 ; send Z axis to bottom of machine,M104 S0 T0 ; cool down extruder,M140 S0 T0 ; cool down HBP,M127 ; stop blower fan,G162 X Y F3000 ; home XY maximum,M18 ; disable stepper,M0 ; stop codes,M72 P1 ; play Ta-Da song,; **** end of end.gcode ****
;   exportFileFormat,gcode
;   celebration,0
;   celebrationSong,Random Song
;   postProcessing,
;   defaultSpeed,4800
;   outlineUnderspeed,0.5
;   solidInfillUnderspeed,1
;   supportUnderspeed,1
;   rapidXYspeed,9000
;   rapidZspeed,1200
;   minBridgingArea,50
;   bridgingExtraInflation,0
;   bridgingExtrusionMultiplier,1
;   bridgingSpeedMultiplier,0.8
;   useFixedBridgingAngle,0
;   fixedBridgingAngle,0
;   applyBridgingToPerimeters,0
;   filamentDiameters,1.75|1.75|1.75|1.75|1.75|1.75
;   filamentPricesPerKg,46|46|46|46|46|46
;   filamentDensities,1.25|1.25|1.25|1.25|1.25|1.25
;   useMinPrintHeight,0
;   minPrintHeight,0
;   useMaxPrintHeight,0
;   maxPrintHeight,4.84
;   useDiaphragm,0
;   diaphragmLayerInterval,20
;   robustSlicing,1
;   mergeAllIntoSolid,0
;   onlyRetractWhenCrossingOutline,0
;   retractBetweenLayers,0
;   useRetractionMinTravel,1
;   retractionMinTravel,7
;   retractWhileWiping,1
;   onlyWipeOutlines,1
;   avoidCrossingOutline,0
;   maxMovementDetourFactor,3
;   toolChangeRetractionDistance,12
;   toolChangeExtraRestartDistance,-0.5
;   toolChangeRetractionSpeed,600
;   externalThinWallType,0
;   internalThinWallType,0
;   thinWallAllowedOverlapPercentage,10
;   singleExtrusionMinLength,1
;   singleExtrusionMinPrintingWidthPercentage,50
;   singleExtrusionMaxPrintingWidthPercentage,200
;   singleExtrusionEndpointExtension,0.2
;   horizontalSizeCompensation,0
G90
M83
; **** Replicator 2 start.gcode ****
M73 P0 ; enable build progress
G162 X Y F3000 ; home XY maximum
G161 Z F1200 ; home Z minimum
G92 Z-5 ; set Z to -5
G1 Z0 ; move Z to 0
G161 Z F100 ; home Z slowly
M132 X Y Z A B ; recall home offsets
G1 X-145 Y-75 Z30 F9000 ; move to wait position off table
G130 X20 Y20 Z20 A20 B20 ; lower stepper Vrefs while heating
M127
M140 S60 T0
M134 T0 ; stabilize bed temperature
M104 S230 T0
M133 T0 ; stabilize extruder temperature
G130 X127 Y127 Z40 A127 B127 ; default stepper Vrefs
G92 A0 ; zero extruder
G1 Z0.4 ; position nozzle
G1 E25 F300 ; purge nozzle
G1 X-140 Y-70 Z0.15 F1200 ; slow wipe
G1 X-135 Y-65 Z0.5 F1200 ; lift
G92 A0 ; zero extruder
M73 P1 ;@body (notify GPX body has started)
; **** end of start.gcode ****
; process Process1
; layer 1, Z = 0.200
M135 T0
G1 E-1.9000 F1200
; feature inner perimeter
; tool H0.200 W0.460
G1 Z0.500 F1200
G1 X0.000 Y23.415 F9000
G1 Z0.200 F1200
G1 E1.9000 F1200
G1 X-2.295 Y23.302 E0.0879 F1800
G1 X-4.568 Y22.965 E0.0879
G1 X-6.797 Y22.407 E0.0879
G1 X-8.961 Y21.633 E0.0879
G1 X-11.038 Y20.650 E0.0879
G1 X-13.009 Y19.469 E0.0879
G1 X-14.854 Y18.100 E0.0879
G1 X-16.557 Y16.557 E0.0879
G1 X-18.100 Y14.854 E0.0879
G1 X-19.469 Y13.009 E0.0879
G1 X-20.650 Y11.038 E0.0879
G1 X-21.633 Y8.961 E0.0879
G1 X-22.407 Y6.797 E0.0879
G1 X-22.965 Y4.568 E0.0879
G1 X-23.302 Y2.295 E0.0879
G1 X-23.415 Y0.000 E0.0879
G1 X-23.302 Y-2.295 E0.0879
G1 X-22.965 Y-4.568 E0.0879
G1 X-22.407 Y-6.797 E0.0879
G1 X-21.633 Y-8.961 E0.0879
G1 X-20.650 Y-11.038 E0.0879
G1 X-19.469 Y-13.009 E0.0879
G1 X-18.127 Y-14.819 E0.0862
G1 X-16.557 Y-16.557 E0.0896
G1 X-14.854 Y-18.100 E0.0879
G1 X-13.009 Y-19.469 E0.0879
G1 X-11.038 Y-20.650 E0.0879
G1 X-8.961 Y-21.633 E0.0879
G1 X-6.797 Y-22.407 E0.0879
G1 X-4.568 Y-22.965 E0.0879
G1 X-2.295 Y-23.302 E0.0879
G1 X0.000 Y-23.415 E0.0879
G1 X2.295 Y-23.302 E0.0879
G1 X4.568 Y-22.965 E0.0879
G1 X6.797 Y-22.407 E0.0879
G1 X8.961 Y-21.633 E0.0879
G1 X11.038 Y-20.650 E0.0879
G1 X13.009 Y-19.469 E0.0879
G1 X14.854 Y-18.100 E0.0879
G1 X16.557 Y-16.557 E0.0879
G1 X18.100 Y-14.854 E0.0879
G1 X19.469 Y-13.009 E0.0879
G1 X20.650 Y-11.038 E0.0879
G1 X21.633 Y-8.961 E0.0879
G1 X22.407 Y-6.797 E0.0879
G1 X22.965 Y-4.568 E0.0879
G1 X23.302 Y-2.295 E0.0879
G1 X23.415 Y0.000 E0.0879
G1 X23.302 Y2.295 E0.0879
G1 X22.965 Y4.568 E0.0879
G1 X22.407 Y6.797 E0.0879
G1 X21.633 Y8.961 E0.0879
G1 X20.650 Y11.038 E0.0879
G1 X19.469 Y13.009 E0.0879
G1 X18.100 Y14.854 E0.0879
G1 X16.557 Y16.557 E0.0879
G1 X14.854 Y18.100 E0.0879
G1 X13.009 Y19.469 E0.0879
G1 X11.038 Y20.650 E0.0879
G1 X8.961 Y21.633 E0.0879
G1 X6.797 Y22.407 E0.0879
G1 X4.568 Y22.965 E0.0879
G1 X2.295 Y23.302 E0.0879
G1 X0.000 Y23.415 E0.0879
; feature outer perimeter
G1 X0.000 Y23.876 F9000
G1 X-2.340 Y23.761 E0.0896 F1200
G1 X-4.658 Y23.417 E0.0896
G1 X-6.931 Y22.848 E0.0896
G1 X-9.137 Y22.058 E0.0896
G1 X-11.255 Y21.056 E0.0896
G1 X-13.265 Y19.852 E0.0896
G1 X-15.147 Y18.456 E0.0896
G1 X-16.883 Y16.883 E0.0896
G1 X-18.456 Y15.147 E0.0896
G1 X-19.852 Y13.265 E0.0896
G1 X-21.056 Y11.255 E0.0896
G1 X-22.058 Y9.137 E0.0896
G1 X-22.848 Y6.931 E0.0896
G1 X-23.417 Y4.658 E0.0896
G1 X-23.761 Y2.340 E0.0896
G1 X-23.876 Y0.000 E0.0896
G1 X-23.761 Y-2.340 E0.0896
G1 X-23.417 Y-4.658 E0.0896
G1 X-22.848 Y-6.931 E0.0896
G1 X-22.058 Y-9.137 E0.0896
G1 X-21.057 Y-11.255 E0.0896
G1 X-19.852 Y-13.265 E0.0896
G1 X-18.483 Y-15.111 E0.0879
G1 X-16.883 Y-16.883 E0.0913
G1 X-15.147 Y-18.456 E0.0896
G1 X-13.265 Y-19.852 E0.0896
G1 X-11.255 Y-21.056 E0.0896
G1 X-9.137 Y-22.058 E0.0896
G1 X-6.931 Y-22.848 E0.0896
G1 X-4.658 Y-23.417 E0.0896
G1 X-2.340 Y-23.761 E0.0896
G1 X0.000 Y-23.876 E0.0896
G1 X2.340 Y-23.761 E0.0896
G1 X4.658 Y-23.417 E0.0896
G1 X6.931 Y-22.848 E0.0896
G1 X9.137 Y-22.058 E0.0896
G1 X11.255 Y-21.056 E0.0896
G1 X13.265 Y-19.852 E0.0896
G1 X15.147 Y-18.456 E0.0896
G1 X16.883 Y-16.883 E0.0896
G1 X18.456 Y-15.147 E0.0896
G1 X19.852 Y-13.265 E0.0896
G1 X21.057 Y-11.255 E0.0896
G1 X22.058 Y-9.137 E0.0896
G1 X22.848 Y-6.931 E0.0896
G1 X23.417 Y-4.658 E0.0896
G1 X23.761 Y-2.340 E0.0896
G1 X23.876 Y0.000 E0.0896
G1 X23.761 Y2.340 E0.0896
G1 X23.417 Y4.658 E0.0896
G1 X22.848 Y6.931 E0.0896
G1 X22.058 Y9.137 E0.0896
G1 X21.056 Y11.255 E0.0896
G1 X19.852 Y13.265 E0.0896
G1 X18.456 Y15.147 E0.0896
G1 X16.883 Y16.883 E0.0896
G1 X15.147 Y18.456 E0.0896
G1 X13.265 Y19.852 E0.0896
G1 X11.255 Y21.056 E0.0896
G1 X9.137 Y22.058 E0.0896
G1 X6.931 Y22.848 E0.0896
G1 X4.658 Y23.417 E0.0896
G1 X2.340 Y23.761 E0.0896
G1 X0.000 Y23.876 E0.0896
; feature inner perimeter
G1 X0.000 Y17.831 F9000
G1 X1.748 Y17.745 E0.0669 F1800
G1 X3.479 Y17.489 E0.0669
G1 X5.176 Y17.063 E0.0669
G1 X6.824 Y16.474 E0.0669
G1 X8.406 Y15.726 E0.0669
G1 X9.906 Y14.826 E0.0669
G1 X11.312 Y13.784 E0.0669
G1 X12.609 Y12.609 E0.0669
G1 X13.784 Y11.312 E0.0669
G1 X14.826 Y9.906 E0.0669
G1 X15.726 Y8.406 E0.0669
G1 X16.474 Y6.824 E0.0669
G1 X17.063 Y5.176 E0.0669
G1 X17.489 Y3.479 E0.0669
G1 X17.745 Y1.748 E0.0669
G1 X17.831 Y0.000 E0.0669
G1 X17.745 Y-1.748 E0.0669
G1 X17.489 Y-3.479 E0.0669
G1 X17.063 Y-5.176 E0.0669
G1 X16.474 Y-6.824 E0.0669
G1 X15.726 Y-8.406 E0.0669
G1 X14.826 Y-9.906 E0.0669
G1 X13.784 Y-11.312 E0.0669
G1 X12.609 Y-12.609 E0.0669
G1 X11.312 Y-13.784 E0.0669
G1 X9.907 Y-14.826 E0.0669
G1 X8.406 Y-15.726 E0.0669
G1 X6.824 Y-16.474 E0.0669
G1 X5.176 Y-17.063 E0.0669
G1 X3.479 Y-17.489 E0.0669
G1 X1.748 Y-17.745 E0.0669
G1 X0.000 Y-17.831 E0.0669
G1 X-1.748 Y-17.745 E0.0669
G1 X-3.479 Y-17.489 E0.0669
G1 X-5.176 Y-17.063 E0.0669
G1 X-6.824 Y-16.474 E0.0669
G1 X-8.406 Y-15.726 E0.0669
G1 X-9.907 Y-14.826 E0.0669
G1 X-11.312 Y-13.784 E0.0669
G1 X-12.609 Y-12.609 E0.0669
G1 X-13.784 Y-11.312 E0.0669
G1 X-14.826 Y-9.906 E0.0669
G1 X-15.726 Y-8.406 E0.0669
G1 X-16.474 Y-6.824 E0.0669
G1 X-17.063 Y-5.176 E0.0669
G1 X-17.489 Y-3.479 E0.0669
G1 X-17.745 Y-1.748 E0.0669
G1 X-17.831 Y0.000 E0.0669
G1 X-17.745 Y1.748 E0.0669
G1 X-17.489 Y3.479 E0.0669
G1 X-17.063 Y5.176 E0.0669
G1 X-16.474 Y6.824 E0.0669
G1 X-15.726 Y8.406 E0.0669
G1 X-14.826 Y9.906 E0.0669
G1 X-13.784 Y11.312 E0.0669
G1 X-12.609 Y12.609 E0.0669
G1 X-11.312 Y13.784 E0.0669
G1 X-9.906 Y14.826 E0.0669
G1 X-8.406 Y15.726 E0.0669
G1 X-6.824 Y16.474 E0.0669
G1 X-5.176 Y17.063 E0.0669
G1 X-3.479 Y17.489 E0.0669
G1 X-1.748 Y17.745 E0.0669
G1 X0.000 Y17.831 E0.0669
; feature outer perimeter
G1 X0.000 Y17.371 F9000
G1 X1.703 Y17.287 E0.0652 F1200
G1 X3.389 Y17.037 E0.0652
G1 X5.042 Y16.623 E0.0652
G1 X6.647 Y16.048 E0.0652
G1 X8.188 Y15.320 E0.0652
G1 X9.651 Y14.443 E0.0652
G1 X11.020 Y13.428 E0.0652
G1 X12.283 Y12.283 E0.0652
G1 X13.428 Y11.020 E0.0652
G1 X14.443 Y9.651 E0.0652
G1 X15.320 Y8.188 E0.0652
G1 X16.048 Y6.647 E0.0652
G1 X16.623 Y5.042 E0.0652
G1 X17.037 Y3.389 E0.0652
G1 X17.287 Y1.703 E0.0652
G1 X17.371 Y0.000 E0.0652
G1 X17.287 Y-1.703 E0.0652
G1 X17.037 Y-3.389 E0.0652
G1 X16.623 Y-5.042 E0.0652
G1 X16.048 Y-6.647 E0.0652
G1 X15.320 Y-8.188 E0.0652
G1 X14.443 Y-9.651 E0.0652
G1 X13.428 Y-11.020 E0.0652
G1 X12.283 Y-12.283 E0.0652
G1 X11.020 Y-13.428 E0.0652
G1 X9.651 Y-14.443 E0.0652
G1 X8.188 Y-15.319 E0.0652
G1 X6.647 Y-16.048 E0.0652
G1 X5.042 Y-16.623 E0.0652
G1 X3.389 Y-17.037 E0.0652
G1 X1.703 Y-17.287 E0.0652
G1 X0.000 Y-17.371 E0.0652
G1 X-1.703 Y-17.287 E0.0652
G1 X-3.389 Y-17.037 E0.0652
G1 X-5.042 Y-16.623 E0.0652
G1 X-6.647 Y-16.048 E0.0652
G1 X-8.188 Y-15.319 E0.0652
G1 X-9.651 Y-14.443 E0.0652
G1 X-11.020 Y-13.428 E0.0652
G1 X-12.283 Y-12.283 E0.0652
G1 X-13.428 Y-11.020 E0.0652
G1 X-14.443 Y-9.651 E0.0652
G1 X-15.320 Y-8.188 E0.0652
G1 X-16.048 Y-6.647 E0.0652
G1 X-16.623 Y-5.042 E0.0652
G1 X-17.037 Y-3.389 E0.0652
G1 X-17.287 Y-1.703 E0.0652
G1 X-17.371 Y0.000 E0.0652
G1 X-17.287 Y1.703 E0.0652
G1 X-17.037 Y3.389 E0.0652
G1 X-16.623 Y5.042 E0.0652
G1 X-16.048 Y6.647 E0.0652
G1 X-15.320 Y8.188 E0.0652
G1 X-14.443 Y9.651 E0.0652
G1 X-13.428 Y11.020 E0.0652
G1 X-12.283 Y12.283 E0.0652
G1 X-11.020 Y13.428 E0.0652
G1 X-9.651 Y14.443 E0.0652
G1 X-8.188 Y15.320 E0.0652
G1 X-6.647 Y16.048 E0.0652
G1 X-5.042 Y16.623 E0.0652
G1 X-3.389 Y17.037 E0.0652
G1 X-1.703 Y17.287 E0.0652
G1 X0.000 Y17.371 E0.0652
G1 E-1.9000 F1200
; feature solid layer
G1 Z0.700 F1200
G1 X-10.715 Y14.656 F9000
G1 Z0.200 F1200
G1 E1.9000 F1200
G1 X-2.439 Y22.932 E0.4477 F2400
G1 X-2.261 Y22.959 E0.0069
G1 X-1.736 Y22.984 E0.0201
G1 X-8.872 Y15.848 E0.3860
G1 X-8.568 Y16.030 E0.0135
G1 X-7.565 Y16.505 E0.0425
G1 X-1.052 Y23.018 E0.3523
G1 X-0.368 Y23.052 E0.0262
G1 X-6.443 Y16.977 E0.3286
G1 X-5.430 Y17.339 E0.0412
G1 X0.287 Y23.056 E0.3092
G1 X0.907 Y23.025 E0.0237
G1 X-4.540 Y17.578 E0.2946
G1 X-3.672 Y17.796 E0.0342
G1 X1.527 Y22.995 E0.2812
G1 X2.147 Y22.964 E0.0237
G1 X-2.893 Y17.924 E0.2726
G1 X-2.129 Y18.038 E0.0295
G1 X2.723 Y22.890 E0.2625
G1 X3.290 Y22.806 E0.0219
G1 X-1.409 Y18.107 E0.2542
G1 X-0.725 Y18.141 E0.0262
G1 X3.856 Y22.722 E0.2478
G1 X4.423 Y22.638 E0.0219
G1 X-0.040 Y18.175 E0.2414
G1 X0.000 Y18.177 E0.0015
G1 X0.583 Y18.148 E0.0223
G1 X4.950 Y22.514 E0.2362
G1 X5.470 Y22.384 E0.0205
G1 X1.203 Y18.117 E0.2308
G1 X1.782 Y18.089 E0.0221
G1 X1.820 Y18.083 E0.0015
G1 X5.990 Y22.253 E0.2256
G1 X6.510 Y22.123 E0.0205
G1 X2.386 Y17.999 E0.2231
G1 X2.953 Y17.915 E0.0219
G1 X7.004 Y21.966 E0.2191
G1 X7.483 Y21.795 E0.0195
G1 X3.519 Y17.831 E0.2144
G1 X3.546 Y17.827 E0.0010
G1 X4.042 Y17.703 E0.0195
G1 X7.962 Y21.624 E0.2121
G1 X8.441 Y21.452 E0.0195
G1 X4.562 Y17.573 E0.2098
G1 X5.082 Y17.443 E0.0205
G1 X8.913 Y21.274 E0.2072
G1 X9.355 Y21.065 E0.0187
