; G-Code generated by Simplify3D(R) Version 4.1.2
; Apr 2, 2020 at 4:22:55 PM
; Settings Summary
;   processName,Process1
;   applyToModels,CanV1R5
;   profileName,MakerBot Replicator 2 HBP (modified)
;   profileVersion,2020-03-12 10:48:50
;   baseProfile,MakerBot Replicator 2(2)
;   printMaterial,PLA
;   printQuality,Medium
;   printExtruders,
;   extruderName,Primary Extruder
;   extruderToolheadNumber,0
;   extruderDiameter,0.4
;   extruderAutoWidth,0
;   extruderWidth,0.4
;   extrusionMultiplier,1
;   extruderUseRetract,1
;   extruderRetractionDistance,1.9
;   extruderExtraRestartDistance,0
;   extruderRetractionZLift,0.5
;   extruderRetractionSpeed,1200
;   extruderUseCoasting,0
;   extruderCoastingDistance,0.2
;   extruderUseWipe,0
;   extruderWipeDistance,5
;   primaryExtruder,0
;   layerHeight,0.2
;   topSolidLayers,3
;   bottomSolidLayers,3
;   perimeterOutlines,2
;   printPerimetersInsideOut,1
;   startPointOption,3
;   startPointOriginX,0
;   startPointOriginY,150
;   sequentialIslands,0
;   spiralVaseMode,0
;   firstLayerHeightPercentage,100
;   firstLayerWidthPercentage,115
;   firstLayerUnderspeed,0.5
;   useRaft,0
;   raftExtruder,0
;   raftTopLayers,2
;   raftBaseLayers,1
;   raftOffset,1
;   raftSeparationDistance,0.14
;   raftTopInfill,90
;   aboveRaftSpeedMultiplier,0.3
;   useSkirt,0
;   skirtExtruder,0
;   skirtLayers,1
;   skirtOutlines,5
;   skirtOffset,0
;   usePrimePillar,0
;   primePillarExtruder,999
;   primePillarWidth,12
;   primePillarLocation,7
;   primePillarSpeedMultiplier,1
;   useOozeShield,0
;   oozeShieldExtruder,999
;   oozeShieldOffset,2
;   oozeShieldOutlines,1
;   oozeShieldSidewallShape,1
;   oozeShieldSidewallAngle,30
;   oozeShieldSpeedMultiplier,1
;   infillExtruder,0
;   internalInfillPattern,Rectilinear
;   externalInfillPattern,Rectilinear
;   infillPercentage,15
;   outlineOverlapPercentage,25
;   infillExtrusionWidthPercentage,100
;   minInfillLength,5
;   infillLayerInterval,1
;   internalInfillAngles,45,-45
;   overlapInternalInfillAngles,0
;   externalInfillAngles,45,-45
;   generateSupport,0
;   supportExtruder,0
;   supportInfillPercentage,30
;   supportExtraInflation,0.5
;   supportBaseLayers,0
;   denseSupportExtruder,0
;   denseSupportLayers,2
;   denseSupportInfillPercentage,90
;   supportLayerInterval,1
;   supportHorizontalPartOffset,0.3
;   supportUpperSeparationLayers,1
;   supportLowerSeparationLayers,1
;   supportType,1
;   supportGridSpacing,2
;   maxOverhangAngle,45
;   supportAngles,45,-45
;   temperatureName,Primary Extruder,Heated Build Platform
;   temperatureNumber,0,0
;   temperatureSetpointCount,1,1
;   temperatureSetpointLayers,1,1
;   temperatureSetpointTemperatures,230,60
;   temperatureStabilizeAtStartup,1,1
;   temperatureHeatedBed,0,1
;   fanLayers,1,2
;   fanSpeeds,0,100
;   blipFanToFullPower,1
;   adjustSpeedForCooling,1
;   minSpeedLayerTime,15
;   minCoolingSpeedSlowdown,20
;   increaseFanForCooling,1
;   minFanLayerTime,45
;   maxCoolingFanSpeed,100
;   increaseFanForBridging,1
;   bridgingFanSpeed,100
;   use5D,1
;   relativeEdistances,1
;   allowEaxisZeroing,0
;   independentExtruderAxes,1
;   includeM10123,0
;   stickySupport,1
;   applyToolheadOffsets,0
;   gcodeXoffset,0
;   gcodeYoffset,0
;   gcodeZoffset,0
;   overrideMachineDefinition,1
;   machineTypeOverride,0
;   strokeXoverride,280
;   strokeYoverride,150
;   strokeZoverride,150
;   originOffsetXoverride,140
;   originOffsetYoverride,75
;   originOffsetZoverride,0
;   homeXdirOverride,1
;   homeYdirOverride,1
;   homeZdirOverride,-1
;   flipXoverride,1
;   flipYoverride,-1
;   flipZoverride,1
;   toolheadOffsets,0,0|0,0|0,0|0,0|0,0|0,0
;   overrideFirmwareConfiguration,1
;   firmwareTypeOverride,MakerBot/Sailfish Firmware
;   GPXconfigOverride,r2h
;   baudRateOverride,115200
;   overridePrinterModels,1
;   printerModelsOverride,MakerBot_Replicator2.stl
;   startingGcode,; **** Replicator 2 start.gcode ****,M73 P0 ; enable build progress,G162 X Y F3000 ; home XY maximum,G161 Z F1200 ; home Z minimum,G92 Z-5 ; set Z to -5,G1 Z0 ; move Z to 0,G161 Z F100 ; home Z slowly,M132 X Y Z A B ; recall home offsets,G1 X-145 Y-75 Z30 F9000 ; move to wait position off table,G130 X20 Y20 Z20 A20 B20 ; lower stepper Vrefs while heating,M126 S[fan_speed_pwm],M140 S[bed0_temperature] T0,M134 T0 ; stabilize bed temperature,M104 S[extruder0_temperature] T0,M133 T0 ; stabilize extruder temperature,G130 X127 Y127 Z40 A127 B127 ; default stepper Vrefs,G92 A0 ; zero extruder,G1 Z0.4 ; position nozzle,G1 E25 F300 ; purge nozzle,G1 X-140 Y-70 Z0.15 F1200 ; slow wipe,G1 X-135 Y-65 Z0.5 F1200 ; lift,G92 A0 ; zero extruder,M73 P1 ;@body (notify GPX body has started),; **** end of start.gcode ****
;   layerChangeGcode,
;   retractionGcode,
;   toolChangeGcode,
;   endingGcode,; **** Replicator 2 end.gcode ****,M73 P100 ; end build progress,G1 Z155 F1000 ; send Z axis to bottom of machine,M104 S0 T0 ; cool down extruder,M140 S0 T0 ; cool down HBP,M127 ; stop blower fan,G162 X Y F3000 ; home XY maximum,M18 ; disable stepper,M0 ; stop codes,M72 P1 ; play Ta-Da song,; **** end of end.gcode ****
;   exportFileFormat,gcode
;   celebration,0
;   celebrationSong,Random Song
;   postProcessing,
;   defaultSpeed,4800
;   outlineUnderspeed,0.5
;   solidInfillUnderspeed,1
;   supportUnderspeed,1
;   rapidXYspeed,9000
;   rapidZspeed,1200
;   minBridgingArea,50
;   bridgingExtraInflation,0
;   bridgingExtrusionMultiplier,1
;   bridgingSpeedMultiplier,0.8
;   useFixedBridgingAngle,0
;   fixedBridgingAngle,0
;   applyBridgingToPerimeters,0
;   filamentDiameters,1.75|1.75|1.75|1.75|1.75|1.75
;   filamentPricesPerKg,46|46|46|46|46|46
;   filamentDensities,1.25|1.25|1.25|1.25|1.25|1.25
;   useMinPrintHeight,0
;   minPrintHeight,0
;   useMaxPrintHeight,0
;   maxPrintHeight,4.84
;   useDiaphragm,0
;   diaphragmLayerInterval,20
;   robustSlicing,1
;   mergeAllIntoSolid,0
;   onlyRetractWhenCrossingOutline,0
;   retractBetweenLayers,0
;   useRetractionMinTravel,1
;   retractionMinTravel,7
;   retractWhileWiping,1
;   onlyWipeOutlines,1
;   avoidCrossingOutline,0
;   maxMovementDetourFactor,3
;   toolChangeRetractionDistance,12
;   toolChangeExtraRestartDistance,-0.5
;   toolChangeRetractionSpeed,600
;   externalThinWallType,0
;   internalThinWallType,0
;   thinWallAllowedOverlapPercentage,10
;   singleExtrusionMinLength,1
;   singleExtrusionMinPrintingWidthPercentage,50
;   singleExtrusionMaxPrintingWidthPercentage,200
;   singleExtrusionEndpointExtension,0.2
;   horizontalSizeCompensation,0
G90
M83
; **** Replicator 2 start.gcode ****
M73 P0 ; enable build progress
G162 X Y F3000 ; home XY maximum
G161 Z F1200 ; home Z minimum
G92 Z-5 ; set Z to -5
G1 Z0 ; move Z to 0
G161 Z F100 ; home Z slowly
M132 X Y Z A B ; recall home offsets
G1 X-145 Y-75 Z30 F9000 ; move to wait position off table
G130 X20 Y20 Z20 A20 B20 ; lower stepper Vrefs while heating
M127
M140 S60 T0
M134 T0 ; stabilize bed temperature
M104 S230 T0
M133 T0 ; stabilize extruder temperature
G130 X127 Y127 Z40 A127 B127 ; default stepper Vrefs
G92 A0 ; zero extruder
G1 Z0.4 ; position nozzle
G1 E25 F300 ; purge nozzle
G1 X-140 Y-70 Z0.15 F1200 ; slow wipe
G1 X-135 Y-65 Z0.5 F1200 ; lift
G92 A0 ; zero extruder
M73 P1 ;@body (notify GPX body has started)
; **** end of start.gcode ****
; process Process1
; layer 1, Z = 0.200
M135 T0
G1 E-1.9000 F1200
; feature inner perimeter
; tool H0.200 W0.460
G1 Z0.500 F1200
G1 X0.000 Y23.572 F9000
G1 Z0.200 F1200
G1 E1.9000 F1200
G1 X-2.311 Y23.459 E0.0885 F1800
G1 X-4.599 Y23.119 E0.0885
G1 X-6.843 Y22.557 E0.0885
G1 X-9.021 Y21.778 E0.0885
G1 X-11.112 Y20.789 E0.0885
G1 X-13.096 Y19.600 E0.0885
G1 X-14.954 Y18.222 E0.0885
G1 X-16.668 Y16.668 E0.0885
G1 X-18.222 Y14.954 E0.0885
G1 X-19.600 Y13.096 E0.0885
G1 X-20.789 Y11.112 E0.0885
G1 X-21.778 Y9.021 E0.0885
G1 X-22.557 Y6.843 E0.0885
G1 X-23.119 Y4.599 E0.0885
G1 X-23.459 Y2.310 E0.0885
G1 X-23.572 Y-0.000 E0.0885
G1 X-23.459 Y-2.310 E0.0885
G1 X-23.119 Y-4.599 E0.0885
G1 X-22.557 Y-6.843 E0.0885
G1 X-21.778 Y-9.021 E0.0885
G1 X-20.789 Y-11.112 E0.0885
G1 X-19.600 Y-13.096 E0.0885
G1 X-18.222 Y-14.954 E0.0885
G1 X-16.668 Y-16.668 E0.0885
G1 X-14.954 Y-18.222 E0.0885
G1 X-13.096 Y-19.600 E0.0885
G1 X-11.112 Y-20.789 E0.0885
G1 X-9.021 Y-21.778 E0.0885
G1 X-6.843 Y-22.557 E0.0885
G1 X-4.599 Y-23.119 E0.0885
G1 X-2.311 Y-23.459 E0.0885
G1 X-0.000 Y-23.572 E0.0885
G1 X2.310 Y-23.459 E0.0885
G1 X4.599 Y-23.119 E0.0885
G1 X6.843 Y-22.557 E0.0885
G1 X9.021 Y-21.778 E0.0885
G1 X11.112 Y-20.789 E0.0885
G1 X13.096 Y-19.600 E0.0885
G1 X14.954 Y-18.222 E0.0885
G1 X16.668 Y-16.668 E0.0885
G1 X18.222 Y-14.954 E0.0885
G1 X19.600 Y-13.096 E0.0885
G1 X20.789 Y-11.112 E0.0885
G1 X21.778 Y-9.021 E0.0885
G1 X22.557 Y-6.843 E0.0885
G1 X23.119 Y-4.599 E0.0885
G1 X23.459 Y-2.310 E0.0885
G1 X23.572 Y-0.000 E0.0885
G1 X23.459 Y2.310 E0.0885
G1 X23.119 Y4.599 E0.0885
G1 X22.557 Y6.843 E0.0885
G1 X21.778 Y9.021 E0.0885
G1 X20.789 Y11.112 E0.0885
G1 X19.600 Y13.096 E0.0885
G1 X18.222 Y14.954 E0.0885
G1 X16.668 Y16.668 E0.0885
G1 X14.954 Y18.222 E0.0885
G1 X13.096 Y19.600 E0.0885
G1 X11.112 Y20.789 E0.0885
G1 X9.021 Y21.778 E0.0885
G1 X6.843 Y22.557 E0.0885
G1 X4.599 Y23.119 E0.0885
G1 X2.310 Y23.459 E0.0885
G1 X0.000 Y23.572 E0.0885
; feature outer perimeter
G1 X0.000 Y24.033 F9000
G1 X-2.356 Y23.917 E0.0902 F1200
G1 X-4.689 Y23.571 E0.0902
G1 X-6.976 Y22.998 E0.0902
G1 X-9.197 Y22.203 E0.0902
G1 X-11.329 Y21.195 E0.0902
G1 X-13.352 Y19.982 E0.0902
G1 X-15.246 Y18.578 E0.0902
G1 X-16.994 Y16.994 E0.0902
G1 X-18.578 Y15.246 E0.0902
G1 X-19.983 Y13.352 E0.0902
G1 X-21.195 Y11.329 E0.0902
G1 X-22.203 Y9.197 E0.0902
G1 X-22.998 Y6.976 E0.0902
G1 X-23.571 Y4.689 E0.0902
G1 X-23.917 Y2.356 E0.0902
G1 X-24.033 Y-0.000 E0.0902
G1 X-23.917 Y-2.356 E0.0902
G1 X-23.571 Y-4.689 E0.0902
G1 X-22.998 Y-6.976 E0.0902
G1 X-22.203 Y-9.197 E0.0902
G1 X-21.195 Y-11.329 E0.0902
G1 X-19.983 Y-13.352 E0.0902
G1 X-18.578 Y-15.246 E0.0902
G1 X-16.994 Y-16.994 E0.0902
G1 X-15.246 Y-18.578 E0.0902
G1 X-13.352 Y-19.982 E0.0902
G1 X-11.329 Y-21.195 E0.0902
G1 X-9.197 Y-22.203 E0.0902
G1 X-6.976 Y-22.998 E0.0902
G1 X-4.689 Y-23.571 E0.0902
G1 X-2.356 Y-23.917 E0.0902
G1 X-0.000 Y-24.033 E0.0902
G1 X2.356 Y-23.917 E0.0902
G1 X4.688 Y-23.571 E0.0902
G1 X6.976 Y-22.998 E0.0902
G1 X9.197 Y-22.203 E0.0902
G1 X11.329 Y-21.195 E0.0902
G1 X13.352 Y-19.983 E0.0902
G1 X15.246 Y-18.578 E0.0902
G1 X16.994 Y-16.994 E0.0902
G1 X18.578 Y-15.246 E0.0902
G1 X19.983 Y-13.352 E0.0902
G1 X21.195 Y-11.329 E0.0902
G1 X22.203 Y-9.197 E0.0902
G1 X22.998 Y-6.976 E0.0902
G1 X23.571 Y-4.689 E0.0902
G1 X23.917 Y-2.356 E0.0902
G1 X24.033 Y0.000 E0.0902
G1 X23.917 Y2.356 E0.0902
G1 X23.571 Y4.689 E0.0902
G1 X22.998 Y6.976 E0.0902
G1 X22.203 Y9.197 E0.0902
G1 X21.195 Y11.329 E0.0902
G1 X19.983 Y13.352 E0.0902
G1 X18.578 Y15.246 E0.0902
G1 X16.994 Y16.994 E0.0902
G1 X15.246 Y18.578 E0.0902
G1 X13.352 Y19.983 E0.0902
G1 X11.329 Y21.195 E0.0902
G1 X9.197 Y22.203 E0.0902
G1 X6.976 Y22.998 E0.0902
G1 X4.689 Y23.571 E0.0902
G1 X2.356 Y23.917 E0.0902
G1 X0.000 Y24.033 E0.0902
G1 E-1.9000 F1200
; feature inner perimeter
G1 Z0.700 F1200
G1 X0.000 Y16.774 F9000
G1 Z0.200 F1200
G1 E1.9000 F1200
G1 X1.644 Y16.693 E0.0630 F1800
G1 X3.272 Y16.452 E0.0630
G1 X4.869 Y16.052 E0.0630
G1 X6.419 Y15.497 E0.0630
G1 X7.907 Y14.793 E0.0630
G1 X9.319 Y13.947 E0.0630
G1 X10.641 Y12.966 E0.0630
G1 X11.861 Y11.861 E0.0630
G1 X12.966 Y10.641 E0.0630
G1 X13.947 Y9.319 E0.0630
G1 X14.793 Y7.907 E0.0630
G1 X15.497 Y6.419 E0.0630
G1 X16.052 Y4.869 E0.0630
G1 X16.452 Y3.272 E0.0630
G1 X16.693 Y1.644 E0.0630
G1 X16.774 Y0.000 E0.0630
G1 X16.693 Y-1.644 E0.0630
G1 X16.452 Y-3.272 E0.0630
G1 X16.052 Y-4.869 E0.0630
G1 X15.497 Y-6.419 E0.0630
G1 X14.793 Y-7.907 E0.0630
G1 X13.947 Y-9.319 E0.0630
G1 X12.966 Y-10.641 E0.0630
G1 X11.861 Y-11.861 E0.0630
G1 X10.641 Y-12.966 E0.0630
G1 X9.319 Y-13.947 E0.0630
G1 X7.907 Y-14.793 E0.0630
G1 X6.419 Y-15.497 E0.0630
G1 X4.869 Y-16.052 E0.0630
G1 X3.272 Y-16.452 E0.0630
G1 X1.644 Y-16.693 E0.0630
G1 X-0.000 Y-16.774 E0.0630
G1 X-1.644 Y-16.693 E0.0630
G1 X-3.272 Y-16.452 E0.0630
G1 X-4.869 Y-16.052 E0.0630
G1 X-6.419 Y-15.497 E0.0630
G1 X-7.907 Y-14.793 E0.0630
G1 X-9.319 Y-13.947 E0.0630
G1 X-10.641 Y-12.966 E0.0630
G1 X-11.861 Y-11.861 E0.0630
G1 X-12.966 Y-10.641 E0.0630
G1 X-13.947 Y-9.319 E0.0630
G1 X-14.793 Y-7.907 E0.0630
G1 X-15.497 Y-6.419 E0.0630
G1 X-16.052 Y-4.869 E0.0630
G1 X-16.452 Y-3.272 E0.0630
G1 X-16.693 Y-1.644 E0.0630
G1 X-16.774 Y0.000 E0.0630
G1 X-16.693 Y1.644 E0.0630
G1 X-16.452 Y3.272 E0.0630
G1 X-16.052 Y4.869 E0.0630
G1 X-15.497 Y6.419 E0.0630
G1 X-14.793 Y7.907 E0.0630
G1 X-13.947 Y9.319 E0.0630
G1 X-12.966 Y10.641 E0.0630
G1 X-11.861 Y11.861 E0.0630
G1 X-10.641 Y12.966 E0.0630
G1 X-9.319 Y13.947 E0.0630
G1 X-7.907 Y14.793 E0.0630
G1 X-6.419 Y15.497 E0.0630
G1 X-4.869 Y16.052 E0.0630
G1 X-3.272 Y16.452 E0.0630
G1 X-1.644 Y16.693 E0.0630
G1 X0.000 Y16.774 E0.0630
; feature outer perimeter
G1 X0.000 Y16.313 F9000
G1 X1.599 Y16.235 E0.0612 F1200
G1 X3.183 Y16.000 E0.0612
G1 X4.736 Y15.611 E0.0612
G1 X6.243 Y15.072 E0.0612
G1 X7.690 Y14.387 E0.0612
G1 X9.063 Y13.564 E0.0612
G1 X10.349 Y12.610 E0.0612
G1 X11.535 Y11.535 E0.0612
G1 X12.610 Y10.349 E0.0612
G1 X13.564 Y9.063 E0.0612
G1 X14.387 Y7.690 E0.0612
G1 X15.072 Y6.243 E0.0612
G1 X15.611 Y4.736 E0.0612
G1 X16.000 Y3.183 E0.0612
G1 X16.235 Y1.599 E0.0612
G1 X16.313 Y0.000 E0.0612
G1 X16.235 Y-1.599 E0.0612
G1 X16.000 Y-3.183 E0.0612
G1 X15.611 Y-4.736 E0.0612
G1 X15.072 Y-6.243 E0.0612
G1 X14.387 Y-7.690 E0.0612
G1 X13.564 Y-9.063 E0.0612
G1 X12.610 Y-10.349 E0.0612
G1 X11.535 Y-11.535 E0.0612
G1 X10.349 Y-12.610 E0.0612
G1 X9.063 Y-13.564 E0.0612
G1 X7.690 Y-14.387 E0.0612
G1 X6.243 Y-15.072 E0.0612
G1 X4.736 Y-15.611 E0.0612
G1 X3.183 Y-16.000 E0.0612
G1 X1.599 Y-16.235 E0.0612
G1 X-0.000 Y-16.313 E0.0612
G1 X-1.599 Y-16.235 E0.0612
G1 X-3.183 Y-16.000 E0.0612
G1 X-4.736 Y-15.611 E0.0612
G1 X-6.243 Y-15.072 E0.0612
G1 X-7.690 Y-14.387 E0.0612
G1 X-9.063 Y-13.564 E0.0612
G1 X-10.349 Y-12.610 E0.0612
G1 X-11.535 Y-11.535 E0.0612
G1 X-12.610 Y-10.349 E0.0612
G1 X-13.564 Y-9.063 E0.0612
G1 X-14.387 Y-7.690 E0.0612
G1 X-15.072 Y-6.243 E0.0612
G1 X-15.611 Y-4.736 E0.0612
G1 X-16.000 Y-3.183 E0.0612
G1 X-16.235 Y-1.599 E0.0612
G1 X-16.313 Y0.000 E0.0612
G1 X-16.235 Y1.599 E0.0612
G1 X-16.000 Y3.183 E0.0612
G1 X-15.611 Y4.736 E0.0612
G1 X-15.072 Y6.243 E0.0612
G1 X-14.387 Y7.690 E0.0612
G1 X-13.564 Y9.063 E0.0612
G1 X-12.610 Y10.349 E0.0612
G1 X-11.535 Y11.535 E0.0612
G1 X-10.349 Y12.610 E0.0612
G1 X-9.063 Y13.564 E0.0612
G1 X-7.690 Y14.387 E0.0612
G1 X-6.243 Y15.072 E0.0612
G1 X-4.736 Y15.611 E0.0612
G1 X-3.183 Y16.000 E0.0612
G1 X-1.599 Y16.235 E0.0612
G1 X0.000 Y16.313 E0.0612
G1 E-1.9000 F1200
; feature solid layer
G1 Z0.700 F1200
G1 X-10.768 Y13.302 F9000
G1 Z0.200 F1200
G1 E1.9000 F1200
G1 X-0.887 Y23.183 E0.5345 F2400
G1 X-0.203 Y23.217 E0.0262
G1 X-8.698 Y14.722 E0.4595
G1 X-8.070 Y15.098 E0.0280
G1 X-7.313 Y15.456 E0.0320
G1 X0.437 Y23.205 E0.4192
G1 X1.057 Y23.175 E0.0237
G1 X-6.163 Y15.955 E0.3905
G1 X-5.150 Y16.318 E0.0412
G1 X1.677 Y23.144 E0.3693
G1 X2.277 Y23.115 E0.0230
G1 X2.295 Y23.112 E0.0007
G1 X-4.256 Y16.561 E0.3544
G1 X-3.388 Y16.778 E0.0342
G1 X2.862 Y23.028 E0.3381
G1 X3.428 Y22.944 E0.0219
G1 X-2.619 Y16.897 E0.3271
G1 X-1.855 Y17.011 E0.0295
G1 X3.995 Y22.860 E0.3164
G1 X4.531 Y22.780 E0.0208
G1 X4.559 Y22.774 E0.0011
G1 X-1.152 Y17.063 E0.3089
G1 X-0.468 Y17.096 E0.0262
G1 X5.079 Y22.643 E0.3000
G1 X5.599 Y22.513 E0.0205
G1 X0.196 Y17.110 E0.2923
G1 X0.816 Y17.079 E0.0237
G1 X6.119 Y22.383 E0.2869
G1 X6.639 Y22.252 E0.0205
G1 X1.436 Y17.049 E0.2815
G1 X1.678 Y17.037 E0.0093
G1 X2.023 Y16.986 E0.0134
G1 X7.127 Y22.089 E0.2761
G1 X7.606 Y21.918 E0.0195
G1 X2.590 Y16.902 E0.2713
G1 X3.156 Y16.818 E0.0219
G1 X8.085 Y21.746 E0.2666
G1 X8.564 Y21.575 E0.0195
G1 X3.692 Y16.702 E0.2636
G1 X4.212 Y16.572 E0.0205
G1 X9.031 Y21.391 E0.2607
G1 X9.473 Y21.182 E0.0187
G1 X4.732 Y16.442 E0.2564
G1 X4.969 Y16.382 E0.0094
