; G-Code generated by Simplify3D(R) Version 4.1.2
; Apr 2, 2020 at 4:24:53 PM
; Settings Summary
;   processName,Process1
;   applyToModels,DragBaseV2R4,DragLightSupport
;   profileName,MakerBot Replicator 2 HBP (modified)
;   profileVersion,2020-03-12 10:48:50
;   baseProfile,MakerBot Replicator 2(2)
;   printMaterial,PLA
;   printQuality,Medium
;   printExtruders,
;   extruderName,Primary Extruder
;   extruderToolheadNumber,0
;   extruderDiameter,0.4
;   extruderAutoWidth,0
;   extruderWidth,0.4
;   extrusionMultiplier,1
;   extruderUseRetract,1
;   extruderRetractionDistance,1.9
;   extruderExtraRestartDistance,0
;   extruderRetractionZLift,0.5
;   extruderRetractionSpeed,1200
;   extruderUseCoasting,0
;   extruderCoastingDistance,0.2
;   extruderUseWipe,0
;   extruderWipeDistance,5
;   primaryExtruder,0
;   layerHeight,0.2
;   topSolidLayers,3
;   bottomSolidLayers,3
;   perimeterOutlines,2
;   printPerimetersInsideOut,1
;   startPointOption,3
;   startPointOriginX,0
;   startPointOriginY,150
;   sequentialIslands,0
;   spiralVaseMode,0
;   firstLayerHeightPercentage,100
;   firstLayerWidthPercentage,115
;   firstLayerUnderspeed,0.5
;   useRaft,0
;   raftExtruder,0
;   raftTopLayers,2
;   raftBaseLayers,1
;   raftOffset,1
;   raftSeparationDistance,0.14
;   raftTopInfill,90
;   aboveRaftSpeedMultiplier,0.3
;   useSkirt,0
;   skirtExtruder,0
;   skirtLayers,1
;   skirtOutlines,5
;   skirtOffset,0
;   usePrimePillar,0
;   primePillarExtruder,999
;   primePillarWidth,12
;   primePillarLocation,7
;   primePillarSpeedMultiplier,1
;   useOozeShield,0
;   oozeShieldExtruder,999
;   oozeShieldOffset,2
;   oozeShieldOutlines,1
;   oozeShieldSidewallShape,1
;   oozeShieldSidewallAngle,30
;   oozeShieldSpeedMultiplier,1
;   infillExtruder,0
;   internalInfillPattern,Rectilinear
;   externalInfillPattern,Rectilinear
;   infillPercentage,15
;   outlineOverlapPercentage,25
;   infillExtrusionWidthPercentage,100
;   minInfillLength,5
;   infillLayerInterval,1
;   internalInfillAngles,45,-45
;   overlapInternalInfillAngles,0
;   externalInfillAngles,45,-45
;   generateSupport,0
;   supportExtruder,0
;   supportInfillPercentage,30
;   supportExtraInflation,0.5
;   supportBaseLayers,0
;   denseSupportExtruder,0
;   denseSupportLayers,2
;   denseSupportInfillPercentage,90
;   supportLayerInterval,1
;   supportHorizontalPartOffset,0.3
;   supportUpperSeparationLayers,1
;   supportLowerSeparationLayers,1
;   supportType,1
;   supportGridSpacing,2
;   maxOverhangAngle,45
;   supportAngles,45,-45
;   temperatureName,Primary Extruder,Heated Build Platform
;   temperatureNumber,0,0
;   temperatureSetpointCount,1,1
;   temperatureSetpointLayers,1,1
;   temperatureSetpointTemperatures,230,60
;   temperatureStabilizeAtStartup,1,1
;   temperatureHeatedBed,0,1
;   fanLayers,1,2
;   fanSpeeds,0,100
;   blipFanToFullPower,1
;   adjustSpeedForCooling,1
;   minSpeedLayerTime,15
;   minCoolingSpeedSlowdown,20
;   increaseFanForCooling,1
;   minFanLayerTime,45
;   maxCoolingFanSpeed,100
;   increaseFanForBridging,1
;   bridgingFanSpeed,100
;   use5D,1
;   relativeEdistances,1
;   allowEaxisZeroing,0
;   independentExtruderAxes,1
;   includeM10123,0
;   stickySupport,1
;   applyToolheadOffsets,0
;   gcodeXoffset,0
;   gcodeYoffset,0
;   gcodeZoffset,0
;   overrideMachineDefinition,1
;   machineTypeOverride,0
;   strokeXoverride,280
;   strokeYoverride,150
;   strokeZoverride,150
;   originOffsetXoverride,140
;   originOffsetYoverride,75
;   originOffsetZoverride,0
;   homeXdirOverride,1
;   homeYdirOverride,1
;   homeZdirOverride,-1
;   flipXoverride,1
;   flipYoverride,-1
;   flipZoverride,1
;   toolheadOffsets,0,0|0,0|0,0|0,0|0,0|0,0
;   overrideFirmwareConfiguration,1
;   firmwareTypeOverride,MakerBot/Sailfish Firmware
;   GPXconfigOverride,r2h
;   baudRateOverride,115200
;   overridePrinterModels,1
;   printerModelsOverride,MakerBot_Replicator2.stl
;   startingGcode,; **** Replicator 2 start.gcode ****,M73 P0 ; enable build progress,G162 X Y F3000 ; home XY maximum,G161 Z F1200 ; home Z minimum,G92 Z-5 ; set Z to -5,G1 Z0 ; move Z to 0,G161 Z F100 ; home Z slowly,M132 X Y Z A B ; recall home offsets,G1 X-145 Y-75 Z30 F9000 ; move to wait position off table,G130 X20 Y20 Z20 A20 B20 ; lower stepper Vrefs while heating,M126 S[fan_speed_pwm],M140 S[bed0_temperature] T0,M134 T0 ; stabilize bed temperature,M104 S[extruder0_temperature] T0,M133 T0 ; stabilize extruder temperature,G130 X127 Y127 Z40 A127 B127 ; default stepper Vrefs,G92 A0 ; zero extruder,G1 Z0.4 ; position nozzle,G1 E25 F300 ; purge nozzle,G1 X-140 Y-70 Z0.15 F1200 ; slow wipe,G1 X-135 Y-65 Z0.5 F1200 ; lift,G92 A0 ; zero extruder,M73 P1 ;@body (notify GPX body has started),; **** end of start.gcode ****
;   layerChangeGcode,
;   retractionGcode,
;   toolChangeGcode,
;   endingGcode,; **** Replicator 2 end.gcode ****,M73 P100 ; end build progress,G1 Z155 F1000 ; send Z axis to bottom of machine,M104 S0 T0 ; cool down extruder,M140 S0 T0 ; cool down HBP,M127 ; stop blower fan,G162 X Y F3000 ; home XY maximum,M18 ; disable stepper,M0 ; stop codes,M72 P1 ; play Ta-Da song,; **** end of end.gcode ****
;   exportFileFormat,gcode
;   celebration,0
;   celebrationSong,Random Song
;   postProcessing,
;   defaultSpeed,4800
;   outlineUnderspeed,0.5
;   solidInfillUnderspeed,1
;   supportUnderspeed,1
;   rapidXYspeed,9000
;   rapidZspeed,1200
;   minBridgingArea,50
;   bridgingExtraInflation,0
;   bridgingExtrusionMultiplier,1
;   bridgingSpeedMultiplier,0.8
;   useFixedBridgingAngle,0
;   fixedBridgingAngle,0
;   applyBridgingToPerimeters,0
;   filamentDiameters,1.75|1.75|1.75|1.75|1.75|1.75
;   filamentPricesPerKg,46|46|46|46|46|46
;   filamentDensities,1.25|1.25|1.25|1.25|1.25|1.25
;   useMinPrintHeight,0
;   minPrintHeight,0
;   useMaxPrintHeight,0
;   maxPrintHeight,4.84
;   useDiaphragm,0
;   diaphragmLayerInterval,20
;   robustSlicing,1
;   mergeAllIntoSolid,0
;   onlyRetractWhenCrossingOutline,0
;   retractBetweenLayers,0
;   useRetractionMinTravel,1
;   retractionMinTravel,7
;   retractWhileWiping,1
;   onlyWipeOutlines,1
;   avoidCrossingOutline,0
;   maxMovementDetourFactor,3
;   toolChangeRetractionDistance,12
;   toolChangeExtraRestartDistance,-0.5
;   toolChangeRetractionSpeed,600
;   externalThinWallType,0
;   internalThinWallType,0
;   thinWallAllowedOverlapPercentage,10
;   singleExtrusionMinLength,1
;   singleExtrusionMinPrintingWidthPercentage,50
;   singleExtrusionMaxPrintingWidthPercentage,200
;   singleExtrusionEndpointExtension,0.2
;   horizontalSizeCompensation,0
G90
M83
; **** Replicator 2 start.gcode ****
M73 P0 ; enable build progress
G162 X Y F3000 ; home XY maximum
G161 Z F1200 ; home Z minimum
G92 Z-5 ; set Z to -5
G1 Z0 ; move Z to 0
G161 Z F100 ; home Z slowly
M132 X Y Z A B ; recall home offsets
G1 X-145 Y-75 Z30 F9000 ; move to wait position off table
G130 X20 Y20 Z20 A20 B20 ; lower stepper Vrefs while heating
M127
M140 S60 T0
M134 T0 ; stabilize bed temperature
M104 S230 T0
M133 T0 ; stabilize extruder temperature
G130 X127 Y127 Z40 A127 B127 ; default stepper Vrefs
G92 A0 ; zero extruder
G1 Z0.4 ; position nozzle
G1 E25 F300 ; purge nozzle
G1 X-140 Y-70 Z0.15 F1200 ; slow wipe
G1 X-135 Y-65 Z0.5 F1200 ; lift
G92 A0 ; zero extruder
M73 P1 ;@body (notify GPX body has started)
; **** end of start.gcode ****
; process Process1
; layer 1, Z = 0.200
M135 T0
G1 E-1.9000 F1200
; feature inner perimeter
; tool H0.200 W0.460
G1 Z0.500 F1200
G1 X15.990 Y8.539 F9000
G1 Z0.200 F1200
G1 E1.9000 F1200
G1 X15.475 Y8.447 E0.0200 F1800
G1 X15.246 Y8.293 E0.0105
G1 X15.182 Y8.131 E0.0067
G1 X15.182 Y-32.596 E1.5578
G1 X15.244 Y-32.752 E0.0064
G1 X15.473 Y-32.904 E0.0105
G1 X15.990 Y-32.996 E0.0201
G1 X41.411 Y-32.996 E0.9723
G1 X41.926 Y-32.903 E0.0200
G1 X42.155 Y-32.750 E0.0105
G1 X42.220 Y-32.589 E0.0066
G1 X42.220 Y8.131 E1.5575
G1 X42.155 Y8.293 E0.0067
G1 X41.926 Y8.447 E0.0105
G1 X41.412 Y8.539 E0.0200
G1 X15.990 Y8.539 E0.9724
; feature outer perimeter
G1 X15.949 Y8.999 F9000
G1 X15.299 Y8.883 E0.0253 F1200
G1 X14.872 Y8.595 E0.0197
G1 X14.722 Y8.220 E0.0155
G1 X14.722 Y-32.686 E1.5646
G1 X14.871 Y-33.056 E0.0153
G1 X15.298 Y-33.340 E0.0196
G1 X15.949 Y-33.456 E0.0253
G1 X41.452 Y-33.456 E0.9755
G1 X42.103 Y-33.339 E0.0253
G1 X42.530 Y-33.052 E0.0197
G1 X42.680 Y-32.677 E0.0155
G1 X42.680 Y8.220 E1.5643
G1 X42.530 Y8.595 E0.0155
G1 X42.103 Y8.883 E0.0197
G1 X41.452 Y8.999 E0.0253
G1 X15.949 Y8.999 E0.9755
G1 E-1.9000 F1200
; feature inner perimeter
G1 Z0.700 F1200
G1 X20.011 Y3.202 F9000
G1 Z0.200 F1200
G1 E1.9000 F1200
G1 X37.391 Y3.202 E0.6648 F1800
G1 X37.391 Y-8.084 E0.4317
G1 X20.011 Y-8.084 E0.6648
G1 X20.011 Y3.202 E0.4317
; feature outer perimeter
G1 X20.471 Y2.742 F9000
G1 X36.931 Y2.742 E0.6296 F1200
G1 X36.931 Y-7.624 E0.3965
G1 X20.471 Y-7.624 E0.6296
G1 X20.471 Y2.742 E0.3965
G1 E-1.9000 F1200
; feature inner perimeter
G1 Z0.700 F1200
G1 X20.011 Y-17.288 F9000
G1 Z0.200 F1200
G1 E1.9000 F1200
G1 X37.391 Y-17.288 E0.6648 F1800
G1 X37.391 Y-27.659 E0.3967
G1 X20.011 Y-27.659 E0.6648
G1 X20.011 Y-17.288 E0.3967
; feature outer perimeter
G1 X20.471 Y-17.748 F9000
G1 X36.931 Y-17.748 E0.6296 F1200
G1 X36.931 Y-27.199 E0.3615
G1 X20.471 Y-27.199 E0.6296
G1 X20.471 Y-17.748 E0.3615
; feature solid layer
G1 X20.137 Y-16.943 F9000
G1 X28.652 Y-8.429 E0.4606 F2400
G1 X29.302 Y-8.429 E0.0249
G1 X20.788 Y-16.943 E0.4606
G1 X21.438 Y-16.943 E0.0249
G1 X29.953 Y-8.429 E0.4606
G1 X30.603 Y-8.429 E0.0249
G1 X22.089 Y-16.943 E0.4606
G1 X22.739 Y-16.943 E0.0249
G1 X31.254 Y-8.429 E0.4606
G1 X31.904 Y-8.429 E0.0249
G1 X23.390 Y-16.943 E0.4606
G1 X24.041 Y-16.943 E0.0249
G1 X32.555 Y-8.429 E0.4606
G1 X33.205 Y-8.429 E0.0249
G1 X24.691 Y-16.943 E0.4606
G1 X25.342 Y-16.943 E0.0249
G1 X33.856 Y-8.429 E0.4606
G1 X34.506 Y-8.429 E0.0249
G1 X25.992 Y-16.943 E0.4606
G1 X26.643 Y-16.943 E0.0249
G1 X35.157 Y-8.429 E0.4606
G1 X35.808 Y-8.429 E0.0249
G1 X27.293 Y-16.943 E0.4606
G1 X27.944 Y-16.943 E0.0249
G1 X36.458 Y-8.429 E0.4606
G1 X37.109 Y-8.429 E0.0249
G1 X28.594 Y-16.943 E0.4606
G1 X29.245 Y-16.943 E0.0249
G1 X41.875 Y-4.314 E0.6832
G1 X41.875 Y-4.964 E0.0249
G1 X29.895 Y-16.943 E0.6480
G1 X30.546 Y-16.943 E0.0249
G1 X41.875 Y-5.615 E0.6128
G1 X41.875 Y-6.265 E0.0249
G1 X31.196 Y-16.943 E0.5776
G1 X31.847 Y-16.943 E0.0249
G1 X41.875 Y-6.916 E0.5424
G1 X41.875 Y-7.566 E0.0249
G1 X32.498 Y-16.943 E0.5072
G1 X33.148 Y-16.943 E0.0249
G1 X41.875 Y-8.217 E0.4720
G1 X41.875 Y-8.867 E0.0249
G1 X33.799 Y-16.943 E0.4368
G1 X34.449 Y-16.943 E0.0249
G1 X41.875 Y-9.518 E0.4017
G1 X41.875 Y-10.168 E0.0249
G1 X35.100 Y-16.943 E0.3665
G1 X35.750 Y-16.943 E0.0249
G1 X41.875 Y-10.819 E0.3313
G1 X41.875 Y-11.470 E0.0249
G1 X36.401 Y-16.943 E0.2961
G1 X37.051 Y-16.943 E0.0249
G1 X41.875 Y-12.120 E0.2609
G1 X41.875 Y-12.771 E0.0249
G1 X37.702 Y-16.943 E0.2257
G1 X37.736 Y-16.943 E0.0013
G1 X37.736 Y-17.560 E0.0236
G1 X41.875 Y-13.421 E0.2239
G1 X41.875 Y-14.072 E0.0249
G1 X37.736 Y-18.211 E0.2239
G1 X37.736 Y-18.861 E0.0249
G1 X41.875 Y-14.722 E0.2239
G1 X41.875 Y-15.373 E0.0249
G1 X37.736 Y-19.512 E0.2239
G1 X37.736 Y-20.162 E0.0249
G1 X41.875 Y-16.023 E0.2239
G1 X41.875 Y-16.674 E0.0249
G1 X37.736 Y-20.813 E0.2239
G1 X37.736 Y-21.463 E0.0249
G1 X41.875 Y-17.324 E0.2239
G1 X41.875 Y-17.975 E0.0249
G1 X37.736 Y-22.114 E0.2239
G1 X37.736 Y-22.764 E0.0249
G1 X41.875 Y-18.625 E0.2239
G1 X41.875 Y-19.276 E0.0249
G1 X37.736 Y-23.415 E0.2239
G1 X37.736 Y-24.065 E0.0249
G1 X41.875 Y-19.927 E0.2239
G1 X41.875 Y-20.577 E0.0249
G1 X37.736 Y-24.716 E0.2239
G1 X37.736 Y-25.367 E0.0249
G1 X41.875 Y-21.228 E0.2239
G1 X41.875 Y-21.878 E0.0249
G1 X37.736 Y-26.017 E0.2239
G1 X37.736 Y-26.668 E0.0249
G1 X41.875 Y-22.529 E0.2239
G1 X41.875 Y-23.179 E0.0249
G1 X37.736 Y-27.318 E0.2239
G1 X41.539 Y-32.623 F9000
G1 X41.875 Y-32.287 E0.0182 F2400
G1 X41.875 Y-31.636 E0.0249
G1 X40.860 Y-32.651 E0.0549
G1 X40.209 Y-32.651 E0.0249
G1 X41.875 Y-30.986 E0.0901
G1 X41.875 Y-30.335 E0.0249
G1 X39.559 Y-32.651 E0.1253
G1 X38.908 Y-32.651 E0.0249
G1 X41.875 Y-29.685 E0.1605
G1 X41.875 Y-29.034 E0.0249
G1 X38.257 Y-32.651 E0.1957
G1 X37.607 Y-32.651 E0.0249
G1 X41.875 Y-28.384 E0.2309
G1 X41.875 Y-27.733 E0.0249
G1 X36.956 Y-32.651 E0.2660
G1 X36.306 Y-32.651 E0.0249
G1 X41.875 Y-27.082 E0.3012
G1 X41.875 Y-26.432 E0.0249
G1 X35.655 Y-32.651 E0.3364
G1 X35.005 Y-32.651 E0.0249
G1 X41.875 Y-25.781 E0.3716
G1 X41.875 Y-25.131 E0.0249
G1 X34.354 Y-32.651 E0.4068
G1 X33.704 Y-32.651 E0.0249
G1 X41.875 Y-24.480 E0.4420
G1 X41.875 Y-23.830 E0.0249
G1 X37.736 Y-27.969 E0.2239
G1 X37.736 Y-28.004 E0.0014
G1 X37.700 Y-28.004 E0.0014
G1 X33.053 Y-32.651 E0.2514
G1 X32.403 Y-32.651 E0.0249
G1 X37.049 Y-28.004 E0.2514
G1 X36.399 Y-28.004 E0.0249
G1 X31.752 Y-32.651 E0.2514
G1 X31.102 Y-32.651 E0.0249
G1 X35.748 Y-28.004 E0.2514
G1 X35.098 Y-28.004 E0.0249
G1 X30.451 Y-32.651 E0.2514
G1 X29.800 Y-32.651 E0.0249
G1 X34.447 Y-28.004 E0.2514
G1 X33.797 Y-28.004 E0.0249
G1 X29.150 Y-32.651 E0.2514
G1 X28.499 Y-32.651 E0.0249
G1 X33.146 Y-28.004 E0.2514
G1 X32.496 Y-28.004 E0.0249
G1 X27.849 Y-32.651 E0.2514
G1 X27.198 Y-32.651 E0.0249
G1 X31.845 Y-28.004 E0.2514
G1 X31.195 Y-28.004 E0.0249
G1 X26.548 Y-32.651 E0.2514
G1 X25.897 Y-32.651 E0.0249
G1 X30.544 Y-28.004 E0.2514
G1 X29.894 Y-28.004 E0.0249
G1 X25.247 Y-32.651 E0.2514
G1 X24.596 Y-32.651 E0.0249
G1 X29.243 Y-28.004 E0.2514
G1 X28.592 Y-28.004 E0.0249
G1 X23.946 Y-32.651 E0.2514
G1 X23.295 Y-32.651 E0.0249
G1 X27.942 Y-28.004 E0.2514
G1 X27.291 Y-28.004 E0.0249
G1 X22.645 Y-32.651 E0.2514
G1 X21.994 Y-32.651 E0.0249
G1 X26.641 Y-28.004 E0.2514
G1 X25.990 Y-28.004 E0.0249
G1 X21.343 Y-32.651 E0.2514
G1 X20.693 Y-32.651 E0.0249
G1 X25.340 Y-28.004 E0.2514
G1 X24.689 Y-28.004 E0.0249
G1 X20.042 Y-32.651 E0.2514
G1 X19.392 Y-32.651 E0.0249
G1 X24.039 Y-28.004 E0.2514
G1 X23.388 Y-28.004 E0.0249
G1 X18.741 Y-32.651 E0.2514
G1 X18.091 Y-32.651 E0.0249
G1 X22.738 Y-28.004 E0.2514
G1 X22.087 Y-28.004 E0.0249
G1 X17.440 Y-32.651 E0.2514
G1 X16.790 Y-32.651 E0.0249
G1 X21.437 Y-28.004 E0.2514
G1 X20.786 Y-28.004 E0.0249
G1 X16.139 Y-32.651 E0.2514
G1 X16.020 Y-32.651 E0.0045
G1 X15.604 Y-32.577 E0.0162
G1 X15.579 Y-32.561 E0.0011
G1 X20.135 Y-28.004 E0.2465
G1 X19.666 Y-28.004 E0.0180
G1 X19.666 Y-27.824 E0.0069
G1 X15.527 Y-31.963 E0.2239
G1 X15.527 Y-31.312 E0.0249
G1 X19.666 Y-27.173 E0.2239
G1 X19.666 Y-26.523 E0.0249
G1 X15.527 Y-30.661 E0.2239
G1 X15.527 Y-30.011 E0.0249
G1 X19.666 Y-25.872 E0.2239
G1 X19.666 Y-25.221 E0.0249
G1 X15.527 Y-29.360 E0.2239
G1 X15.527 Y-28.710 E0.0249
G1 X19.666 Y-24.571 E0.2239
G1 X19.666 Y-23.920 E0.0249
G1 X15.527 Y-28.059 E0.2239
G1 X15.527 Y-27.409 E0.0249
G1 X19.666 Y-23.270 E0.2239
G1 X19.666 Y-22.619 E0.0249
G1 X15.527 Y-26.758 E0.2239
G1 X15.527 Y-26.108 E0.0249
G1 X19.666 Y-21.969 E0.2239
G1 X19.666 Y-21.318 E0.0249
G1 X15.527 Y-25.457 E0.2239
G1 X15.527 Y-24.807 E0.0249
G1 X19.666 Y-20.668 E0.2239
G1 X19.666 Y-20.017 E0.0249
G1 X15.527 Y-24.156 E0.2239
G1 X15.527 Y-23.506 E0.0249
G1 X19.666 Y-19.367 E0.2239
G1 X19.666 Y-18.716 E0.0249
G1 X15.527 Y-22.855 E0.2239
G1 X15.527 Y-22.204 E0.0249
G1 X19.666 Y-18.066 E0.2239
G1 X19.666 Y-17.415 E0.0249
G1 X15.527 Y-21.554 E0.2239
G1 X15.527 Y-20.903 E0.0249
G1 X28.001 Y-8.429 E0.6748
G1 X27.351 Y-8.429 E0.0249
G1 X15.527 Y-20.253 E0.6396
G1 X15.527 Y-19.602 E0.0249
G1 X26.700 Y-8.429 E0.6044
G1 X26.049 Y-8.429 E0.0249
G1 X15.527 Y-18.952 E0.5692
G1 X15.527 Y-18.301 E0.0249
G1 X25.399 Y-8.429 E0.5340
G1 X24.748 Y-8.429 E0.0249
G1 X15.527 Y-17.651 E0.4988
G1 X15.527 Y-17.000 E0.0249
G1 X24.098 Y-8.429 E0.4636
G1 X23.447 Y-8.429 E0.0249
G1 X15.527 Y-16.350 E0.4284
G1 X15.527 Y-15.699 E0.0249
G1 X22.797 Y-8.429 E0.3933
G1 X22.146 Y-8.429 E0.0249
G1 X15.527 Y-15.049 E0.3581
G1 X15.527 Y-14.398 E0.0249
G1 X21.496 Y-8.429 E0.3229
G1 X20.845 Y-8.429 E0.0249
G1 X15.527 Y-13.747 E0.2877
G1 X15.527 Y-13.097 E0.0249
G1 X20.195 Y-8.429 E0.2525
G1 X19.666 Y-8.429 E0.0202
G1 X19.666 Y-8.307 E0.0047
G1 X15.527 Y-12.446 E0.2239
G1 X15.527 Y-11.796 E0.0249
G1 X19.666 Y-7.657 E0.2239
