; G-Code generated by Simplify3D(R) Version 4.1.2
; Apr 2, 2020 at 4:31:28 PM
; Settings Summary
;   processName,Process1
;   applyToModels,pipeGoopV1R4
;   profileName,MakerBot Replicator 2 HBP (modified)
;   profileVersion,2020-03-12 10:48:50
;   baseProfile,MakerBot Replicator 2(2)
;   printMaterial,PLA
;   printQuality,Medium
;   printExtruders,
;   extruderName,Primary Extruder
;   extruderToolheadNumber,0
;   extruderDiameter,0.4
;   extruderAutoWidth,0
;   extruderWidth,0.4
;   extrusionMultiplier,1
;   extruderUseRetract,1
;   extruderRetractionDistance,1.9
;   extruderExtraRestartDistance,0
;   extruderRetractionZLift,0.5
;   extruderRetractionSpeed,1200
;   extruderUseCoasting,0
;   extruderCoastingDistance,0.2
;   extruderUseWipe,0
;   extruderWipeDistance,5
;   primaryExtruder,0
;   layerHeight,0.2
;   topSolidLayers,3
;   bottomSolidLayers,3
;   perimeterOutlines,2
;   printPerimetersInsideOut,1
;   startPointOption,3
;   startPointOriginX,0
;   startPointOriginY,150
;   sequentialIslands,0
;   spiralVaseMode,0
;   firstLayerHeightPercentage,100
;   firstLayerWidthPercentage,115
;   firstLayerUnderspeed,0.5
;   useRaft,1
;   raftExtruder,0
;   raftTopLayers,2
;   raftBaseLayers,1
;   raftOffset,1
;   raftSeparationDistance,0.14
;   raftTopInfill,90
;   aboveRaftSpeedMultiplier,0.3
;   useSkirt,0
;   skirtExtruder,0
;   skirtLayers,1
;   skirtOutlines,5
;   skirtOffset,0
;   usePrimePillar,0
;   primePillarExtruder,999
;   primePillarWidth,12
;   primePillarLocation,7
;   primePillarSpeedMultiplier,1
;   useOozeShield,0
;   oozeShieldExtruder,999
;   oozeShieldOffset,2
;   oozeShieldOutlines,1
;   oozeShieldSidewallShape,1
;   oozeShieldSidewallAngle,30
;   oozeShieldSpeedMultiplier,1
;   infillExtruder,0
;   internalInfillPattern,Rectilinear
;   externalInfillPattern,Rectilinear
;   infillPercentage,15
;   outlineOverlapPercentage,25
;   infillExtrusionWidthPercentage,100
;   minInfillLength,5
;   infillLayerInterval,1
;   internalInfillAngles,45,-45
;   overlapInternalInfillAngles,0
;   externalInfillAngles,45,-45
;   generateSupport,1
;   supportExtruder,0
;   supportInfillPercentage,30
;   supportExtraInflation,0.5
;   supportBaseLayers,0
;   denseSupportExtruder,0
;   denseSupportLayers,2
;   denseSupportInfillPercentage,90
;   supportLayerInterval,1
;   supportHorizontalPartOffset,0.3
;   supportUpperSeparationLayers,1
;   supportLowerSeparationLayers,1
;   supportType,1
;   supportGridSpacing,2
;   maxOverhangAngle,45
;   supportAngles,45,-45
;   temperatureName,Primary Extruder,Heated Build Platform
;   temperatureNumber,0,0
;   temperatureSetpointCount,1,1
;   temperatureSetpointLayers,1,1
;   temperatureSetpointTemperatures,230,60
;   temperatureStabilizeAtStartup,1,1
;   temperatureHeatedBed,0,1
;   fanLayers,1,2
;   fanSpeeds,0,100
;   blipFanToFullPower,1
;   adjustSpeedForCooling,1
;   minSpeedLayerTime,15
;   minCoolingSpeedSlowdown,20
;   increaseFanForCooling,1
;   minFanLayerTime,45
;   maxCoolingFanSpeed,100
;   increaseFanForBridging,1
;   bridgingFanSpeed,100
;   use5D,1
;   relativeEdistances,1
;   allowEaxisZeroing,0
;   independentExtruderAxes,1
;   includeM10123,0
;   stickySupport,1
;   applyToolheadOffsets,0
;   gcodeXoffset,0
;   gcodeYoffset,0
;   gcodeZoffset,0
;   overrideMachineDefinition,1
;   machineTypeOverride,0
;   strokeXoverride,280
;   strokeYoverride,150
;   strokeZoverride,150
;   originOffsetXoverride,140
;   originOffsetYoverride,75
;   originOffsetZoverride,0
;   homeXdirOverride,1
;   homeYdirOverride,1
;   homeZdirOverride,-1
;   flipXoverride,1
;   flipYoverride,-1
;   flipZoverride,1
;   toolheadOffsets,0,0|0,0|0,0|0,0|0,0|0,0
;   overrideFirmwareConfiguration,1
;   firmwareTypeOverride,MakerBot/Sailfish Firmware
;   GPXconfigOverride,r2h
;   baudRateOverride,115200
;   overridePrinterModels,1
;   printerModelsOverride,MakerBot_Replicator2.stl
;   startingGcode,; **** Replicator 2 start.gcode ****,M73 P0 ; enable build progress,G162 X Y F3000 ; home XY maximum,G161 Z F1200 ; home Z minimum,G92 Z-5 ; set Z to -5,G1 Z0 ; move Z to 0,G161 Z F100 ; home Z slowly,M132 X Y Z A B ; recall home offsets,G1 X-145 Y-75 Z30 F9000 ; move to wait position off table,G130 X20 Y20 Z20 A20 B20 ; lower stepper Vrefs while heating,M126 S[fan_speed_pwm],M140 S[bed0_temperature] T0,M134 T0 ; stabilize bed temperature,M104 S[extruder0_temperature] T0,M133 T0 ; stabilize extruder temperature,G130 X127 Y127 Z40 A127 B127 ; default stepper Vrefs,G92 A0 ; zero extruder,G1 Z0.4 ; position nozzle,G1 E25 F300 ; purge nozzle,G1 X-140 Y-70 Z0.15 F1200 ; slow wipe,G1 X-135 Y-65 Z0.5 F1200 ; lift,G92 A0 ; zero extruder,M73 P1 ;@body (notify GPX body has started),; **** end of start.gcode ****
;   layerChangeGcode,
;   retractionGcode,
;   toolChangeGcode,
;   endingGcode,; **** Replicator 2 end.gcode ****,M73 P100 ; end build progress,G1 Z155 F1000 ; send Z axis to bottom of machine,M104 S0 T0 ; cool down extruder,M140 S0 T0 ; cool down HBP,M127 ; stop blower fan,G162 X Y F3000 ; home XY maximum,M18 ; disable stepper,M0 ; stop codes,M72 P1 ; play Ta-Da song,; **** end of end.gcode ****
;   exportFileFormat,gcode
;   celebration,0
;   celebrationSong,Random Song
;   postProcessing,
;   defaultSpeed,4800
;   outlineUnderspeed,0.5
;   solidInfillUnderspeed,1
;   supportUnderspeed,1
;   rapidXYspeed,9000
;   rapidZspeed,1200
;   minBridgingArea,50
;   bridgingExtraInflation,0
;   bridgingExtrusionMultiplier,1
;   bridgingSpeedMultiplier,0.8
;   useFixedBridgingAngle,0
;   fixedBridgingAngle,0
;   applyBridgingToPerimeters,0
;   filamentDiameters,1.75|1.75|1.75|1.75|1.75|1.75
;   filamentPricesPerKg,46|46|46|46|46|46
;   filamentDensities,1.25|1.25|1.25|1.25|1.25|1.25
;   useMinPrintHeight,0
;   minPrintHeight,0
;   useMaxPrintHeight,0
;   maxPrintHeight,4.84
;   useDiaphragm,0
;   diaphragmLayerInterval,20
;   robustSlicing,1
;   mergeAllIntoSolid,0
;   onlyRetractWhenCrossingOutline,0
;   retractBetweenLayers,0
;   useRetractionMinTravel,1
;   retractionMinTravel,7
;   retractWhileWiping,1
;   onlyWipeOutlines,1
;   avoidCrossingOutline,0
;   maxMovementDetourFactor,3
;   toolChangeRetractionDistance,12
;   toolChangeExtraRestartDistance,-0.5
;   toolChangeRetractionSpeed,600
;   externalThinWallType,0
;   internalThinWallType,0
;   thinWallAllowedOverlapPercentage,10
;   singleExtrusionMinLength,1
;   singleExtrusionMinPrintingWidthPercentage,50
;   singleExtrusionMaxPrintingWidthPercentage,200
;   singleExtrusionEndpointExtension,0.2
;   horizontalSizeCompensation,0
G90
M83
; **** Replicator 2 start.gcode ****
M73 P0 ; enable build progress
G162 X Y F3000 ; home XY maximum
G161 Z F1200 ; home Z minimum
G92 Z-5 ; set Z to -5
G1 Z0 ; move Z to 0
G161 Z F100 ; home Z slowly
M132 X Y Z A B ; recall home offsets
G1 X-145 Y-75 Z30 F9000 ; move to wait position off table
G130 X20 Y20 Z20 A20 B20 ; lower stepper Vrefs while heating
M127
M140 S60 T0
M134 T0 ; stabilize bed temperature
M104 S230 T0
M133 T0 ; stabilize extruder temperature
G130 X127 Y127 Z40 A127 B127 ; default stepper Vrefs
G92 A0 ; zero extruder
G1 Z0.4 ; position nozzle
G1 E25 F300 ; purge nozzle
G1 X-140 Y-70 Z0.15 F1200 ; slow wipe
G1 X-135 Y-65 Z0.5 F1200 ; lift
G92 A0 ; zero extruder
M73 P1 ;@body (notify GPX body has started)
; **** end of start.gcode ****
; process Process1
; layer 1, Z = 0.500
M135 T0
G1 E-1.9000 F1200
; feature raft
; tool H0.500 W0.800
G1 Z0.500 F1200
G1 X-22.968 Y23.320 F9000
G1 E1.9000 F1200
G1 X-23.320 Y22.969 E0.0827 F600
G1 X-23.320 Y-18.969 E6.9742
G1 X-22.968 Y-19.320 E0.0827
G1 X-19.320 Y-19.320 E0.6068
G1 X-19.320 Y-20.969 E0.2742
G1 X-18.968 Y-21.320 E0.0827
G1 X-5.031 Y-21.320 E2.3177
G1 X-4.680 Y-20.969 E0.0827
G1 X-4.680 Y-19.530 E0.2392
G1 X-3.481 Y-19.651 E0.2004
G1 X-2.489 Y-19.810 E0.1670
G1 X-2.395 Y-19.810 E0.0156
G1 X-1.228 Y-19.629 E0.1964
G1 X-0.755 Y-19.592 E0.0789
G1 X3.783 Y-19.587 E0.7547
G1 X3.793 Y-19.587 E0.0017
G1 X4.952 Y-19.545 E0.1928
G1 X4.978 Y-19.542 E0.0045
G1 X5.412 Y-19.487 E0.0727
G1 X5.457 Y-19.478 E0.0076
G1 X6.005 Y-19.320 E0.0949
G1 X6.680 Y-19.320 E0.1122
G1 X6.680 Y-20.969 E0.2742
G1 X7.031 Y-21.320 E0.0827
G1 X18.969 Y-21.320 E1.9851
G1 X19.320 Y-20.969 E0.0827
G1 X19.320 Y-19.320 E0.2742
G1 X22.969 Y-19.320 E0.6068
G1 X23.320 Y-18.969 E0.0827
G1 X23.320 Y22.969 E6.9742
G1 X22.969 Y23.320 E0.0827
G1 X-22.968 Y23.320 E7.6394
G1 E-1.9000 F1200
G1 Z1.000 F1200
G1 X-18.720 Y-20.571 F9000
G1 Z0.500 F1200
G1 E1.9000 F1200
G1 X-5.280 Y-20.571 E2.2351 F600
G1 X-5.280 Y-18.867 E0.2835
G1 X-3.404 Y-19.056 E0.3136
G1 X-2.441 Y-19.210 E0.1621
G1 X-1.298 Y-19.033 E0.1924
G1 X-0.779 Y-18.992 E0.0865
G1 X3.777 Y-18.987 E0.7576
G1 X4.916 Y-18.945 E0.1896
G1 X5.313 Y-18.895 E0.0666
G1 X5.921 Y-18.720 E0.1051
G1 X7.280 Y-18.720 E0.2261
G1 X7.280 Y-20.571 E0.3079
G1 X18.720 Y-20.571 E1.9025
G1 X18.720 Y-18.720 E0.3079
G1 X22.720 Y-18.720 E0.6652
G1 X22.720 Y-18.286 E0.0722
G1 X-22.720 Y-18.286 E7.5567
G1 X-22.720 Y-16.000 E0.3801
G1 X22.720 Y-16.000 E7.5567
G1 X22.720 Y-13.714 E0.3801
G1 X-22.720 Y-13.714 E7.5567
G1 X-22.720 Y-11.429 E0.3801
G1 X22.720 Y-11.429 E7.5567
G1 X22.720 Y-9.143 E0.3801
G1 X-22.720 Y-9.143 E7.5567
G1 X-22.720 Y-6.857 E0.3801
G1 X22.720 Y-6.857 E7.5567
G1 X22.720 Y-4.571 E0.3801
G1 X-22.720 Y-4.571 E7.5567
G1 X-22.720 Y-2.286 E0.3801
G1 X22.720 Y-2.286 E7.5567
G1 X22.720 Y0.000 E0.3801
G1 X-22.720 Y0.000 E7.5567
G1 X-22.720 Y2.286 E0.3801
G1 X22.720 Y2.286 E7.5567
G1 X22.720 Y4.571 E0.3801
G1 X-22.720 Y4.571 E7.5567
G1 X-22.720 Y6.857 E0.3801
G1 X22.720 Y6.857 E7.5567
G1 X22.720 Y9.143 E0.3801
G1 X-22.720 Y9.143 E7.5567
G1 X-22.720 Y11.429 E0.3801
G1 X22.720 Y11.429 E7.5567
G1 X22.720 Y13.714 E0.3801
G1 X-22.720 Y13.714 E7.5567
G1 X-22.720 Y16.000 E0.3801
G1 X22.720 Y16.000 E7.5567
G1 X22.720 Y18.286 E0.3801
G1 X-22.720 Y18.286 E7.5567
G1 X-22.720 Y20.571 E0.3801
G1 X22.720 Y20.571 E7.5567
G1 E-1.9000 F1200
; layer 2, Z = 0.722
M126 S255
; tool H0.222 W0.400
G1 Z1.000 F1200
G1 X22.592 Y-19.520 F9000
G1 Z0.722 F1200
G1 E1.9000 F1200
G1 X23.520 Y-18.592 E0.0485 F3600
G1 X23.520 Y-17.964 E0.0232
G1 X21.964 Y-19.520 E0.0813
G1 X21.335 Y-19.520 E0.0232
G1 X23.520 Y-17.335 E0.1142
G1 X23.520 Y-16.707 E0.0232
G1 X20.707 Y-19.520 E0.1470
G1 X20.078 Y-19.520 E0.0232
G1 X23.520 Y-16.078 E0.1799
G1 X23.520 Y-15.449 E0.0232
G1 X17.449 Y-21.520 E0.3173
G1 X18.078 Y-21.520 E0.0232
G1 X19.520 Y-20.078 E0.0754
G1 X19.520 Y-20.707 E0.0232
G1 X18.707 Y-21.520 E0.0425
G1 X16.821 Y-21.520 F9000
G1 X23.520 Y-14.821 E0.3501 F3600
G1 X23.520 Y-14.192 E0.0232
G1 X16.192 Y-21.520 E0.3830
G1 X15.564 Y-21.520 E0.0232
G1 X23.520 Y-13.564 E0.4158
G1 X23.520 Y-12.935 E0.0232
G1 X14.935 Y-21.520 E0.4487
G1 X14.307 Y-21.520 E0.0232
G1 X23.520 Y-12.307 E0.4815
G1 X23.520 Y-11.678 E0.0232
G1 X13.678 Y-21.520 E0.5144
G1 X13.050 Y-21.520 E0.0232
G1 X23.520 Y-11.050 E0.5472
G1 X23.520 Y-10.421 E0.0232
G1 X12.421 Y-21.520 E0.5801
G1 X11.793 Y-21.520 E0.0232
G1 X23.520 Y-9.793 E0.6129
G1 X23.520 Y-9.164 E0.0232
G1 X11.164 Y-21.520 E0.6458
G1 X10.536 Y-21.520 E0.0232
G1 X23.520 Y-8.535 E0.6786
G1 X23.520 Y-7.907 E0.0232
G1 X9.907 Y-21.520 E0.7115
G1 X9.278 Y-21.520 E0.0232
G1 X23.520 Y-7.278 E0.7443
G1 X23.520 Y-6.650 E0.0232
G1 X8.650 Y-21.520 E0.7772
G1 X8.021 Y-21.520 E0.0232
G1 X23.520 Y-6.021 E0.8100
G1 X23.520 Y-5.393 E0.0232
G1 X7.393 Y-21.520 E0.8429
G1 X6.949 Y-21.520 E0.0164
G1 X6.856 Y-21.428 E0.0048
G1 X23.520 Y-4.764 E0.8709
G1 X23.520 Y-4.136 E0.0232
G1 X6.542 Y-21.114 E0.8873
G1 X6.480 Y-21.051 E0.0032
G1 X6.480 Y-20.547 E0.0186
G1 X23.520 Y-3.507 E0.8906
G1 X23.520 Y-2.879 E0.0232
G1 X6.480 Y-19.919 E0.8906
G1 X6.480 Y-19.520 E0.0147
G1 X6.250 Y-19.520 E0.0085
G1 X23.520 Y-2.250 E0.9026
G1 X23.520 Y-1.622 E0.0232
G1 X5.461 Y-19.681 E0.9438
G1 X5.445 Y-19.684 E0.0006
G1 X4.999 Y-19.741 E0.0166
G1 X4.963 Y-19.744 E0.0013
G1 X4.761 Y-19.752 E0.0075
G1 X23.520 Y-0.993 E0.9804
G1 X23.520 Y-0.364 E0.0232
G1 X4.109 Y-19.775 E1.0145
G1 X3.799 Y-19.787 E0.0115
G1 X3.785 Y-19.787 E0.0005
G1 X3.469 Y-19.787 E0.0117
G1 X23.520 Y0.264 E1.0479
G1 X23.520 Y0.893 E0.0232
G1 X2.840 Y-19.788 E1.0808
G1 X2.210 Y-19.789 E0.0233
G1 X23.520 Y1.521 E1.1137
G1 X23.520 Y2.150 E0.0232
G1 X1.581 Y-19.789 E1.1466
G1 X0.952 Y-19.790 E0.0233
G1 X23.520 Y2.778 E1.1795
G1 X23.520 Y3.407 E0.0232
G1 X0.323 Y-19.791 E1.2124
G1 X-0.307 Y-19.791 E0.0233
G1 X23.520 Y4.035 E1.2453
G1 X23.520 Y4.664 E0.0232
G1 X-0.952 Y-19.808 E1.2790
G1 X-1.205 Y-19.828 E0.0094
G1 X-1.673 Y-19.900 E0.0175
G1 X23.520 Y5.292 E1.3166
G1 X23.520 Y5.921 E0.0232
G1 X-2.411 Y-20.010 E1.3552
G1 X-2.505 Y-20.009 E0.0035
G1 X-2.965 Y-19.936 E0.0172
G1 X23.520 Y6.549 E1.3842
G1 X23.520 Y7.178 E0.0232
G1 X-3.508 Y-19.850 E1.4125
G1 X-4.078 Y-19.792 E0.0212
G1 X23.520 Y7.807 E1.4424
G1 X23.520 Y8.435 E0.0232
G1 X-6.435 Y-21.520 E1.5655
G1 X-5.807 Y-21.520 E0.0232
G1 X-4.480 Y-20.193 E0.0693
G1 X-4.480 Y-20.822 E0.0232
G1 X-5.178 Y-21.520 E0.0365
G1 X-7.064 Y-21.520 F9000
G1 X23.520 Y9.064 E1.5984 F3600
G1 X23.520 Y9.692 E0.0232
G1 X-7.692 Y-21.520 E1.6312
G1 X-8.321 Y-21.520 E0.0232
G1 X23.520 Y10.321 E1.6641
G1 X23.520 Y10.949 E0.0232
G1 X-8.949 Y-21.520 E1.6969
G1 X-9.578 Y-21.520 E0.0232
G1 X23.520 Y11.578 E1.7298
G1 X23.520 Y12.206 E0.0232
G1 X-10.206 Y-21.520 E1.7626
G1 X-10.835 Y-21.520 E0.0232
G1 X23.520 Y12.835 E1.7955
G1 X23.520 Y13.463 E0.0232
G1 X-11.463 Y-21.520 E1.8283
G1 X-12.092 Y-21.520 E0.0232
G1 X23.520 Y14.092 E1.8612
G1 X23.520 Y14.720 E0.0232
G1 X-12.720 Y-21.520 E1.8940
G1 X-13.349 Y-21.520 E0.0232
G1 X23.520 Y15.349 E1.9269
G1 X23.520 Y15.978 E0.0232
G1 X-13.978 Y-21.520 E1.9597
G1 X-14.606 Y-21.520 E0.0232
G1 X23.520 Y16.606 E1.9926
G1 X23.520 Y17.235 E0.0232
G1 X-15.235 Y-21.520 E2.0254
G1 X-15.863 Y-21.520 E0.0232
G1 X23.520 Y17.863 E2.0583
G1 X23.520 Y18.492 E0.0232
G1 X-16.492 Y-21.520 E2.0911
G1 X-17.120 Y-21.520 E0.0232
G1 X23.520 Y19.120 E2.1240
G1 X23.520 Y19.749 E0.0232
G1 X-17.749 Y-21.520 E2.1568
G1 X-18.377 Y-21.520 E0.0232
G1 X23.520 Y20.377 E2.1897
G1 X23.520 Y21.006 E0.0232
G1 X-19.006 Y-21.520 E2.2225
G1 X-19.051 Y-21.520 E0.0017
G1 X-19.343 Y-21.228 E0.0152
G1 X23.520 Y21.634 E2.2402
G1 X23.520 Y22.263 E0.0232
G1 X-19.520 Y-20.777 E2.2494
G1 X-19.520 Y-20.149 E0.0232
G1 X23.520 Y22.891 E2.2494
G1 X23.520 Y23.051 E0.0059
G1 X23.286 Y23.286 E0.0122
G1 X-19.520 Y-19.520 E2.2372
G1 X-20.149 Y-19.520 E0.0232
G1 X22.891 Y23.520 E2.2494
G1 X22.263 Y23.520 E0.0232
G1 X-20.777 Y-19.520 E2.2494
G1 X-21.406 Y-19.520 E0.0232
G1 X21.634 Y23.520 E2.2494
G1 X21.006 Y23.520 E0.0232
G1 X-22.034 Y-19.520 E2.2494
G1 X-22.663 Y-19.520 E0.0232
G1 X20.377 Y23.520 E2.2494
G1 X19.749 Y23.520 E0.0232
G1 X-23.171 Y-19.400 E2.2431
G1 X-23.486 Y-19.086 E0.0164
G1 X19.120 Y23.520 E2.2267
G1 X18.492 Y23.520 E0.0232
G1 X-23.520 Y-18.492 E2.1957
G1 X-23.520 Y-17.863 E0.0232
G1 X17.863 Y23.520 E2.1628
G1 X17.235 Y23.520 E0.0232
G1 X-23.520 Y-17.235 E2.1300
G1 X-23.520 Y-16.606 E0.0232
G1 X16.606 Y23.520 E2.0971
G1 X15.978 Y23.520 E0.0232
G1 X-23.520 Y-15.978 E2.0643
G1 X-23.520 Y-15.349 E0.0232
G1 X15.349 Y23.520 E2.0314
G1 X14.720 Y23.520 E0.0232
G1 X-23.520 Y-14.720 E1.9986
G1 X-23.520 Y-14.092 E0.0232
G1 X14.092 Y23.520 E1.9657
G1 X13.463 Y23.520 E0.0232
G1 X-23.520 Y-13.463 E1.9329
G1 X-23.520 Y-12.835 E0.0232
G1 X12.835 Y23.520 E1.9000
G1 X12.206 Y23.520 E0.0232
G1 X-23.520 Y-12.206 E1.8672
G1 X-23.520 Y-11.578 E0.0232
G1 X11.578 Y23.520 E1.8343
G1 X10.949 Y23.520 E0.0232
G1 X-23.520 Y-10.949 E1.8015
G1 X-23.520 Y-10.321 E0.0232
G1 X10.321 Y23.520 E1.7686
G1 X9.692 Y23.520 E0.0232
G1 X-23.520 Y-9.692 E1.7358
G1 X-23.520 Y-9.064 E0.0232
G1 X9.064 Y23.520 E1.7029
G1 X8.435 Y23.520 E0.0232
G1 X-23.520 Y-8.435 E1.6701
G1 X-23.520 Y-7.806 E0.0232
G1 X7.807 Y23.520 E1.6372
G1 X7.178 Y23.520 E0.0232
G1 X-23.520 Y-7.178 E1.6044
G1 X-23.520 Y-6.549 E0.0232
G1 X6.549 Y23.520 E1.5715
G1 X5.921 Y23.520 E0.0232
G1 X-23.520 Y-5.921 E1.5387
G1 X-23.520 Y-5.292 E0.0232
G1 X5.292 Y23.520 E1.5058
G1 X4.664 Y23.520 E0.0232
G1 X-23.520 Y-4.664 E1.4730
G1 X-23.520 Y-4.035 E0.0232
G1 X4.035 Y23.520 E1.4401
