; G-Code generated by Simplify3D(R) Version 4.1.2
; Apr 2, 2020 at 4:32:52 PM
; Settings Summary
;   processName,Process1
;   applyToModels,platformV1R2,platformV1R2(2)
;   profileName,MakerBot Replicator 2 HBP (modified)
;   profileVersion,2020-03-12 10:48:50
;   baseProfile,MakerBot Replicator 2(2)
;   printMaterial,PLA
;   printQuality,Medium
;   printExtruders,
;   extruderName,Primary Extruder
;   extruderToolheadNumber,0
;   extruderDiameter,0.4
;   extruderAutoWidth,0
;   extruderWidth,0.4
;   extrusionMultiplier,1
;   extruderUseRetract,1
;   extruderRetractionDistance,1.9
;   extruderExtraRestartDistance,0
;   extruderRetractionZLift,0.5
;   extruderRetractionSpeed,1200
;   extruderUseCoasting,0
;   extruderCoastingDistance,0.2
;   extruderUseWipe,0
;   extruderWipeDistance,5
;   primaryExtruder,0
;   layerHeight,0.2
;   topSolidLayers,3
;   bottomSolidLayers,3
;   perimeterOutlines,2
;   printPerimetersInsideOut,1
;   startPointOption,3
;   startPointOriginX,0
;   startPointOriginY,150
;   sequentialIslands,0
;   spiralVaseMode,0
;   firstLayerHeightPercentage,100
;   firstLayerWidthPercentage,115
;   firstLayerUnderspeed,0.5
;   useRaft,0
;   raftExtruder,0
;   raftTopLayers,2
;   raftBaseLayers,1
;   raftOffset,1
;   raftSeparationDistance,0.14
;   raftTopInfill,90
;   aboveRaftSpeedMultiplier,0.3
;   useSkirt,0
;   skirtExtruder,0
;   skirtLayers,1
;   skirtOutlines,5
;   skirtOffset,0
;   usePrimePillar,0
;   primePillarExtruder,999
;   primePillarWidth,12
;   primePillarLocation,7
;   primePillarSpeedMultiplier,1
;   useOozeShield,0
;   oozeShieldExtruder,999
;   oozeShieldOffset,2
;   oozeShieldOutlines,1
;   oozeShieldSidewallShape,1
;   oozeShieldSidewallAngle,30
;   oozeShieldSpeedMultiplier,1
;   infillExtruder,0
;   internalInfillPattern,Rectilinear
;   externalInfillPattern,Rectilinear
;   infillPercentage,15
;   outlineOverlapPercentage,25
;   infillExtrusionWidthPercentage,100
;   minInfillLength,5
;   infillLayerInterval,1
;   internalInfillAngles,45,-45
;   overlapInternalInfillAngles,0
;   externalInfillAngles,45,-45
;   generateSupport,0
;   supportExtruder,0
;   supportInfillPercentage,30
;   supportExtraInflation,0.5
;   supportBaseLayers,0
;   denseSupportExtruder,0
;   denseSupportLayers,2
;   denseSupportInfillPercentage,90
;   supportLayerInterval,1
;   supportHorizontalPartOffset,0.3
;   supportUpperSeparationLayers,1
;   supportLowerSeparationLayers,1
;   supportType,1
;   supportGridSpacing,2
;   maxOverhangAngle,45
;   supportAngles,45,-45
;   temperatureName,Primary Extruder,Heated Build Platform
;   temperatureNumber,0,0
;   temperatureSetpointCount,1,1
;   temperatureSetpointLayers,1,1
;   temperatureSetpointTemperatures,230,60
;   temperatureStabilizeAtStartup,1,1
;   temperatureHeatedBed,0,1
;   fanLayers,1,2
;   fanSpeeds,0,100
;   blipFanToFullPower,1
;   adjustSpeedForCooling,1
;   minSpeedLayerTime,15
;   minCoolingSpeedSlowdown,20
;   increaseFanForCooling,1
;   minFanLayerTime,45
;   maxCoolingFanSpeed,100
;   increaseFanForBridging,1
;   bridgingFanSpeed,100
;   use5D,1
;   relativeEdistances,1
;   allowEaxisZeroing,0
;   independentExtruderAxes,1
;   includeM10123,0
;   stickySupport,1
;   applyToolheadOffsets,0
;   gcodeXoffset,0
;   gcodeYoffset,0
;   gcodeZoffset,0
;   overrideMachineDefinition,1
;   machineTypeOverride,0
;   strokeXoverride,280
;   strokeYoverride,150
;   strokeZoverride,150
;   originOffsetXoverride,140
;   originOffsetYoverride,75
;   originOffsetZoverride,0
;   homeXdirOverride,1
;   homeYdirOverride,1
;   homeZdirOverride,-1
;   flipXoverride,1
;   flipYoverride,-1
;   flipZoverride,1
;   toolheadOffsets,0,0|0,0|0,0|0,0|0,0|0,0
;   overrideFirmwareConfiguration,1
;   firmwareTypeOverride,MakerBot/Sailfish Firmware
;   GPXconfigOverride,r2h
;   baudRateOverride,115200
;   overridePrinterModels,1
;   printerModelsOverride,MakerBot_Replicator2.stl
;   startingGcode,; **** Replicator 2 start.gcode ****,M73 P0 ; enable build progress,G162 X Y F3000 ; home XY maximum,G161 Z F1200 ; home Z minimum,G92 Z-5 ; set Z to -5,G1 Z0 ; move Z to 0,G161 Z F100 ; home Z slowly,M132 X Y Z A B ; recall home offsets,G1 X-145 Y-75 Z30 F9000 ; move to wait position off table,G130 X20 Y20 Z20 A20 B20 ; lower stepper Vrefs while heating,M126 S[fan_speed_pwm],M140 S[bed0_temperature] T0,M134 T0 ; stabilize bed temperature,M104 S[extruder0_temperature] T0,M133 T0 ; stabilize extruder temperature,G130 X127 Y127 Z40 A127 B127 ; default stepper Vrefs,G92 A0 ; zero extruder,G1 Z0.4 ; position nozzle,G1 E25 F300 ; purge nozzle,G1 X-140 Y-70 Z0.15 F1200 ; slow wipe,G1 X-135 Y-65 Z0.5 F1200 ; lift,G92 A0 ; zero extruder,M73 P1 ;@body (notify GPX body has started),; **** end of start.gcode ****
;   layerChangeGcode,
;   retractionGcode,
;   toolChangeGcode,
;   endingGcode,; **** Replicator 2 end.gcode ****,M73 P100 ; end build progress,G1 Z155 F1000 ; send Z axis to bottom of machine,M104 S0 T0 ; cool down extruder,M140 S0 T0 ; cool down HBP,M127 ; stop blower fan,G162 X Y F3000 ; home XY maximum,M18 ; disable stepper,M0 ; stop codes,M72 P1 ; play Ta-Da song,; **** end of end.gcode ****
;   exportFileFormat,gcode
;   celebration,0
;   celebrationSong,Random Song
;   postProcessing,
;   defaultSpeed,4800
;   outlineUnderspeed,0.5
;   solidInfillUnderspeed,1
;   supportUnderspeed,1
;   rapidXYspeed,9000
;   rapidZspeed,1200
;   minBridgingArea,50
;   bridgingExtraInflation,0
;   bridgingExtrusionMultiplier,1
;   bridgingSpeedMultiplier,0.8
;   useFixedBridgingAngle,0
;   fixedBridgingAngle,0
;   applyBridgingToPerimeters,0
;   filamentDiameters,1.75|1.75|1.75|1.75|1.75|1.75
;   filamentPricesPerKg,46|46|46|46|46|46
;   filamentDensities,1.25|1.25|1.25|1.25|1.25|1.25
;   useMinPrintHeight,0
;   minPrintHeight,0
;   useMaxPrintHeight,0
;   maxPrintHeight,4.84
;   useDiaphragm,0
;   diaphragmLayerInterval,20
;   robustSlicing,1
;   mergeAllIntoSolid,0
;   onlyRetractWhenCrossingOutline,0
;   retractBetweenLayers,0
;   useRetractionMinTravel,1
;   retractionMinTravel,7
;   retractWhileWiping,1
;   onlyWipeOutlines,1
;   avoidCrossingOutline,0
;   maxMovementDetourFactor,3
;   toolChangeRetractionDistance,12
;   toolChangeExtraRestartDistance,-0.5
;   toolChangeRetractionSpeed,600
;   externalThinWallType,0
;   internalThinWallType,0
;   thinWallAllowedOverlapPercentage,10
;   singleExtrusionMinLength,1
;   singleExtrusionMinPrintingWidthPercentage,50
;   singleExtrusionMaxPrintingWidthPercentage,200
;   singleExtrusionEndpointExtension,0.2
;   horizontalSizeCompensation,0
G90
M83
; **** Replicator 2 start.gcode ****
M73 P0 ; enable build progress
G162 X Y F3000 ; home XY maximum
G161 Z F1200 ; home Z minimum
G92 Z-5 ; set Z to -5
G1 Z0 ; move Z to 0
G161 Z F100 ; home Z slowly
M132 X Y Z A B ; recall home offsets
G1 X-145 Y-75 Z30 F9000 ; move to wait position off table
G130 X20 Y20 Z20 A20 B20 ; lower stepper Vrefs while heating
M127
M140 S60 T0
M134 T0 ; stabilize bed temperature
M104 S230 T0
M133 T0 ; stabilize extruder temperature
G130 X127 Y127 Z40 A127 B127 ; default stepper Vrefs
G92 A0 ; zero extruder
G1 Z0.4 ; position nozzle
G1 E25 F300 ; purge nozzle
G1 X-140 Y-70 Z0.15 F1200 ; slow wipe
G1 X-135 Y-65 Z0.5 F1200 ; lift
G92 A0 ; zero extruder
M73 P1 ;@body (notify GPX body has started)
; **** end of start.gcode ****
; process Process1
; layer 1, Z = 0.200
M135 T0
G1 E-1.9000 F1200
; feature inner perimeter
; tool H0.200 W0.460
G1 Z0.500 F1200
G1 X-66.414 Y17.856 F9000
G1 Z0.200 F1200
G1 E1.9000 F1200
G1 X-67.539 Y17.758 E0.0432 F1800
G1 X-68.602 Y17.473 E0.0421
G1 X-69.598 Y17.009 E0.0421
G1 X-70.499 Y16.379 E0.0421
G1 X-71.277 Y15.602 E0.0421
G1 X-71.908 Y14.701 E0.0421
G1 X-72.373 Y13.705 E0.0421
G1 X-72.657 Y12.643 E0.0420
G1 X-72.756 Y11.518 E0.0432
G1 X-72.757 Y9.578 E0.0742
G1 X-72.659 Y8.452 E0.0432
G1 X-72.375 Y7.390 E0.0421
G1 X-71.910 Y6.394 E0.0421
G1 X-71.280 Y5.493 E0.0421
G1 X-70.503 Y4.715 E0.0421
G1 X-69.602 Y4.084 E0.0421
G1 X-68.606 Y3.619 E0.0421
G1 X-67.544 Y3.335 E0.0421
G1 X-66.419 Y3.236 E0.0432
G1 X72.752 Y3.190 E5.3232
G1 X72.757 Y17.810 E0.5592
G1 X-66.414 Y17.856 E5.3232
; feature outer perimeter
G1 X-66.434 Y18.316 F9000
G1 X-67.619 Y18.212 E0.0455 F1200
G1 X-68.759 Y17.907 E0.0451
G1 X-69.829 Y17.409 E0.0451
G1 X-70.796 Y16.733 E0.0451
G1 X-71.630 Y15.899 E0.0451
G1 X-72.307 Y14.932 E0.0451
G1 X-72.806 Y13.863 E0.0451
G1 X-73.112 Y12.723 E0.0451
G1 X-73.216 Y11.538 E0.0455
G1 X-73.217 Y9.558 E0.0757
G1 X-73.113 Y8.372 E0.0455
G1 X-72.809 Y7.233 E0.0451
G1 X-72.310 Y6.163 E0.0451
G1 X-71.634 Y5.196 E0.0451
G1 X-70.800 Y4.362 E0.0451
G1 X-69.833 Y3.685 E0.0451
G1 X-68.764 Y3.186 E0.0451
G1 X-67.625 Y2.880 E0.0451
G1 X-66.439 Y2.776 E0.0455
G1 X73.212 Y2.730 E5.3415
G1 X73.217 Y18.270 E0.5944
G1 X-66.434 Y18.316 E5.3415
G1 E-1.9000 F1200
; feature inner perimeter
G1 Z0.700 F1200
G1 X-55.298 Y11.510 F9000
G1 Z0.200 F1200
G1 E1.9000 F1200
G1 X-55.102 Y11.816 E0.0139 F1800
G1 X-54.856 Y12.085 E0.0139
G1 X-54.566 Y12.306 E0.0139
G1 X-54.243 Y12.473 E0.0139
G1 X-53.895 Y12.582 E0.0139
G1 X-53.534 Y12.629 E0.0139
G1 X-53.170 Y12.613 E0.0139
G1 X-52.815 Y12.533 E0.0139
G1 X-52.469 Y12.389 E0.0143
G1 X-52.128 Y12.157 E0.0158
G1 X-51.903 Y11.950 E0.0117
G1 X-51.682 Y11.661 E0.0139
G1 X-51.515 Y11.338 E0.0139
G1 X-51.406 Y10.990 E0.0139
G1 X-51.359 Y10.629 E0.0139
G1 X-51.375 Y10.265 E0.0139
G1 X-51.455 Y9.910 E0.0139
G1 X-51.595 Y9.573 E0.0139
G1 X-51.791 Y9.266 E0.0139
G1 X-52.037 Y8.998 E0.0139
G1 X-52.327 Y8.777 E0.0139
G1 X-52.659 Y8.605 E0.0143
G1 X-53.056 Y8.493 E0.0158
G1 X-53.359 Y8.454 E0.0117
G1 X-53.723 Y8.470 E0.0139
G1 X-54.078 Y8.550 E0.0139
G1 X-54.415 Y8.690 E0.0139
G1 X-54.721 Y8.886 E0.0139
G1 X-54.990 Y9.132 E0.0139
G1 X-55.211 Y9.422 E0.0139
G1 X-55.379 Y9.745 E0.0139
G1 X-55.487 Y10.093 E0.0139
G1 X-55.534 Y10.454 E0.0139
G1 X-55.518 Y10.818 E0.0139
G1 X-55.438 Y11.173 E0.0139
G1 X-55.298 Y11.510 E0.0139
; feature outer perimeter
G1 X-54.889 Y11.296 F9000
G1 X-54.736 Y11.535 E0.0109 F1200
G1 X-54.544 Y11.744 E0.0109
G1 X-54.319 Y11.916 E0.0109
G1 X-54.067 Y12.046 E0.0109
G1 X-53.796 Y12.131 E0.0109
G1 X-53.515 Y12.168 E0.0109
G1 X-53.231 Y12.155 E0.0109
G1 X-52.954 Y12.093 E0.0109
G1 X-52.689 Y11.983 E0.0110
G1 X-52.415 Y11.796 E0.0127
G1 X-52.244 Y11.639 E0.0089
G1 X-52.072 Y11.414 E0.0109
G1 X-51.941 Y11.162 E0.0109
G1 X-51.857 Y10.891 E0.0109
G1 X-51.820 Y10.610 E0.0109
G1 X-51.833 Y10.326 E0.0109
G1 X-51.895 Y10.049 E0.0109
G1 X-52.004 Y9.787 E0.0109
G1 X-52.157 Y9.548 E0.0109
G1 X-52.349 Y9.339 E0.0109
G1 X-52.574 Y9.167 E0.0109
G1 X-52.829 Y9.035 E0.0110
G1 X-53.148 Y8.945 E0.0127
G1 X-53.378 Y8.915 E0.0089
G1 X-53.662 Y8.928 E0.0109
G1 X-53.939 Y8.990 E0.0109
G1 X-54.201 Y9.099 E0.0109
G1 X-54.440 Y9.252 E0.0109
G1 X-54.649 Y9.444 E0.0109
G1 X-54.821 Y9.669 E0.0109
G1 X-54.952 Y9.921 E0.0109
G1 X-55.036 Y10.192 E0.0109
G1 X-55.073 Y10.473 E0.0109
G1 X-55.060 Y10.757 E0.0109
G1 X-54.998 Y11.034 E0.0109
G1 X-54.889 Y11.296 E0.0109
G1 E-1.9000 F1200
; feature inner perimeter
G1 Z0.700 F1200
G1 X46.358 Y10.421 F9000
G1 Z0.200 F1200
G1 E1.9000 F1200
G1 X46.375 Y10.784 E0.0139 F1800
G1 X46.454 Y11.139 E0.0139
G1 X46.594 Y11.475 E0.0139
G1 X46.790 Y11.782 E0.0139
G1 X47.037 Y12.050 E0.0139
G1 X47.326 Y12.271 E0.0139
G1 X47.649 Y12.438 E0.0139
G1 X47.996 Y12.547 E0.0139
G1 X48.357 Y12.594 E0.0139
G1 X48.720 Y12.577 E0.0139
G1 X49.085 Y12.496 E0.0143
G1 X49.461 Y12.327 E0.0158
G1 X49.718 Y12.162 E0.0117
G1 X49.986 Y11.916 E0.0139
G1 X50.213 Y11.619 E0.0143
G1 X50.392 Y11.248 E0.0158
G1 X50.483 Y10.956 E0.0117
G1 X50.530 Y10.596 E0.0139
G1 X50.514 Y10.232 E0.0139
G1 X50.434 Y9.877 E0.0139
G1 X50.294 Y9.541 E0.0139
G1 X50.098 Y9.234 E0.0139
G1 X49.852 Y8.967 E0.0139
G1 X49.563 Y8.745 E0.0139
G1 X49.240 Y8.578 E0.0139
G1 X48.893 Y8.469 E0.0139
G1 X48.532 Y8.422 E0.0139
G1 X48.168 Y8.439 E0.0139
G1 X47.813 Y8.518 E0.0139
G1 X47.477 Y8.658 E0.0139
G1 X47.162 Y8.860 E0.0143
G1 X46.867 Y9.147 E0.0157
G1 X46.682 Y9.390 E0.0117
G1 X46.514 Y9.713 E0.0139
G1 X46.405 Y10.060 E0.0139
G1 X46.358 Y10.421 E0.0139
; feature outer perimeter
G1 X46.820 Y10.440 F9000
G1 X46.833 Y10.723 E0.0108 F1200
G1 X46.894 Y11.000 E0.0108
G1 X47.003 Y11.261 E0.0108
G1 X47.156 Y11.500 E0.0108
G1 X47.348 Y11.709 E0.0108
G1 X47.573 Y11.881 E0.0108
G1 X47.825 Y12.011 E0.0108
G1 X48.095 Y12.096 E0.0108
G1 X48.376 Y12.133 E0.0108
G1 X48.659 Y12.120 E0.0108
G1 X48.939 Y12.057 E0.0110
G1 X49.241 Y11.921 E0.0127
G1 X49.436 Y11.796 E0.0089
G1 X49.645 Y11.605 E0.0108
G1 X49.819 Y11.377 E0.0110
G1 X49.963 Y11.078 E0.0127
G1 X50.032 Y10.857 E0.0089
G1 X50.069 Y10.576 E0.0108
G1 X50.056 Y10.293 E0.0108
G1 X49.994 Y10.017 E0.0108
G1 X49.885 Y9.755 E0.0108
G1 X49.732 Y9.516 E0.0108
G1 X49.541 Y9.308 E0.0108
G1 X49.315 Y9.135 E0.0108
G1 X49.064 Y9.005 E0.0108
G1 X48.793 Y8.920 E0.0108
G1 X48.512 Y8.884 E0.0108
G1 X48.229 Y8.897 E0.0108
G1 X47.953 Y8.958 E0.0108
G1 X47.691 Y9.067 E0.0108
G1 X47.449 Y9.222 E0.0110
G1 X47.212 Y9.453 E0.0127
G1 X47.071 Y9.637 E0.0089
G1 X46.941 Y9.889 E0.0108
G1 X46.856 Y10.159 E0.0108
G1 X46.820 Y10.440 E0.0108
; feature solid layer
G1 X48.028 Y12.899 F9000
G1 X52.601 Y17.472 E0.2473 F2400
G1 X53.251 Y17.472 E0.0249
G1 X48.703 Y12.924 E0.2460
G1 X48.766 Y12.921 E0.0024
G1 X49.195 Y12.825 E0.0168
G1 X49.236 Y12.806 E0.0017
G1 X53.902 Y17.471 E0.2524
G1 X54.552 Y17.471 E0.0249
G1 X49.678 Y12.597 E0.2636
G1 X49.929 Y12.437 E0.0114
G1 X50.054 Y12.322 E0.0065
G1 X55.202 Y17.471 E0.2785
G1 X55.853 Y17.471 E0.0249
G1 X50.367 Y11.985 E0.2967
G1 X50.508 Y11.800 E0.0089
G1 X50.614 Y11.582 E0.0093
G1 X56.503 Y17.471 E0.3185
G1 X57.153 Y17.470 E0.0249
G1 X50.796 Y11.113 E0.3439
G1 X50.821 Y11.031 E0.0033
G1 X50.876 Y10.610 E0.0162
G1 X50.873 Y10.539 E0.0027
G1 X57.804 Y17.470 E0.3749
G1 X58.454 Y17.470 E0.0249
G1 X50.767 Y9.783 E0.4158
G1 E-1.9000 F1200
G1 Z0.700 F1200
G1 X71.842 Y3.536 F9000
G1 Z0.200 F1200
G1 E1.9000 F1200
G1 X72.407 Y4.101 E0.0306 F2400
G1 X72.407 Y4.751 E0.0249
G1 X71.192 Y3.536 E0.0658
G1 X70.541 Y3.536 E0.0249
G1 X72.408 Y5.402 E0.1009
G1 X72.408 Y6.053 E0.0249
G1 X69.891 Y3.536 E0.1361
G1 X69.241 Y3.536 E0.0249
G1 X72.408 Y6.704 E0.1713
G1 X72.408 Y7.354 E0.0249
G1 X68.590 Y3.537 E0.2065
G1 X67.940 Y3.537 E0.0249
G1 X72.408 Y8.005 E0.2417
G1 X72.409 Y8.656 E0.0249
G1 X67.290 Y3.537 E0.2769
G1 X66.639 Y3.537 E0.0249
G1 X72.409 Y9.307 E0.3121
G1 X72.409 Y9.957 E0.0249
G1 X65.989 Y3.537 E0.3473
G1 X65.339 Y3.538 E0.0249
G1 X72.409 Y10.608 E0.3825
G1 X72.409 Y11.259 E0.0249
G1 X64.688 Y3.538 E0.4176
G1 X64.038 Y3.538 E0.0249
G1 X72.410 Y11.910 E0.4528
G1 X72.410 Y12.560 E0.0249
G1 X63.388 Y3.538 E0.4880
G1 X62.737 Y3.538 E0.0249
G1 X72.410 Y13.211 E0.5232
G1 X72.410 Y13.862 E0.0249
G1 X62.087 Y3.539 E0.5584
G1 X61.437 Y3.539 E0.0249
G1 X72.411 Y14.513 E0.5936
G1 X72.411 Y15.163 E0.0249
G1 X60.787 Y3.539 E0.6288
G1 X60.136 Y3.539 E0.0249
G1 X72.411 Y15.814 E0.6640
G1 X72.411 Y16.465 E0.0249
G1 X59.486 Y3.540 E0.6992
G1 X58.836 Y3.540 E0.0249
G1 X72.411 Y17.116 E0.7344
G1 X72.411 Y17.465 E0.0134
G1 X72.111 Y17.465 E0.0115
G1 X58.185 Y3.540 E0.7533
G1 X57.535 Y3.540 E0.0249
G1 X71.460 Y17.466 E0.7533
G1 X70.810 Y17.466 E0.0249
G1 X56.885 Y3.540 E0.7533
G1 X56.234 Y3.541 E0.0249
G1 X70.160 Y17.466 E0.7533
G1 X69.509 Y17.466 E0.0249
G1 X55.584 Y3.541 E0.7533
G1 X54.934 Y3.541 E0.0249
G1 X68.859 Y17.467 E0.7533
G1 X68.209 Y17.467 E0.0249
G1 X54.283 Y3.541 E0.7533
G1 X53.633 Y3.541 E0.0249
G1 X67.558 Y17.467 E0.7533
G1 X66.908 Y17.467 E0.0249
G1 X52.983 Y3.542 E0.7533
G1 X52.332 Y3.542 E0.0249
G1 X66.258 Y17.467 E0.7533
G1 X65.607 Y17.468 E0.0249
G1 X51.682 Y3.542 E0.7533
G1 X51.032 Y3.542 E0.0249
G1 X64.957 Y17.468 E0.7533
G1 X64.307 Y17.468 E0.0249
G1 X50.381 Y3.543 E0.7533
G1 X49.731 Y3.543 E0.0249
G1 X63.656 Y17.468 E0.7533
G1 X63.006 Y17.468 E0.0249
G1 X49.081 Y3.543 E0.7533
G1 X48.430 Y3.543 E0.0249
G1 X62.356 Y17.469 E0.7533
G1 X61.705 Y17.469 E0.0249
G1 X47.780 Y3.543 E0.7533
G1 X47.130 Y3.544 E0.0249
G1 X61.055 Y17.469 E0.7533
G1 X60.405 Y17.469 E0.0249
G1 X46.479 Y3.544 E0.7533
G1 X45.829 Y3.544 E0.0249
