; G-Code generated by Simplify3D(R) Version 4.1.2
; Apr 2, 2020 at 4:34:57 PM
; Settings Summary
;   processName,Process1
;   applyToModels,lampV1R1
;   profileName,MakerBot Replicator 2 HBP (modified)
;   profileVersion,2020-03-12 10:48:50
;   baseProfile,MakerBot Replicator 2(2)
;   printMaterial,PLA
;   printQuality,Medium
;   printExtruders,
;   extruderName,Primary Extruder
;   extruderToolheadNumber,0
;   extruderDiameter,0.4
;   extruderAutoWidth,0
;   extruderWidth,0.4
;   extrusionMultiplier,1
;   extruderUseRetract,1
;   extruderRetractionDistance,1.9
;   extruderExtraRestartDistance,0
;   extruderRetractionZLift,0.5
;   extruderRetractionSpeed,1200
;   extruderUseCoasting,0
;   extruderCoastingDistance,0.2
;   extruderUseWipe,0
;   extruderWipeDistance,5
;   primaryExtruder,0
;   layerHeight,0.2
;   topSolidLayers,3
;   bottomSolidLayers,3
;   perimeterOutlines,2
;   printPerimetersInsideOut,1
;   startPointOption,3
;   startPointOriginX,0
;   startPointOriginY,150
;   sequentialIslands,0
;   spiralVaseMode,0
;   firstLayerHeightPercentage,100
;   firstLayerWidthPercentage,115
;   firstLayerUnderspeed,0.5
;   useRaft,0
;   raftExtruder,0
;   raftTopLayers,2
;   raftBaseLayers,1
;   raftOffset,1
;   raftSeparationDistance,0.14
;   raftTopInfill,90
;   aboveRaftSpeedMultiplier,0.3
;   useSkirt,1
;   skirtExtruder,0
;   skirtLayers,1
;   skirtOutlines,10
;   skirtOffset,0
;   usePrimePillar,0
;   primePillarExtruder,999
;   primePillarWidth,12
;   primePillarLocation,7
;   primePillarSpeedMultiplier,1
;   useOozeShield,0
;   oozeShieldExtruder,999
;   oozeShieldOffset,2
;   oozeShieldOutlines,1
;   oozeShieldSidewallShape,1
;   oozeShieldSidewallAngle,30
;   oozeShieldSpeedMultiplier,1
;   infillExtruder,0
;   internalInfillPattern,Rectilinear
;   externalInfillPattern,Rectilinear
;   infillPercentage,15
;   outlineOverlapPercentage,25
;   infillExtrusionWidthPercentage,100
;   minInfillLength,5
;   infillLayerInterval,1
;   internalInfillAngles,45,-45
;   overlapInternalInfillAngles,0
;   externalInfillAngles,45,-45
;   generateSupport,0
;   supportExtruder,0
;   supportInfillPercentage,30
;   supportExtraInflation,0.5
;   supportBaseLayers,0
;   denseSupportExtruder,0
;   denseSupportLayers,2
;   denseSupportInfillPercentage,90
;   supportLayerInterval,1
;   supportHorizontalPartOffset,0.3
;   supportUpperSeparationLayers,1
;   supportLowerSeparationLayers,1
;   supportType,1
;   supportGridSpacing,2
;   maxOverhangAngle,45
;   supportAngles,45,-45
;   temperatureName,Primary Extruder,Heated Build Platform
;   temperatureNumber,0,0
;   temperatureSetpointCount,1,1
;   temperatureSetpointLayers,1,1
;   temperatureSetpointTemperatures,230,60
;   temperatureStabilizeAtStartup,1,1
;   temperatureHeatedBed,0,1
;   fanLayers,1,2
;   fanSpeeds,0,100
;   blipFanToFullPower,1
;   adjustSpeedForCooling,1
;   minSpeedLayerTime,15
;   minCoolingSpeedSlowdown,20
;   increaseFanForCooling,1
;   minFanLayerTime,45
;   maxCoolingFanSpeed,100
;   increaseFanForBridging,1
;   bridgingFanSpeed,100
;   use5D,1
;   relativeEdistances,1
;   allowEaxisZeroing,0
;   independentExtruderAxes,1
;   includeM10123,0
;   stickySupport,1
;   applyToolheadOffsets,0
;   gcodeXoffset,0
;   gcodeYoffset,0
;   gcodeZoffset,0
;   overrideMachineDefinition,1
;   machineTypeOverride,0
;   strokeXoverride,280
;   strokeYoverride,150
;   strokeZoverride,150
;   originOffsetXoverride,140
;   originOffsetYoverride,75
;   originOffsetZoverride,0
;   homeXdirOverride,1
;   homeYdirOverride,1
;   homeZdirOverride,-1
;   flipXoverride,1
;   flipYoverride,-1
;   flipZoverride,1
;   toolheadOffsets,0,0|0,0|0,0|0,0|0,0|0,0
;   overrideFirmwareConfiguration,1
;   firmwareTypeOverride,MakerBot/Sailfish Firmware
;   GPXconfigOverride,r2h
;   baudRateOverride,115200
;   overridePrinterModels,1
;   printerModelsOverride,MakerBot_Replicator2.stl
;   startingGcode,; **** Replicator 2 start.gcode ****,M73 P0 ; enable build progress,G162 X Y F3000 ; home XY maximum,G161 Z F1200 ; home Z minimum,G92 Z-5 ; set Z to -5,G1 Z0 ; move Z to 0,G161 Z F100 ; home Z slowly,M132 X Y Z A B ; recall home offsets,G1 X-145 Y-75 Z30 F9000 ; move to wait position off table,G130 X20 Y20 Z20 A20 B20 ; lower stepper Vrefs while heating,M126 S[fan_speed_pwm],M140 S[bed0_temperature] T0,M134 T0 ; stabilize bed temperature,M104 S[extruder0_temperature] T0,M133 T0 ; stabilize extruder temperature,G130 X127 Y127 Z40 A127 B127 ; default stepper Vrefs,G92 A0 ; zero extruder,G1 Z0.4 ; position nozzle,G1 E25 F300 ; purge nozzle,G1 X-140 Y-70 Z0.15 F1200 ; slow wipe,G1 X-135 Y-65 Z0.5 F1200 ; lift,G92 A0 ; zero extruder,M73 P1 ;@body (notify GPX body has started),; **** end of start.gcode ****
;   layerChangeGcode,
;   retractionGcode,
;   toolChangeGcode,
;   endingGcode,; **** Replicator 2 end.gcode ****,M73 P100 ; end build progress,G1 Z155 F1000 ; send Z axis to bottom of machine,M104 S0 T0 ; cool down extruder,M140 S0 T0 ; cool down HBP,M127 ; stop blower fan,G162 X Y F3000 ; home XY maximum,M18 ; disable stepper,M0 ; stop codes,M72 P1 ; play Ta-Da song,; **** end of end.gcode ****
;   exportFileFormat,gcode
;   celebration,0
;   celebrationSong,Random Song
;   postProcessing,
;   defaultSpeed,4800
;   outlineUnderspeed,0.5
;   solidInfillUnderspeed,1
;   supportUnderspeed,1
;   rapidXYspeed,9000
;   rapidZspeed,1200
;   minBridgingArea,50
;   bridgingExtraInflation,0
;   bridgingExtrusionMultiplier,1
;   bridgingSpeedMultiplier,0.8
;   useFixedBridgingAngle,0
;   fixedBridgingAngle,0
;   applyBridgingToPerimeters,0
;   filamentDiameters,1.75|1.75|1.75|1.75|1.75|1.75
;   filamentPricesPerKg,46|46|46|46|46|46
;   filamentDensities,1.25|1.25|1.25|1.25|1.25|1.25
;   useMinPrintHeight,0
;   minPrintHeight,0
;   useMaxPrintHeight,0
;   maxPrintHeight,4.84
;   useDiaphragm,0
;   diaphragmLayerInterval,20
;   robustSlicing,1
;   mergeAllIntoSolid,0
;   onlyRetractWhenCrossingOutline,0
;   retractBetweenLayers,0
;   useRetractionMinTravel,1
;   retractionMinTravel,7
;   retractWhileWiping,1
;   onlyWipeOutlines,1
;   avoidCrossingOutline,0
;   maxMovementDetourFactor,3
;   toolChangeRetractionDistance,12
;   toolChangeExtraRestartDistance,-0.5
;   toolChangeRetractionSpeed,600
;   externalThinWallType,0
;   internalThinWallType,0
;   thinWallAllowedOverlapPercentage,10
;   singleExtrusionMinLength,1
;   singleExtrusionMinPrintingWidthPercentage,50
;   singleExtrusionMaxPrintingWidthPercentage,200
;   singleExtrusionEndpointExtension,0.2
;   horizontalSizeCompensation,0
G90
M83
; **** Replicator 2 start.gcode ****
M73 P0 ; enable build progress
G162 X Y F3000 ; home XY maximum
G161 Z F1200 ; home Z minimum
G92 Z-5 ; set Z to -5
G1 Z0 ; move Z to 0
G161 Z F100 ; home Z slowly
M132 X Y Z A B ; recall home offsets
G1 X-145 Y-75 Z30 F9000 ; move to wait position off table
G130 X20 Y20 Z20 A20 B20 ; lower stepper Vrefs while heating
M126 S187
M140 S60 T0
M134 T0 ; stabilize bed temperature
M104 S230 T0
M133 T0 ; stabilize extruder temperature
G130 X127 Y127 Z40 A127 B127 ; default stepper Vrefs
G92 A0 ; zero extruder
G1 Z0.4 ; position nozzle
G1 E25 F300 ; purge nozzle
G1 X-140 Y-70 Z0.15 F1200 ; slow wipe
G1 X-135 Y-65 Z0.5 F1200 ; lift
G92 A0 ; zero extruder
M73 P1 ;@body (notify GPX body has started)
; **** end of start.gcode ****
; process Process1
; layer 1, Z = 0.200
M135 T0
G1 E-1.9000 F1200
; feature skirt
; tool H0.200 W0.460
G1 Z0.500 F1200
G1 X0.107 Y-0.818 F9000
G1 Z0.200 F1200
G1 E1.9000 F1200
G1 X-0.115 Y-0.818 E0.0085 F480
G1 X-0.755 Y-0.850 E0.0245
G1 X-0.975 Y-0.873 E0.0085
G1 X-1.608 Y-0.970 E0.0245
G1 X-1.825 Y-1.014 E0.0085
G1 X-2.447 Y-1.175 E0.0246
G1 X-2.658 Y-1.242 E0.0085
G1 X-3.259 Y-1.464 E0.0245
G1 X-3.463 Y-1.551 E0.0085
G1 X-4.037 Y-1.833 E0.0245
G1 X-4.231 Y-1.941 E0.0085
G1 X-4.774 Y-2.279 E0.0245
G1 X-4.956 Y-2.406 E0.0085
G1 X-5.463 Y-2.798 E0.0245
G1 X-5.631 Y-2.942 E0.0085
G1 X-6.096 Y-3.385 E0.0246
G1 X-6.249 Y-3.545 E0.0085
G1 X-6.666 Y-4.031 E0.0245
G1 X-6.801 Y-4.205 E0.0085
G1 X-7.169 Y-4.734 E0.0246
G1 X-7.286 Y-4.922 E0.0085
G1 X-7.596 Y-5.481 E0.0244
G1 X-7.694 Y-5.680 E0.0085
G1 X-7.947 Y-6.271 E0.0246
G1 X-8.024 Y-6.479 E0.0085
G1 X-8.215 Y-7.087 E0.0244
G1 X-8.271 Y-7.301 E0.0085
G1 X-8.400 Y-7.930 E0.0246
G1 X-8.433 Y-8.149 E0.0085
G1 X-8.498 Y-8.787 E0.0245
G1 X-8.510 Y-9.008 E0.0085
G1 X-8.510 Y-9.649 E0.0245
G1 X-8.498 Y-9.870 E0.0085
G1 X-8.434 Y-10.508 E0.0245
G1 X-8.400 Y-10.727 E0.0085
G1 X-8.271 Y-11.355 E0.0245
G1 X-8.215 Y-11.569 E0.0085
G1 X-8.024 Y-12.179 E0.0244
G1 X-7.947 Y-12.387 E0.0085
G1 X-7.694 Y-12.978 E0.0246
G1 X-7.596 Y-13.177 E0.0085
G1 X-7.285 Y-13.737 E0.0245
G1 X-7.168 Y-13.925 E0.0085
G1 X-6.801 Y-14.452 E0.0246
G1 X-6.665 Y-14.627 E0.0085
G1 X-6.249 Y-15.113 E0.0245
G1 X-6.096 Y-15.273 E0.0085
G1 X-5.631 Y-15.715 E0.0246
G1 X-5.463 Y-15.860 E0.0085
G1 X-4.957 Y-16.251 E0.0245
G1 X-4.775 Y-16.378 E0.0085
G1 X-4.231 Y-16.717 E0.0245
G1 X-4.037 Y-16.824 E0.0085
G1 X-3.463 Y-17.106 E0.0245
G1 X-3.259 Y-17.194 E0.0085
G1 X-2.657 Y-17.416 E0.0245
G1 X-2.446 Y-17.483 E0.0085
G1 X-1.825 Y-17.644 E0.0245
G1 X-1.608 Y-17.688 E0.0085
G1 X-0.975 Y-17.785 E0.0245
G1 X-0.755 Y-17.807 E0.0085
G1 X-0.115 Y-17.840 E0.0245
G1 X0.107 Y-17.840 E0.0085
G1 X0.747 Y-17.807 E0.0245
G1 X0.967 Y-17.785 E0.0085
G1 X1.600 Y-17.688 E0.0245
G1 X1.817 Y-17.644 E0.0085
G1 X2.438 Y-17.483 E0.0245
G1 X2.650 Y-17.416 E0.0085
G1 X3.251 Y-17.194 E0.0245
G1 X3.455 Y-17.106 E0.0085
G1 X4.029 Y-16.825 E0.0244
G1 X4.222 Y-16.717 E0.0085
G1 X4.766 Y-16.378 E0.0245
G1 X4.948 Y-16.252 E0.0085
G1 X5.455 Y-15.859 E0.0245
G1 X5.623 Y-15.715 E0.0085
G1 X6.089 Y-15.273 E0.0246
G1 X6.241 Y-15.112 E0.0085
G1 X6.658 Y-14.627 E0.0244
G1 X6.793 Y-14.452 E0.0085
G1 X7.160 Y-13.926 E0.0246
G1 X7.277 Y-13.738 E0.0085
G1 X7.589 Y-13.177 E0.0245
G1 X7.686 Y-12.978 E0.0085
G1 X7.939 Y-12.389 E0.0245
G1 X8.016 Y-12.181 E0.0085
G1 X8.208 Y-11.568 E0.0246
G1 X8.263 Y-11.354 E0.0085
G1 X8.392 Y-10.726 E0.0245
G1 X8.426 Y-10.507 E0.0085
G1 X8.491 Y-9.870 E0.0245
G1 X8.502 Y-9.649 E0.0085
G1 X8.502 Y-9.008 E0.0245
G1 X8.491 Y-8.787 E0.0085
G1 X8.426 Y-8.150 E0.0245
G1 X8.392 Y-7.931 E0.0085
G1 X8.263 Y-7.303 E0.0245
G1 X8.208 Y-7.088 E0.0085
G1 X8.016 Y-6.476 E0.0245
G1 X7.939 Y-6.268 E0.0085
G1 X7.686 Y-5.680 E0.0245
G1 X7.589 Y-5.482 E0.0085
G1 X7.277 Y-4.920 E0.0246
G1 X7.160 Y-4.732 E0.0085
G1 X6.793 Y-4.205 E0.0246
G1 X6.657 Y-4.030 E0.0085
G1 X6.241 Y-3.545 E0.0245
G1 X6.088 Y-3.384 E0.0085
G1 X5.623 Y-2.942 E0.0245
G1 X5.455 Y-2.798 E0.0085
G1 X4.949 Y-2.406 E0.0245
G1 X4.767 Y-2.280 E0.0085
G1 X4.223 Y-1.941 E0.0245
G1 X4.029 Y-1.833 E0.0085
G1 X3.454 Y-1.551 E0.0245
G1 X3.250 Y-1.464 E0.0085
G1 X2.652 Y-1.242 E0.0244
G1 X2.440 Y-1.175 E0.0085
G1 X1.817 Y-1.014 E0.0246
G1 X1.600 Y-0.970 E0.0085
G1 X0.967 Y-0.873 E0.0245
G1 X0.747 Y-0.850 E0.0085
G1 X0.107 Y-0.818 E0.0245
G1 X0.095 Y-1.278 F9000
G1 X-0.103 Y-1.278 E0.0076 F480
G1 X-0.720 Y-1.309 E0.0236
G1 X-0.917 Y-1.329 E0.0076
G1 X-1.527 Y-1.422 E0.0236
G1 X-1.721 Y-1.462 E0.0076
G1 X-2.320 Y-1.618 E0.0237
G1 X-2.509 Y-1.677 E0.0076
G1 X-3.088 Y-1.891 E0.0236
G1 X-3.270 Y-1.970 E0.0076
G1 X-3.824 Y-2.241 E0.0236
G1 X-3.998 Y-2.337 E0.0076
G1 X-4.521 Y-2.663 E0.0236
G1 X-4.683 Y-2.777 E0.0076
G1 X-5.172 Y-3.155 E0.0236
G1 X-5.323 Y-3.284 E0.0076
G1 X-5.771 Y-3.710 E0.0237
G1 X-5.908 Y-3.854 E0.0076
G1 X-6.309 Y-4.321 E0.0236
G1 X-6.430 Y-4.478 E0.0076
G1 X-6.785 Y-4.987 E0.0237
G1 X-6.890 Y-5.156 E0.0076
G1 X-7.188 Y-5.694 E0.0236
G1 X-7.276 Y-5.872 E0.0076
G1 X-7.520 Y-6.441 E0.0237
G1 X-7.589 Y-6.627 E0.0076
G1 X-7.773 Y-7.213 E0.0235
G1 X-7.822 Y-7.405 E0.0076
G1 X-7.947 Y-8.011 E0.0237
G1 X-7.977 Y-8.207 E0.0076
G1 X-8.040 Y-8.822 E0.0237
G1 X-8.050 Y-9.020 E0.0076
G1 X-8.050 Y-9.638 E0.0236
G1 X-8.040 Y-9.836 E0.0076
G1 X-7.977 Y-10.450 E0.0236
G1 X-7.947 Y-10.646 E0.0076
G1 X-7.823 Y-11.251 E0.0236
G1 X-7.773 Y-11.443 E0.0076
G1 X-7.589 Y-12.030 E0.0236
G1 X-7.520 Y-12.216 E0.0076
G1 X-7.276 Y-12.786 E0.0237
G1 X-7.188 Y-12.964 E0.0076
G1 X-6.889 Y-13.503 E0.0236
G1 X-6.784 Y-13.672 E0.0076
G1 X-6.430 Y-14.180 E0.0237
G1 X-6.309 Y-14.336 E0.0076
G1 X-5.907 Y-14.804 E0.0236
G1 X-5.771 Y-14.948 E0.0076
G1 X-5.323 Y-15.374 E0.0237
G1 X-5.172 Y-15.503 E0.0076
G1 X-4.685 Y-15.880 E0.0236
G1 X-4.522 Y-15.993 E0.0076
G1 X-3.998 Y-16.320 E0.0236
G1 X-3.824 Y-16.416 E0.0076
G1 X-3.270 Y-16.688 E0.0236
G1 X-3.088 Y-16.766 E0.0076
G1 X-2.508 Y-16.981 E0.0237
G1 X-2.319 Y-17.040 E0.0076
G1 X-1.721 Y-17.195 E0.0237
G1 X-1.527 Y-17.235 E0.0076
G1 X-0.917 Y-17.329 E0.0236
G1 X-0.720 Y-17.349 E0.0076
G1 X-0.103 Y-17.380 E0.0236
G1 X0.095 Y-17.380 E0.0076
G1 X0.712 Y-17.349 E0.0236
G1 X0.909 Y-17.329 E0.0076
G1 X1.519 Y-17.235 E0.0236
G1 X1.713 Y-17.195 E0.0076
G1 X2.312 Y-17.040 E0.0236
G1 X2.501 Y-16.981 E0.0076
G1 X3.081 Y-16.766 E0.0237
G1 X3.263 Y-16.688 E0.0076
G1 X3.816 Y-16.417 E0.0236
G1 X3.989 Y-16.321 E0.0076
G1 X4.513 Y-15.994 E0.0236
G1 X4.676 Y-15.881 E0.0076
G1 X5.165 Y-15.503 E0.0236
G1 X5.315 Y-15.374 E0.0076
G1 X5.763 Y-14.947 E0.0237
G1 X5.900 Y-14.804 E0.0076
G1 X6.301 Y-14.336 E0.0236
G1 X6.422 Y-14.180 E0.0076
G1 X6.776 Y-13.672 E0.0237
G1 X6.881 Y-13.504 E0.0076
G1 X7.181 Y-12.963 E0.0236
G1 X7.268 Y-12.786 E0.0076
G1 X7.511 Y-12.218 E0.0236
G1 X7.580 Y-12.033 E0.0076
G1 X7.766 Y-11.442 E0.0237
G1 X7.815 Y-11.250 E0.0076
G1 X7.939 Y-10.645 E0.0236
G1 X7.969 Y-10.449 E0.0076
G1 X8.032 Y-9.835 E0.0236
G1 X8.042 Y-9.638 E0.0076
G1 X8.042 Y-9.020 E0.0236
G1 X8.032 Y-8.822 E0.0076
G1 X7.969 Y-8.208 E0.0236
G1 X7.939 Y-8.012 E0.0076
G1 X7.815 Y-7.407 E0.0236
G1 X7.765 Y-7.215 E0.0076
G1 X7.580 Y-6.625 E0.0237
G1 X7.511 Y-6.439 E0.0076
G1 X7.268 Y-5.872 E0.0236
G1 X7.181 Y-5.695 E0.0076
G1 X6.881 Y-5.154 E0.0237
G1 X6.776 Y-4.985 E0.0076
G1 X6.422 Y-4.478 E0.0237
G1 X6.301 Y-4.321 E0.0076
G1 X5.899 Y-3.853 E0.0236
G1 X5.763 Y-3.710 E0.0076
G1 X5.315 Y-3.284 E0.0236
G1 X5.164 Y-3.155 E0.0076
G1 X4.677 Y-2.777 E0.0236
G1 X4.514 Y-2.664 E0.0076
G1 X3.989 Y-2.337 E0.0237
G1 X3.816 Y-2.241 E0.0076
G1 X3.262 Y-1.969 E0.0236
G1 X3.079 Y-1.891 E0.0076
G1 X2.503 Y-1.677 E0.0235
G1 X2.313 Y-1.618 E0.0076
G1 X1.713 Y-1.462 E0.0237
G1 X1.519 Y-1.423 E0.0076
G1 X0.909 Y-1.329 E0.0236
G1 X0.712 Y-1.309 E0.0076
G1 X0.095 Y-1.278 E0.0236
G1 X0.083 Y-1.738 F9000
G1 X-0.091 Y-1.738 E0.0067 F480
G1 X-0.685 Y-1.768 E0.0227
G1 X-0.859 Y-1.786 E0.0067
G1 X-1.446 Y-1.875 E0.0227
G1 X-1.617 Y-1.911 E0.0067
G1 X-2.194 Y-2.060 E0.0228
G1 X-2.361 Y-2.112 E0.0067
G1 X-2.918 Y-2.319 E0.0227
G1 X-3.078 Y-2.388 E0.0067
G1 X-3.611 Y-2.649 E0.0227
G1 X-3.764 Y-2.734 E0.0067
G1 X-4.268 Y-3.048 E0.0227
G1 X-4.411 Y-3.148 E0.0067
G1 X-4.882 Y-3.512 E0.0228
G1 X-5.014 Y-3.625 E0.0067
G1 X-5.446 Y-4.035 E0.0228
G1 X-5.566 Y-4.162 E0.0067
G1 X-5.952 Y-4.612 E0.0227
G1 X-6.060 Y-4.750 E0.0067
G1 X-6.401 Y-5.240 E0.0228
G1 X-6.493 Y-5.389 E0.0067
G1 X-6.781 Y-5.907 E0.0227
G1 X-6.858 Y-6.064 E0.0067
G1 X-7.093 Y-6.612 E0.0228
G1 X-7.153 Y-6.776 E0.0067
G1 X-7.330 Y-7.340 E0.0226
G1 X-7.374 Y-7.509 E0.0067
G1 X-7.494 Y-8.092 E0.0228
G1 X-7.521 Y-8.265 E0.0067
G1 X-7.581 Y-8.857 E0.0228
G1 X-7.590 Y-9.032 E0.0067
G1 X-7.590 Y-9.626 E0.0227
G1 X-7.581 Y-9.801 E0.0067
G1 X-7.521 Y-10.392 E0.0227
G1 X-7.494 Y-10.565 E0.0067
G1 X-7.374 Y-11.147 E0.0227
G1 X-7.331 Y-11.316 E0.0067
G1 X-7.153 Y-11.882 E0.0227
G1 X-7.093 Y-12.046 E0.0067
G1 X-6.858 Y-12.594 E0.0228
G1 X-6.781 Y-12.750 E0.0067
G1 X-6.492 Y-13.270 E0.0227
G1 X-6.400 Y-13.418 E0.0067
G1 X-6.059 Y-13.907 E0.0228
G1 X-5.952 Y-14.045 E0.0067
G1 X-5.566 Y-14.496 E0.0227
G1 X-5.445 Y-14.622 E0.0067
G1 X-5.014 Y-15.032 E0.0228
G1 X-4.881 Y-15.146 E0.0067
G1 X-4.412 Y-15.509 E0.0227
G1 X-4.269 Y-15.609 E0.0067
G1 X-3.764 Y-15.924 E0.0227
G1 X-3.611 Y-16.008 E0.0067
G1 X-3.078 Y-16.270 E0.0227
G1 X-2.918 Y-16.339 E0.0067
G1 X-2.360 Y-16.546 E0.0228
G1 X-2.193 Y-16.598 E0.0067
G1 X-1.617 Y-16.747 E0.0228
G1 X-1.446 Y-16.782 E0.0067
G1 X-0.859 Y-16.872 E0.0227
G1 X-0.685 Y-16.890 E0.0067
G1 X-0.091 Y-16.920 E0.0227
G1 X0.084 Y-16.920 E0.0067
G1 X0.677 Y-16.890 E0.0227
G1 X0.851 Y-16.872 E0.0067
