; G-Code generated by Simplify3D(R) Version 4.1.2
; Apr 2, 2020 at 4:37:43 PM
; Settings Summary
;   processName,Process1
;   applyToModels,baseAV1R1,baseBV1R3
;   profileName,MakerBot Replicator 2 HBP (modified)
;   profileVersion,2020-03-12 10:48:50
;   baseProfile,MakerBot Replicator 2(2)
;   printMaterial,PLA
;   printQuality,Medium
;   printExtruders,
;   extruderName,Primary Extruder
;   extruderToolheadNumber,0
;   extruderDiameter,0.4
;   extruderAutoWidth,0
;   extruderWidth,0.4
;   extrusionMultiplier,1
;   extruderUseRetract,1
;   extruderRetractionDistance,1.9
;   extruderExtraRestartDistance,0
;   extruderRetractionZLift,0.5
;   extruderRetractionSpeed,1200
;   extruderUseCoasting,0
;   extruderCoastingDistance,0.2
;   extruderUseWipe,0
;   extruderWipeDistance,5
;   primaryExtruder,0
;   layerHeight,0.2
;   topSolidLayers,3
;   bottomSolidLayers,3
;   perimeterOutlines,2
;   printPerimetersInsideOut,1
;   startPointOption,3
;   startPointOriginX,0
;   startPointOriginY,150
;   sequentialIslands,0
;   spiralVaseMode,0
;   firstLayerHeightPercentage,100
;   firstLayerWidthPercentage,115
;   firstLayerUnderspeed,0.5
;   useRaft,0
;   raftExtruder,0
;   raftTopLayers,2
;   raftBaseLayers,1
;   raftOffset,1
;   raftSeparationDistance,0.14
;   raftTopInfill,90
;   aboveRaftSpeedMultiplier,0.3
;   useSkirt,0
;   skirtExtruder,0
;   skirtLayers,1
;   skirtOutlines,10
;   skirtOffset,0
;   usePrimePillar,0
;   primePillarExtruder,999
;   primePillarWidth,12
;   primePillarLocation,7
;   primePillarSpeedMultiplier,1
;   useOozeShield,0
;   oozeShieldExtruder,999
;   oozeShieldOffset,2
;   oozeShieldOutlines,1
;   oozeShieldSidewallShape,1
;   oozeShieldSidewallAngle,30
;   oozeShieldSpeedMultiplier,1
;   infillExtruder,0
;   internalInfillPattern,Rectilinear
;   externalInfillPattern,Rectilinear
;   infillPercentage,15
;   outlineOverlapPercentage,25
;   infillExtrusionWidthPercentage,100
;   minInfillLength,5
;   infillLayerInterval,1
;   internalInfillAngles,45,-45
;   overlapInternalInfillAngles,0
;   externalInfillAngles,45,-45
;   generateSupport,1
;   supportExtruder,0
;   supportInfillPercentage,30
;   supportExtraInflation,0.5
;   supportBaseLayers,0
;   denseSupportExtruder,0
;   denseSupportLayers,2
;   denseSupportInfillPercentage,90
;   supportLayerInterval,1
;   supportHorizontalPartOffset,0.3
;   supportUpperSeparationLayers,1
;   supportLowerSeparationLayers,1
;   supportType,1
;   supportGridSpacing,2
;   maxOverhangAngle,45
;   supportAngles,45,-45
;   temperatureName,Primary Extruder,Heated Build Platform
;   temperatureNumber,0,0
;   temperatureSetpointCount,1,1
;   temperatureSetpointLayers,1,1
;   temperatureSetpointTemperatures,230,60
;   temperatureStabilizeAtStartup,1,1
;   temperatureHeatedBed,0,1
;   fanLayers,1,2
;   fanSpeeds,0,100
;   blipFanToFullPower,1
;   adjustSpeedForCooling,1
;   minSpeedLayerTime,15
;   minCoolingSpeedSlowdown,20
;   increaseFanForCooling,1
;   minFanLayerTime,45
;   maxCoolingFanSpeed,100
;   increaseFanForBridging,1
;   bridgingFanSpeed,100
;   use5D,1
;   relativeEdistances,1
;   allowEaxisZeroing,0
;   independentExtruderAxes,1
;   includeM10123,0
;   stickySupport,1
;   applyToolheadOffsets,0
;   gcodeXoffset,0
;   gcodeYoffset,0
;   gcodeZoffset,0
;   overrideMachineDefinition,1
;   machineTypeOverride,0
;   strokeXoverride,280
;   strokeYoverride,150
;   strokeZoverride,150
;   originOffsetXoverride,140
;   originOffsetYoverride,75
;   originOffsetZoverride,0
;   homeXdirOverride,1
;   homeYdirOverride,1
;   homeZdirOverride,-1
;   flipXoverride,1
;   flipYoverride,-1
;   flipZoverride,1
;   toolheadOffsets,0,0|0,0|0,0|0,0|0,0|0,0
;   overrideFirmwareConfiguration,1
;   firmwareTypeOverride,MakerBot/Sailfish Firmware
;   GPXconfigOverride,r2h
;   baudRateOverride,115200
;   overridePrinterModels,1
;   printerModelsOverride,MakerBot_Replicator2.stl
;   startingGcode,; **** Replicator 2 start.gcode ****,M73 P0 ; enable build progress,G162 X Y F3000 ; home XY maximum,G161 Z F1200 ; home Z minimum,G92 Z-5 ; set Z to -5,G1 Z0 ; move Z to 0,G161 Z F100 ; home Z slowly,M132 X Y Z A B ; recall home offsets,G1 X-145 Y-75 Z30 F9000 ; move to wait position off table,G130 X20 Y20 Z20 A20 B20 ; lower stepper Vrefs while heating,M126 S[fan_speed_pwm],M140 S[bed0_temperature] T0,M134 T0 ; stabilize bed temperature,M104 S[extruder0_temperature] T0,M133 T0 ; stabilize extruder temperature,G130 X127 Y127 Z40 A127 B127 ; default stepper Vrefs,G92 A0 ; zero extruder,G1 Z0.4 ; position nozzle,G1 E25 F300 ; purge nozzle,G1 X-140 Y-70 Z0.15 F1200 ; slow wipe,G1 X-135 Y-65 Z0.5 F1200 ; lift,G92 A0 ; zero extruder,M73 P1 ;@body (notify GPX body has started),; **** end of start.gcode ****
;   layerChangeGcode,
;   retractionGcode,
;   toolChangeGcode,
;   endingGcode,; **** Replicator 2 end.gcode ****,M73 P100 ; end build progress,G1 Z155 F1000 ; send Z axis to bottom of machine,M104 S0 T0 ; cool down extruder,M140 S0 T0 ; cool down HBP,M127 ; stop blower fan,G162 X Y F3000 ; home XY maximum,M18 ; disable stepper,M0 ; stop codes,M72 P1 ; play Ta-Da song,; **** end of end.gcode ****
;   exportFileFormat,gcode
;   celebration,0
;   celebrationSong,Random Song
;   postProcessing,
;   defaultSpeed,4800
;   outlineUnderspeed,0.5
;   solidInfillUnderspeed,1
;   supportUnderspeed,1
;   rapidXYspeed,9000
;   rapidZspeed,1200
;   minBridgingArea,50
;   bridgingExtraInflation,0
;   bridgingExtrusionMultiplier,1
;   bridgingSpeedMultiplier,0.8
;   useFixedBridgingAngle,0
;   fixedBridgingAngle,0
;   applyBridgingToPerimeters,0
;   filamentDiameters,1.75|1.75|1.75|1.75|1.75|1.75
;   filamentPricesPerKg,46|46|46|46|46|46
;   filamentDensities,1.25|1.25|1.25|1.25|1.25|1.25
;   useMinPrintHeight,0
;   minPrintHeight,0
;   useMaxPrintHeight,0
;   maxPrintHeight,4.84
;   useDiaphragm,0
;   diaphragmLayerInterval,20
;   robustSlicing,1
;   mergeAllIntoSolid,0
;   onlyRetractWhenCrossingOutline,0
;   retractBetweenLayers,0
;   useRetractionMinTravel,1
;   retractionMinTravel,7
;   retractWhileWiping,1
;   onlyWipeOutlines,1
;   avoidCrossingOutline,0
;   maxMovementDetourFactor,3
;   toolChangeRetractionDistance,12
;   toolChangeExtraRestartDistance,-0.5
;   toolChangeRetractionSpeed,600
;   externalThinWallType,0
;   internalThinWallType,0
;   thinWallAllowedOverlapPercentage,10
;   singleExtrusionMinLength,1
;   singleExtrusionMinPrintingWidthPercentage,50
;   singleExtrusionMaxPrintingWidthPercentage,200
;   singleExtrusionEndpointExtension,0.2
;   horizontalSizeCompensation,0
G90
M83
; **** Replicator 2 start.gcode ****
M73 P0 ; enable build progress
G162 X Y F3000 ; home XY maximum
G161 Z F1200 ; home Z minimum
G92 Z-5 ; set Z to -5
G1 Z0 ; move Z to 0
G161 Z F100 ; home Z slowly
M132 X Y Z A B ; recall home offsets
G1 X-145 Y-75 Z30 F9000 ; move to wait position off table
G130 X20 Y20 Z20 A20 B20 ; lower stepper Vrefs while heating
M127
M140 S60 T0
M134 T0 ; stabilize bed temperature
M104 S230 T0
M133 T0 ; stabilize extruder temperature
G130 X127 Y127 Z40 A127 B127 ; default stepper Vrefs
G92 A0 ; zero extruder
G1 Z0.4 ; position nozzle
G1 E25 F300 ; purge nozzle
G1 X-140 Y-70 Z0.15 F1200 ; slow wipe
G1 X-135 Y-65 Z0.5 F1200 ; lift
G92 A0 ; zero extruder
M73 P1 ;@body (notify GPX body has started)
; **** end of start.gcode ****
; process Process1
; layer 1, Z = 0.200
M135 T0
G1 E-1.9000 F1200
; feature inner perimeter
; tool H0.200 W0.460
G1 Z0.500 F1200
G1 X-15.971 Y15.693 F9000
G1 Z0.200 F1200
G1 E1.9000 F1200
G1 X-17.877 Y15.809 E0.0730 F1800
G1 X-19.782 Y15.693 E0.0730
G1 X-21.660 Y15.349 E0.0730
G1 X-23.482 Y14.781 E0.0730
G1 X-25.223 Y13.998 E0.0730
G1 X-26.858 Y13.010 E0.0731
G1 X-28.318 Y11.876 E0.0707
G1 X-44.236 Y2.658 E0.7036
G1 X-44.639 Y2.242 E0.0221
G1 X-44.984 Y1.732 E0.0235
G1 X-45.236 Y1.171 E0.0235
G1 X-45.387 Y0.574 E0.0235
G1 X-45.434 Y-0.039 E0.0235
G1 X-45.374 Y-0.652 E0.0235
G1 X-45.209 Y-1.245 E0.0235
G1 X-44.945 Y-1.800 E0.0235
G1 X-44.588 Y-2.302 E0.0235
G1 X-44.151 Y-2.735 E0.0235
G1 X-43.621 Y-3.103 E0.0247
G1 X-28.320 Y-11.875 E0.6746
G1 X-26.858 Y-13.010 E0.0708
G1 X-25.223 Y-13.998 E0.0731
G1 X-23.482 Y-14.781 E0.0730
G1 X-21.660 Y-15.349 E0.0730
G1 X-19.782 Y-15.693 E0.0730
G1 X-17.877 Y-15.809 E0.0730
G1 X-15.971 Y-15.693 E0.0730
G1 X-14.093 Y-15.349 E0.0730
G1 X-12.271 Y-14.781 E0.0730
G1 X-10.530 Y-13.998 E0.0730
G1 X-8.895 Y-13.010 E0.0731
G1 X-7.435 Y-11.876 E0.0707
G1 X8.483 Y-2.658 E0.7036
G1 X8.886 Y-2.242 E0.0221
G1 X9.231 Y-1.732 E0.0235
G1 X9.483 Y-1.171 E0.0235
G1 X9.634 Y-0.574 E0.0235
G1 X9.681 Y0.039 E0.0235
G1 X9.621 Y0.652 E0.0235
G1 X9.456 Y1.245 E0.0235
G1 X9.192 Y1.800 E0.0235
G1 X8.835 Y2.302 E0.0235
G1 X8.398 Y2.735 E0.0235
G1 X7.868 Y3.103 E0.0247
G1 X-7.433 Y11.875 E0.6746
G1 X-8.895 Y13.010 E0.0708
G1 X-10.530 Y13.998 E0.0731
G1 X-12.271 Y14.781 E0.0730
G1 X-14.093 Y15.349 E0.0730
G1 X-15.971 Y15.693 E0.0730
; feature outer perimeter
G1 X-15.915 Y16.151 F9000
G1 X-17.877 Y16.270 E0.0751 F1200
G1 X-19.838 Y16.151 E0.0751
G1 X-21.770 Y15.797 E0.0751
G1 X-23.646 Y15.212 E0.0752
G1 X-25.437 Y14.406 E0.0751
G1 X-27.119 Y13.389 E0.0752
G1 X-28.576 Y12.259 E0.0705
G1 X-44.523 Y3.024 E0.7048
G1 X-44.997 Y2.533 E0.0261
G1 X-45.387 Y1.957 E0.0266
G1 X-45.672 Y1.323 E0.0266
G1 X-45.843 Y0.649 E0.0266
G1 X-45.895 Y-0.044 E0.0266
G1 X-45.828 Y-0.736 E0.0266
G1 X-45.642 Y-1.406 E0.0266
G1 X-45.343 Y-2.034 E0.0266
G1 X-44.940 Y-2.601 E0.0266
G1 X-44.446 Y-3.090 E0.0266
G1 X-43.867 Y-3.493 E0.0270
G1 X-28.576 Y-12.258 E0.6742
G1 X-27.119 Y-13.389 E0.0706
G1 X-25.437 Y-14.406 E0.0752
G1 X-23.646 Y-15.212 E0.0751
G1 X-21.770 Y-15.797 E0.0752
G1 X-19.838 Y-16.151 E0.0751
G1 X-17.877 Y-16.270 E0.0751
G1 X-15.915 Y-16.151 E0.0751
G1 X-13.983 Y-15.797 E0.0751
G1 X-12.107 Y-15.212 E0.0752
G1 X-10.316 Y-14.406 E0.0751
G1 X-8.634 Y-13.389 E0.0752
G1 X-7.177 Y-12.259 E0.0705
G1 X8.769 Y-3.024 E0.7048
G1 X9.244 Y-2.533 E0.0261
G1 X9.634 Y-1.957 E0.0266
G1 X9.919 Y-1.323 E0.0266
G1 X10.090 Y-0.649 E0.0266
G1 X10.142 Y0.044 E0.0266
G1 X10.075 Y0.736 E0.0266
G1 X9.889 Y1.406 E0.0266
G1 X9.590 Y2.034 E0.0266
G1 X9.188 Y2.601 E0.0266
G1 X8.693 Y3.090 E0.0266
G1 X8.114 Y3.493 E0.0270
G1 X-7.177 Y12.258 E0.6742
G1 X-8.634 Y13.389 E0.0706
G1 X-10.316 Y14.406 E0.0752
G1 X-12.107 Y15.212 E0.0751
G1 X-13.983 Y15.797 E0.0752
G1 X-15.915 Y16.151 E0.0751
G1 E-1.9000 F1200
; feature inner perimeter
G1 Z0.700 F1200
G1 X-16.535 Y7.607 F9000
G1 Z0.200 F1200
G1 E1.9000 F1200
G1 X-15.235 Y7.259 E0.0515 F1800
G1 X-14.014 Y6.690 E0.0515
G1 X-12.911 Y5.917 E0.0515
G1 X-11.959 Y4.965 E0.0515
G1 X-11.187 Y3.862 E0.0515
G1 X-10.618 Y2.642 E0.0515
G1 X-10.269 Y1.341 E0.0515
G1 X-10.152 Y0.000 E0.0515
G1 X-10.269 Y-1.341 E0.0515
G1 X-10.618 Y-2.642 E0.0515
G1 X-11.187 Y-3.862 E0.0515
G1 X-11.959 Y-4.965 E0.0515
G1 X-12.911 Y-5.917 E0.0515
G1 X-14.014 Y-6.690 E0.0515
G1 X-15.235 Y-7.259 E0.0515
G1 X-16.535 Y-7.607 E0.0515
G1 X-17.877 Y-7.725 E0.0515
G1 X-19.218 Y-7.607 E0.0515
G1 X-20.519 Y-7.259 E0.0515
G1 X-21.739 Y-6.690 E0.0515
G1 X-22.842 Y-5.917 E0.0515
G1 X-23.794 Y-4.965 E0.0515
G1 X-24.566 Y-3.862 E0.0515
G1 X-25.135 Y-2.642 E0.0515
G1 X-25.484 Y-1.341 E0.0515
G1 X-25.601 Y0.000 E0.0515
G1 X-25.484 Y1.341 E0.0515
G1 X-25.135 Y2.642 E0.0515
G1 X-24.566 Y3.862 E0.0515
G1 X-23.794 Y4.965 E0.0515
G1 X-22.842 Y5.917 E0.0515
G1 X-21.739 Y6.690 E0.0515
G1 X-20.519 Y7.259 E0.0515
G1 X-19.218 Y7.607 E0.0515
G1 X-17.877 Y7.725 E0.0515
G1 X-16.535 Y7.607 E0.0515
; feature outer perimeter
G1 X-16.615 Y7.153 F9000
G1 X-15.392 Y6.825 E0.0484 F1200
G1 X-14.245 Y6.290 E0.0484
G1 X-13.208 Y5.564 E0.0484
G1 X-12.313 Y4.669 E0.0484
G1 X-11.587 Y3.631 E0.0484
G1 X-11.052 Y2.484 E0.0484
G1 X-10.724 Y1.261 E0.0484
G1 X-10.614 Y0.000 E0.0484
G1 X-10.724 Y-1.261 E0.0484
G1 X-11.052 Y-2.484 E0.0484
G1 X-11.587 Y-3.631 E0.0484
G1 X-12.313 Y-4.669 E0.0484
G1 X-13.208 Y-5.564 E0.0484
G1 X-14.245 Y-6.290 E0.0484
G1 X-15.392 Y-6.825 E0.0484
G1 X-16.615 Y-7.153 E0.0484
G1 X-17.877 Y-7.263 E0.0484
G1 X-19.138 Y-7.153 E0.0484
G1 X-20.361 Y-6.825 E0.0484
G1 X-21.508 Y-6.290 E0.0484
G1 X-22.545 Y-5.564 E0.0484
G1 X-23.440 Y-4.669 E0.0484
G1 X-24.166 Y-3.631 E0.0484
G1 X-24.701 Y-2.484 E0.0484
G1 X-25.029 Y-1.261 E0.0484
G1 X-25.139 Y0.000 E0.0484
G1 X-25.029 Y1.261 E0.0484
G1 X-24.701 Y2.484 E0.0484
G1 X-24.166 Y3.631 E0.0484
G1 X-23.440 Y4.669 E0.0484
G1 X-22.545 Y5.564 E0.0484
G1 X-21.508 Y6.290 E0.0484
G1 X-20.361 Y6.825 E0.0484
G1 X-19.138 Y7.153 E0.0484
G1 X-17.877 Y7.263 E0.0484
G1 X-16.615 Y7.153 E0.0484
G1 E-1.9000 F1200
; feature inner perimeter
G1 Z0.700 F1200
G1 X3.358 Y1.006 F9000
G1 Z0.200 F1200
G1 E1.9000 F1200
G1 X3.575 Y1.471 E0.0196 F1800
G1 X3.869 Y1.891 E0.0196
G1 X4.232 Y2.254 E0.0196
G1 X4.655 Y2.550 E0.0197
G1 X5.139 Y2.771 E0.0204
G1 X5.612 Y2.898 E0.0188
G1 X6.123 Y2.943 E0.0196
G1 X6.634 Y2.898 E0.0196
G1 X7.130 Y2.765 E0.0196
G1 X7.595 Y2.548 E0.0196
G1 X8.015 Y2.254 E0.0196
G1 X8.378 Y1.892 E0.0196
G1 X8.672 Y1.471 E0.0196
G1 X8.889 Y1.006 E0.0196
G1 X9.021 Y0.511 E0.0196
G1 X9.066 Y0.000 E0.0196
G1 X9.021 Y-0.511 E0.0196
G1 X8.889 Y-1.006 E0.0196
G1 X8.672 Y-1.471 E0.0196
G1 X8.378 Y-1.891 E0.0196
G1 X8.015 Y-2.254 E0.0196
G1 X7.595 Y-2.548 E0.0196
G1 X7.130 Y-2.765 E0.0196
G1 X6.634 Y-2.898 E0.0196
G1 X6.123 Y-2.943 E0.0196
G1 X5.613 Y-2.898 E0.0196
G1 X5.117 Y-2.765 E0.0196
G1 X4.652 Y-2.548 E0.0196
G1 X4.232 Y-2.254 E0.0196
G1 X3.869 Y-1.891 E0.0196
G1 X3.575 Y-1.471 E0.0196
G1 X3.358 Y-1.006 E0.0196
G1 X3.226 Y-0.511 E0.0196
G1 X3.181 Y0.000 E0.0196
G1 X3.226 Y0.511 E0.0196
G1 X3.358 Y1.006 E0.0196
; feature outer perimeter
G1 X3.792 Y0.849 F9000
G1 X3.975 Y1.240 E0.0165 F1200
G1 X4.223 Y1.595 E0.0165
G1 X4.529 Y1.900 E0.0165
G1 X4.884 Y2.149 E0.0166
G1 X5.295 Y2.337 E0.0173
G1 X5.693 Y2.443 E0.0158
G1 X6.123 Y2.481 E0.0165
G1 X6.554 Y2.443 E0.0165
G1 X6.972 Y2.331 E0.0165
G1 X7.364 Y2.149 E0.0165
G1 X7.718 Y1.900 E0.0165
G1 X8.024 Y1.595 E0.0165
G1 X8.272 Y1.240 E0.0165
G1 X8.455 Y0.849 E0.0165
G1 X8.567 Y0.431 E0.0165
G1 X8.604 Y0.000 E0.0165
G1 X8.567 Y-0.431 E0.0165
G1 X8.455 Y-0.848 E0.0165
G1 X8.272 Y-1.240 E0.0165
G1 X8.024 Y-1.595 E0.0165
G1 X7.718 Y-1.900 E0.0165
G1 X7.364 Y-2.148 E0.0165
G1 X6.972 Y-2.331 E0.0165
G1 X6.554 Y-2.443 E0.0165
G1 X6.123 Y-2.481 E0.0165
G1 X5.693 Y-2.443 E0.0165
G1 X5.275 Y-2.331 E0.0165
G1 X4.883 Y-2.148 E0.0165
G1 X4.529 Y-1.900 E0.0165
G1 X4.223 Y-1.595 E0.0165
G1 X3.975 Y-1.240 E0.0165
G1 X3.792 Y-0.849 E0.0165
G1 X3.680 Y-0.431 E0.0165
G1 X3.643 Y0.000 E0.0165
G1 X3.680 Y0.431 E0.0165
G1 X3.792 Y0.849 E0.0165
G1 E-1.9000 F1200
; feature inner perimeter
G1 Z0.700 F1200
G1 X-38.934 Y0.000 F9000
G1 Z0.200 F1200
G1 E1.9000 F1200
G1 X-38.979 Y-0.511 E0.0196 F1800
G1 X-39.111 Y-1.006 E0.0196
G1 X-39.328 Y-1.471 E0.0196
G1 X-39.622 Y-1.891 E0.0196
G1 X-39.985 Y-2.254 E0.0196
G1 X-40.405 Y-2.548 E0.0196
G1 X-40.870 Y-2.765 E0.0196
G1 X-41.366 Y-2.898 E0.0196
G1 X-41.877 Y-2.943 E0.0196
G1 X-42.387 Y-2.898 E0.0196
G1 X-42.883 Y-2.765 E0.0196
G1 X-43.348 Y-2.548 E0.0196
G1 X-43.768 Y-2.254 E0.0196
G1 X-44.131 Y-1.891 E0.0196
G1 X-44.425 Y-1.471 E0.0196
G1 X-44.642 Y-1.006 E0.0196
G1 X-44.774 Y-0.511 E0.0196
G1 X-44.819 Y0.000 E0.0196
G1 X-44.774 Y0.511 E0.0196
G1 X-44.642 Y1.006 E0.0196
G1 X-44.425 Y1.471 E0.0196
G1 X-44.131 Y1.892 E0.0196
G1 X-43.768 Y2.254 E0.0196
G1 X-43.345 Y2.550 E0.0197
G1 X-42.861 Y2.771 E0.0204
G1 X-42.387 Y2.898 E0.0188
G1 X-41.877 Y2.943 E0.0196
G1 X-41.366 Y2.898 E0.0196
G1 X-40.870 Y2.765 E0.0196
G1 X-40.405 Y2.548 E0.0196
G1 X-39.985 Y2.254 E0.0196
G1 X-39.622 Y1.892 E0.0196
G1 X-39.328 Y1.471 E0.0196
G1 X-39.111 Y1.006 E0.0196
G1 X-38.979 Y0.511 E0.0196
G1 X-38.934 Y0.000 E0.0196
; feature outer perimeter
G1 X-39.396 Y0.000 F9000
G1 X-39.433 Y-0.431 E0.0165 F1200
G1 X-39.545 Y-0.848 E0.0165
G1 X-39.728 Y-1.240 E0.0165
G1 X-39.976 Y-1.595 E0.0165
G1 X-40.282 Y-1.900 E0.0165
G1 X-40.636 Y-2.148 E0.0165
G1 X-41.028 Y-2.331 E0.0165
G1 X-41.446 Y-2.443 E0.0165
G1 X-41.877 Y-2.481 E0.0165
G1 X-42.307 Y-2.443 E0.0165
G1 X-42.725 Y-2.331 E0.0165
G1 X-43.117 Y-2.148 E0.0165
G1 X-43.471 Y-1.900 E0.0165
