; G-Code generated by Simplify3D(R) Version 4.1.2
; Apr 2, 2020 at 4:36:25 PM
; Settings Summary
;   processName,Process1
;   applyToModels,coilBV1R3,coilCV1R3,coilAV1R3
;   profileName,MakerBot Replicator 2 HBP (modified)
;   profileVersion,2020-03-12 10:48:50
;   baseProfile,MakerBot Replicator 2(2)
;   printMaterial,PLA
;   printQuality,Medium
;   printExtruders,
;   extruderName,Primary Extruder
;   extruderToolheadNumber,0
;   extruderDiameter,0.4
;   extruderAutoWidth,0
;   extruderWidth,0.4
;   extrusionMultiplier,1
;   extruderUseRetract,1
;   extruderRetractionDistance,1.9
;   extruderExtraRestartDistance,0
;   extruderRetractionZLift,0.5
;   extruderRetractionSpeed,1200
;   extruderUseCoasting,0
;   extruderCoastingDistance,0.2
;   extruderUseWipe,0
;   extruderWipeDistance,5
;   primaryExtruder,0
;   layerHeight,0.2
;   topSolidLayers,3
;   bottomSolidLayers,3
;   perimeterOutlines,2
;   printPerimetersInsideOut,1
;   startPointOption,3
;   startPointOriginX,0
;   startPointOriginY,150
;   sequentialIslands,0
;   spiralVaseMode,0
;   firstLayerHeightPercentage,100
;   firstLayerWidthPercentage,115
;   firstLayerUnderspeed,0.5
;   useRaft,0
;   raftExtruder,0
;   raftTopLayers,2
;   raftBaseLayers,1
;   raftOffset,1
;   raftSeparationDistance,0.14
;   raftTopInfill,90
;   aboveRaftSpeedMultiplier,0.3
;   useSkirt,0
;   skirtExtruder,0
;   skirtLayers,1
;   skirtOutlines,10
;   skirtOffset,0
;   usePrimePillar,0
;   primePillarExtruder,999
;   primePillarWidth,12
;   primePillarLocation,7
;   primePillarSpeedMultiplier,1
;   useOozeShield,0
;   oozeShieldExtruder,999
;   oozeShieldOffset,2
;   oozeShieldOutlines,1
;   oozeShieldSidewallShape,1
;   oozeShieldSidewallAngle,30
;   oozeShieldSpeedMultiplier,1
;   infillExtruder,0
;   internalInfillPattern,Rectilinear
;   externalInfillPattern,Rectilinear
;   infillPercentage,15
;   outlineOverlapPercentage,25
;   infillExtrusionWidthPercentage,100
;   minInfillLength,5
;   infillLayerInterval,1
;   internalInfillAngles,45,-45
;   overlapInternalInfillAngles,0
;   externalInfillAngles,45,-45
;   generateSupport,1
;   supportExtruder,0
;   supportInfillPercentage,30
;   supportExtraInflation,0.5
;   supportBaseLayers,0
;   denseSupportExtruder,0
;   denseSupportLayers,2
;   denseSupportInfillPercentage,90
;   supportLayerInterval,1
;   supportHorizontalPartOffset,0.3
;   supportUpperSeparationLayers,1
;   supportLowerSeparationLayers,1
;   supportType,1
;   supportGridSpacing,2
;   maxOverhangAngle,45
;   supportAngles,45,-45
;   temperatureName,Primary Extruder,Heated Build Platform
;   temperatureNumber,0,0
;   temperatureSetpointCount,1,1
;   temperatureSetpointLayers,1,1
;   temperatureSetpointTemperatures,230,60
;   temperatureStabilizeAtStartup,1,1
;   temperatureHeatedBed,0,1
;   fanLayers,1,2
;   fanSpeeds,0,100
;   blipFanToFullPower,1
;   adjustSpeedForCooling,1
;   minSpeedLayerTime,15
;   minCoolingSpeedSlowdown,20
;   increaseFanForCooling,1
;   minFanLayerTime,45
;   maxCoolingFanSpeed,100
;   increaseFanForBridging,1
;   bridgingFanSpeed,100
;   use5D,1
;   relativeEdistances,1
;   allowEaxisZeroing,0
;   independentExtruderAxes,1
;   includeM10123,0
;   stickySupport,1
;   applyToolheadOffsets,0
;   gcodeXoffset,0
;   gcodeYoffset,0
;   gcodeZoffset,0
;   overrideMachineDefinition,1
;   machineTypeOverride,0
;   strokeXoverride,280
;   strokeYoverride,150
;   strokeZoverride,150
;   originOffsetXoverride,140
;   originOffsetYoverride,75
;   originOffsetZoverride,0
;   homeXdirOverride,1
;   homeYdirOverride,1
;   homeZdirOverride,-1
;   flipXoverride,1
;   flipYoverride,-1
;   flipZoverride,1
;   toolheadOffsets,0,0|0,0|0,0|0,0|0,0|0,0
;   overrideFirmwareConfiguration,1
;   firmwareTypeOverride,MakerBot/Sailfish Firmware
;   GPXconfigOverride,r2h
;   baudRateOverride,115200
;   overridePrinterModels,1
;   printerModelsOverride,MakerBot_Replicator2.stl
;   startingGcode,; **** Replicator 2 start.gcode ****,M73 P0 ; enable build progress,G162 X Y F3000 ; home XY maximum,G161 Z F1200 ; home Z minimum,G92 Z-5 ; set Z to -5,G1 Z0 ; move Z to 0,G161 Z F100 ; home Z slowly,M132 X Y Z A B ; recall home offsets,G1 X-145 Y-75 Z30 F9000 ; move to wait position off table,G130 X20 Y20 Z20 A20 B20 ; lower stepper Vrefs while heating,M126 S[fan_speed_pwm],M140 S[bed0_temperature] T0,M134 T0 ; stabilize bed temperature,M104 S[extruder0_temperature] T0,M133 T0 ; stabilize extruder temperature,G130 X127 Y127 Z40 A127 B127 ; default stepper Vrefs,G92 A0 ; zero extruder,G1 Z0.4 ; position nozzle,G1 E25 F300 ; purge nozzle,G1 X-140 Y-70 Z0.15 F1200 ; slow wipe,G1 X-135 Y-65 Z0.5 F1200 ; lift,G92 A0 ; zero extruder,M73 P1 ;@body (notify GPX body has started),; **** end of start.gcode ****
;   layerChangeGcode,
;   retractionGcode,
;   toolChangeGcode,
;   endingGcode,; **** Replicator 2 end.gcode ****,M73 P100 ; end build progress,G1 Z155 F1000 ; send Z axis to bottom of machine,M104 S0 T0 ; cool down extruder,M140 S0 T0 ; cool down HBP,M127 ; stop blower fan,G162 X Y F3000 ; home XY maximum,M18 ; disable stepper,M0 ; stop codes,M72 P1 ; play Ta-Da song,; **** end of end.gcode ****
;   exportFileFormat,gcode
;   celebration,0
;   celebrationSong,Random Song
;   postProcessing,
;   defaultSpeed,4800
;   outlineUnderspeed,0.5
;   solidInfillUnderspeed,1
;   supportUnderspeed,1
;   rapidXYspeed,9000
;   rapidZspeed,1200
;   minBridgingArea,50
;   bridgingExtraInflation,0
;   bridgingExtrusionMultiplier,1
;   bridgingSpeedMultiplier,0.8
;   useFixedBridgingAngle,0
;   fixedBridgingAngle,0
;   applyBridgingToPerimeters,0
;   filamentDiameters,1.75|1.75|1.75|1.75|1.75|1.75
;   filamentPricesPerKg,46|46|46|46|46|46
;   filamentDensities,1.25|1.25|1.25|1.25|1.25|1.25
;   useMinPrintHeight,0
;   minPrintHeight,0
;   useMaxPrintHeight,0
;   maxPrintHeight,4.84
;   useDiaphragm,0
;   diaphragmLayerInterval,20
;   robustSlicing,1
;   mergeAllIntoSolid,0
;   onlyRetractWhenCrossingOutline,0
;   retractBetweenLayers,0
;   useRetractionMinTravel,1
;   retractionMinTravel,7
;   retractWhileWiping,1
;   onlyWipeOutlines,1
;   avoidCrossingOutline,0
;   maxMovementDetourFactor,3
;   toolChangeRetractionDistance,12
;   toolChangeExtraRestartDistance,-0.5
;   toolChangeRetractionSpeed,600
;   externalThinWallType,0
;   internalThinWallType,0
;   thinWallAllowedOverlapPercentage,10
;   singleExtrusionMinLength,1
;   singleExtrusionMinPrintingWidthPercentage,50
;   singleExtrusionMaxPrintingWidthPercentage,200
;   singleExtrusionEndpointExtension,0.2
;   horizontalSizeCompensation,0
G90
M83
; **** Replicator 2 start.gcode ****
M73 P0 ; enable build progress
G162 X Y F3000 ; home XY maximum
G161 Z F1200 ; home Z minimum
G92 Z-5 ; set Z to -5
G1 Z0 ; move Z to 0
G161 Z F100 ; home Z slowly
M132 X Y Z A B ; recall home offsets
G1 X-145 Y-75 Z30 F9000 ; move to wait position off table
G130 X20 Y20 Z20 A20 B20 ; lower stepper Vrefs while heating
M127
M140 S60 T0
M134 T0 ; stabilize bed temperature
M104 S230 T0
M133 T0 ; stabilize extruder temperature
G130 X127 Y127 Z40 A127 B127 ; default stepper Vrefs
G92 A0 ; zero extruder
G1 Z0.4 ; position nozzle
G1 E25 F300 ; purge nozzle
G1 X-140 Y-70 Z0.15 F1200 ; slow wipe
G1 X-135 Y-65 Z0.5 F1200 ; lift
G92 A0 ; zero extruder
M73 P1 ;@body (notify GPX body has started)
; **** end of start.gcode ****
; process Process1
; layer 1, Z = 0.200
M135 T0
G1 E-1.9000 F1200
; feature inner perimeter
; tool H0.200 W0.460
G1 Z0.500 F1200
G1 X-0.339 Y13.174 F9000
G1 Z0.200 F1200
G1 E1.9000 F1200
G1 X-1.692 Y13.069 E0.0519 F1800
G1 X-3.027 Y12.826 E0.0519
G1 X-4.330 Y12.447 E0.0519
G1 X-5.586 Y11.936 E0.0519
G1 X-6.784 Y11.298 E0.0519
G1 X-7.910 Y10.540 E0.0519
G1 X-8.952 Y9.671 E0.0519
G1 X-9.899 Y8.700 E0.0519
G1 X-10.741 Y7.636 E0.0519
G1 X-11.469 Y6.491 E0.0519
G1 X-12.075 Y5.277 E0.0519
G1 X-12.554 Y4.008 E0.0519
G1 X-12.900 Y2.696 E0.0519
G1 X-13.108 Y1.355 E0.0519
G1 X-13.178 Y0.000 E0.0519
G1 X-13.111 Y-1.295 E0.0496
G1 X-12.899 Y-2.697 E0.0542
G1 X-12.554 Y-4.008 E0.0518
G1 X-12.075 Y-5.277 E0.0519
G1 X-11.469 Y-6.491 E0.0519
G1 X-10.741 Y-7.636 E0.0519
G1 X-9.899 Y-8.700 E0.0519
G1 X-8.952 Y-9.671 E0.0519
G1 X-7.956 Y-10.502 E0.0496
G1 X-6.783 Y-11.299 E0.0543
G1 X-5.586 Y-11.936 E0.0518
G1 X-4.330 Y-12.447 E0.0519
G1 X-3.027 Y-12.826 E0.0519
G1 X-1.692 Y-13.069 E0.0519
G1 X-0.339 Y-13.174 E0.0519
G1 X1.017 Y-13.139 E0.0519
G1 X2.363 Y-12.965 E0.0519
G1 X3.683 Y-12.653 E0.0519
G1 X4.965 Y-12.207 E0.0519
G1 X6.194 Y-11.632 E0.0519
G1 X7.357 Y-10.934 E0.0519
G1 X8.442 Y-10.119 E0.0519
G1 X9.438 Y-9.198 E0.0519
G1 X10.333 Y-8.178 E0.0519
G1 X11.119 Y-7.073 E0.0519
G1 X11.788 Y-5.892 E0.0519
G1 X12.331 Y-4.649 E0.0519
G1 X12.725 Y-3.414 E0.0496
G1 X13.021 Y-2.027 E0.0542
G1 X13.161 Y-0.678 E0.0518
G1 X13.161 Y0.678 E0.0519
G1 X13.021 Y2.028 E0.0519
G1 X12.744 Y3.356 E0.0519
G1 X12.331 Y4.649 E0.0519
G1 X11.788 Y5.892 E0.0519
G1 X11.119 Y7.073 E0.0519
G1 X10.333 Y8.178 E0.0519
G1 X9.438 Y9.198 E0.0519
G1 X8.442 Y10.119 E0.0519
G1 X7.357 Y10.934 E0.0519
G1 X6.194 Y11.632 E0.0519
G1 X4.965 Y12.207 E0.0519
G1 X3.683 Y12.653 E0.0519
G1 X2.363 Y12.965 E0.0519
G1 X1.017 Y13.139 E0.0519
G1 X-0.339 Y13.174 E0.0519
; feature outer perimeter
G1 X-0.351 Y13.634 F9000
G1 X-1.751 Y13.526 E0.0537 F1200
G1 X-3.133 Y13.274 E0.0537
G1 X-4.481 Y12.882 E0.0537
G1 X-5.782 Y12.353 E0.0537
G1 X-7.021 Y11.693 E0.0537
G1 X-8.186 Y10.909 E0.0537
G1 X-9.264 Y10.009 E0.0537
G1 X-10.245 Y9.004 E0.0537
G1 X-11.116 Y7.903 E0.0537
G1 X-11.870 Y6.718 E0.0537
G1 X-12.497 Y5.462 E0.0537
G1 X-12.993 Y4.148 E0.0537
G1 X-13.350 Y2.790 E0.0537
G1 X-13.567 Y1.402 E0.0537
G1 X-13.639 Y0.000 E0.0537
G1 X-13.570 Y-1.341 E0.0514
G1 X-13.350 Y-2.790 E0.0561
G1 X-12.993 Y-4.148 E0.0537
G1 X-12.497 Y-5.462 E0.0537
G1 X-11.870 Y-6.718 E0.0537
G1 X-11.116 Y-7.903 E0.0537
G1 X-10.245 Y-9.004 E0.0537
G1 X-9.264 Y-10.009 E0.0537
G1 X-8.233 Y-10.870 E0.0514
G1 X-7.021 Y-11.693 E0.0561
G1 X-5.782 Y-12.353 E0.0537
G1 X-4.481 Y-12.882 E0.0537
G1 X-3.133 Y-13.274 E0.0537
G1 X-1.751 Y-13.526 E0.0537
G1 X-0.351 Y-13.634 E0.0537
G1 X1.053 Y-13.598 E0.0537
G1 X2.445 Y-13.418 E0.0537
G1 X3.812 Y-13.095 E0.0537
G1 X5.138 Y-12.634 E0.0537
G1 X6.410 Y-12.039 E0.0537
G1 X7.614 Y-11.316 E0.0537
G1 X8.737 Y-10.473 E0.0537
G1 X9.767 Y-9.519 E0.0537
G1 X10.694 Y-8.464 E0.0537
G1 X11.508 Y-7.320 E0.0537
G1 X12.200 Y-6.098 E0.0537
G1 X12.762 Y-4.811 E0.0537
G1 X13.170 Y-3.532 E0.0514
G1 X13.476 Y-2.098 E0.0561
G1 X13.621 Y-0.702 E0.0537
G1 X13.621 Y0.702 E0.0537
G1 X13.476 Y2.099 E0.0537
G1 X13.189 Y3.473 E0.0537
G1 X12.762 Y4.811 E0.0537
G1 X12.200 Y6.098 E0.0537
G1 X11.508 Y7.320 E0.0537
G1 X10.694 Y8.464 E0.0537
G1 X9.767 Y9.519 E0.0537
G1 X8.737 Y10.473 E0.0537
G1 X7.614 Y11.316 E0.0537
G1 X6.410 Y12.039 E0.0537
G1 X5.138 Y12.634 E0.0537
G1 X3.812 Y13.095 E0.0537
G1 X2.445 Y13.418 E0.0537
G1 X1.053 Y13.598 E0.0537
G1 X-0.351 Y13.634 E0.0537
; feature inner perimeter
G1 X0.215 Y10.124 F9000
G1 X1.552 Y10.007 E0.0513 F1800
G1 X2.862 Y9.714 E0.0513
G1 X4.122 Y9.250 E0.0513
G1 X5.309 Y8.623 E0.0513
G1 X6.403 Y7.845 E0.0513
G1 X7.385 Y6.929 E0.0513
G1 X8.237 Y5.891 E0.0513
G1 X8.943 Y4.750 E0.0513
G1 X9.493 Y3.525 E0.0513
G1 X9.876 Y2.238 E0.0513
G1 X10.204 Y0.160 E0.0805
G1 X7.701 Y0.160 E0.0957
G1 X7.701 Y-0.160 E0.0122
G1 X10.204 Y-0.160 E0.0957
G1 X9.876 Y-2.238 E0.0805
G1 X9.493 Y-3.525 E0.0513
G1 X8.943 Y-4.750 E0.0513
G1 X8.237 Y-5.891 E0.0513
G1 X7.385 Y-6.929 E0.0513
G1 X6.403 Y-7.845 E0.0513
G1 X5.309 Y-8.623 E0.0513
G1 X4.122 Y-9.250 E0.0513
G1 X2.862 Y-9.714 E0.0513
G1 X1.552 Y-10.007 E0.0513
G1 X0.215 Y-10.124 E0.0513
G1 X-1.126 Y-10.064 E0.0513
G1 X-2.447 Y-9.826 E0.0513
G1 X-3.726 Y-9.416 E0.0513
G1 X-4.939 Y-8.841 E0.0513
G1 X-6.066 Y-8.109 E0.0514
G1 X-7.104 Y-7.214 E0.0525
G1 X-7.979 Y-6.235 E0.0502
G1 X-8.734 Y-5.125 E0.0513
G1 X-9.335 Y-3.925 E0.0513
G1 X-9.772 Y-2.656 E0.0513
G1 X-10.038 Y-1.340 E0.0513
G1 X-10.127 Y0.000 E0.0513
G1 X-10.038 Y1.340 E0.0513
G1 X-9.772 Y2.656 E0.0513
G1 X-9.335 Y3.925 E0.0513
G1 X-8.734 Y5.125 E0.0513
G1 X-7.979 Y6.235 E0.0513
G1 X-7.084 Y7.236 E0.0513
G1 X-6.065 Y8.110 E0.0513
G1 X-4.939 Y8.841 E0.0513
G1 X-3.726 Y9.416 E0.0513
G1 X-2.447 Y9.826 E0.0513
G1 X-1.126 Y10.064 E0.0513
G1 X0.215 Y10.124 E0.0513
; feature outer perimeter
G1 X0.205 Y9.663 F9000
G1 X1.482 Y9.551 E0.0490 F1200
G1 X2.732 Y9.271 E0.0490
G1 X3.934 Y8.828 E0.0490
G1 X5.068 Y8.230 E0.0490
G1 X6.112 Y7.488 E0.0490
G1 X7.049 Y6.613 E0.0490
G1 X7.862 Y5.623 E0.0490
G1 X8.536 Y4.534 E0.0490
G1 X9.061 Y3.365 E0.0490
G1 X9.426 Y2.136 E0.0490
G1 X9.666 Y0.620 E0.0587
G1 X7.234 Y0.620 E0.0930
G1 X7.241 Y0.550 E0.0027
G1 X7.241 Y-0.550 E0.0420
G1 X7.234 Y-0.620 E0.0027
G1 X9.666 Y-0.620 E0.0930
G1 X9.426 Y-2.136 E0.0587
G1 X9.061 Y-3.365 E0.0490
G1 X8.536 Y-4.534 E0.0490
G1 X7.862 Y-5.623 E0.0490
G1 X7.049 Y-6.613 E0.0490
G1 X6.112 Y-7.488 E0.0490
G1 X5.068 Y-8.230 E0.0490
G1 X3.934 Y-8.828 E0.0490
G1 X2.732 Y-9.271 E0.0490
G1 X1.482 Y-9.551 E0.0490
G1 X0.205 Y-9.663 E0.0490
G1 X-1.075 Y-9.606 E0.0490
G1 X-2.336 Y-9.379 E0.0490
G1 X-3.556 Y-8.988 E0.0490
G1 X-4.714 Y-8.438 E0.0490
G1 X-5.789 Y-7.740 E0.0490
G1 X-6.781 Y-6.885 E0.0501
G1 X-7.616 Y-5.952 E0.0479
G1 X-8.336 Y-4.892 E0.0490
G1 X-8.910 Y-3.746 E0.0490
G1 X-9.327 Y-2.535 E0.0490
G1 X-9.581 Y-1.279 E0.0490
G1 X-9.665 Y0.000 E0.0490
G1 X-9.581 Y1.279 E0.0490
G1 X-9.327 Y2.535 E0.0490
G1 X-8.910 Y3.746 E0.0490
G1 X-8.336 Y4.892 E0.0490
G1 X-7.616 Y5.952 E0.0490
G1 X-6.762 Y6.907 E0.0490
G1 X-5.789 Y7.740 E0.0490
G1 X-4.714 Y8.438 E0.0490
G1 X-3.556 Y8.988 E0.0490
G1 X-2.336 Y9.379 E0.0490
G1 X-1.075 Y9.606 E0.0490
G1 X0.205 Y9.663 E0.0490
; feature solid layer
G1 X-5.284 Y9.028 F9000
G1 X-1.580 Y12.732 E0.2004 F2400
G1 X-0.875 Y12.786 E0.0271
G1 X-3.987 Y9.674 E0.1684
G1 X-3.853 Y9.738 E0.0057
G1 X-2.999 Y10.012 E0.0343
G1 X-0.186 Y12.825 E0.1522
G1 X0.448 Y12.808 E0.0243
G1 X-2.126 Y10.235 E0.1392
G1 X-1.333 Y10.377 E0.0308
G1 X1.074 Y12.784 E0.1302
G1 X1.650 Y12.709 E0.0222
G1 X-0.628 Y10.432 E0.1232
G1 X0.054 Y10.462 E0.0261
G1 X2.226 Y12.634 E0.1175
G1 X2.301 Y12.625 E0.0029
G1 X2.759 Y12.517 E0.0180
G1 X0.672 Y10.430 E0.1129
G1 X1.270 Y10.378 E0.0230
G1 X3.285 Y12.393 E0.1090
G1 X3.587 Y12.321 E0.0119
G1 X3.793 Y12.250 E0.0083
G1 X1.839 Y10.296 E0.1057
G1 X2.371 Y10.177 E0.0208
G1 X4.275 Y12.082 E0.1030
G1 X4.758 Y11.914 E0.0195
G1 X2.902 Y10.058 E0.1004
G1 X2.960 Y10.045 E0.0023
G1 X3.384 Y9.889 E0.0173
G1 X5.207 Y11.713 E0.0986
G1 X5.650 Y11.505 E0.0187
G1 X3.859 Y9.714 E0.0969
G1 X4.263 Y9.565 E0.0165
G1 X4.327 Y9.531 E0.0028
G1 X6.088 Y11.293 E0.0953
G1 X6.495 Y11.049 E0.0181
G1 X4.753 Y9.307 E0.0942
G1 X5.179 Y9.082 E0.0184
G1 X6.901 Y10.805 E0.0932
G1 X7.164 Y10.647 E0.0117
G1 X7.296 Y10.548 E0.0063
G1 X5.592 Y8.845 E0.0921
G1 X5.973 Y8.575 E0.0178
G1 X7.667 Y10.269 E0.0917
G1 X8.039 Y9.990 E0.0178
G1 X6.353 Y8.304 E0.0912
G1 X6.622 Y8.113 E0.0126
G1 X6.720 Y8.021 E0.0051
G1 X8.393 Y9.694 E0.0905
G1 X8.731 Y9.382 E0.0176
G1 X7.057 Y7.707 E0.0906
G1 X7.393 Y7.393 E0.0176
G1 X9.069 Y9.069 E0.0906
G1 X9.190 Y8.957 E0.0063
G1 X9.385 Y8.735 E0.0113
G1 X7.718 Y7.067 E0.0902
G1 X8.011 Y6.710 E0.0177
G1 X9.689 Y8.388 E0.0908
G1 X9.994 Y8.042 E0.0176
G1 X8.304 Y6.353 E0.0914
G1 X8.518 Y6.092 E0.0129
G1 X8.585 Y5.983 E0.0049
G1 X10.272 Y7.670 E0.0912
G1 X10.542 Y7.289 E0.0178
G1 X8.834 Y5.581 E0.0924
G1 X9.083 Y5.180 E0.0181
G1 X10.812 Y6.909 E0.0935
G1 X10.828 Y6.887 E0.0010
G1 X11.050 Y6.496 E0.0172
G1 X9.316 Y4.762 E0.0938
G1 X9.518 Y4.313 E0.0188
G1 X11.285 Y6.080 E0.0956
G1 X11.479 Y5.737 E0.0151
G1 X11.513 Y5.658 E0.0033
G1 X9.719 Y3.864 E0.0971
G1 X9.817 Y3.645 E0.0092
G1 X9.894 Y3.388 E0.0103
G1 X11.711 Y5.206 E0.0983
G1 X11.909 Y4.753 E0.0189
G1 X10.043 Y2.887 E0.1009
G1 X10.192 Y2.386 E0.0200
G1 X12.087 Y4.280 E0.1025
G1 X12.244 Y3.787 E0.0198
G1 X10.289 Y1.832 E0.1057
G1 X10.378 Y1.271 E0.0218
G1 X12.401 Y3.294 E0.1094
G1 X12.410 Y3.268 E0.0010
G1 X12.516 Y2.758 E0.0199
G1 X10.467 Y0.709 E0.1109
G1 X10.549 Y0.185 E0.0203
G1 X10.594 Y0.185 E0.0017
G1 X12.629 Y2.220 E0.1101
G1 X12.680 Y1.975 E0.0096
G1 X12.713 Y1.654 E0.0123
