; G-Code generated by Simplify3D(R) Version 4.1.2
; Apr 2, 2020 at 2:12:34 PM
; Settings Summary
;   processName,Process1
;   applyToModels,ballBlockV2R1
;   profileName,MakerBot Replicator 2 HBP (modified)
;   profileVersion,2020-03-12 10:48:50
;   baseProfile,MakerBot Replicator 2(2)
;   printMaterial,PLA
;   printQuality,Medium
;   printExtruders,
;   extruderName,Primary Extruder
;   extruderToolheadNumber,0
;   extruderDiameter,0.4
;   extruderAutoWidth,0
;   extruderWidth,0.4
;   extrusionMultiplier,1
;   extruderUseRetract,1
;   extruderRetractionDistance,1.9
;   extruderExtraRestartDistance,0
;   extruderRetractionZLift,0.5
;   extruderRetractionSpeed,1200
;   extruderUseCoasting,0
;   extruderCoastingDistance,0.2
;   extruderUseWipe,0
;   extruderWipeDistance,5
;   primaryExtruder,0
;   layerHeight,0.2
;   topSolidLayers,3
;   bottomSolidLayers,3
;   perimeterOutlines,2
;   printPerimetersInsideOut,1
;   startPointOption,3
;   startPointOriginX,0
;   startPointOriginY,150
;   sequentialIslands,0
;   spiralVaseMode,0
;   firstLayerHeightPercentage,100
;   firstLayerWidthPercentage,115
;   firstLayerUnderspeed,0.5
;   useRaft,0
;   raftExtruder,0
;   raftTopLayers,2
;   raftBaseLayers,1
;   raftOffset,1
;   raftSeparationDistance,0.14
;   raftTopInfill,90
;   aboveRaftSpeedMultiplier,0.3
;   useSkirt,0
;   skirtExtruder,0
;   skirtLayers,1
;   skirtOutlines,5
;   skirtOffset,0
;   usePrimePillar,0
;   primePillarExtruder,999
;   primePillarWidth,12
;   primePillarLocation,7
;   primePillarSpeedMultiplier,1
;   useOozeShield,0
;   oozeShieldExtruder,999
;   oozeShieldOffset,2
;   oozeShieldOutlines,1
;   oozeShieldSidewallShape,1
;   oozeShieldSidewallAngle,30
;   oozeShieldSpeedMultiplier,1
;   infillExtruder,0
;   internalInfillPattern,Rectilinear
;   externalInfillPattern,Rectilinear
;   infillPercentage,15
;   outlineOverlapPercentage,25
;   infillExtrusionWidthPercentage,100
;   minInfillLength,5
;   infillLayerInterval,1
;   internalInfillAngles,45,-45
;   overlapInternalInfillAngles,0
;   externalInfillAngles,45,-45
;   generateSupport,0
;   supportExtruder,0
;   supportInfillPercentage,30
;   supportExtraInflation,0.5
;   supportBaseLayers,0
;   denseSupportExtruder,0
;   denseSupportLayers,2
;   denseSupportInfillPercentage,90
;   supportLayerInterval,1
;   supportHorizontalPartOffset,0.3
;   supportUpperSeparationLayers,1
;   supportLowerSeparationLayers,1
;   supportType,1
;   supportGridSpacing,2
;   maxOverhangAngle,45
;   supportAngles,45,-45
;   temperatureName,Primary Extruder,Heated Build Platform
;   temperatureNumber,0,0
;   temperatureSetpointCount,1,1
;   temperatureSetpointLayers,1,1
;   temperatureSetpointTemperatures,230,60
;   temperatureStabilizeAtStartup,1,1
;   temperatureHeatedBed,0,1
;   fanLayers,1,2
;   fanSpeeds,0,100
;   blipFanToFullPower,1
;   adjustSpeedForCooling,1
;   minSpeedLayerTime,15
;   minCoolingSpeedSlowdown,20
;   increaseFanForCooling,1
;   minFanLayerTime,45
;   maxCoolingFanSpeed,100
;   increaseFanForBridging,1
;   bridgingFanSpeed,100
;   use5D,1
;   relativeEdistances,1
;   allowEaxisZeroing,0
;   independentExtruderAxes,1
;   includeM10123,0
;   stickySupport,1
;   applyToolheadOffsets,0
;   gcodeXoffset,0
;   gcodeYoffset,0
;   gcodeZoffset,0
;   overrideMachineDefinition,1
;   machineTypeOverride,0
;   strokeXoverride,280
;   strokeYoverride,150
;   strokeZoverride,150
;   originOffsetXoverride,140
;   originOffsetYoverride,75
;   originOffsetZoverride,0
;   homeXdirOverride,1
;   homeYdirOverride,1
;   homeZdirOverride,-1
;   flipXoverride,1
;   flipYoverride,-1
;   flipZoverride,1
;   toolheadOffsets,0,0|0,0|0,0|0,0|0,0|0,0
;   overrideFirmwareConfiguration,1
;   firmwareTypeOverride,MakerBot/Sailfish Firmware
;   GPXconfigOverride,r2h
;   baudRateOverride,115200
;   overridePrinterModels,1
;   printerModelsOverride,MakerBot_Replicator2.stl
;   startingGcode,; **** Replicator 2 start.gcode ****,M73 P0 ; enable build progress,G162 X Y F3000 ; home XY maximum,G161 Z F1200 ; home Z minimum,G92 Z-5 ; set Z to -5,G1 Z0 ; move Z to 0,G161 Z F100 ; home Z slowly,M132 X Y Z A B ; recall home offsets,G1 X-145 Y-75 Z30 F9000 ; move to wait position off table,G130 X20 Y20 Z20 A20 B20 ; lower stepper Vrefs while heating,M126 S[fan_speed_pwm],M140 S[bed0_temperature] T0,M134 T0 ; stabilize bed temperature,M104 S[extruder0_temperature] T0,M133 T0 ; stabilize extruder temperature,G130 X127 Y127 Z40 A127 B127 ; default stepper Vrefs,G92 A0 ; zero extruder,G1 Z0.4 ; position nozzle,G1 E25 F300 ; purge nozzle,G1 X-140 Y-70 Z0.15 F1200 ; slow wipe,G1 X-135 Y-65 Z0.5 F1200 ; lift,G92 A0 ; zero extruder,M73 P1 ;@body (notify GPX body has started),; **** end of start.gcode ****
;   layerChangeGcode,
;   retractionGcode,
;   toolChangeGcode,
;   endingGcode,; **** Replicator 2 end.gcode ****,M73 P100 ; end build progress,G1 Z155 F1000 ; send Z axis to bottom of machine,M104 S0 T0 ; cool down extruder,M140 S0 T0 ; cool down HBP,M127 ; stop blower fan,G162 X Y F3000 ; home XY maximum,M18 ; disable stepper,M0 ; stop codes,M72 P1 ; play Ta-Da song,; **** end of end.gcode ****
;   exportFileFormat,gcode
;   celebration,0
;   celebrationSong,Random Song
;   postProcessing,
;   defaultSpeed,4800
;   outlineUnderspeed,0.5
;   solidInfillUnderspeed,1
;   supportUnderspeed,1
;   rapidXYspeed,9000
;   rapidZspeed,1200
;   minBridgingArea,50
;   bridgingExtraInflation,0
;   bridgingExtrusionMultiplier,1
;   bridgingSpeedMultiplier,0.8
;   useFixedBridgingAngle,0
;   fixedBridgingAngle,0
;   applyBridgingToPerimeters,0
;   filamentDiameters,1.75|1.75|1.75|1.75|1.75|1.75
;   filamentPricesPerKg,46|46|46|46|46|46
;   filamentDensities,1.25|1.25|1.25|1.25|1.25|1.25
;   useMinPrintHeight,0
;   minPrintHeight,0
;   useMaxPrintHeight,0
;   maxPrintHeight,4.84
;   useDiaphragm,0
;   diaphragmLayerInterval,20
;   robustSlicing,1
;   mergeAllIntoSolid,0
;   onlyRetractWhenCrossingOutline,0
;   retractBetweenLayers,0
;   useRetractionMinTravel,1
;   retractionMinTravel,7
;   retractWhileWiping,1
;   onlyWipeOutlines,1
;   avoidCrossingOutline,0
;   maxMovementDetourFactor,3
;   toolChangeRetractionDistance,12
;   toolChangeExtraRestartDistance,-0.5
;   toolChangeRetractionSpeed,600
;   externalThinWallType,0
;   internalThinWallType,0
;   thinWallAllowedOverlapPercentage,10
;   singleExtrusionMinLength,1
;   singleExtrusionMinPrintingWidthPercentage,50
;   singleExtrusionMaxPrintingWidthPercentage,200
;   singleExtrusionEndpointExtension,0.2
;   horizontalSizeCompensation,0
G90
M83
; **** Replicator 2 start.gcode ****
M73 P0 ; enable build progress
G162 X Y F3000 ; home XY maximum
G161 Z F1200 ; home Z minimum
G92 Z-5 ; set Z to -5
G1 Z0 ; move Z to 0
G161 Z F100 ; home Z slowly
M132 X Y Z A B ; recall home offsets
G1 X-145 Y-75 Z30 F9000 ; move to wait position off table
G130 X20 Y20 Z20 A20 B20 ; lower stepper Vrefs while heating
M126 S94
M140 S60 T0
M134 T0 ; stabilize bed temperature
M104 S230 T0
M133 T0 ; stabilize extruder temperature
G130 X127 Y127 Z40 A127 B127 ; default stepper Vrefs
G92 A0 ; zero extruder
G1 Z0.4 ; position nozzle
G1 E25 F300 ; purge nozzle
G1 X-140 Y-70 Z0.15 F1200 ; slow wipe
G1 X-135 Y-65 Z0.5 F1200 ; lift
G92 A0 ; zero extruder
M73 P1 ;@body (notify GPX body has started)
; **** end of start.gcode ****
; process Process1
; layer 1, Z = 0.200
M135 T0
G1 E-1.9000 F1200
; feature inner perimeter
; tool H0.200 W0.460
G1 Z0.500 F1200
G1 X3.193 Y14.156 F9000
G1 Z0.200 F1200
G1 E1.9000 F1200
G1 X3.193 Y-14.156 E1.0829 F1800
G1 X10.116 Y-14.156 E0.2648
G1 X9.267 Y-5.618 E0.3282
G1 X8.969 Y-2.013 E0.1384
G1 X8.768 Y0.000 E0.0774
G1 X8.969 Y2.013 E0.0774
G1 X9.267 Y5.618 E0.1384
G1 X10.116 Y14.156 E0.3282
G1 X3.193 Y14.156 E0.2648
; feature outer perimeter
G1 X2.733 Y14.616 F9000
G1 X2.733 Y-14.616 E1.1181 F1200
G1 X10.624 Y-14.616 E0.3018
G1 X9.725 Y-5.577 E0.3474
G1 X9.427 Y-1.971 E0.1384
G1 X9.231 Y0.000 E0.0758
G1 X9.427 Y1.971 E0.0758
G1 X9.725 Y5.577 E0.1384
G1 X10.624 Y14.616 E0.3474
G1 X2.733 Y14.616 E0.3018
; feature solid layer
G1 X3.538 Y13.296 F9000
G1 X4.053 Y13.811 E0.0278 F2400
G1 X4.703 Y13.811 E0.0249
G1 X3.538 Y12.645 E0.0630
G1 X3.538 Y11.995 E0.0249
G1 X5.354 Y13.811 E0.0982
G1 X6.004 Y13.811 E0.0249
G1 X3.538 Y11.344 E0.1334
G1 X3.538 Y10.694 E0.0249
G1 X6.655 Y13.811 E0.1686
G1 X7.305 Y13.811 E0.0249
G1 X3.538 Y10.043 E0.2038
G1 X3.538 Y9.393 E0.0249
G1 X7.956 Y13.811 E0.2390
G1 X8.606 Y13.811 E0.0249
G1 X3.538 Y8.742 E0.2742
G1 X3.538 Y8.092 E0.0249
G1 X9.257 Y13.811 E0.3094
G1 X9.735 Y13.811 E0.0183
G1 X9.716 Y13.619 E0.0074
G1 X3.538 Y7.441 E0.3342
G1 X3.538 Y6.791 E0.0249
G1 X9.644 Y12.896 E0.3303
G1 X9.572 Y12.174 E0.0278
G1 X3.538 Y6.140 E0.3264
G1 X3.538 Y5.490 E0.0249
G1 X9.500 Y11.452 E0.3225
G1 X9.428 Y10.730 E0.0278
G1 X3.538 Y4.839 E0.3186
G1 X3.538 Y4.188 E0.0249
G1 X9.357 Y10.007 E0.3148
G1 X9.285 Y9.285 E0.0278
G1 X3.538 Y3.538 E0.3109
G1 X3.538 Y2.887 E0.0249
G1 X9.213 Y8.563 E0.3070
G1 X9.141 Y7.840 E0.0278
G1 X3.538 Y2.237 E0.3031
G1 X3.538 Y1.586 E0.0249
G1 X9.070 Y7.118 E0.2992
G1 X8.998 Y6.396 E0.0278
G1 X3.538 Y0.936 E0.2953
G1 X3.538 Y0.285 E0.0249
G1 X8.926 Y5.673 E0.2915
G1 X8.924 Y5.650 E0.0009
G1 X8.867 Y4.964 E0.0263
G1 X3.538 Y-0.365 E0.2883
G1 X3.538 Y-1.016 E0.0249
G1 X8.808 Y4.255 E0.2851
G1 X8.750 Y3.545 E0.0272
G1 X3.538 Y-1.666 E0.2819
G1 X3.538 Y-2.317 E0.0249
G1 X8.691 Y2.836 E0.2787
G1 X8.632 Y2.127 E0.0272
G1 X3.538 Y-2.967 E0.2756
G1 X3.538 Y-3.618 E0.0249
G1 X8.562 Y1.406 E0.2718
G1 X8.490 Y0.683 E0.0278
G1 X3.538 Y-4.269 E0.2679
G1 X3.538 Y-4.919 E0.0249
G1 X8.425 Y-0.032 E0.2643
G1 X8.484 Y-0.624 E0.0227
G1 X3.538 Y-5.570 E0.2675
G1 X3.538 Y-6.220 E0.0249
G1 X8.543 Y-1.215 E0.2707
G1 X8.602 Y-1.807 E0.0227
G1 X3.538 Y-6.871 E0.2739
G1 X3.538 Y-7.521 E0.0249
G1 X8.655 Y-2.404 E0.2768
G1 X8.705 Y-3.005 E0.0231
G1 X3.538 Y-8.172 E0.2795
G1 X3.538 Y-8.822 E0.0249
G1 X8.755 Y-3.606 E0.2822
G1 X8.804 Y-4.206 E0.0231
G1 X3.538 Y-9.473 E0.2849
G1 X3.538 Y-10.123 E0.0249
G1 X8.854 Y-4.807 E0.2876
G1 X8.904 Y-5.408 E0.0231
G1 X3.538 Y-10.774 E0.2903
G1 X3.538 Y-11.424 E0.0249
G1 X8.959 Y-6.003 E0.2932
G1 X9.018 Y-6.595 E0.0227
G1 X3.538 Y-12.075 E0.2964
G1 X3.538 Y-12.726 E0.0249
G1 X9.077 Y-7.187 E0.2996
G1 X9.135 Y-7.779 E0.0227
G1 X3.538 Y-13.376 E0.3028
G1 X3.538 Y-13.811 E0.0166
G1 X3.754 Y-13.811 E0.0083
G1 X9.194 Y-8.370 E0.2943
G1 X9.253 Y-8.962 E0.0227
G1 X4.404 Y-13.811 E0.2623
G1 X5.055 Y-13.811 E0.0249
G1 X9.312 Y-9.554 E0.2303
G1 X9.370 Y-10.146 E0.0227
G1 X5.706 Y-13.811 E0.1982
G1 X6.356 Y-13.811 E0.0249
G1 X9.429 Y-10.737 E0.1662
G1 X9.488 Y-11.329 E0.0227
G1 X7.007 Y-13.811 E0.1342
G1 X7.657 Y-13.811 E0.0249
G1 X9.547 Y-11.921 E0.1022
G1 X9.606 Y-12.513 E0.0227
G1 X8.308 Y-13.811 E0.0702
G1 X8.958 Y-13.811 E0.0249
G1 X9.664 Y-13.104 E0.0382
G1 X9.723 Y-13.696 E0.0227
G1 X9.609 Y-13.811 E0.0062
G1 E-1.9000 F1200
; feature inner perimeter
G1 Z0.700 F1200
G1 X-5.053 Y14.156 F9000
G1 Z0.200 F1200
G1 E1.9000 F1200
G1 X-10.188 Y14.156 E0.1964 F1800
G1 X-10.188 Y-14.156 E1.0829
G1 X-5.053 Y-14.156 E0.1964
G1 X-5.053 Y14.156 E1.0829
; feature outer perimeter
G1 X-4.593 Y14.616 F9000
G1 X-10.648 Y14.616 E0.2316 F1200
G1 X-10.648 Y-14.616 E1.1181
G1 X-4.593 Y-14.616 E0.2316
G1 X-4.593 Y14.616 E1.1181
; feature solid layer
G1 X-9.609 Y13.811 F9000
G1 X-9.843 Y13.577 E0.0126 F2400
G1 X-9.843 Y12.926 E0.0249
G1 X-8.958 Y13.811 E0.0478
G1 X-8.308 Y13.811 E0.0249
G1 X-9.843 Y12.276 E0.0830
G1 X-9.843 Y11.625 E0.0249
G1 X-7.657 Y13.811 E0.1182
G1 X-7.007 Y13.811 E0.0249
G1 X-9.843 Y10.975 E0.1534
G1 X-9.843 Y10.324 E0.0249
G1 X-6.356 Y13.811 E0.1886
G1 X-5.706 Y13.811 E0.0249
G1 X-9.843 Y9.674 E0.2238
G1 X-9.843 Y9.023 E0.0249
G1 X-5.398 Y13.468 E0.2404
G1 X-5.398 Y12.817 E0.0249
G1 X-9.843 Y8.373 E0.2404
G1 X-9.843 Y7.722 E0.0249
G1 X-5.398 Y12.167 E0.2404
G1 X-5.398 Y11.516 E0.0249
G1 X-9.843 Y7.071 E0.2404
G1 X-9.843 Y6.421 E0.0249
G1 X-5.398 Y10.866 E0.2404
G1 X-5.398 Y10.215 E0.0249
G1 X-9.843 Y5.770 E0.2404
G1 X-9.843 Y5.120 E0.0249
G1 X-5.398 Y9.565 E0.2404
G1 X-5.398 Y8.914 E0.0249
G1 X-9.843 Y4.469 E0.2404
G1 X-9.843 Y3.819 E0.0249
G1 X-5.398 Y8.264 E0.2404
G1 X-5.398 Y7.613 E0.0249
G1 X-9.843 Y3.168 E0.2404
G1 X-9.843 Y2.518 E0.0249
G1 X-5.398 Y6.963 E0.2404
G1 X-5.398 Y6.312 E0.0249
G1 X-9.843 Y1.867 E0.2404
G1 X-9.843 Y1.217 E0.0249
G1 X-5.398 Y5.662 E0.2404
G1 X-5.398 Y5.011 E0.0249
G1 X-9.843 Y0.566 E0.2404
G1 X-9.843 Y-0.084 E0.0249
G1 X-5.398 Y4.361 E0.2404
G1 X-5.398 Y3.710 E0.0249
G1 X-9.843 Y-0.735 E0.2404
G1 X-9.843 Y-1.386 E0.0249
G1 X-5.398 Y3.059 E0.2404
G1 X-5.398 Y2.409 E0.0249
G1 X-9.843 Y-2.036 E0.2404
G1 X-9.843 Y-2.687 E0.0249
G1 X-5.398 Y1.758 E0.2404
G1 X-5.398 Y1.108 E0.0249
G1 X-9.843 Y-3.337 E0.2404
G1 X-9.843 Y-3.988 E0.0249
G1 X-5.398 Y0.457 E0.2404
G1 X-5.398 Y-0.193 E0.0249
G1 X-9.843 Y-4.638 E0.2404
G1 X-9.843 Y-5.289 E0.0249
G1 X-5.398 Y-0.844 E0.2404
G1 X-5.398 Y-1.494 E0.0249
G1 X-9.843 Y-5.939 E0.2404
G1 X-9.843 Y-6.590 E0.0249
G1 X-5.398 Y-2.145 E0.2404
G1 X-5.398 Y-2.795 E0.0249
G1 X-9.843 Y-7.240 E0.2404
G1 X-9.843 Y-7.891 E0.0249
G1 X-5.398 Y-3.446 E0.2404
G1 X-5.398 Y-4.096 E0.0249
G1 X-9.843 Y-8.541 E0.2404
G1 X-9.843 Y-9.192 E0.0249
G1 X-5.398 Y-4.747 E0.2404
G1 X-5.398 Y-5.398 E0.0249
G1 X-9.843 Y-9.843 E0.2404
G1 X-9.843 Y-10.493 E0.0249
G1 X-5.398 Y-6.048 E0.2404
G1 X-5.398 Y-6.699 E0.0249
G1 X-9.843 Y-11.144 E0.2404
G1 X-9.843 Y-11.794 E0.0249
G1 X-5.398 Y-7.349 E0.2404
G1 X-5.398 Y-8.000 E0.0249
G1 X-9.843 Y-12.445 E0.2404
G1 X-9.843 Y-13.095 E0.0249
G1 X-5.398 Y-8.650 E0.2404
G1 X-5.398 Y-9.301 E0.0249
G1 X-9.843 Y-13.746 E0.2404
G1 X-9.843 Y-13.811 E0.0025
G1 X-9.257 Y-13.811 E0.0224
G1 X-5.398 Y-9.951 E0.2088
G1 X-5.398 Y-10.602 E0.0249
G1 X-8.606 Y-13.811 E0.1736
G1 X-7.956 Y-13.811 E0.0249
G1 X-5.398 Y-11.252 E0.1384
G1 X-5.398 Y-11.903 E0.0249
G1 X-7.305 Y-13.811 E0.1032
G1 X-6.655 Y-13.811 E0.0249
G1 X-5.398 Y-12.553 E0.0680
G1 X-5.398 Y-13.204 E0.0249
G1 X-6.004 Y-13.811 E0.0328
G1 E-1.9000 F1200
; layer 2, Z = 0.400
M126 S255
; feature inner perimeter
; tool H0.200 W0.400
G1 Z0.700 F1200
G1 X-4.963 Y14.246 F9000
G1 Z0.400 F1200
G1 E1.9000 F1200
G1 X-10.278 Y14.246 E0.1768 F3600
G1 X-10.278 Y-14.246 E0.9476
G1 X-4.963 Y-14.246 E0.1768
G1 X-4.963 Y14.246 E0.9476
; feature outer perimeter
G1 X-4.563 Y14.646 F9000
G1 X-10.678 Y14.646 E0.2034 F2400
G1 X-10.678 Y-14.646 E0.9742
G1 X-4.563 Y-14.646 E0.2034
G1 X-4.563 Y14.646 E0.9742
; feature solid layer
G1 X-5.460 Y13.946 F9000
G1 X-5.263 Y13.748 E0.0093 F4800
G1 X-5.263 Y13.182 E0.0188
G1 X-6.026 Y13.946 E0.0359
G1 X-6.592 Y13.946 E0.0188
G1 X-5.263 Y12.617 E0.0625
G1 X-5.263 Y12.051 E0.0188
G1 X-7.157 Y13.946 E0.0891
G1 X-7.723 Y13.946 E0.0188
G1 X-5.263 Y11.485 E0.1157
G1 X-5.263 Y10.919 E0.0188
G1 X-8.289 Y13.946 E0.1423
G1 X-8.854 Y13.946 E0.0188
G1 X-5.263 Y10.354 E0.1689
G1 X-5.263 Y9.788 E0.0188
G1 X-9.420 Y13.946 E0.1956
G1 X-9.978 Y13.946 E0.0185
G1 X-9.978 Y13.937 E0.0003
G1 X-5.263 Y9.222 E0.2218
G1 X-5.263 Y8.657 E0.0188
G1 X-9.978 Y13.372 E0.2218
G1 X-9.978 Y12.806 E0.0188
G1 X-5.263 Y8.091 E0.2218
G1 X-5.263 Y7.525 E0.0188
G1 X-9.978 Y12.240 E0.2218
G1 X-9.978 Y11.675 E0.0188
G1 X-5.263 Y6.960 E0.2218
G1 X-5.263 Y6.394 E0.0188
G1 X-9.978 Y11.109 E0.2218
G1 X-9.978 Y10.543 E0.0188
G1 X-5.263 Y5.828 E0.2218
G1 X-5.263 Y5.263 E0.0188
G1 X-9.978 Y9.978 E0.2218
G1 X-9.978 Y9.412 E0.0188
G1 X-5.263 Y4.697 E0.2218
G1 X-5.263 Y4.131 E0.0188
G1 X-9.978 Y8.846 E0.2218
G1 X-9.978 Y8.281 E0.0188
G1 X-5.263 Y3.566 E0.2218
G1 X-5.263 Y3.000 E0.0188
G1 X-9.978 Y7.715 E0.2218
G1 X-9.978 Y7.149 E0.0188
G1 X-5.263 Y2.434 E0.2218
G1 X-5.263 Y1.868 E0.0188
G1 X-9.978 Y6.583 E0.2218
G1 X-9.978 Y6.018 E0.0188
G1 X-5.263 Y1.303 E0.2218
G1 X-5.263 Y0.737 E0.0188
G1 X-9.978 Y5.452 E0.2218
G1 X-9.978 Y4.886 E0.0188
G1 X-5.263 Y0.171 E0.2218
G1 X-5.263 Y-0.394 E0.0188
G1 X-9.978 Y4.321 E0.2218
G1 X-9.978 Y3.755 E0.0188
G1 X-5.263 Y-0.960 E0.2218
G1 X-5.263 Y-1.526 E0.0188
G1 X-9.978 Y3.189 E0.2218
G1 X-9.978 Y2.624 E0.0188
G1 X-5.263 Y-2.091 E0.2218
G1 X-5.263 Y-2.657 E0.0188
G1 X-9.978 Y2.058 E0.2218
