; G-Code generated by Simplify3D(R) Version 4.1.2
; Apr 2, 2020 at 1:59:44 PM
; Settings Summary
;   processName,Process1
;   applyToModels,Goggles,target
;   profileName,MakerBot Replicator 2 HBP (modified)
;   profileVersion,2020-03-12 10:48:50
;   baseProfile,MakerBot Replicator 2(2)
;   printMaterial,PLA
;   printQuality,Medium
;   printExtruders,
;   extruderName,Primary Extruder
;   extruderToolheadNumber,0
;   extruderDiameter,0.4
;   extruderAutoWidth,0
;   extruderWidth,0.4
;   extrusionMultiplier,1
;   extruderUseRetract,1
;   extruderRetractionDistance,1.9
;   extruderExtraRestartDistance,0
;   extruderRetractionZLift,0.5
;   extruderRetractionSpeed,1200
;   extruderUseCoasting,0
;   extruderCoastingDistance,0.2
;   extruderUseWipe,0
;   extruderWipeDistance,5
;   primaryExtruder,0
;   layerHeight,0.2
;   topSolidLayers,3
;   bottomSolidLayers,3
;   perimeterOutlines,2
;   printPerimetersInsideOut,1
;   startPointOption,3
;   startPointOriginX,0
;   startPointOriginY,150
;   sequentialIslands,0
;   spiralVaseMode,0
;   firstLayerHeightPercentage,100
;   firstLayerWidthPercentage,115
;   firstLayerUnderspeed,0.5
;   useRaft,0
;   raftExtruder,0
;   raftTopLayers,2
;   raftBaseLayers,1
;   raftOffset,1
;   raftSeparationDistance,0.14
;   raftTopInfill,90
;   aboveRaftSpeedMultiplier,0.3
;   useSkirt,0
;   skirtExtruder,0
;   skirtLayers,1
;   skirtOutlines,5
;   skirtOffset,0
;   usePrimePillar,0
;   primePillarExtruder,999
;   primePillarWidth,12
;   primePillarLocation,7
;   primePillarSpeedMultiplier,1
;   useOozeShield,0
;   oozeShieldExtruder,999
;   oozeShieldOffset,2
;   oozeShieldOutlines,1
;   oozeShieldSidewallShape,1
;   oozeShieldSidewallAngle,30
;   oozeShieldSpeedMultiplier,1
;   infillExtruder,0
;   internalInfillPattern,Rectilinear
;   externalInfillPattern,Rectilinear
;   infillPercentage,15
;   outlineOverlapPercentage,25
;   infillExtrusionWidthPercentage,100
;   minInfillLength,5
;   infillLayerInterval,1
;   internalInfillAngles,45,-45
;   overlapInternalInfillAngles,0
;   externalInfillAngles,45,-45
;   generateSupport,1
;   supportExtruder,0
;   supportInfillPercentage,30
;   supportExtraInflation,0.5
;   supportBaseLayers,0
;   denseSupportExtruder,0
;   denseSupportLayers,2
;   denseSupportInfillPercentage,90
;   supportLayerInterval,1
;   supportHorizontalPartOffset,0.3
;   supportUpperSeparationLayers,1
;   supportLowerSeparationLayers,1
;   supportType,1
;   supportGridSpacing,2
;   maxOverhangAngle,45
;   supportAngles,45,-45
;   temperatureName,Primary Extruder,Heated Build Platform
;   temperatureNumber,0,0
;   temperatureSetpointCount,1,1
;   temperatureSetpointLayers,1,1
;   temperatureSetpointTemperatures,230,60
;   temperatureStabilizeAtStartup,1,1
;   temperatureHeatedBed,0,1
;   fanLayers,1,2
;   fanSpeeds,0,100
;   blipFanToFullPower,1
;   adjustSpeedForCooling,1
;   minSpeedLayerTime,15
;   minCoolingSpeedSlowdown,20
;   increaseFanForCooling,1
;   minFanLayerTime,45
;   maxCoolingFanSpeed,100
;   increaseFanForBridging,1
;   bridgingFanSpeed,100
;   use5D,1
;   relativeEdistances,1
;   allowEaxisZeroing,0
;   independentExtruderAxes,1
;   includeM10123,0
;   stickySupport,1
;   applyToolheadOffsets,0
;   gcodeXoffset,0
;   gcodeYoffset,0
;   gcodeZoffset,0
;   overrideMachineDefinition,1
;   machineTypeOverride,0
;   strokeXoverride,280
;   strokeYoverride,150
;   strokeZoverride,150
;   originOffsetXoverride,140
;   originOffsetYoverride,75
;   originOffsetZoverride,0
;   homeXdirOverride,1
;   homeYdirOverride,1
;   homeZdirOverride,-1
;   flipXoverride,1
;   flipYoverride,-1
;   flipZoverride,1
;   toolheadOffsets,0,0|0,0|0,0|0,0|0,0|0,0
;   overrideFirmwareConfiguration,1
;   firmwareTypeOverride,MakerBot/Sailfish Firmware
;   GPXconfigOverride,r2h
;   baudRateOverride,115200
;   overridePrinterModels,1
;   printerModelsOverride,MakerBot_Replicator2.stl
;   startingGcode,; **** Replicator 2 start.gcode ****,M73 P0 ; enable build progress,G162 X Y F3000 ; home XY maximum,G161 Z F1200 ; home Z minimum,G92 Z-5 ; set Z to -5,G1 Z0 ; move Z to 0,G161 Z F100 ; home Z slowly,M132 X Y Z A B ; recall home offsets,G1 X-145 Y-75 Z30 F9000 ; move to wait position off table,G130 X20 Y20 Z20 A20 B20 ; lower stepper Vrefs while heating,M126 S[fan_speed_pwm],M140 S[bed0_temperature] T0,M134 T0 ; stabilize bed temperature,M104 S[extruder0_temperature] T0,M133 T0 ; stabilize extruder temperature,G130 X127 Y127 Z40 A127 B127 ; default stepper Vrefs,G92 A0 ; zero extruder,G1 Z0.4 ; position nozzle,G1 E25 F300 ; purge nozzle,G1 X-140 Y-70 Z0.15 F1200 ; slow wipe,G1 X-135 Y-65 Z0.5 F1200 ; lift,G92 A0 ; zero extruder,M73 P1 ;@body (notify GPX body has started),; **** end of start.gcode ****
;   layerChangeGcode,
;   retractionGcode,
;   toolChangeGcode,
;   endingGcode,; **** Replicator 2 end.gcode ****,M73 P100 ; end build progress,G1 Z155 F1000 ; send Z axis to bottom of machine,M104 S0 T0 ; cool down extruder,M140 S0 T0 ; cool down HBP,M127 ; stop blower fan,G162 X Y F3000 ; home XY maximum,M18 ; disable stepper,M0 ; stop codes,M72 P1 ; play Ta-Da song,; **** end of end.gcode ****
;   exportFileFormat,gcode
;   celebration,0
;   celebrationSong,Random Song
;   postProcessing,
;   defaultSpeed,4800
;   outlineUnderspeed,0.5
;   solidInfillUnderspeed,1
;   supportUnderspeed,1
;   rapidXYspeed,9000
;   rapidZspeed,1200
;   minBridgingArea,50
;   bridgingExtraInflation,0
;   bridgingExtrusionMultiplier,1
;   bridgingSpeedMultiplier,0.8
;   useFixedBridgingAngle,0
;   fixedBridgingAngle,0
;   applyBridgingToPerimeters,0
;   filamentDiameters,1.75|1.75|1.75|1.75|1.75|1.75
;   filamentPricesPerKg,46|46|46|46|46|46
;   filamentDensities,1.25|1.25|1.25|1.25|1.25|1.25
;   useMinPrintHeight,0
;   minPrintHeight,0
;   useMaxPrintHeight,0
;   maxPrintHeight,4.84
;   useDiaphragm,0
;   diaphragmLayerInterval,20
;   robustSlicing,1
;   mergeAllIntoSolid,0
;   onlyRetractWhenCrossingOutline,0
;   retractBetweenLayers,0
;   useRetractionMinTravel,1
;   retractionMinTravel,7
;   retractWhileWiping,1
;   onlyWipeOutlines,1
;   avoidCrossingOutline,0
;   maxMovementDetourFactor,3
;   toolChangeRetractionDistance,12
;   toolChangeExtraRestartDistance,-0.5
;   toolChangeRetractionSpeed,600
;   externalThinWallType,0
;   internalThinWallType,0
;   thinWallAllowedOverlapPercentage,10
;   singleExtrusionMinLength,1
;   singleExtrusionMinPrintingWidthPercentage,50
;   singleExtrusionMaxPrintingWidthPercentage,200
;   singleExtrusionEndpointExtension,0.2
;   horizontalSizeCompensation,0
G90
M83
; **** Replicator 2 start.gcode ****
M73 P0 ; enable build progress
G162 X Y F3000 ; home XY maximum
G161 Z F1200 ; home Z minimum
G92 Z-5 ; set Z to -5
G1 Z0 ; move Z to 0
G161 Z F100 ; home Z slowly
M132 X Y Z A B ; recall home offsets
G1 X-145 Y-75 Z30 F9000 ; move to wait position off table
G130 X20 Y20 Z20 A20 B20 ; lower stepper Vrefs while heating
M127
M140 S60 T0
M134 T0 ; stabilize bed temperature
M104 S230 T0
M133 T0 ; stabilize extruder temperature
G130 X127 Y127 Z40 A127 B127 ; default stepper Vrefs
G92 A0 ; zero extruder
G1 Z0.4 ; position nozzle
G1 E25 F300 ; purge nozzle
G1 X-140 Y-70 Z0.15 F1200 ; slow wipe
G1 X-135 Y-65 Z0.5 F1200 ; lift
G92 A0 ; zero extruder
M73 P1 ;@body (notify GPX body has started)
; **** end of start.gcode ****
; process Process1
; layer 1, Z = 0.200
M135 T0
G1 E-1.9000 F1200
; feature inner perimeter
; tool H0.200 W0.460
G1 Z0.500 F1200
G1 X-0.761 Y2.302 F9000
G1 Z0.200 F1200
G1 E1.9000 F1200
G1 X-38.349 Y2.302 E1.4377 F1800
G1 X-38.349 Y-18.302 E0.7881
G1 X-0.761 Y-18.302 E1.4377
G1 X-0.761 Y2.302 E0.7881
; feature outer perimeter
G1 X-0.301 Y2.762 F9000
G1 X-38.809 Y2.762 E1.4729 F1200
G1 X-38.809 Y-18.762 E0.8232
G1 X-0.301 Y-18.762 E1.4729
G1 X-0.301 Y2.762 E0.8232
G1 E-1.9000 F1200
; feature inner perimeter
G1 Z0.700 F1200
G1 X-3.677 Y-4.079 F9000
G1 Z0.200 F1200
G1 E1.9000 F1200
G1 X-3.115 Y-4.359 E0.0240 F1800
G1 X-2.889 Y-4.502 E0.0102
G1 X-2.670 Y-4.670 E0.0106
G1 X-2.452 Y-4.881 E0.0116
G1 X-2.250 Y-5.139 E0.0125
G1 X-2.073 Y-5.444 E0.0135
G1 X-1.925 Y-5.796 E0.0146
G1 X-1.805 Y-6.196 E0.0160
G1 X-1.713 Y-6.652 E0.0178
G1 X-1.648 Y-7.173 E0.0201
G1 X-1.609 Y-7.767 E0.0228
G1 X-1.597 Y-8.446 E0.0259
G1 X-1.613 Y-9.243 E0.0305
G1 X-1.653 Y-9.549 E0.0118
G1 X-1.749 Y-9.892 E0.0136
G1 X-1.898 Y-10.245 E0.0147
G1 X-2.101 Y-10.605 E0.0158
G1 X-2.363 Y-10.966 E0.0170
G1 X-2.685 Y-11.318 E0.0183
G1 X-3.070 Y-11.652 E0.0195
G1 X-3.521 Y-11.958 E0.0208
G1 X-4.038 Y-12.223 E0.0222
G1 X-4.622 Y-12.439 E0.0238
G1 X-5.273 Y-12.594 E0.0256
G1 X-6.019 Y-12.685 E0.0287
G1 X-6.413 Y-12.656 E0.0151
G1 X-6.933 Y-12.566 E0.0202
G1 X-9.382 Y-12.072 E0.0956
G1 X-10.494 Y-11.867 E0.0433
G1 X-11.745 Y-11.661 E0.0485
G1 X-13.127 Y-11.467 E0.0534
G1 X-14.630 Y-11.295 E0.0579
G1 X-16.246 Y-11.157 E0.0620
G1 X-17.968 Y-11.066 E0.0660
G1 X-19.785 Y-11.033 E0.0695
G1 X-21.681 Y-11.071 E0.0726
G1 X-23.337 Y-11.177 E0.0635
G1 X-24.774 Y-11.337 E0.0553
G1 X-26.015 Y-11.536 E0.0481
G1 X-27.082 Y-11.762 E0.0417
G1 X-27.999 Y-12.002 E0.0362
G1 X-28.790 Y-12.242 E0.0316
G1 X-30.658 Y-12.858 E0.0752
G1 X-31.221 Y-12.987 E0.0221
G1 X-31.756 Y-13.039 E0.0206
G1 X-32.239 Y-13.041 E0.0185
G1 X-33.060 Y-13.012 E0.0314
G1 X-33.455 Y-12.979 E0.0151
G1 X-34.149 Y-12.875 E0.0269
G1 X-34.760 Y-12.707 E0.0242
G1 X-35.058 Y-12.584 E0.0123
G1 X-35.326 Y-12.442 E0.0116
G1 X-35.574 Y-12.273 E0.0115
G1 X-35.787 Y-12.085 E0.0108
G1 X-36.158 Y-11.698 E0.0205
G1 X-36.601 Y-11.188 E0.0258
G1 X-37.068 Y-10.574 E0.0295
G1 X-37.301 Y-10.223 E0.0161
G1 X-37.516 Y-9.857 E0.0163
G1 X-37.711 Y-9.471 E0.0165
G1 X-37.876 Y-9.068 E0.0167
G1 X-38.003 Y-8.645 E0.0169
G1 X-38.082 Y-8.201 E0.0173
G1 X-38.092 Y-7.664 E0.0205
G1 X-38.061 Y-7.348 E0.0121
G1 X-38.004 Y-7.034 E0.0122
G1 X-37.919 Y-6.711 E0.0128
G1 X-37.802 Y-6.384 E0.0133
G1 X-37.650 Y-6.058 E0.0138
G1 X-37.458 Y-5.737 E0.0143
G1 X-37.224 Y-5.429 E0.0148
G1 X-36.945 Y-5.141 E0.0153
G1 X-36.619 Y-4.881 E0.0159
G1 X-36.262 Y-4.666 E0.0159
G1 X-36.010 Y-4.541 E0.0108
G1 X-35.291 Y-4.237 E0.0299
G1 X-34.756 Y-4.062 E0.0215
G1 X-34.198 Y-3.925 E0.0220
G1 X-33.615 Y-3.835 E0.0226
G1 X-33.038 Y-3.804 E0.0221
G1 X-31.453 Y-3.776 E0.0607
G1 X-30.385 Y-3.792 E0.0408
G1 X-29.805 Y-3.824 E0.0222
G1 X-29.214 Y-3.877 E0.0227
G1 X-28.616 Y-3.956 E0.0231
G1 X-28.019 Y-4.067 E0.0232
G1 X-27.432 Y-4.216 E0.0232
G1 X-26.873 Y-4.405 E0.0226
G1 X-25.995 Y-4.762 E0.0363
G1 X-25.195 Y-5.138 E0.0338
G1 X-24.802 Y-5.353 E0.0171
G1 X-24.425 Y-5.586 E0.0170
G1 X-24.056 Y-5.845 E0.0172
G1 X-23.697 Y-6.132 E0.0176
G1 X-23.344 Y-6.451 E0.0182
G1 X-22.999 Y-6.805 E0.0189
G1 X-22.658 Y-7.197 E0.0199
G1 X-22.317 Y-7.635 E0.0212
G1 X-21.683 Y-8.567 E0.0431
G1 X-21.578 Y-8.694 E0.0063
G1 X-21.478 Y-8.790 E0.0053
G1 X-21.371 Y-8.866 E0.0050
G1 X-21.234 Y-8.933 E0.0058
G1 X-21.041 Y-8.995 E0.0077
G1 X-20.774 Y-9.046 E0.0104
G1 X-20.426 Y-9.080 E0.0133
G1 X-18.854 Y-9.091 E0.0602
G1 X-18.281 Y-9.048 E0.0220
G1 X-18.069 Y-9.009 E0.0083
G1 X-17.882 Y-8.952 E0.0075
G1 X-17.723 Y-8.879 E0.0067
G1 X-17.579 Y-8.786 E0.0066
G1 X-17.440 Y-8.661 E0.0072
G1 X-17.303 Y-8.496 E0.0082
G1 X-16.835 Y-7.723 E0.0346
G1 X-16.522 Y-7.259 E0.0214
G1 X-16.103 Y-6.728 E0.0259
G1 X-15.835 Y-6.427 E0.0154
G1 X-15.215 Y-5.808 E0.0335
G1 X-14.429 Y-5.136 E0.0396
G1 X-14.057 Y-4.862 E0.0177
G1 X-13.499 Y-4.506 E0.0253
G1 X-12.778 Y-4.124 E0.0312
G1 X-12.348 Y-3.934 E0.0180
G1 X-11.888 Y-3.759 E0.0188
G1 X-11.395 Y-3.605 E0.0198
G1 X-10.870 Y-3.478 E0.0207
G1 X-10.315 Y-3.387 E0.0215
G1 X-9.742 Y-3.338 E0.0220
G1 X-8.669 Y-3.318 E0.0410
G1 X-7.562 Y-3.347 E0.0423
G1 X-6.931 Y-3.389 E0.0242
G1 X-6.277 Y-3.455 E0.0252
G1 X-5.610 Y-3.551 E0.0258
G1 X-4.945 Y-3.682 E0.0259
G1 X-4.297 Y-3.855 E0.0257
G1 X-3.677 Y-4.079 E0.0252
; feature outer perimeter
G1 X-3.858 Y-4.503 F9000
G1 X-3.341 Y-4.760 E0.0221 F1200
G1 X-3.153 Y-4.879 E0.0085
G1 X-2.971 Y-5.018 E0.0088
G1 X-2.795 Y-5.189 E0.0094
G1 X-2.632 Y-5.398 E0.0101
G1 X-2.485 Y-5.650 E0.0112
G1 X-2.358 Y-5.951 E0.0125
G1 X-2.252 Y-6.307 E0.0142
G1 X-2.168 Y-6.727 E0.0164
G1 X-2.106 Y-7.217 E0.0189
G1 X-2.068 Y-7.787 E0.0218
G1 X-2.057 Y-8.445 E0.0252
G1 X-2.073 Y-9.209 E0.0292
G1 X-2.105 Y-9.457 E0.0096
G1 X-2.184 Y-9.740 E0.0112
G1 X-2.312 Y-10.042 E0.0125
G1 X-2.489 Y-10.356 E0.0138
G1 X-2.720 Y-10.675 E0.0150
G1 X-3.006 Y-10.988 E0.0162
G1 X-3.351 Y-11.287 E0.0174
G1 X-3.756 Y-11.561 E0.0187
G1 X-4.224 Y-11.801 E0.0201
G1 X-4.756 Y-11.998 E0.0217
G1 X-5.354 Y-12.141 E0.0235
G1 X-6.030 Y-12.223 E0.0260
G1 X-6.357 Y-12.199 E0.0125
G1 X-6.848 Y-12.114 E0.0191
G1 X-9.294 Y-11.620 E0.0955
G1 X-10.415 Y-11.414 E0.0436
G1 X-11.676 Y-11.207 E0.0489
G1 X-13.069 Y-11.010 E0.0538
G1 X-14.585 Y-10.837 E0.0584
G1 X-16.215 Y-10.698 E0.0626
G1 X-17.951 Y-10.606 E0.0665
G1 X-19.785 Y-10.573 E0.0702
G1 X-21.700 Y-10.612 E0.0733
G1 X-23.377 Y-10.719 E0.0643
G1 X-24.836 Y-10.881 E0.0562
G1 X-26.099 Y-11.084 E0.0489
G1 X-27.188 Y-11.314 E0.0426
G1 X-28.124 Y-11.559 E0.0370
G1 X-28.929 Y-11.804 E0.0322
G1 X-30.782 Y-12.414 E0.0746
G1 X-31.295 Y-12.532 E0.0201
G1 X-31.779 Y-12.579 E0.0186
G1 X-32.232 Y-12.581 E0.0173
G1 X-33.033 Y-12.553 E0.0307
G1 X-33.401 Y-12.522 E0.0141
G1 X-34.054 Y-12.424 E0.0252
G1 X-34.611 Y-12.271 E0.0221
G1 X-34.862 Y-12.167 E0.0104
G1 X-35.088 Y-12.048 E0.0098
G1 X-35.291 Y-11.909 E0.0094
G1 X-35.468 Y-11.753 E0.0090
G1 X-35.818 Y-11.388 E0.0194
G1 X-36.244 Y-10.897 E0.0248
G1 X-36.693 Y-10.307 E0.0283
G1 X-36.910 Y-9.979 E0.0151
G1 X-37.112 Y-9.636 E0.0152
G1 X-37.292 Y-9.280 E0.0153
G1 X-37.442 Y-8.914 E0.0152
G1 X-37.555 Y-8.539 E0.0150
G1 X-37.622 Y-8.157 E0.0148
G1 X-37.631 Y-7.682 E0.0181
G1 X-37.605 Y-7.411 E0.0104
G1 X-37.555 Y-7.133 E0.0108
G1 X-37.480 Y-6.848 E0.0113
G1 X-37.376 Y-6.560 E0.0117
G1 X-37.243 Y-6.274 E0.0121
G1 X-37.076 Y-5.995 E0.0124
G1 X-36.874 Y-5.729 E0.0128
G1 X-36.635 Y-5.482 E0.0132
G1 X-36.356 Y-5.259 E0.0137
G1 X-36.041 Y-5.070 E0.0140
G1 X-35.818 Y-4.960 E0.0095
G1 X-35.130 Y-4.668 E0.0286
G1 X-34.630 Y-4.504 E0.0201
G1 X-34.108 Y-4.376 E0.0205
G1 X-33.567 Y-4.293 E0.0209
G1 X-33.022 Y-4.264 E0.0209
G1 X-31.452 Y-4.236 E0.0601
G1 X-30.401 Y-4.252 E0.0402
G1 X-29.838 Y-4.283 E0.0216
G1 X-29.265 Y-4.334 E0.0220
G1 X-28.689 Y-4.411 E0.0222
G1 X-28.118 Y-4.517 E0.0222
G1 X-27.562 Y-4.657 E0.0219
G1 X-27.034 Y-4.836 E0.0213
G1 X-26.179 Y-5.184 E0.0353
G1 X-25.403 Y-5.548 E0.0328
G1 X-25.034 Y-5.751 E0.0161
G1 X-24.678 Y-5.971 E0.0160
G1 X-24.332 Y-6.213 E0.0162
G1 X-23.995 Y-6.482 E0.0165
G1 X-23.664 Y-6.782 E0.0171
G1 X-23.337 Y-7.116 E0.0179
G1 X-23.013 Y-7.489 E0.0189
G1 X-22.689 Y-7.906 E0.0202
G1 X-22.051 Y-8.842 E0.0433
G1 X-21.917 Y-9.007 E0.0081
G1 X-21.772 Y-9.146 E0.0077
G1 X-21.607 Y-9.263 E0.0077
G1 X-21.407 Y-9.361 E0.0085
G1 X-21.155 Y-9.442 E0.0101
G1 X-20.839 Y-9.502 E0.0123
G1 X-20.450 Y-9.540 E0.0150
G1 X-18.838 Y-9.551 E0.0616
G1 X-18.222 Y-9.505 E0.0237
G1 X-17.960 Y-9.456 E0.0102
G1 X-17.719 Y-9.383 E0.0096
G1 X-17.500 Y-9.284 E0.0092
G1 X-17.298 Y-9.152 E0.0092
G1 X-17.107 Y-8.980 E0.0098
G1 X-16.927 Y-8.764 E0.0108
G1 X-16.447 Y-7.971 E0.0355
G1 X-16.150 Y-7.531 E0.0203
G1 X-15.750 Y-7.024 E0.0247
G1 X-15.501 Y-6.743 E0.0144
G1 X-14.903 Y-6.146 E0.0323
G1 X-14.142 Y-5.496 E0.0383
G1 X-13.797 Y-5.241 E0.0164
G1 X-13.267 Y-4.904 E0.0240
G1 X-12.577 Y-4.538 E0.0299
G1 X-12.173 Y-4.359 E0.0169
G1 X-11.738 Y-4.194 E0.0178
G1 X-11.272 Y-4.049 E0.0187
G1 X-10.778 Y-3.929 E0.0194
G1 X-10.258 Y-3.843 E0.0202
G1 X-9.718 Y-3.798 E0.0207
G1 X-8.671 Y-3.778 E0.0401
G1 X-7.584 Y-3.807 E0.0416
G1 X-6.970 Y-3.848 E0.0235
G1 X-6.332 Y-3.912 E0.0245
G1 X-5.687 Y-4.004 E0.0249
G1 X-5.049 Y-4.130 E0.0249
G1 X-4.434 Y-4.294 E0.0243
G1 X-3.858 Y-4.503 E0.0234
; feature solid layer
G1 X-1.374 Y-9.831 F9000
G1 X-1.106 Y-9.563 E0.0145 F2400
G1 X-1.106 Y-8.913 E0.0249
G1 X-1.265 Y-9.071 E0.0086
G1 X-1.252 Y-8.446 E0.0239
G1 X-1.252 Y-8.408 E0.0015
G1 X-1.106 Y-8.262 E0.0079
G1 X-1.106 Y-7.612 E0.0249
G1 X-1.264 Y-7.769 E0.0085
G1 X-1.264 Y-7.753 E0.0006
G1 X-1.303 Y-7.158 E0.0228
G1 X-1.106 Y-6.961 E0.0106
G1 X-1.106 Y-6.311 E0.0249
