; G-Code generated by Simplify3D(R) Version 4.1.2
; Apr 2, 2020 at 2:14:34 PM
; Settings Summary
;   processName,Process1
;   applyToModels,obelisk
;   profileName,MakerBot Replicator 2 HBP (modified)
;   profileVersion,2020-03-12 10:48:50
;   baseProfile,MakerBot Replicator 2(2)
;   printMaterial,PLA
;   printQuality,Medium
;   printExtruders,
;   extruderName,Primary Extruder
;   extruderToolheadNumber,0
;   extruderDiameter,0.4
;   extruderAutoWidth,0
;   extruderWidth,0.4
;   extrusionMultiplier,1
;   extruderUseRetract,1
;   extruderRetractionDistance,1.9
;   extruderExtraRestartDistance,0
;   extruderRetractionZLift,0.5
;   extruderRetractionSpeed,1200
;   extruderUseCoasting,0
;   extruderCoastingDistance,0.2
;   extruderUseWipe,0
;   extruderWipeDistance,5
;   primaryExtruder,0
;   layerHeight,0.2
;   topSolidLayers,3
;   bottomSolidLayers,3
;   perimeterOutlines,2
;   printPerimetersInsideOut,1
;   startPointOption,3
;   startPointOriginX,0
;   startPointOriginY,150
;   sequentialIslands,0
;   spiralVaseMode,0
;   firstLayerHeightPercentage,100
;   firstLayerWidthPercentage,115
;   firstLayerUnderspeed,0.5
;   useRaft,0
;   raftExtruder,0
;   raftTopLayers,2
;   raftBaseLayers,1
;   raftOffset,1
;   raftSeparationDistance,0.14
;   raftTopInfill,90
;   aboveRaftSpeedMultiplier,0.3
;   useSkirt,0
;   skirtExtruder,0
;   skirtLayers,1
;   skirtOutlines,5
;   skirtOffset,0
;   usePrimePillar,0
;   primePillarExtruder,999
;   primePillarWidth,12
;   primePillarLocation,7
;   primePillarSpeedMultiplier,1
;   useOozeShield,0
;   oozeShieldExtruder,999
;   oozeShieldOffset,2
;   oozeShieldOutlines,1
;   oozeShieldSidewallShape,1
;   oozeShieldSidewallAngle,30
;   oozeShieldSpeedMultiplier,1
;   infillExtruder,0
;   internalInfillPattern,Rectilinear
;   externalInfillPattern,Rectilinear
;   infillPercentage,15
;   outlineOverlapPercentage,25
;   infillExtrusionWidthPercentage,100
;   minInfillLength,5
;   infillLayerInterval,1
;   internalInfillAngles,45,-45
;   overlapInternalInfillAngles,0
;   externalInfillAngles,45,-45
;   generateSupport,0
;   supportExtruder,0
;   supportInfillPercentage,30
;   supportExtraInflation,0.5
;   supportBaseLayers,0
;   denseSupportExtruder,0
;   denseSupportLayers,2
;   denseSupportInfillPercentage,90
;   supportLayerInterval,1
;   supportHorizontalPartOffset,0.3
;   supportUpperSeparationLayers,1
;   supportLowerSeparationLayers,1
;   supportType,1
;   supportGridSpacing,2
;   maxOverhangAngle,45
;   supportAngles,45,-45
;   temperatureName,Primary Extruder,Heated Build Platform
;   temperatureNumber,0,0
;   temperatureSetpointCount,1,1
;   temperatureSetpointLayers,1,1
;   temperatureSetpointTemperatures,230,60
;   temperatureStabilizeAtStartup,1,1
;   temperatureHeatedBed,0,1
;   fanLayers,1,2
;   fanSpeeds,0,100
;   blipFanToFullPower,1
;   adjustSpeedForCooling,1
;   minSpeedLayerTime,15
;   minCoolingSpeedSlowdown,20
;   increaseFanForCooling,1
;   minFanLayerTime,45
;   maxCoolingFanSpeed,100
;   increaseFanForBridging,1
;   bridgingFanSpeed,100
;   use5D,1
;   relativeEdistances,1
;   allowEaxisZeroing,0
;   independentExtruderAxes,1
;   includeM10123,0
;   stickySupport,1
;   applyToolheadOffsets,0
;   gcodeXoffset,0
;   gcodeYoffset,0
;   gcodeZoffset,0
;   overrideMachineDefinition,1
;   machineTypeOverride,0
;   strokeXoverride,280
;   strokeYoverride,150
;   strokeZoverride,150
;   originOffsetXoverride,140
;   originOffsetYoverride,75
;   originOffsetZoverride,0
;   homeXdirOverride,1
;   homeYdirOverride,1
;   homeZdirOverride,-1
;   flipXoverride,1
;   flipYoverride,-1
;   flipZoverride,1
;   toolheadOffsets,0,0|0,0|0,0|0,0|0,0|0,0
;   overrideFirmwareConfiguration,1
;   firmwareTypeOverride,MakerBot/Sailfish Firmware
;   GPXconfigOverride,r2h
;   baudRateOverride,115200
;   overridePrinterModels,1
;   printerModelsOverride,MakerBot_Replicator2.stl
;   startingGcode,; **** Replicator 2 start.gcode ****,M73 P0 ; enable build progress,G162 X Y F3000 ; home XY maximum,G161 Z F1200 ; home Z minimum,G92 Z-5 ; set Z to -5,G1 Z0 ; move Z to 0,G161 Z F100 ; home Z slowly,M132 X Y Z A B ; recall home offsets,G1 X-145 Y-75 Z30 F9000 ; move to wait position off table,G130 X20 Y20 Z20 A20 B20 ; lower stepper Vrefs while heating,M126 S[fan_speed_pwm],M140 S[bed0_temperature] T0,M134 T0 ; stabilize bed temperature,M104 S[extruder0_temperature] T0,M133 T0 ; stabilize extruder temperature,G130 X127 Y127 Z40 A127 B127 ; default stepper Vrefs,G92 A0 ; zero extruder,G1 Z0.4 ; position nozzle,G1 E25 F300 ; purge nozzle,G1 X-140 Y-70 Z0.15 F1200 ; slow wipe,G1 X-135 Y-65 Z0.5 F1200 ; lift,G92 A0 ; zero extruder,M73 P1 ;@body (notify GPX body has started),; **** end of start.gcode ****
;   layerChangeGcode,
;   retractionGcode,
;   toolChangeGcode,
;   endingGcode,; **** Replicator 2 end.gcode ****,M73 P100 ; end build progress,G1 Z155 F1000 ; send Z axis to bottom of machine,M104 S0 T0 ; cool down extruder,M140 S0 T0 ; cool down HBP,M127 ; stop blower fan,G162 X Y F3000 ; home XY maximum,M18 ; disable stepper,M0 ; stop codes,M72 P1 ; play Ta-Da song,; **** end of end.gcode ****
;   exportFileFormat,gcode
;   celebration,0
;   celebrationSong,Random Song
;   postProcessing,
;   defaultSpeed,4800
;   outlineUnderspeed,0.5
;   solidInfillUnderspeed,1
;   supportUnderspeed,1
;   rapidXYspeed,9000
;   rapidZspeed,1200
;   minBridgingArea,50
;   bridgingExtraInflation,0
;   bridgingExtrusionMultiplier,1
;   bridgingSpeedMultiplier,0.8
;   useFixedBridgingAngle,0
;   fixedBridgingAngle,0
;   applyBridgingToPerimeters,0
;   filamentDiameters,1.75|1.75|1.75|1.75|1.75|1.75
;   filamentPricesPerKg,46|46|46|46|46|46
;   filamentDensities,1.25|1.25|1.25|1.25|1.25|1.25
;   useMinPrintHeight,0
;   minPrintHeight,0
;   useMaxPrintHeight,0
;   maxPrintHeight,4.84
;   useDiaphragm,0
;   diaphragmLayerInterval,20
;   robustSlicing,1
;   mergeAllIntoSolid,0
;   onlyRetractWhenCrossingOutline,0
;   retractBetweenLayers,0
;   useRetractionMinTravel,1
;   retractionMinTravel,7
;   retractWhileWiping,1
;   onlyWipeOutlines,1
;   avoidCrossingOutline,0
;   maxMovementDetourFactor,3
;   toolChangeRetractionDistance,12
;   toolChangeExtraRestartDistance,-0.5
;   toolChangeRetractionSpeed,600
;   externalThinWallType,0
;   internalThinWallType,0
;   thinWallAllowedOverlapPercentage,10
;   singleExtrusionMinLength,1
;   singleExtrusionMinPrintingWidthPercentage,50
;   singleExtrusionMaxPrintingWidthPercentage,200
;   singleExtrusionEndpointExtension,0.2
;   horizontalSizeCompensation,0
G90
M83
; **** Replicator 2 start.gcode ****
M73 P0 ; enable build progress
G162 X Y F3000 ; home XY maximum
G161 Z F1200 ; home Z minimum
G92 Z-5 ; set Z to -5
G1 Z0 ; move Z to 0
G161 Z F100 ; home Z slowly
M132 X Y Z A B ; recall home offsets
G1 X-145 Y-75 Z30 F9000 ; move to wait position off table
G130 X20 Y20 Z20 A20 B20 ; lower stepper Vrefs while heating
M127
M140 S60 T0
M134 T0 ; stabilize bed temperature
M104 S230 T0
M133 T0 ; stabilize extruder temperature
G130 X127 Y127 Z40 A127 B127 ; default stepper Vrefs
G92 A0 ; zero extruder
G1 Z0.4 ; position nozzle
G1 E25 F300 ; purge nozzle
G1 X-140 Y-70 Z0.15 F1200 ; slow wipe
G1 X-135 Y-65 Z0.5 F1200 ; lift
G92 A0 ; zero extruder
M73 P1 ;@body (notify GPX body has started)
; **** end of start.gcode ****
; process Process1
; layer 1, Z = 0.200
M135 T0
G1 E-1.9000 F1200
; feature inner perimeter
; tool H0.200 W0.460
G1 Z0.500 F1200
G1 X20.135 Y38.385 F9000
G1 Z0.200 F1200
G1 E1.9000 F1200
G1 X-20.524 Y38.385 E1.5552 F1800
G1 X-27.684 Y-38.385 E2.9491
G1 X27.680 Y-38.385 E2.1176
G1 X20.135 Y38.385 E2.9505
; feature outer perimeter
G1 X20.552 Y38.845 F9000
G1 X-20.943 Y38.845 E1.5872 F1200
G1 X-28.189 Y-38.845 E2.9844
G1 X28.188 Y-38.845 E2.1564
G1 X20.552 Y38.845 E2.9859
G1 E-1.9000 F1200
; feature solid layer
G1 Z0.700 F1200
G1 X-20.246 Y37.652 F9000
G1 Z0.200 F1200
G1 E1.9000 F1200
G1 X-19.858 Y38.040 E0.0210 F2400
G1 X-19.208 Y38.040 E0.0249
G1 X-20.313 Y36.935 E0.0598
G1 X-20.380 Y36.217 E0.0276
G1 X-18.557 Y38.040 E0.0986
G1 X-17.907 Y38.040 E0.0249
G1 X-20.447 Y35.500 E0.1374
G1 X-20.513 Y34.782 E0.0276
G1 X-17.256 Y38.040 E0.1762
G1 X-16.606 Y38.040 E0.0249
G1 X-20.580 Y34.065 E0.2150
G1 X-20.647 Y33.347 E0.0276
G1 X-15.955 Y38.040 E0.2538
G1 X-15.304 Y38.040 E0.0249
G1 X-20.714 Y32.630 E0.2926
G1 X-20.781 Y31.912 E0.0276
G1 X-14.654 Y38.040 E0.3314
G1 X-14.003 Y38.040 E0.0249
G1 X-20.848 Y31.195 E0.3702
G1 X-20.915 Y30.478 E0.0276
G1 X-13.353 Y38.040 E0.4091
G1 X-12.702 Y38.040 E0.0249
G1 X-20.982 Y29.760 E0.4479
G1 X-21.049 Y29.043 E0.0276
G1 X-12.052 Y38.040 E0.4867
G1 X-11.401 Y38.040 E0.0249
G1 X-21.116 Y28.325 E0.5255
G1 X-21.183 Y27.608 E0.0276
G1 X-10.751 Y38.040 E0.5643
G1 X-10.100 Y38.040 E0.0249
G1 X-21.250 Y26.890 E0.6031
G1 X-21.316 Y26.173 E0.0276
G1 X-9.450 Y38.040 E0.6419
G1 X-8.799 Y38.040 E0.0249
G1 X-21.383 Y25.455 E0.6807
G1 X-21.450 Y24.738 E0.0276
G1 X-8.149 Y38.040 E0.7195
G1 X-7.498 Y38.040 E0.0249
G1 X-21.517 Y24.020 E0.7583
G1 X-21.584 Y23.303 E0.0276
G1 X-6.847 Y38.040 E0.7971
G1 X-6.197 Y38.040 E0.0249
G1 X-21.651 Y22.586 E0.8359
G1 X-21.718 Y21.868 E0.0276
G1 X-5.546 Y38.040 E0.8748
G1 X-4.896 Y38.040 E0.0249
G1 X-21.785 Y21.151 E0.9136
G1 X-21.852 Y20.433 E0.0276
G1 X-4.245 Y38.040 E0.9524
G1 X-3.595 Y38.040 E0.0249
G1 X-21.919 Y19.716 E0.9912
G1 X-21.986 Y18.998 E0.0276
G1 X-2.944 Y38.040 E1.0300
G1 X-2.294 Y38.040 E0.0249
G1 X-22.053 Y18.281 E1.0688
G1 X-22.119 Y17.563 E0.0276
G1 X-1.643 Y38.040 E1.1076
G1 X-0.993 Y38.040 E0.0249
G1 X-22.186 Y16.846 E1.1464
G1 X-22.253 Y16.128 E0.0276
G1 X-0.342 Y38.040 E1.1852
G1 X0.308 Y38.040 E0.0249
G1 X-22.320 Y15.411 E1.2240
G1 X-22.387 Y14.694 E0.0276
G1 X0.959 Y38.040 E1.2628
G1 X1.610 Y38.040 E0.0249
G1 X-22.454 Y13.976 E1.3017
G1 X-22.521 Y13.259 E0.0276
G1 X2.260 Y38.040 E1.3405
G1 X2.911 Y38.040 E0.0249
G1 X-22.588 Y12.541 E1.3793
G1 X-22.655 Y11.824 E0.0276
G1 X3.561 Y38.040 E1.4181
G1 X4.212 Y38.040 E0.0249
G1 X-22.722 Y11.106 E1.4569
G1 X-22.789 Y10.389 E0.0276
G1 X4.862 Y38.040 E1.4957
G1 X5.513 Y38.040 E0.0249
G1 X-22.855 Y9.671 E1.5345
G1 X-22.922 Y8.954 E0.0276
G1 X6.163 Y38.040 E1.5733
G1 X6.814 Y38.040 E0.0249
G1 X-22.989 Y8.237 E1.6121
G1 X-23.056 Y7.519 E0.0276
G1 X7.464 Y38.040 E1.6509
G1 X8.115 Y38.040 E0.0249
G1 X-23.123 Y6.802 E1.6897
G1 X-23.190 Y6.084 E0.0276
G1 X8.765 Y38.040 E1.7286
G1 X9.416 Y38.040 E0.0249
G1 X-23.257 Y5.367 E1.7674
G1 X-23.324 Y4.649 E0.0276
G1 X10.066 Y38.040 E1.8062
G1 X10.717 Y38.040 E0.0249
G1 X-23.391 Y3.932 E1.8450
G1 X-23.458 Y3.214 E0.0276
G1 X11.368 Y38.040 E1.8838
G1 X12.018 Y38.040 E0.0249
G1 X-23.525 Y2.497 E1.9226
G1 X-23.592 Y1.779 E0.0276
G1 X12.669 Y38.040 E1.9614
G1 X13.319 Y38.040 E0.0249
G1 X-23.658 Y1.062 E2.0002
G1 X-23.725 Y0.345 E0.0276
G1 X13.970 Y38.040 E2.0390
G1 X14.620 Y38.040 E0.0249
G1 X-23.792 Y-0.373 E2.0778
G1 X-23.859 Y-1.090 E0.0276
G1 X15.271 Y38.040 E2.1166
G1 X15.921 Y38.040 E0.0249
G1 X-23.926 Y-1.808 E2.1554
G1 X-23.993 Y-2.525 E0.0276
G1 X16.572 Y38.040 E2.1943
G1 X17.222 Y38.040 E0.0249
G1 X-24.060 Y-3.243 E2.2331
G1 X-24.127 Y-3.960 E0.0276
G1 X17.873 Y38.040 E2.2719
G1 X18.523 Y38.040 E0.0249
G1 X-24.194 Y-4.678 E2.3107
G1 X-24.261 Y-5.395 E0.0276
G1 X19.174 Y38.040 E2.3495
G1 X19.823 Y38.040 E0.0248
G1 X-24.328 Y-6.113 E2.3883
G1 X-24.395 Y-6.830 E0.0276
G1 X19.881 Y37.445 E2.3950
G1 X19.939 Y36.853 E0.0228
G1 X-24.461 Y-7.547 E2.4017
G1 X-24.528 Y-8.265 E0.0276
G1 X19.997 Y36.261 E2.4085
G1 X20.056 Y35.669 E0.0228
G1 X-24.595 Y-8.982 E2.4153
G1 X-24.662 Y-9.700 E0.0276
G1 X20.114 Y35.076 E2.4220
G1 X20.172 Y34.484 E0.0228
G1 X-24.729 Y-10.417 E2.4288
G1 X-24.796 Y-11.135 E0.0276
G1 X20.230 Y33.892 E2.4356
G1 X20.288 Y33.299 E0.0228
G1 X-24.863 Y-11.852 E2.4423
G1 X-24.930 Y-12.570 E0.0276
G1 X20.347 Y32.707 E2.4491
G1 X20.405 Y32.115 E0.0228
G1 X-24.997 Y-13.287 E2.4559
G1 X-25.064 Y-14.005 E0.0276
G1 X20.463 Y31.522 E2.4627
G1 X20.521 Y30.930 E0.0228
G1 X-25.131 Y-14.722 E2.4694
G1 X-25.197 Y-15.439 E0.0276
G1 X20.580 Y30.338 E2.4762
G1 X20.638 Y29.745 E0.0228
G1 X-25.264 Y-16.157 E2.4830
G1 X-25.331 Y-16.874 E0.0276
G1 X20.696 Y29.153 E2.4897
G1 X20.754 Y28.561 E0.0228
G1 X-25.398 Y-17.592 E2.4965
G1 X-25.465 Y-18.309 E0.0276
G1 X20.812 Y27.968 E2.5033
G1 X20.871 Y27.376 E0.0228
G1 X-25.532 Y-19.027 E2.5100
G1 X-25.599 Y-19.744 E0.0276
G1 X20.929 Y26.784 E2.5168
G1 X20.987 Y26.191 E0.0228
G1 X-25.666 Y-20.462 E2.5236
G1 X-25.733 Y-21.179 E0.0276
G1 X21.045 Y25.599 E2.5303
G1 X21.103 Y25.007 E0.0228
G1 X-25.800 Y-21.897 E2.5371
G1 X-25.867 Y-22.614 E0.0276
G1 X21.162 Y24.414 E2.5439
G1 X21.220 Y23.822 E0.0228
G1 X-25.934 Y-23.331 E2.5506
G1 X-26.000 Y-24.049 E0.0276
G1 X21.278 Y23.230 E2.5574
G1 X21.336 Y22.637 E0.0228
G1 X-26.067 Y-24.766 E2.5642
G1 X-26.134 Y-25.484 E0.0276
G1 X21.395 Y22.045 E2.5710
G1 X21.453 Y21.453 E0.0228
G1 X-26.201 Y-26.201 E2.5777
G1 X-26.268 Y-26.919 E0.0276
G1 X21.511 Y20.860 E2.5845
G1 X21.569 Y20.268 E0.0228
G1 X-26.335 Y-27.636 E2.5913
G1 X-26.402 Y-28.354 E0.0276
G1 X21.627 Y19.676 E2.5980
G1 X21.686 Y19.083 E0.0228
G1 X-26.469 Y-29.071 E2.6048
G1 X-26.536 Y-29.788 E0.0276
G1 X21.744 Y18.491 E2.6116
G1 X21.802 Y17.899 E0.0228
G1 X-26.603 Y-30.506 E2.6183
G1 X-26.670 Y-31.223 E0.0276
G1 X21.860 Y17.306 E2.6251
G1 X21.918 Y16.714 E0.0228
G1 X-26.737 Y-31.941 E2.6319
G1 X-26.803 Y-32.658 E0.0276
G1 X21.977 Y16.122 E2.6386
G1 X22.035 Y15.529 E0.0228
G1 X-26.870 Y-33.376 E2.6454
G1 X-26.937 Y-34.093 E0.0276
G1 X22.093 Y14.937 E2.6522
G1 X22.151 Y14.345 E0.0228
G1 X-27.004 Y-34.811 E2.6589
G1 X-27.071 Y-35.528 E0.0276
G1 X22.210 Y13.753 E2.6657
G1 X22.268 Y13.160 E0.0228
G1 X-27.138 Y-36.246 E2.6725
G1 X-27.205 Y-36.963 E0.0276
G1 X22.326 Y12.568 E2.6792
G1 X22.384 Y11.976 E0.0228
G1 X-27.272 Y-37.680 E2.6860
G1 X-27.305 Y-38.040 E0.0138
G1 X-26.980 Y-38.040 E0.0124
G1 X22.442 Y11.383 E2.6734
G1 X22.501 Y10.791 E0.0228
G1 X-26.330 Y-38.040 E2.6414
G1 X-25.679 Y-38.040 E0.0249
G1 X22.559 Y10.199 E2.6093
G1 X22.617 Y9.606 E0.0228
G1 X-25.029 Y-38.040 E2.5773
G1 X-24.378 Y-38.040 E0.0249
G1 X22.675 Y9.014 E2.5452
G1 X22.733 Y8.422 E0.0228
G1 X-23.728 Y-38.040 E2.5132
G1 X-23.077 Y-38.040 E0.0249
G1 X22.792 Y7.829 E2.4812
G1 X22.850 Y7.237 E0.0228
G1 X-22.427 Y-38.040 E2.4491
G1 X-21.776 Y-38.040 E0.0249
G1 X22.908 Y6.645 E2.4171
G1 X22.966 Y6.052 E0.0228
G1 X-21.126 Y-38.040 E2.3850
G1 X-20.475 Y-38.040 E0.0249
G1 X23.025 Y5.460 E2.3530
G1 X23.083 Y4.868 E0.0228
G1 X-19.825 Y-38.040 E2.3210
G1 X-19.174 Y-38.040 E0.0249
G1 X23.141 Y4.275 E2.2889
G1 X23.199 Y3.683 E0.0228
G1 X-18.523 Y-38.040 E2.2569
G1 X-17.873 Y-38.040 E0.0249
G1 X23.257 Y3.091 E2.2248
G1 X23.316 Y2.498 E0.0228
G1 X-17.222 Y-38.040 E2.1928
G1 X-16.572 Y-38.040 E0.0249
G1 X23.374 Y1.906 E2.1608
G1 X23.432 Y1.314 E0.0228
G1 X-15.921 Y-38.040 E2.1287
G1 X-15.271 Y-38.040 E0.0249
G1 X23.490 Y0.721 E2.0967
G1 X23.548 Y0.129 E0.0228
G1 X-14.620 Y-38.040 E2.0646
G1 X-13.970 Y-38.040 E0.0249
G1 X23.607 Y-0.463 E2.0326
G1 X23.665 Y-1.056 E0.0228
G1 X-13.319 Y-38.040 E2.0006
G1 X-12.669 Y-38.040 E0.0249
G1 X23.723 Y-1.648 E1.9685
G1 X23.781 Y-2.240 E0.0228
G1 X-12.018 Y-38.040 E1.9365
G1 X-11.368 Y-38.040 E0.0249
G1 X23.840 Y-2.833 E1.9044
G1 X23.898 Y-3.425 E0.0228
G1 X-10.717 Y-38.040 E1.8724
G1 X-10.066 Y-38.040 E0.0249
G1 X23.956 Y-4.017 E1.8404
G1 X24.014 Y-4.610 E0.0228
G1 X-9.416 Y-38.040 E1.8083
G1 X-8.765 Y-38.040 E0.0249
G1 X24.072 Y-5.202 E1.7763
G1 X24.131 Y-5.794 E0.0228
G1 X-8.115 Y-38.040 E1.7442
G1 X-7.464 Y-38.040 E0.0249
G1 X24.189 Y-6.387 E1.7122
G1 X24.247 Y-6.979 E0.0228
G1 X-6.814 Y-38.040 E1.6802
G1 X-6.163 Y-38.040 E0.0249
G1 X24.305 Y-7.571 E1.6481
G1 X24.363 Y-8.163 E0.0228
G1 X-5.513 Y-38.040 E1.6161
G1 X-4.862 Y-38.040 E0.0249
G1 X24.422 Y-8.756 E1.5840
G1 X24.480 Y-9.348 E0.0228
G1 X-4.212 Y-38.040 E1.5520
G1 X-3.561 Y-38.040 E0.0249
G1 X24.538 Y-9.940 E1.5200
G1 X24.596 Y-10.533 E0.0228
G1 X-2.911 Y-38.040 E1.4879
G1 X-2.260 Y-38.040 E0.0249
G1 X24.654 Y-11.125 E1.4559
G1 X24.713 Y-11.717 E0.0228
G1 X-1.609 Y-38.040 E1.4238
G1 X-0.959 Y-38.040 E0.0249
G1 X24.771 Y-12.310 E1.3918
