; G-Code generated by Simplify3D(R) Version 4.1.2
; Apr 2, 2020 at 2:10:29 PM
; Settings Summary
;   processName,Process1
;   applyToModels,obelisk,obeliskFace
;   profileName,MakerBot Replicator 2 HBP (modified)
;   profileVersion,2020-03-12 10:48:50
;   baseProfile,MakerBot Replicator 2(2)
;   printMaterial,PLA
;   printQuality,Medium
;   printExtruders,
;   extruderName,Primary Extruder
;   extruderToolheadNumber,0
;   extruderDiameter,0.4
;   extruderAutoWidth,0
;   extruderWidth,0.4
;   extrusionMultiplier,1
;   extruderUseRetract,1
;   extruderRetractionDistance,1.9
;   extruderExtraRestartDistance,0
;   extruderRetractionZLift,0.5
;   extruderRetractionSpeed,1200
;   extruderUseCoasting,0
;   extruderCoastingDistance,0.2
;   extruderUseWipe,0
;   extruderWipeDistance,5
;   primaryExtruder,0
;   layerHeight,0.2
;   topSolidLayers,3
;   bottomSolidLayers,3
;   perimeterOutlines,2
;   printPerimetersInsideOut,1
;   startPointOption,3
;   startPointOriginX,0
;   startPointOriginY,150
;   sequentialIslands,0
;   spiralVaseMode,0
;   firstLayerHeightPercentage,100
;   firstLayerWidthPercentage,115
;   firstLayerUnderspeed,0.5
;   useRaft,0
;   raftExtruder,0
;   raftTopLayers,2
;   raftBaseLayers,1
;   raftOffset,1
;   raftSeparationDistance,0.14
;   raftTopInfill,90
;   aboveRaftSpeedMultiplier,0.3
;   useSkirt,0
;   skirtExtruder,0
;   skirtLayers,1
;   skirtOutlines,5
;   skirtOffset,0
;   usePrimePillar,0
;   primePillarExtruder,999
;   primePillarWidth,12
;   primePillarLocation,7
;   primePillarSpeedMultiplier,1
;   useOozeShield,0
;   oozeShieldExtruder,999
;   oozeShieldOffset,2
;   oozeShieldOutlines,1
;   oozeShieldSidewallShape,1
;   oozeShieldSidewallAngle,30
;   oozeShieldSpeedMultiplier,1
;   infillExtruder,0
;   internalInfillPattern,Rectilinear
;   externalInfillPattern,Rectilinear
;   infillPercentage,15
;   outlineOverlapPercentage,25
;   infillExtrusionWidthPercentage,100
;   minInfillLength,5
;   infillLayerInterval,1
;   internalInfillAngles,45,-45
;   overlapInternalInfillAngles,0
;   externalInfillAngles,45,-45
;   generateSupport,0
;   supportExtruder,0
;   supportInfillPercentage,30
;   supportExtraInflation,0.5
;   supportBaseLayers,0
;   denseSupportExtruder,0
;   denseSupportLayers,2
;   denseSupportInfillPercentage,90
;   supportLayerInterval,1
;   supportHorizontalPartOffset,0.3
;   supportUpperSeparationLayers,1
;   supportLowerSeparationLayers,1
;   supportType,1
;   supportGridSpacing,2
;   maxOverhangAngle,45
;   supportAngles,45,-45
;   temperatureName,Primary Extruder,Heated Build Platform
;   temperatureNumber,0,0
;   temperatureSetpointCount,1,1
;   temperatureSetpointLayers,1,1
;   temperatureSetpointTemperatures,230,60
;   temperatureStabilizeAtStartup,1,1
;   temperatureHeatedBed,0,1
;   fanLayers,1,2
;   fanSpeeds,0,100
;   blipFanToFullPower,1
;   adjustSpeedForCooling,1
;   minSpeedLayerTime,15
;   minCoolingSpeedSlowdown,20
;   increaseFanForCooling,1
;   minFanLayerTime,45
;   maxCoolingFanSpeed,100
;   increaseFanForBridging,1
;   bridgingFanSpeed,100
;   use5D,1
;   relativeEdistances,1
;   allowEaxisZeroing,0
;   independentExtruderAxes,1
;   includeM10123,0
;   stickySupport,1
;   applyToolheadOffsets,0
;   gcodeXoffset,0
;   gcodeYoffset,0
;   gcodeZoffset,0
;   overrideMachineDefinition,1
;   machineTypeOverride,0
;   strokeXoverride,280
;   strokeYoverride,150
;   strokeZoverride,150
;   originOffsetXoverride,140
;   originOffsetYoverride,75
;   originOffsetZoverride,0
;   homeXdirOverride,1
;   homeYdirOverride,1
;   homeZdirOverride,-1
;   flipXoverride,1
;   flipYoverride,-1
;   flipZoverride,1
;   toolheadOffsets,0,0|0,0|0,0|0,0|0,0|0,0
;   overrideFirmwareConfiguration,1
;   firmwareTypeOverride,MakerBot/Sailfish Firmware
;   GPXconfigOverride,r2h
;   baudRateOverride,115200
;   overridePrinterModels,1
;   printerModelsOverride,MakerBot_Replicator2.stl
;   startingGcode,; **** Replicator 2 start.gcode ****,M73 P0 ; enable build progress,G162 X Y F3000 ; home XY maximum,G161 Z F1200 ; home Z minimum,G92 Z-5 ; set Z to -5,G1 Z0 ; move Z to 0,G161 Z F100 ; home Z slowly,M132 X Y Z A B ; recall home offsets,G1 X-145 Y-75 Z30 F9000 ; move to wait position off table,G130 X20 Y20 Z20 A20 B20 ; lower stepper Vrefs while heating,M126 S[fan_speed_pwm],M140 S[bed0_temperature] T0,M134 T0 ; stabilize bed temperature,M104 S[extruder0_temperature] T0,M133 T0 ; stabilize extruder temperature,G130 X127 Y127 Z40 A127 B127 ; default stepper Vrefs,G92 A0 ; zero extruder,G1 Z0.4 ; position nozzle,G1 E25 F300 ; purge nozzle,G1 X-140 Y-70 Z0.15 F1200 ; slow wipe,G1 X-135 Y-65 Z0.5 F1200 ; lift,G92 A0 ; zero extruder,M73 P1 ;@body (notify GPX body has started),; **** end of start.gcode ****
;   layerChangeGcode,
;   retractionGcode,
;   toolChangeGcode,
;   endingGcode,; **** Replicator 2 end.gcode ****,M73 P100 ; end build progress,G1 Z155 F1000 ; send Z axis to bottom of machine,M104 S0 T0 ; cool down extruder,M140 S0 T0 ; cool down HBP,M127 ; stop blower fan,G162 X Y F3000 ; home XY maximum,M18 ; disable stepper,M0 ; stop codes,M72 P1 ; play Ta-Da song,; **** end of end.gcode ****
;   exportFileFormat,gcode
;   celebration,0
;   celebrationSong,Random Song
;   postProcessing,
;   defaultSpeed,4800
;   outlineUnderspeed,0.5
;   solidInfillUnderspeed,1
;   supportUnderspeed,1
;   rapidXYspeed,9000
;   rapidZspeed,1200
;   minBridgingArea,50
;   bridgingExtraInflation,0
;   bridgingExtrusionMultiplier,1
;   bridgingSpeedMultiplier,0.8
;   useFixedBridgingAngle,0
;   fixedBridgingAngle,0
;   applyBridgingToPerimeters,0
;   filamentDiameters,1.75|1.75|1.75|1.75|1.75|1.75
;   filamentPricesPerKg,46|46|46|46|46|46
;   filamentDensities,1.25|1.25|1.25|1.25|1.25|1.25
;   useMinPrintHeight,0
;   minPrintHeight,0
;   useMaxPrintHeight,0
;   maxPrintHeight,4.84
;   useDiaphragm,0
;   diaphragmLayerInterval,20
;   robustSlicing,1
;   mergeAllIntoSolid,0
;   onlyRetractWhenCrossingOutline,0
;   retractBetweenLayers,0
;   useRetractionMinTravel,1
;   retractionMinTravel,7
;   retractWhileWiping,1
;   onlyWipeOutlines,1
;   avoidCrossingOutline,0
;   maxMovementDetourFactor,3
;   toolChangeRetractionDistance,12
;   toolChangeExtraRestartDistance,-0.5
;   toolChangeRetractionSpeed,600
;   externalThinWallType,0
;   internalThinWallType,0
;   thinWallAllowedOverlapPercentage,10
;   singleExtrusionMinLength,1
;   singleExtrusionMinPrintingWidthPercentage,50
;   singleExtrusionMaxPrintingWidthPercentage,200
;   singleExtrusionEndpointExtension,0.2
;   horizontalSizeCompensation,0
G90
M83
; **** Replicator 2 start.gcode ****
M73 P0 ; enable build progress
G162 X Y F3000 ; home XY maximum
G161 Z F1200 ; home Z minimum
G92 Z-5 ; set Z to -5
G1 Z0 ; move Z to 0
G161 Z F100 ; home Z slowly
M132 X Y Z A B ; recall home offsets
G1 X-145 Y-75 Z30 F9000 ; move to wait position off table
G130 X20 Y20 Z20 A20 B20 ; lower stepper Vrefs while heating
M127
M140 S60 T0
M134 T0 ; stabilize bed temperature
M104 S230 T0
M133 T0 ; stabilize extruder temperature
G130 X127 Y127 Z40 A127 B127 ; default stepper Vrefs
G92 A0 ; zero extruder
G1 Z0.4 ; position nozzle
G1 E25 F300 ; purge nozzle
G1 X-140 Y-70 Z0.15 F1200 ; slow wipe
G1 X-135 Y-65 Z0.5 F1200 ; lift
G92 A0 ; zero extruder
M73 P1 ;@body (notify GPX body has started)
; **** end of start.gcode ****
; process Process1
; layer 1, Z = 0.200
M135 T0
G1 E-1.9000 F1200
; feature inner perimeter
; tool H0.200 W0.460
G1 Z0.500 F1200
G1 X14.447 Y12.411 F9000
G1 Z0.200 F1200
G1 E1.9000 F1200
G1 X14.289 Y7.588 E0.1846 F1800
G1 X15.931 Y10.323 E0.1220
G1 X14.447 Y12.411 E0.0980
G1 X19.487 Y8.999 F9000
G1 X18.880 Y8.051 E0.0431 F1800
G1 X19.345 Y7.726 E0.0217
G1 X20.541 Y7.726 E0.0457
G1 X21.680 Y8.841 E0.0610
G1 X19.487 Y8.999 E0.0841
G1 E-1.9000 F1200
G1 Z0.700 F1200
G1 X40.203 Y8.669 F9000
G1 Z0.200 F1200
G1 E1.9000 F1200
G1 X41.342 Y7.553 E0.0610 F1800
G1 X42.538 Y7.553 E0.0457
G1 X43.003 Y7.879 E0.0217
G1 X42.395 Y8.827 E0.0431
G1 X40.203 Y8.669 E0.0841
G1 X45.951 Y10.150 F9000
G1 X47.599 Y7.406 E0.1224 F1800
G1 X47.441 Y12.246 E0.1852
G1 X45.951 Y10.150 E0.0983
G1 E-1.9000 F1200
G1 Z0.700 F1200
G1 X50.199 Y37.484 F9000
G1 Z0.200 F1200
G1 E1.9000 F1200
G1 X11.683 Y37.484 E1.4732 F1800
G1 X4.302 Y-38.384 E2.9156
G1 X57.581 Y-38.384 E2.0379
G1 X50.199 Y37.484 E2.9156
; feature outer perimeter
G1 X50.617 Y37.944 F9000
G1 X11.266 Y37.944 E1.5051 F1200
G1 X3.795 Y-38.844 E2.9509
G1 X58.088 Y-38.844 E2.0767
G1 X50.617 Y37.944 E2.9509
G1 X49.561 Y35.182 F9000
G1 X51.458 Y-23.077 E2.2295 F1200
G1 X48.999 Y-21.386 E0.1141
G1 X47.617 Y20.962 E1.6206
G1 X37.036 Y19.212 E0.4102
G1 X36.556 Y35.265 E0.6143
G1 X39.072 Y35.265 E0.0962
G1 X39.411 Y21.271 E0.5354
G1 X47.565 Y22.704 E0.3167
G1 X47.121 Y35.182 E0.4776
G1 X49.561 Y35.182 E0.0933
; feature inner perimeter
G1 X50.006 Y35.642 F9000
G1 X51.947 Y-23.972 E2.2814 F1800
G1 X48.547 Y-21.633 E0.1578
G1 X47.601 Y7.353 E1.1093
G1 X44.475 Y4.526 E0.1612
G1 X39.809 Y4.307 E0.1787
G1 X36.733 Y8.169 E0.1889
G1 X37.458 Y8.472 E0.0301
G1 X36.333 Y8.392 E0.0431
G1 X36.416 Y-2.072 E0.4002
G1 X32.747 Y-3.710 E0.1537
G1 X32.695 Y35.321 E1.4929
G1 X36.044 Y35.321 E0.1281
G1 X36.319 Y12.003 E0.8919
G1 X47.426 Y12.728 E0.4257
G1 X47.175 Y20.423 E0.2945
G1 X36.591 Y18.673 E0.4103
G1 X36.082 Y35.725 E0.6525
G1 X39.521 Y35.725 E0.1315
G1 X39.858 Y21.817 E0.5322
G1 X47.091 Y23.087 E0.2809
G1 X46.644 Y35.642 E0.4805
G1 X50.006 Y35.642 E0.1286
G1 E-1.9000 F1200
; feature outer perimeter
G1 Z0.700 F1200
G1 X35.589 Y34.861 F9000
G1 Z0.200 F1200
G1 E1.9000 F1200
G1 X35.865 Y11.513 E0.8931 F1200
G1 X46.866 Y12.231 E0.4217
G1 X45.402 Y10.172 E0.0966
G1 X47.032 Y7.458 E0.1211
G1 X44.288 Y4.978 E0.1414
G1 X40.022 Y4.777 E0.1634
G1 X37.472 Y7.979 E0.1566
G1 X39.418 Y8.794 E0.0807
G1 X41.154 Y7.093 E0.0930
G1 X42.683 Y7.093 E0.0585
G1 X43.628 Y7.755 E0.0441
G1 X42.635 Y9.305 E0.0704
G1 X35.870 Y8.820 E0.2594
G1 X35.954 Y-1.774 E0.4052
G1 X33.206 Y-3.001 E0.1151
G1 X33.155 Y34.861 E1.4482
G1 X35.589 Y34.861 E0.0931
; feature inner perimeter
G1 X32.271 Y36.881 F9000
G1 X32.271 Y-36.176 E2.7944 F1800
G1 X29.556 Y-36.176 E0.1039
G1 X29.556 Y36.881 E2.7944
G1 X32.271 Y36.881 E0.1039
; feature outer perimeter
G1 X31.811 Y36.421 F9000
G1 X31.811 Y-35.716 E2.7592 F1200
G1 X30.016 Y-35.716 E0.0687
G1 X30.016 Y36.421 E2.7592
G1 X31.811 Y36.421 E0.0687
; feature inner perimeter
G1 X29.188 Y35.493 F9000
G1 X29.136 Y-3.538 E1.4929 F1800
G1 X25.466 Y-1.899 E0.1537
G1 X25.550 Y8.564 E0.4002
G1 X24.425 Y8.644 E0.0431
G1 X25.150 Y8.341 E0.0301
G1 X22.074 Y4.479 E0.1889
G1 X17.408 Y4.698 E0.1787
G1 X14.287 Y7.520 E0.1609
G1 X13.335 Y-21.633 E1.1157
G1 X9.935 Y-23.972 E0.1578
G1 X11.877 Y35.642 E2.2814
G1 X15.238 Y35.642 E0.1286
G1 X14.792 Y23.087 E0.4805
G1 X22.025 Y21.817 E0.2809
G1 X22.362 Y35.725 E0.5322
G1 X25.801 Y35.725 E0.1315
G1 X25.291 Y18.673 E0.6525
G1 X14.708 Y20.423 E0.4103
G1 X14.463 Y12.900 E0.2879
G1 X25.563 Y12.176 E0.4255
G1 X25.839 Y35.493 E0.8919
G1 X29.188 Y35.493 E0.1281
; feature outer perimeter
G1 X28.728 Y35.033 F9000
G1 X28.677 Y-2.829 E1.4482 F1200
G1 X25.929 Y-1.602 E0.1151
G1 X26.013 Y8.992 E0.4052
G1 X19.248 Y9.477 E0.2594
G1 X18.254 Y7.927 E0.0704
G1 X19.200 Y7.266 E0.0441
G1 X20.728 Y7.266 E0.0585
G1 X22.465 Y8.966 E0.0930
G1 X24.411 Y8.152 E0.0807
G1 X21.861 Y4.949 E0.1566
G1 X17.594 Y5.150 E0.1634
G1 X14.851 Y7.630 E0.1414
G1 X16.481 Y10.344 E0.1211
G1 X15.017 Y12.403 E0.0966
G1 X26.018 Y11.685 E0.4217
G1 X26.294 Y35.033 E0.8931
G1 X28.728 Y35.033 E0.0931
G1 X25.327 Y35.265 F9000
G1 X24.847 Y19.212 E0.6143 F1200
G1 X14.266 Y20.962 E0.4102
G1 X12.883 Y-21.386 E1.6206
G1 X10.425 Y-23.077 E0.1141
G1 X12.322 Y35.182 E2.2295
G1 X14.762 Y35.182 E0.0933
G1 X14.318 Y22.704 E0.4776
G1 X22.472 Y21.271 E0.3167
G1 X22.811 Y35.265 E0.5354
G1 X25.327 Y35.265 E0.0962
G1 E-1.9000 F1200
; feature inner perimeter
G1 Z0.700 F1200
G1 X19.157 Y0.994 F9000
G1 Z0.200 F1200
G1 E1.9000 F1200
G1 X29.381 Y-4.565 E0.4451 F1800
G1 X29.342 Y-8.578 E0.1535
G1 X22.767 Y-5.514 E0.2775
G1 X22.267 Y-31.512 E0.9946
G1 X24.800 Y-32.577 E0.1051
G1 X24.705 Y-36.285 E0.1419
G1 X18.163 Y-34.101 E0.2638
G1 X18.516 Y-13.910 E0.7724
G1 X15.274 Y-12.667 E0.1328
G1 X15.375 Y-9.365 E0.1263
G1 X18.642 Y-10.376 E0.1308
G1 X18.642 Y-10.297 E0.0030
G1 X13.876 Y-8.657 E0.1928
G1 X13.876 Y-5.366 E0.1259
G1 X18.853 Y-6.661 E0.1967
G1 X19.157 Y0.994 E0.2930
; feature outer perimeter
G1 X19.588 Y0.237 F9000
G1 X28.918 Y-4.837 E0.4063 F1200
G1 X28.889 Y-7.859 E0.1156
G1 X22.320 Y-4.799 E0.2772
G1 X21.801 Y-31.815 E1.0335
G1 X24.332 Y-32.879 E0.1050
G1 X24.261 Y-35.652 E0.1061
G1 X18.628 Y-33.771 E0.2271
G1 X18.982 Y-13.596 E0.7718
G1 X15.743 Y-12.354 E0.1327
G1 X15.817 Y-9.983 E0.0907
G1 X19.102 Y-11.000 E0.1315
G1 X19.102 Y-9.969 E0.0394
G1 X14.336 Y-8.329 E0.1928
G1 X14.336 Y-5.961 E0.0906
G1 X19.290 Y-7.250 E0.1958
G1 X19.588 Y0.237 E0.2866
G1 E-1.9000 F1200
; feature inner perimeter
G1 Z0.700 F1200
G1 X32.502 Y-4.565 F9000
G1 Z0.200 F1200
G1 E1.9000 F1200
G1 X42.725 Y0.994 E0.4451 F1800
G1 X43.030 Y-6.661 E0.2930
G1 X48.007 Y-5.366 E0.1967
G1 X48.007 Y-8.657 E0.1259
G1 X43.241 Y-10.297 E0.1928
G1 X43.241 Y-10.376 E0.0030
G1 X46.507 Y-9.365 E0.1308
G1 X46.609 Y-12.667 E0.1263
G1 X43.367 Y-13.910 E0.1328
G1 X43.720 Y-34.101 E0.7724
G1 X37.178 Y-36.285 E0.2638
G1 X37.083 Y-32.577 E0.1419
G1 X39.616 Y-31.512 E0.1051
G1 X39.116 Y-5.514 E0.9946
G1 X32.540 Y-8.578 E0.2775
G1 X32.502 Y-4.565 E0.1535
; feature outer perimeter
G1 X32.964 Y-4.837 F9000
G1 X42.295 Y0.237 E0.4063 F1200
G1 X42.593 Y-7.250 E0.2866
G1 X47.547 Y-5.961 E0.1958
G1 X47.547 Y-8.329 E0.0906
G1 X42.781 Y-9.969 E0.1928
G1 X42.781 Y-11.000 E0.0394
G1 X46.066 Y-9.983 E0.1315
G1 X46.139 Y-12.354 E0.0907
G1 X42.901 Y-13.596 E0.1327
G1 X43.254 Y-33.771 E0.7718
G1 X37.622 Y-35.652 E0.2271
G1 X37.551 Y-32.879 E0.1061
G1 X40.082 Y-31.815 E0.1050
G1 X39.562 Y-4.799 E1.0335
G1 X32.994 Y-7.859 E0.2772
G1 X32.964 Y-4.837 E0.1156
; feature solid layer
G1 X29.137 Y-4.040 F9000
G1 X29.211 Y-3.967 E0.0040 F2400
G1 X29.211 Y-3.949 E0.0007
G1 X28.773 Y-3.754 E0.0183
G1 X28.716 Y-3.811 E0.0031
G1 X28.295 Y-3.582 E0.0183
G1 X28.324 Y-3.553 E0.0016
G1 X27.873 Y-3.353 E0.0189
G1 X24.924 Y-1.749 F9000
G1 X25.124 Y-1.548 E0.0109 F2400
G1 X25.129 Y-0.892 E0.0251
G1 X24.502 Y-1.519 E0.0339
G1 X24.081 Y-1.290 E0.0183
G1 X25.135 Y-0.236 E0.0570
G1 X25.140 Y0.419 E0.0251
G1 X23.659 Y-1.061 E0.0801
G1 X23.238 Y-0.832 E0.0183
G1 X25.145 Y1.075 E0.1032
G1 X25.150 Y1.731 E0.0251
G1 X22.817 Y-0.603 E0.1262
G1 X22.395 Y-0.374 E0.0183
G1 X25.155 Y2.387 E0.1493
G1 X25.161 Y3.042 E0.0251
G1 X21.974 Y-0.144 E0.1724
G1 X21.552 Y0.085 E0.0183
G1 X25.166 Y3.698 E0.1955
G1 X25.171 Y4.354 E0.0251
G1 X21.131 Y0.314 E0.2185
G1 X20.710 Y0.543 E0.0183
G1 X25.176 Y5.010 E0.2416
G1 X25.182 Y5.665 E0.0251
G1 X20.288 Y0.772 E0.2647
G1 X19.867 Y1.001 E0.0183
G1 X25.187 Y6.321 E0.2878
G1 X25.192 Y6.977 E0.0251
G1 X19.445 Y1.230 E0.3108
G1 X19.024 Y1.460 E0.0183
G1 X21.715 Y4.150 E0.1455
G1 X21.094 Y4.180 E0.0238
G1 X14.302 Y-2.612 E0.3674
G1 X14.280 Y-3.285 E0.0257
G1 X18.823 Y1.258 E0.2457
G1 X18.796 Y0.581 E0.0259
G1 X14.258 Y-3.957 E0.2455
G1 X14.236 Y-4.630 E0.0257
G1 X18.769 Y-0.097 E0.2452
G1 X18.742 Y-0.774 E0.0259
G1 X14.376 Y-5.140 E0.2361
G1 X14.893 Y-5.274 E0.0204
G1 X18.715 Y-1.452 E0.2068
G1 X18.688 Y-2.129 E0.0259
G1 X15.409 Y-5.408 E0.1774
G1 X15.925 Y-5.543 E0.0204
G1 X18.661 Y-2.807 E0.1480
G1 X18.634 Y-3.484 E0.0259
G1 X16.441 Y-5.677 E0.1186
G1 X16.958 Y-5.811 E0.0204
G1 X18.607 Y-4.162 E0.0892
G1 X18.580 Y-4.839 E0.0259
G1 X17.474 Y-5.945 E0.0598
G1 X17.990 Y-6.080 E0.0204
G1 X18.553 Y-5.517 E0.0305
G1 X18.526 Y-6.194 E0.0259
G1 X18.506 Y-6.214 E0.0011
G1 X23.099 Y-6.175 F9000
G1 X23.185 Y-6.090 E0.0046 F2400
G1 X23.628 Y-6.296 E0.0187
G1 X23.086 Y-6.838 E0.0293
G1 X23.074 Y-7.502 E0.0254
G1 X24.072 Y-6.503 E0.0540
G1 X24.516 Y-6.710 E0.0187
G1 X23.061 Y-8.165 E0.0787
G1 X23.048 Y-8.828 E0.0254
G1 X24.960 Y-6.917 E0.1034
G1 X25.404 Y-7.123 E0.0187
G1 X23.035 Y-9.492 E0.1281
G1 X23.023 Y-10.155 E0.0254
G1 X25.847 Y-7.330 E0.1528
