; G-Code generated by Simplify3D(R) Version 4.1.2
; Apr 2, 2020 at 2:14:09 PM
; Settings Summary
;   processName,Process1
;   applyToModels,obeliskFace
;   profileName,MakerBot Replicator 2 HBP (modified)
;   profileVersion,2020-03-12 10:48:50
;   baseProfile,MakerBot Replicator 2(2)
;   printMaterial,PLA
;   printQuality,Medium
;   printExtruders,
;   extruderName,Primary Extruder
;   extruderToolheadNumber,0
;   extruderDiameter,0.4
;   extruderAutoWidth,0
;   extruderWidth,0.4
;   extrusionMultiplier,1
;   extruderUseRetract,1
;   extruderRetractionDistance,1.9
;   extruderExtraRestartDistance,0
;   extruderRetractionZLift,0.5
;   extruderRetractionSpeed,1200
;   extruderUseCoasting,0
;   extruderCoastingDistance,0.2
;   extruderUseWipe,0
;   extruderWipeDistance,5
;   primaryExtruder,0
;   layerHeight,0.2
;   topSolidLayers,3
;   bottomSolidLayers,3
;   perimeterOutlines,2
;   printPerimetersInsideOut,1
;   startPointOption,3
;   startPointOriginX,0
;   startPointOriginY,150
;   sequentialIslands,0
;   spiralVaseMode,0
;   firstLayerHeightPercentage,100
;   firstLayerWidthPercentage,115
;   firstLayerUnderspeed,0.5
;   useRaft,0
;   raftExtruder,0
;   raftTopLayers,2
;   raftBaseLayers,1
;   raftOffset,1
;   raftSeparationDistance,0.14
;   raftTopInfill,90
;   aboveRaftSpeedMultiplier,0.3
;   useSkirt,0
;   skirtExtruder,0
;   skirtLayers,1
;   skirtOutlines,5
;   skirtOffset,0
;   usePrimePillar,0
;   primePillarExtruder,999
;   primePillarWidth,12
;   primePillarLocation,7
;   primePillarSpeedMultiplier,1
;   useOozeShield,0
;   oozeShieldExtruder,999
;   oozeShieldOffset,2
;   oozeShieldOutlines,1
;   oozeShieldSidewallShape,1
;   oozeShieldSidewallAngle,30
;   oozeShieldSpeedMultiplier,1
;   infillExtruder,0
;   internalInfillPattern,Rectilinear
;   externalInfillPattern,Rectilinear
;   infillPercentage,15
;   outlineOverlapPercentage,25
;   infillExtrusionWidthPercentage,100
;   minInfillLength,5
;   infillLayerInterval,1
;   internalInfillAngles,45,-45
;   overlapInternalInfillAngles,0
;   externalInfillAngles,45,-45
;   generateSupport,0
;   supportExtruder,0
;   supportInfillPercentage,30
;   supportExtraInflation,0.5
;   supportBaseLayers,0
;   denseSupportExtruder,0
;   denseSupportLayers,2
;   denseSupportInfillPercentage,90
;   supportLayerInterval,1
;   supportHorizontalPartOffset,0.3
;   supportUpperSeparationLayers,1
;   supportLowerSeparationLayers,1
;   supportType,1
;   supportGridSpacing,2
;   maxOverhangAngle,45
;   supportAngles,45,-45
;   temperatureName,Primary Extruder,Heated Build Platform
;   temperatureNumber,0,0
;   temperatureSetpointCount,1,1
;   temperatureSetpointLayers,1,1
;   temperatureSetpointTemperatures,230,60
;   temperatureStabilizeAtStartup,1,1
;   temperatureHeatedBed,0,1
;   fanLayers,1,2
;   fanSpeeds,0,100
;   blipFanToFullPower,1
;   adjustSpeedForCooling,1
;   minSpeedLayerTime,15
;   minCoolingSpeedSlowdown,20
;   increaseFanForCooling,1
;   minFanLayerTime,45
;   maxCoolingFanSpeed,100
;   increaseFanForBridging,1
;   bridgingFanSpeed,100
;   use5D,1
;   relativeEdistances,1
;   allowEaxisZeroing,0
;   independentExtruderAxes,1
;   includeM10123,0
;   stickySupport,1
;   applyToolheadOffsets,0
;   gcodeXoffset,0
;   gcodeYoffset,0
;   gcodeZoffset,0
;   overrideMachineDefinition,1
;   machineTypeOverride,0
;   strokeXoverride,280
;   strokeYoverride,150
;   strokeZoverride,150
;   originOffsetXoverride,140
;   originOffsetYoverride,75
;   originOffsetZoverride,0
;   homeXdirOverride,1
;   homeYdirOverride,1
;   homeZdirOverride,-1
;   flipXoverride,1
;   flipYoverride,-1
;   flipZoverride,1
;   toolheadOffsets,0,0|0,0|0,0|0,0|0,0|0,0
;   overrideFirmwareConfiguration,1
;   firmwareTypeOverride,MakerBot/Sailfish Firmware
;   GPXconfigOverride,r2h
;   baudRateOverride,115200
;   overridePrinterModels,1
;   printerModelsOverride,MakerBot_Replicator2.stl
;   startingGcode,; **** Replicator 2 start.gcode ****,M73 P0 ; enable build progress,G162 X Y F3000 ; home XY maximum,G161 Z F1200 ; home Z minimum,G92 Z-5 ; set Z to -5,G1 Z0 ; move Z to 0,G161 Z F100 ; home Z slowly,M132 X Y Z A B ; recall home offsets,G1 X-145 Y-75 Z30 F9000 ; move to wait position off table,G130 X20 Y20 Z20 A20 B20 ; lower stepper Vrefs while heating,M126 S[fan_speed_pwm],M140 S[bed0_temperature] T0,M134 T0 ; stabilize bed temperature,M104 S[extruder0_temperature] T0,M133 T0 ; stabilize extruder temperature,G130 X127 Y127 Z40 A127 B127 ; default stepper Vrefs,G92 A0 ; zero extruder,G1 Z0.4 ; position nozzle,G1 E25 F300 ; purge nozzle,G1 X-140 Y-70 Z0.15 F1200 ; slow wipe,G1 X-135 Y-65 Z0.5 F1200 ; lift,G92 A0 ; zero extruder,M73 P1 ;@body (notify GPX body has started),; **** end of start.gcode ****
;   layerChangeGcode,
;   retractionGcode,
;   toolChangeGcode,
;   endingGcode,; **** Replicator 2 end.gcode ****,M73 P100 ; end build progress,G1 Z155 F1000 ; send Z axis to bottom of machine,M104 S0 T0 ; cool down extruder,M140 S0 T0 ; cool down HBP,M127 ; stop blower fan,G162 X Y F3000 ; home XY maximum,M18 ; disable stepper,M0 ; stop codes,M72 P1 ; play Ta-Da song,; **** end of end.gcode ****
;   exportFileFormat,gcode
;   celebration,0
;   celebrationSong,Random Song
;   postProcessing,
;   defaultSpeed,4800
;   outlineUnderspeed,0.5
;   solidInfillUnderspeed,1
;   supportUnderspeed,1
;   rapidXYspeed,9000
;   rapidZspeed,1200
;   minBridgingArea,50
;   bridgingExtraInflation,0
;   bridgingExtrusionMultiplier,1
;   bridgingSpeedMultiplier,0.8
;   useFixedBridgingAngle,0
;   fixedBridgingAngle,0
;   applyBridgingToPerimeters,0
;   filamentDiameters,1.75|1.75|1.75|1.75|1.75|1.75
;   filamentPricesPerKg,46|46|46|46|46|46
;   filamentDensities,1.25|1.25|1.25|1.25|1.25|1.25
;   useMinPrintHeight,0
;   minPrintHeight,0
;   useMaxPrintHeight,0
;   maxPrintHeight,4.84
;   useDiaphragm,0
;   diaphragmLayerInterval,20
;   robustSlicing,1
;   mergeAllIntoSolid,0
;   onlyRetractWhenCrossingOutline,0
;   retractBetweenLayers,0
;   useRetractionMinTravel,1
;   retractionMinTravel,7
;   retractWhileWiping,1
;   onlyWipeOutlines,1
;   avoidCrossingOutline,0
;   maxMovementDetourFactor,3
;   toolChangeRetractionDistance,12
;   toolChangeExtraRestartDistance,-0.5
;   toolChangeRetractionSpeed,600
;   externalThinWallType,0
;   internalThinWallType,0
;   thinWallAllowedOverlapPercentage,10
;   singleExtrusionMinLength,1
;   singleExtrusionMinPrintingWidthPercentage,50
;   singleExtrusionMaxPrintingWidthPercentage,200
;   singleExtrusionEndpointExtension,0.2
;   horizontalSizeCompensation,0
G90
M83
; **** Replicator 2 start.gcode ****
M73 P0 ; enable build progress
G162 X Y F3000 ; home XY maximum
G161 Z F1200 ; home Z minimum
G92 Z-5 ; set Z to -5
G1 Z0 ; move Z to 0
G161 Z F100 ; home Z slowly
M132 X Y Z A B ; recall home offsets
G1 X-145 Y-75 Z30 F9000 ; move to wait position off table
G130 X20 Y20 Z20 A20 B20 ; lower stepper Vrefs while heating
M127
M140 S60 T0
M134 T0 ; stabilize bed temperature
M104 S230 T0
M133 T0 ; stabilize extruder temperature
G130 X127 Y127 Z40 A127 B127 ; default stepper Vrefs
G92 A0 ; zero extruder
G1 Z0.4 ; position nozzle
G1 E25 F300 ; purge nozzle
G1 X-140 Y-70 Z0.15 F1200 ; slow wipe
G1 X-135 Y-65 Z0.5 F1200 ; lift
G92 A0 ; zero extruder
M73 P1 ;@body (notify GPX body has started)
; **** end of start.gcode ****
; process Process1
; layer 1, Z = 0.200
M135 T0
G1 E-1.9000 F1200
; feature inner perimeter
; tool H0.200 W0.460
G1 Z0.500 F1200
G1 X10.401 Y-8.004 F9000
G1 Z0.200 F1200
G1 E1.9000 F1200
G1 X9.261 Y-9.119 E0.0610 F1800
G1 X11.454 Y-9.277 E0.0841
G1 X12.061 Y-8.329 E0.0431
G1 X11.596 Y-8.004 E0.0217
G1 X10.401 Y-8.004 E0.0457
G1 X15.010 Y-10.601 F9000
G1 X16.500 Y-12.696 E0.0983 F1800
G1 X16.658 Y-7.856 E0.1852
G1 X15.010 Y-10.601 E0.1224
G1 E-1.9000 F1200
G1 Z0.700 F1200
G1 X-9.261 Y-9.292 F9000
G1 Z0.200 F1200
G1 E1.9000 F1200
G1 X-10.401 Y-8.176 E0.0610 F1800
G1 X-11.596 Y-8.176 E0.0457
G1 X-12.061 Y-8.501 E0.0217
G1 X-11.454 Y-9.449 E0.0431
G1 X-9.261 Y-9.292 E0.0841
G1 X-15.010 Y-10.773 F9000
G1 X-16.652 Y-8.038 E0.1220 F1800
G1 X-16.495 Y-12.861 E0.1846
G1 X-15.010 Y-10.773 E0.0980
G1 E-1.9000 F1200
G1 Z0.700 F1200
G1 X-19.258 Y-37.934 F9000
G1 Z0.200 F1200
G1 E1.9000 F1200
G1 X19.258 Y-37.934 E1.4732 F1800
G1 X26.640 Y37.934 E2.9156
G1 X-26.640 Y37.934 E2.0379
G1 X-19.258 Y-37.934 E2.9156
; feature outer perimeter
G1 X-19.675 Y-38.394 F9000
G1 X19.675 Y-38.394 E1.5051 F1200
G1 X27.147 Y38.394 E2.9509
G1 X-27.147 Y38.394 E2.0767
G1 X-19.675 Y-38.394 E2.9509
G1 X-18.620 Y-35.632 F9000
G1 X-20.517 Y22.627 E2.2295 F1200
G1 X-18.058 Y20.935 E0.1141
G1 X-16.676 Y-21.412 E1.6206
G1 X-6.094 Y-19.663 E0.4102
G1 X-5.615 Y-35.716 E0.6143
G1 X-8.130 Y-35.716 E0.0962
G1 X-8.470 Y-21.721 E0.5354
G1 X-16.624 Y-23.154 E0.3167
G1 X-16.180 Y-35.632 E0.4776
G1 X-18.620 Y-35.632 E0.0933
; feature inner perimeter
G1 X-19.065 Y-36.092 F9000
G1 X-21.006 Y23.521 E2.2814 F1800
G1 X-17.606 Y21.183 E0.1578
G1 X-16.654 Y-7.970 E1.1157
G1 X-13.533 Y-5.149 E0.1609
G1 X-8.867 Y-4.929 E0.1787
G1 X-5.791 Y-8.791 E0.1889
G1 X-6.517 Y-9.095 E0.0301
G1 X-5.392 Y-9.014 E0.0431
G1 X-5.475 Y1.449 E0.4002
G1 X-1.805 Y3.087 E0.1537
G1 X-1.753 Y-35.943 E1.4929
G1 X-5.102 Y-35.943 E0.1281
G1 X-5.378 Y-12.626 E0.8919
G1 X-16.479 Y-13.350 E0.4255
G1 X-16.233 Y-20.873 E0.2879
G1 X-5.650 Y-19.123 E0.4103
G1 X-5.141 Y-36.176 E0.6525
G1 X-8.579 Y-36.176 E0.1315
G1 X-8.917 Y-22.267 E0.5322
G1 X-16.150 Y-23.538 E0.2809
G1 X-15.703 Y-36.092 E0.4805
G1 X-19.065 Y-36.092 E0.1286
G1 E-1.9000 F1200
; feature outer perimeter
G1 Z0.700 F1200
G1 X-4.647 Y-35.483 F9000
G1 Z0.200 F1200
G1 E1.9000 F1200
G1 X-4.924 Y-12.135 E0.8931 F1200
G1 X-15.925 Y-12.853 E0.4217
G1 X-14.461 Y-10.794 E0.0966
G1 X-16.090 Y-8.080 E0.1211
G1 X-13.347 Y-5.600 E0.1414
G1 X-9.081 Y-5.400 E0.1634
G1 X-6.530 Y-8.602 E0.1566
G1 X-8.477 Y-9.416 E0.0807
G1 X-10.213 Y-7.716 E0.0930
G1 X-11.741 Y-7.716 E0.0585
G1 X-12.687 Y-8.377 E0.0441
G1 X-11.694 Y-9.927 E0.0704
G1 X-4.928 Y-9.442 E0.2594
G1 X-5.013 Y1.152 E0.4052
G1 X-2.264 Y2.379 E0.1151
G1 X-2.214 Y-35.483 E1.4482
G1 X-4.647 Y-35.483 E0.0931
; feature inner perimeter
G1 X-1.386 Y-37.332 F9000
G1 X-1.386 Y35.726 E2.7944 F1800
G1 X1.330 Y35.726 E0.1039
G1 X1.330 Y-37.332 E2.7944
G1 X-1.386 Y-37.332 E0.1039
; feature outer perimeter
G1 X-0.926 Y-36.872 F9000
G1 X-0.926 Y35.266 E2.7592 F1200
G1 X0.870 Y35.266 E0.0687
G1 X0.870 Y-36.872 E2.7592
G1 X-0.926 Y-36.872 E0.0687
; feature inner perimeter
G1 X1.753 Y-35.771 F9000
G1 X1.805 Y3.260 E1.4929 F1800
G1 X5.475 Y1.621 E0.1537
G1 X5.392 Y-8.842 E0.4002
G1 X6.517 Y-8.923 E0.0431
G1 X5.791 Y-8.619 E0.0301
G1 X8.867 Y-4.757 E0.1889
G1 X13.533 Y-4.977 E0.1787
G1 X16.660 Y-7.803 E0.1612
G1 X17.606 Y21.183 E1.1093
G1 X21.006 Y23.521 E0.1578
G1 X19.065 Y-36.092 E2.2814
G1 X15.703 Y-36.092 E0.1286
G1 X16.150 Y-23.538 E0.4805
G1 X8.917 Y-22.267 E0.2809
G1 X8.579 Y-36.176 E0.5322
G1 X5.141 Y-36.176 E0.1315
G1 X5.650 Y-19.123 E0.6525
G1 X16.233 Y-20.873 E0.4103
G1 X16.484 Y-13.178 E0.2945
G1 X5.378 Y-12.454 E0.4257
G1 X5.102 Y-35.771 E0.8919
G1 X1.753 Y-35.771 E0.1281
; feature outer perimeter
G1 X2.214 Y-35.311 F9000
G1 X2.264 Y2.551 E1.4482 F1200
G1 X5.013 Y1.324 E0.1151
G1 X4.928 Y-9.270 E0.4052
G1 X11.694 Y-9.755 E0.2594
G1 X12.687 Y-8.205 E0.0704
G1 X11.741 Y-7.544 E0.0441
G1 X10.213 Y-7.544 E0.0585
G1 X8.477 Y-9.244 E0.0930
G1 X6.530 Y-8.430 E0.0807
G1 X9.081 Y-5.227 E0.1566
G1 X13.347 Y-5.428 E0.1634
G1 X16.090 Y-7.908 E0.1414
G1 X14.461 Y-10.622 E0.1211
G1 X15.925 Y-12.681 E0.0966
G1 X4.924 Y-11.963 E0.4217
G1 X4.647 Y-35.311 E0.8931
G1 X2.214 Y-35.311 E0.0931
G1 X5.615 Y-35.716 F9000
G1 X6.094 Y-19.663 E0.6143 F1200
G1 X16.676 Y-21.412 E0.4102
G1 X18.058 Y20.935 E1.6206
G1 X20.517 Y22.627 E0.1141
G1 X18.620 Y-35.632 E2.2295
G1 X16.180 Y-35.632 E0.0933
G1 X16.624 Y-23.154 E0.4776
G1 X8.470 Y-21.721 E0.3167
G1 X8.130 Y-35.716 E0.5354
G1 X5.615 Y-35.716 E0.0962
G1 E-1.9000 F1200
; feature inner perimeter
G1 Z0.700 F1200
G1 X11.784 Y-1.445 F9000
G1 Z0.200 F1200
G1 E1.9000 F1200
G1 X1.560 Y4.115 E0.4451 F1800
G1 X1.599 Y8.127 E0.1535
G1 X8.175 Y5.064 E0.2775
G1 X8.675 Y31.062 E0.9946
G1 X6.142 Y32.127 E0.1051
G1 X6.236 Y35.835 E0.1419
G1 X12.779 Y33.651 E0.2638
G1 X12.425 Y13.460 E0.7724
G1 X15.668 Y12.217 E0.1328
G1 X15.566 Y8.915 E0.1263
G1 X12.299 Y9.926 E0.1308
G1 X12.299 Y9.847 E0.0030
G1 X17.065 Y8.207 E0.1928
G1 X17.065 Y4.916 E0.1259
G1 X12.088 Y6.210 E0.1967
G1 X11.784 Y-1.445 E0.2930
; feature outer perimeter
G1 X11.354 Y-0.687 F9000
G1 X2.023 Y4.387 E0.4063 F1200
G1 X2.052 Y7.409 E0.1156
G1 X8.621 Y4.349 E0.2772
G1 X9.141 Y31.365 E1.0335
G1 X6.610 Y32.429 E0.1050
G1 X6.680 Y35.202 E0.1061
G1 X12.313 Y33.321 E0.2271
G1 X11.960 Y13.146 E0.7718
G1 X15.198 Y11.904 E0.1327
G1 X15.125 Y9.533 E0.0907
G1 X11.839 Y10.549 E0.1315
G1 X11.839 Y9.518 E0.0394
G1 X16.605 Y7.878 E0.1928
G1 X16.605 Y5.511 E0.0906
G1 X11.651 Y6.799 E0.1958
G1 X11.354 Y-0.687 E0.2866
G1 E-1.9000 F1200
; feature inner perimeter
G1 Z0.700 F1200
G1 X-1.560 Y4.115 F9000
G1 Z0.200 F1200
G1 E1.9000 F1200
G1 X-11.784 Y-1.445 E0.4451 F1800
G1 X-12.088 Y6.210 E0.2930
G1 X-17.065 Y4.916 E0.1967
G1 X-17.065 Y8.207 E0.1259
G1 X-12.299 Y9.847 E0.1928
G1 X-12.299 Y9.926 E0.0030
G1 X-15.566 Y8.915 E0.1308
G1 X-15.668 Y12.217 E0.1263
G1 X-12.425 Y13.460 E0.1328
G1 X-12.779 Y33.651 E0.7724
G1 X-6.236 Y35.835 E0.2638
G1 X-6.142 Y32.127 E0.1419
G1 X-8.675 Y31.062 E0.1051
G1 X-8.175 Y5.064 E0.9946
G1 X-1.599 Y8.127 E0.2775
G1 X-1.560 Y4.115 E0.1535
; feature outer perimeter
G1 X-2.023 Y4.387 F9000
G1 X-11.354 Y-0.687 E0.4063 F1200
G1 X-11.651 Y6.799 E0.2866
G1 X-16.605 Y5.511 E0.1958
G1 X-16.605 Y7.878 E0.0906
G1 X-11.839 Y9.518 E0.1928
G1 X-11.839 Y10.549 E0.0394
G1 X-15.125 Y9.533 E0.1315
G1 X-15.198 Y11.904 E0.0907
G1 X-11.960 Y13.146 E0.1327
G1 X-12.313 Y33.321 E0.7718
G1 X-6.680 Y35.202 E0.2271
G1 X-6.610 Y32.429 E0.1061
G1 X-9.141 Y31.365 E0.1050
G1 X-8.621 Y4.349 E1.0335
G1 X-2.052 Y7.409 E0.2772
G1 X-2.023 Y4.387 E0.1156
; feature solid layer
G1 X-2.815 Y3.040 F9000
G1 X-2.861 Y2.994 E0.0025 F2400
G1 X-2.164 Y8.245 F9000
G1 X-1.731 Y8.678 E0.0234 F2400
G1 X-1.731 Y9.328 E0.0249
G1 X-3.382 Y7.678 E0.0893
G1 X-4.599 Y7.110 E0.0514
G1 X-1.731 Y9.979 E0.1552
G1 X-1.731 Y10.629 E0.0249
G1 X-5.817 Y6.543 E0.2210
G1 X-7.035 Y5.976 E0.0514
G1 X-1.731 Y11.280 E0.2869
G1 X-1.731 Y11.931 E0.0249
G1 X-7.844 Y5.817 E0.3307
G1 X-7.856 Y6.456 E0.0244
G1 X-1.731 Y12.581 E0.3313
G1 X-1.731 Y13.232 E0.0249
G1 X-7.869 Y7.094 E0.3320
G1 X-7.881 Y7.732 E0.0244
G1 X-1.731 Y13.882 E0.3327
G1 X-1.731 Y14.533 E0.0249
G1 X-7.893 Y8.370 E0.3333
G1 X-7.905 Y9.009 E0.0244
G1 X-1.731 Y15.183 E0.3340
G1 X-1.731 Y15.834 E0.0249
G1 X-7.918 Y9.647 E0.3347
G1 X-7.930 Y10.285 E0.0244
G1 X-1.731 Y16.484 E0.3353
G1 X-1.731 Y17.135 E0.0249
G1 X-7.942 Y10.923 E0.3360
G1 X-7.955 Y11.562 E0.0244
G1 X-1.731 Y17.785 E0.3367
G1 X-1.731 Y18.436 E0.0249
G1 X-7.967 Y12.200 E0.3373
G1 X-7.979 Y12.838 E0.0244
G1 X-1.731 Y19.086 E0.3380
G1 X-1.731 Y19.737 E0.0249
G1 X-7.991 Y13.476 E0.3386
G1 X-8.004 Y14.115 E0.0244
G1 X-1.731 Y20.388 E0.3393
G1 X-1.731 Y21.038 E0.0249
G1 X-8.016 Y14.753 E0.3400
G1 X-8.028 Y15.391 E0.0244
G1 X-1.731 Y21.689 E0.3406
G1 X-1.731 Y22.339 E0.0249
G1 X-8.040 Y16.029 E0.3413
G1 X-8.053 Y16.668 E0.0244
G1 X-1.731 Y22.990 E0.3420
G1 X-1.731 Y23.640 E0.0249
G1 X-8.065 Y17.306 E0.3426
G1 X-8.077 Y17.944 E0.0244
G1 X-1.731 Y24.291 E0.3433
G1 X-1.731 Y24.941 E0.0249
G1 X-8.090 Y18.582 E0.3440
G1 X-8.102 Y19.221 E0.0244
G1 X-1.731 Y25.592 E0.3446
G1 X-1.731 Y26.242 E0.0249
G1 X-8.114 Y19.859 E0.3453
G1 X-8.126 Y20.497 E0.0244
G1 X-1.731 Y26.893 E0.3460
G1 X-1.731 Y27.543 E0.0249
G1 X-8.139 Y21.136 E0.3466
G1 X-8.151 Y21.774 E0.0244
G1 X-1.731 Y28.194 E0.3473
G1 X-1.731 Y28.845 E0.0249
G1 X-8.163 Y22.412 E0.3479
G1 X-8.176 Y23.050 E0.0244
G1 X-1.731 Y29.495 E0.3486
G1 X-1.731 Y30.146 E0.0249
G1 X-8.188 Y23.689 E0.3493
G1 X-8.200 Y24.327 E0.0244
G1 X-1.731 Y30.796 E0.3499
G1 X-1.731 Y31.447 E0.0249
G1 X-8.212 Y24.965 E0.3506
G1 X-8.225 Y25.603 E0.0244
G1 X-1.731 Y32.097 E0.3513
G1 X-1.731 Y32.748 E0.0249
