; G-Code generated by Simplify3D(R) Version 4.1.2
; Apr 2, 2020 at 2:10:51 PM
; Settings Summary
;   processName,Process1
;   applyToModels,Diffuser
;   profileName,MakerBot Replicator 2 HBP (modified)
;   profileVersion,2020-03-12 10:48:50
;   baseProfile,MakerBot Replicator 2(2)
;   printMaterial,PLA
;   printQuality,Medium
;   printExtruders,
;   extruderName,Primary Extruder
;   extruderToolheadNumber,0
;   extruderDiameter,0.4
;   extruderAutoWidth,0
;   extruderWidth,0.4
;   extrusionMultiplier,1
;   extruderUseRetract,1
;   extruderRetractionDistance,1.9
;   extruderExtraRestartDistance,0
;   extruderRetractionZLift,0.5
;   extruderRetractionSpeed,1200
;   extruderUseCoasting,0
;   extruderCoastingDistance,0.2
;   extruderUseWipe,0
;   extruderWipeDistance,5
;   primaryExtruder,0
;   layerHeight,0.2
;   topSolidLayers,3
;   bottomSolidLayers,3
;   perimeterOutlines,2
;   printPerimetersInsideOut,1
;   startPointOption,3
;   startPointOriginX,0
;   startPointOriginY,150
;   sequentialIslands,0
;   spiralVaseMode,0
;   firstLayerHeightPercentage,100
;   firstLayerWidthPercentage,115
;   firstLayerUnderspeed,0.5
;   useRaft,0
;   raftExtruder,0
;   raftTopLayers,2
;   raftBaseLayers,1
;   raftOffset,1
;   raftSeparationDistance,0.14
;   raftTopInfill,90
;   aboveRaftSpeedMultiplier,0.3
;   useSkirt,0
;   skirtExtruder,0
;   skirtLayers,1
;   skirtOutlines,5
;   skirtOffset,0
;   usePrimePillar,0
;   primePillarExtruder,999
;   primePillarWidth,12
;   primePillarLocation,7
;   primePillarSpeedMultiplier,1
;   useOozeShield,0
;   oozeShieldExtruder,999
;   oozeShieldOffset,2
;   oozeShieldOutlines,1
;   oozeShieldSidewallShape,1
;   oozeShieldSidewallAngle,30
;   oozeShieldSpeedMultiplier,1
;   infillExtruder,0
;   internalInfillPattern,Rectilinear
;   externalInfillPattern,Rectilinear
;   infillPercentage,15
;   outlineOverlapPercentage,25
;   infillExtrusionWidthPercentage,100
;   minInfillLength,5
;   infillLayerInterval,1
;   internalInfillAngles,45,-45
;   overlapInternalInfillAngles,0
;   externalInfillAngles,45,-45
;   generateSupport,0
;   supportExtruder,0
;   supportInfillPercentage,30
;   supportExtraInflation,0.5
;   supportBaseLayers,0
;   denseSupportExtruder,0
;   denseSupportLayers,2
;   denseSupportInfillPercentage,90
;   supportLayerInterval,1
;   supportHorizontalPartOffset,0.3
;   supportUpperSeparationLayers,1
;   supportLowerSeparationLayers,1
;   supportType,1
;   supportGridSpacing,2
;   maxOverhangAngle,45
;   supportAngles,45,-45
;   temperatureName,Primary Extruder,Heated Build Platform
;   temperatureNumber,0,0
;   temperatureSetpointCount,1,1
;   temperatureSetpointLayers,1,1
;   temperatureSetpointTemperatures,230,60
;   temperatureStabilizeAtStartup,1,1
;   temperatureHeatedBed,0,1
;   fanLayers,1,2
;   fanSpeeds,0,100
;   blipFanToFullPower,1
;   adjustSpeedForCooling,1
;   minSpeedLayerTime,15
;   minCoolingSpeedSlowdown,20
;   increaseFanForCooling,1
;   minFanLayerTime,45
;   maxCoolingFanSpeed,100
;   increaseFanForBridging,1
;   bridgingFanSpeed,100
;   use5D,1
;   relativeEdistances,1
;   allowEaxisZeroing,0
;   independentExtruderAxes,1
;   includeM10123,0
;   stickySupport,1
;   applyToolheadOffsets,0
;   gcodeXoffset,0
;   gcodeYoffset,0
;   gcodeZoffset,0
;   overrideMachineDefinition,1
;   machineTypeOverride,0
;   strokeXoverride,280
;   strokeYoverride,150
;   strokeZoverride,150
;   originOffsetXoverride,140
;   originOffsetYoverride,75
;   originOffsetZoverride,0
;   homeXdirOverride,1
;   homeYdirOverride,1
;   homeZdirOverride,-1
;   flipXoverride,1
;   flipYoverride,-1
;   flipZoverride,1
;   toolheadOffsets,0,0|0,0|0,0|0,0|0,0|0,0
;   overrideFirmwareConfiguration,1
;   firmwareTypeOverride,MakerBot/Sailfish Firmware
;   GPXconfigOverride,r2h
;   baudRateOverride,115200
;   overridePrinterModels,1
;   printerModelsOverride,MakerBot_Replicator2.stl
;   startingGcode,; **** Replicator 2 start.gcode ****,M73 P0 ; enable build progress,G162 X Y F3000 ; home XY maximum,G161 Z F1200 ; home Z minimum,G92 Z-5 ; set Z to -5,G1 Z0 ; move Z to 0,G161 Z F100 ; home Z slowly,M132 X Y Z A B ; recall home offsets,G1 X-145 Y-75 Z30 F9000 ; move to wait position off table,G130 X20 Y20 Z20 A20 B20 ; lower stepper Vrefs while heating,M126 S[fan_speed_pwm],M140 S[bed0_temperature] T0,M134 T0 ; stabilize bed temperature,M104 S[extruder0_temperature] T0,M133 T0 ; stabilize extruder temperature,G130 X127 Y127 Z40 A127 B127 ; default stepper Vrefs,G92 A0 ; zero extruder,G1 Z0.4 ; position nozzle,G1 E25 F300 ; purge nozzle,G1 X-140 Y-70 Z0.15 F1200 ; slow wipe,G1 X-135 Y-65 Z0.5 F1200 ; lift,G92 A0 ; zero extruder,M73 P1 ;@body (notify GPX body has started),; **** end of start.gcode ****
;   layerChangeGcode,
;   retractionGcode,
;   toolChangeGcode,
;   endingGcode,; **** Replicator 2 end.gcode ****,M73 P100 ; end build progress,G1 Z155 F1000 ; send Z axis to bottom of machine,M104 S0 T0 ; cool down extruder,M140 S0 T0 ; cool down HBP,M127 ; stop blower fan,G162 X Y F3000 ; home XY maximum,M18 ; disable stepper,M0 ; stop codes,M72 P1 ; play Ta-Da song,; **** end of end.gcode ****
;   exportFileFormat,gcode
;   celebration,0
;   celebrationSong,Random Song
;   postProcessing,
;   defaultSpeed,4800
;   outlineUnderspeed,0.5
;   solidInfillUnderspeed,1
;   supportUnderspeed,1
;   rapidXYspeed,9000
;   rapidZspeed,1200
;   minBridgingArea,50
;   bridgingExtraInflation,0
;   bridgingExtrusionMultiplier,1
;   bridgingSpeedMultiplier,0.8
;   useFixedBridgingAngle,0
;   fixedBridgingAngle,0
;   applyBridgingToPerimeters,0
;   filamentDiameters,1.75|1.75|1.75|1.75|1.75|1.75
;   filamentPricesPerKg,46|46|46|46|46|46
;   filamentDensities,1.25|1.25|1.25|1.25|1.25|1.25
;   useMinPrintHeight,0
;   minPrintHeight,0
;   useMaxPrintHeight,0
;   maxPrintHeight,4.84
;   useDiaphragm,0
;   diaphragmLayerInterval,20
;   robustSlicing,1
;   mergeAllIntoSolid,0
;   onlyRetractWhenCrossingOutline,0
;   retractBetweenLayers,0
;   useRetractionMinTravel,1
;   retractionMinTravel,7
;   retractWhileWiping,1
;   onlyWipeOutlines,1
;   avoidCrossingOutline,0
;   maxMovementDetourFactor,3
;   toolChangeRetractionDistance,12
;   toolChangeExtraRestartDistance,-0.5
;   toolChangeRetractionSpeed,600
;   externalThinWallType,0
;   internalThinWallType,0
;   thinWallAllowedOverlapPercentage,10
;   singleExtrusionMinLength,1
;   singleExtrusionMinPrintingWidthPercentage,50
;   singleExtrusionMaxPrintingWidthPercentage,200
;   singleExtrusionEndpointExtension,0.2
;   horizontalSizeCompensation,0
G90
M83
; **** Replicator 2 start.gcode ****
M73 P0 ; enable build progress
G162 X Y F3000 ; home XY maximum
G161 Z F1200 ; home Z minimum
G92 Z-5 ; set Z to -5
G1 Z0 ; move Z to 0
G161 Z F100 ; home Z slowly
M132 X Y Z A B ; recall home offsets
G1 X-145 Y-75 Z30 F9000 ; move to wait position off table
G130 X20 Y20 Z20 A20 B20 ; lower stepper Vrefs while heating
M127
M140 S60 T0
M134 T0 ; stabilize bed temperature
M104 S230 T0
M133 T0 ; stabilize extruder temperature
G130 X127 Y127 Z40 A127 B127 ; default stepper Vrefs
G92 A0 ; zero extruder
G1 Z0.4 ; position nozzle
G1 E25 F300 ; purge nozzle
G1 X-140 Y-70 Z0.15 F1200 ; slow wipe
G1 X-135 Y-65 Z0.5 F1200 ; lift
G92 A0 ; zero extruder
M73 P1 ;@body (notify GPX body has started)
; **** end of start.gcode ****
; process Process1
; layer 1, Z = 0.200
M135 T0
G1 E-1.9000 F1200
; feature inner perimeter
; tool H0.200 W0.460
G1 Z0.500 F1200
G1 X-3.670 Y16.659 F9000
G1 Z0.200 F1200
G1 E1.9000 F1200
G1 X-25.417 Y16.659 E0.8318 F1800
G1 X-25.416 Y-16.658 E1.2743
G1 X25.416 Y-16.659 E1.9443
G1 X25.417 Y16.659 E1.2744
G1 X3.670 Y16.659 E0.8318
G1 X6.414 Y15.827 E0.1097
G1 X9.312 Y14.278 E0.1257
G1 X11.852 Y12.194 E0.1257
G1 X13.937 Y9.654 E0.1257
G1 X15.485 Y6.756 E0.1257
G1 X16.439 Y3.612 E0.1257
G1 X16.761 Y0.342 E0.1257
G1 X16.439 Y-2.928 E0.1257
G1 X15.485 Y-6.073 E0.1257
G1 X13.937 Y-8.971 E0.1257
G1 X11.852 Y-11.511 E0.1257
G1 X9.312 Y-13.595 E0.1257
G1 X6.414 Y-15.144 E0.1257
G1 X3.270 Y-16.098 E0.1257
G1 X0.000 Y-16.420 E0.1257
G1 X-3.270 Y-16.098 E0.1257
G1 X-6.414 Y-15.144 E0.1257
G1 X-9.312 Y-13.595 E0.1257
G1 X-11.852 Y-11.511 E0.1257
G1 X-13.937 Y-8.971 E0.1257
G1 X-15.485 Y-6.073 E0.1257
G1 X-16.439 Y-2.928 E0.1257
G1 X-16.761 Y0.342 E0.1257
G1 X-16.439 Y3.612 E0.1257
G1 X-15.485 Y6.756 E0.1257
G1 X-13.937 Y9.654 E0.1257
G1 X-11.852 Y12.194 E0.1257
G1 X-9.312 Y14.278 E0.1257
G1 X-6.414 Y15.827 E0.1257
G1 X-3.670 Y16.659 E0.1097
G1 E-1.9000 F1200
; feature outer perimeter
G1 Z0.700 F1200
G1 X-25.878 Y17.119 F9000
G1 Z0.200 F1200
G1 E1.9000 F1200
G1 X-25.876 Y-17.118 E1.3095 F1200
G1 X25.876 Y-17.119 E1.9795
G1 X25.878 Y17.119 E1.3096
G1 X-25.878 Y17.119 E1.9796
G1 E-1.9000 F1200
G1 Z0.700 F1200
G1 X-13.552 Y9.397 F9000
G1 Z0.200 F1200
G1 E1.9000 F1200
G1 X-11.525 Y11.867 E0.1222 F1200
G1 X-9.055 Y13.894 E0.1222
G1 X-6.237 Y15.400 E0.1222
G1 X-3.180 Y16.327 E0.1222
G1 X0.000 Y16.641 E0.1222
G1 X3.180 Y16.327 E0.1222
G1 X6.237 Y15.400 E0.1222
G1 X9.055 Y13.894 E0.1222
G1 X11.525 Y11.867 E0.1222
G1 X13.552 Y9.397 E0.1222
G1 X15.058 Y6.579 E0.1222
G1 X15.986 Y3.521 E0.1222
G1 X16.299 Y0.342 E0.1222
G1 X15.986 Y-2.838 E0.1222
G1 X15.058 Y-5.896 E0.1222
G1 X13.552 Y-8.714 E0.1222
G1 X11.525 Y-11.184 E0.1222
G1 X9.055 Y-13.211 E0.1222
G1 X6.237 Y-14.717 E0.1222
G1 X3.180 Y-15.644 E0.1222
G1 X0.000 Y-15.958 E0.1222
G1 X-3.180 Y-15.644 E0.1222
G1 X-6.237 Y-14.717 E0.1222
G1 X-9.055 Y-13.211 E0.1222
G1 X-11.525 Y-11.184 E0.1222
G1 X-13.552 Y-8.714 E0.1222
G1 X-15.058 Y-5.896 E0.1222
G1 X-15.986 Y-2.838 E0.1222
G1 X-16.299 Y0.342 E0.1222
G1 X-15.986 Y3.521 E0.1222
G1 X-15.058 Y6.579 E0.1222
G1 X-13.552 Y9.397 E0.1222
G1 E-1.9000 F1200
; feature solid layer
G1 Z0.700 F1200
G1 X-8.105 Y15.315 F9000
G1 Z0.200 F1200
G1 E1.9000 F1200
G1 X-7.105 Y16.314 E0.0541 F2400
G1 X-6.454 Y16.314 E0.0249
G1 X-6.707 Y16.062 E0.0137
G1 E-1.9000 F1200
G1 Z0.700 F1200
G1 X6.556 Y16.314 F9000
G1 Z0.200 F1200
G1 E1.9000 F1200
G1 X6.426 Y16.184 E0.0071 F2400
G1 X6.547 Y16.147 E0.0048
G1 X6.868 Y15.976 E0.0139
G1 X7.207 Y16.314 E0.0183
G1 X7.857 Y16.314 E0.0249
G1 X7.292 Y15.749 E0.0306
G1 X7.716 Y15.522 E0.0184
G1 X8.508 Y16.314 E0.0428
G1 X9.159 Y16.314 E0.0249
G1 X8.140 Y15.296 E0.0551
G1 X8.564 Y15.069 E0.0184
G1 X9.809 Y16.314 E0.0674
G1 X10.460 Y16.314 E0.0249
G1 X8.988 Y14.843 E0.0796
G1 X9.412 Y14.616 E0.0184
G1 X11.110 Y16.314 E0.0919
G1 X11.761 Y16.314 E0.0249
G1 X9.784 Y14.337 E0.1069
G1 X10.141 Y14.044 E0.0177
G1 X12.411 Y16.314 E0.1228
G1 X13.062 Y16.314 E0.0249
G1 X10.498 Y13.751 E0.1387
G1 X10.856 Y13.458 E0.0177
G1 X13.712 Y16.314 E0.1545
G1 X14.363 Y16.314 E0.0249
G1 X11.213 Y13.164 E0.1704
G1 X11.570 Y12.871 E0.0177
G1 X15.013 Y16.314 E0.1863
G1 X15.664 Y16.314 E0.0249
G1 X11.927 Y12.578 E0.2021
G1 X12.097 Y12.439 E0.0084
G1 X12.251 Y12.251 E0.0093
G1 X16.314 Y16.314 E0.2198
G1 X16.965 Y16.314 E0.0249
G1 X12.544 Y11.894 E0.2391
G1 X12.838 Y11.537 E0.0177
G1 X17.616 Y16.314 E0.2584
G1 X18.266 Y16.314 E0.0249
G1 X13.131 Y11.179 E0.2778
G1 X13.424 Y10.822 E0.0177
G1 X18.917 Y16.314 E0.2971
G1 X19.567 Y16.314 E0.0249
G1 X13.717 Y10.465 E0.3164
G1 X14.011 Y10.107 E0.0177
G1 X20.218 Y16.314 E0.3358
G1 X20.868 Y16.314 E0.0249
G1 X14.286 Y9.732 E0.3561
G1 X14.512 Y9.308 E0.0184
G1 X21.519 Y16.314 E0.3790
G1 X22.169 Y16.314 E0.0249
G1 X14.739 Y8.884 E0.4019
G1 X14.966 Y8.460 E0.0184
G1 X22.820 Y16.314 E0.4249
G1 X23.470 Y16.314 E0.0249
G1 X15.192 Y8.036 E0.4478
G1 X15.419 Y7.612 E0.0184
G1 X24.121 Y16.314 E0.4707
G1 X24.771 Y16.314 E0.0249
G1 X15.645 Y7.188 E0.4936
G1 X15.806 Y6.888 E0.0130
G1 X15.850 Y6.743 E0.0058
G1 X25.072 Y15.965 E0.4989
G1 X25.072 Y15.314 E0.0249
G1 X16.001 Y6.243 E0.4907
G1 X16.153 Y5.744 E0.0200
G1 X25.072 Y14.664 E0.4825
G1 X25.072 Y14.013 E0.0249
G1 X16.304 Y5.245 E0.4743
G1 X16.456 Y4.746 E0.0200
G1 X25.072 Y13.363 E0.4661
G1 X25.072 Y12.712 E0.0249
G1 X16.607 Y4.247 E0.4579
G1 X16.759 Y3.748 E0.0200
G1 X25.072 Y12.062 E0.4497
G1 X25.072 Y11.411 E0.0249
G1 X16.830 Y3.168 E0.4459
G1 X16.888 Y2.576 E0.0228
G1 X25.072 Y10.760 E0.4427
G1 X25.072 Y10.110 E0.0249
G1 X16.946 Y1.984 E0.4396
G1 X17.005 Y1.392 E0.0228
G1 X25.072 Y9.459 E0.4364
G1 X25.072 Y8.809 E0.0249
G1 X17.063 Y0.799 E0.4332
G1 X17.108 Y0.342 E0.0176
G1 X17.092 Y0.178 E0.0063
G1 X25.072 Y8.158 E0.4317
G1 X25.072 Y7.508 E0.0249
G1 X17.021 Y-0.544 E0.4355
G1 X16.950 Y-1.265 E0.0277
G1 X25.072 Y6.857 E0.4394
G1 X25.072 Y6.207 E0.0249
G1 X16.879 Y-1.987 E0.4432
G1 X16.808 Y-2.709 E0.0277
G1 X25.072 Y5.556 E0.4470
G1 X25.072 Y4.905 E0.0249
G1 X16.609 Y-3.558 E0.4578
G1 X16.326 Y-4.492 E0.0373
G1 X25.072 Y4.255 E0.4731
G1 X25.072 Y3.604 E0.0249
G1 X16.042 Y-5.425 E0.4884
G1 X15.806 Y-6.205 E0.0312
G1 X15.683 Y-6.436 E0.0100
G1 X25.072 Y2.954 E0.5079
G1 X25.072 Y2.303 E0.0249
G1 X14.936 Y-7.833 E0.5483
G1 E-1.9000 F1200
G1 Z0.700 F1200
G1 X24.670 Y-16.314 F9000
G1 Z0.200 F1200
G1 E1.9000 F1200
G1 X25.071 Y-15.912 E0.0217 F2400
G1 X25.071 Y-15.262 E0.0249
G1 X24.019 Y-16.314 E0.0569
G1 X23.368 Y-16.314 E0.0249
G1 X25.072 Y-14.611 E0.0921
G1 X25.072 Y-13.961 E0.0249
G1 X22.718 Y-16.314 E0.1273
G1 X22.067 Y-16.314 E0.0249
G1 X25.072 Y-13.310 E0.1625
G1 X25.072 Y-12.660 E0.0249
G1 X21.417 Y-16.314 E0.1977
G1 X20.766 Y-16.314 E0.0249
G1 X25.072 Y-12.009 E0.2329
G1 X25.072 Y-11.359 E0.0249
G1 X20.116 Y-16.314 E0.2681
G1 X19.465 Y-16.314 E0.0249
G1 X25.072 Y-10.708 E0.3033
G1 X25.072 Y-10.057 E0.0249
G1 X18.815 Y-16.314 E0.3384
G1 X18.164 Y-16.314 E0.0249
G1 X25.072 Y-9.407 E0.3736
G1 X25.072 Y-8.756 E0.0249
G1 X17.514 Y-16.314 E0.4088
G1 X16.863 Y-16.314 E0.0249
G1 X25.072 Y-8.106 E0.4440
G1 X25.072 Y-7.455 E0.0249
G1 X16.213 Y-16.314 E0.4792
G1 X15.562 Y-16.314 E0.0249
G1 X25.072 Y-6.805 E0.5144
G1 X25.072 Y-6.154 E0.0249
G1 X14.912 Y-16.314 E0.5496
G1 X14.261 Y-16.314 E0.0249
G1 X25.072 Y-5.504 E0.5848
G1 X25.072 Y-4.853 E0.0249
G1 X13.611 Y-16.314 E0.6200
G1 X12.960 Y-16.314 E0.0249
G1 X25.072 Y-4.202 E0.6551
G1 X25.072 Y-3.552 E0.0249
G1 X12.310 Y-16.314 E0.6903
G1 X11.659 Y-16.314 E0.0249
G1 X25.072 Y-2.901 E0.7255
G1 X25.072 Y-2.251 E0.0249
G1 X11.009 Y-16.314 E0.7607
G1 X10.358 Y-16.314 E0.0249
G1 X25.072 Y-1.600 E0.7959
G1 X25.072 Y-0.950 E0.0249
G1 X9.708 Y-16.314 E0.8311
G1 X9.057 Y-16.314 E0.0249
G1 X25.072 Y-0.299 E0.8663
G1 X25.072 Y0.352 E0.0249
G1 X8.407 Y-16.314 E0.9015
G1 X7.756 Y-16.314 E0.0249
G1 X25.072 Y1.002 E0.9367
G1 X25.072 Y1.653 E0.0249
G1 X14.081 Y-9.338 E0.5945
G1 X12.097 Y-11.756 E0.1196
G1 X9.680 Y-13.740 E0.1196
G1 X7.106 Y-16.314 E0.1392
G1 X6.455 Y-16.314 E0.0249
G1 X8.175 Y-14.594 E0.0930
G1 X6.777 Y-15.341 E0.0606
G1 X5.805 Y-16.314 E0.0526
G1 X5.154 Y-16.314 E0.0249
G1 X5.767 Y-15.701 E0.0331
G1 X4.833 Y-15.984 E0.0373
G1 X4.504 Y-16.314 E0.0178
G1 X3.853 Y-16.314 E0.0249
G1 X3.899 Y-16.267 E0.0025
G1 E-1.9000 F1200
G1 Z0.700 F1200
G1 X-3.953 Y-16.313 F9000
G1 Z0.200 F1200
G1 E1.9000 F1200
G1 X-3.905 Y-16.266 E0.0026 F2400
G1 X-4.404 Y-16.114 E0.0200
G1 X-4.604 Y-16.313 E0.0108
G1 X-5.254 Y-16.313 E0.0249
G1 X-4.904 Y-15.963 E0.0190
G1 X-5.403 Y-15.811 E0.0200
G1 X-5.905 Y-16.313 E0.0272
G1 X-6.555 Y-16.313 E0.0249
G1 X-5.902 Y-15.660 E0.0353
G1 X-6.401 Y-15.509 E0.0200
G1 X-7.206 Y-16.313 E0.0435
G1 X-7.856 Y-16.313 E0.0249
G1 X-6.847 Y-15.304 E0.0546
G1 X-7.271 Y-15.077 E0.0184
G1 X-8.507 Y-16.313 E0.0669
G1 X-9.157 Y-16.313 E0.0249
G1 X-7.695 Y-14.851 E0.0791
G1 X-8.119 Y-14.624 E0.0184
G1 X-9.808 Y-16.313 E0.0914
G1 X-10.458 Y-16.313 E0.0249
G1 X-8.543 Y-14.398 E0.1036
G1 X-8.967 Y-14.171 E0.0184
G1 X-11.109 Y-16.313 E0.1159
G1 X-11.759 Y-16.313 E0.0249
G1 X-9.391 Y-13.944 E0.1281
G1 X-9.505 Y-13.883 E0.0050
G1 X-9.766 Y-13.669 E0.0129
G1 X-12.410 Y-16.313 E0.1430
G1 X-13.060 Y-16.313 E0.0249
G1 X-10.123 Y-13.376 E0.1589
G1 X-10.480 Y-13.083 E0.0177
G1 X-13.711 Y-16.313 E0.1747
G1 X-14.361 Y-16.313 E0.0249
G1 X-10.838 Y-12.789 E0.1906
G1 X-11.195 Y-12.496 E0.0177
G1 X-15.012 Y-16.313 E0.2065
G1 X-15.662 Y-16.313 E0.0249
G1 X-11.552 Y-12.203 E0.2223
G1 X-11.910 Y-11.910 E0.0177
G1 X-16.313 Y-16.313 E0.2382
G1 X-16.963 Y-16.313 E0.0249
G1 X-12.236 Y-11.586 E0.2557
