; G-Code generated by Simplify3D(R) Version 4.1.2
; Apr 2, 2020 at 2:15:20 PM
; Settings Summary
;   processName,Process1
;   applyToModels,orbV1R1
;   profileName,MakerBot Replicator 2 HBP (modified)
;   profileVersion,2020-03-12 10:48:50
;   baseProfile,MakerBot Replicator 2(2)
;   printMaterial,PLA
;   printQuality,Medium
;   printExtruders,
;   extruderName,Primary Extruder
;   extruderToolheadNumber,0
;   extruderDiameter,0.4
;   extruderAutoWidth,0
;   extruderWidth,0.4
;   extrusionMultiplier,1
;   extruderUseRetract,1
;   extruderRetractionDistance,1.9
;   extruderExtraRestartDistance,0
;   extruderRetractionZLift,0.5
;   extruderRetractionSpeed,1200
;   extruderUseCoasting,0
;   extruderCoastingDistance,0.2
;   extruderUseWipe,0
;   extruderWipeDistance,5
;   primaryExtruder,0
;   layerHeight,0.2
;   topSolidLayers,3
;   bottomSolidLayers,3
;   perimeterOutlines,2
;   printPerimetersInsideOut,1
;   startPointOption,3
;   startPointOriginX,0
;   startPointOriginY,150
;   sequentialIslands,0
;   spiralVaseMode,0
;   firstLayerHeightPercentage,100
;   firstLayerWidthPercentage,115
;   firstLayerUnderspeed,0.5
;   useRaft,0
;   raftExtruder,0
;   raftTopLayers,2
;   raftBaseLayers,1
;   raftOffset,1
;   raftSeparationDistance,0.14
;   raftTopInfill,90
;   aboveRaftSpeedMultiplier,0.3
;   useSkirt,0
;   skirtExtruder,0
;   skirtLayers,1
;   skirtOutlines,5
;   skirtOffset,0
;   usePrimePillar,0
;   primePillarExtruder,999
;   primePillarWidth,12
;   primePillarLocation,7
;   primePillarSpeedMultiplier,1
;   useOozeShield,0
;   oozeShieldExtruder,999
;   oozeShieldOffset,2
;   oozeShieldOutlines,1
;   oozeShieldSidewallShape,1
;   oozeShieldSidewallAngle,30
;   oozeShieldSpeedMultiplier,1
;   infillExtruder,0
;   internalInfillPattern,Rectilinear
;   externalInfillPattern,Rectilinear
;   infillPercentage,15
;   outlineOverlapPercentage,25
;   infillExtrusionWidthPercentage,100
;   minInfillLength,5
;   infillLayerInterval,1
;   internalInfillAngles,45,-45
;   overlapInternalInfillAngles,0
;   externalInfillAngles,45,-45
;   generateSupport,0
;   supportExtruder,0
;   supportInfillPercentage,30
;   supportExtraInflation,0.5
;   supportBaseLayers,0
;   denseSupportExtruder,0
;   denseSupportLayers,2
;   denseSupportInfillPercentage,90
;   supportLayerInterval,1
;   supportHorizontalPartOffset,0.3
;   supportUpperSeparationLayers,1
;   supportLowerSeparationLayers,1
;   supportType,1
;   supportGridSpacing,2
;   maxOverhangAngle,45
;   supportAngles,45,-45
;   temperatureName,Primary Extruder,Heated Build Platform
;   temperatureNumber,0,0
;   temperatureSetpointCount,1,1
;   temperatureSetpointLayers,1,1
;   temperatureSetpointTemperatures,230,60
;   temperatureStabilizeAtStartup,1,1
;   temperatureHeatedBed,0,1
;   fanLayers,1,2
;   fanSpeeds,0,100
;   blipFanToFullPower,1
;   adjustSpeedForCooling,1
;   minSpeedLayerTime,15
;   minCoolingSpeedSlowdown,20
;   increaseFanForCooling,1
;   minFanLayerTime,45
;   maxCoolingFanSpeed,100
;   increaseFanForBridging,1
;   bridgingFanSpeed,100
;   use5D,1
;   relativeEdistances,1
;   allowEaxisZeroing,0
;   independentExtruderAxes,1
;   includeM10123,0
;   stickySupport,1
;   applyToolheadOffsets,0
;   gcodeXoffset,0
;   gcodeYoffset,0
;   gcodeZoffset,0
;   overrideMachineDefinition,1
;   machineTypeOverride,0
;   strokeXoverride,280
;   strokeYoverride,150
;   strokeZoverride,150
;   originOffsetXoverride,140
;   originOffsetYoverride,75
;   originOffsetZoverride,0
;   homeXdirOverride,1
;   homeYdirOverride,1
;   homeZdirOverride,-1
;   flipXoverride,1
;   flipYoverride,-1
;   flipZoverride,1
;   toolheadOffsets,0,0|0,0|0,0|0,0|0,0|0,0
;   overrideFirmwareConfiguration,1
;   firmwareTypeOverride,MakerBot/Sailfish Firmware
;   GPXconfigOverride,r2h
;   baudRateOverride,115200
;   overridePrinterModels,1
;   printerModelsOverride,MakerBot_Replicator2.stl
;   startingGcode,; **** Replicator 2 start.gcode ****,M73 P0 ; enable build progress,G162 X Y F3000 ; home XY maximum,G161 Z F1200 ; home Z minimum,G92 Z-5 ; set Z to -5,G1 Z0 ; move Z to 0,G161 Z F100 ; home Z slowly,M132 X Y Z A B ; recall home offsets,G1 X-145 Y-75 Z30 F9000 ; move to wait position off table,G130 X20 Y20 Z20 A20 B20 ; lower stepper Vrefs while heating,M126 S[fan_speed_pwm],M140 S[bed0_temperature] T0,M134 T0 ; stabilize bed temperature,M104 S[extruder0_temperature] T0,M133 T0 ; stabilize extruder temperature,G130 X127 Y127 Z40 A127 B127 ; default stepper Vrefs,G92 A0 ; zero extruder,G1 Z0.4 ; position nozzle,G1 E25 F300 ; purge nozzle,G1 X-140 Y-70 Z0.15 F1200 ; slow wipe,G1 X-135 Y-65 Z0.5 F1200 ; lift,G92 A0 ; zero extruder,M73 P1 ;@body (notify GPX body has started),; **** end of start.gcode ****
;   layerChangeGcode,
;   retractionGcode,
;   toolChangeGcode,
;   endingGcode,; **** Replicator 2 end.gcode ****,M73 P100 ; end build progress,G1 Z155 F1000 ; send Z axis to bottom of machine,M104 S0 T0 ; cool down extruder,M140 S0 T0 ; cool down HBP,M127 ; stop blower fan,G162 X Y F3000 ; home XY maximum,M18 ; disable stepper,M0 ; stop codes,M72 P1 ; play Ta-Da song,; **** end of end.gcode ****
;   exportFileFormat,gcode
;   celebration,0
;   celebrationSong,Random Song
;   postProcessing,
;   defaultSpeed,4800
;   outlineUnderspeed,0.5
;   solidInfillUnderspeed,1
;   supportUnderspeed,1
;   rapidXYspeed,9000
;   rapidZspeed,1200
;   minBridgingArea,50
;   bridgingExtraInflation,0
;   bridgingExtrusionMultiplier,1
;   bridgingSpeedMultiplier,0.8
;   useFixedBridgingAngle,0
;   fixedBridgingAngle,0
;   applyBridgingToPerimeters,0
;   filamentDiameters,1.75|1.75|1.75|1.75|1.75|1.75
;   filamentPricesPerKg,46|46|46|46|46|46
;   filamentDensities,1.25|1.25|1.25|1.25|1.25|1.25
;   useMinPrintHeight,0
;   minPrintHeight,0
;   useMaxPrintHeight,0
;   maxPrintHeight,4.84
;   useDiaphragm,0
;   diaphragmLayerInterval,20
;   robustSlicing,1
;   mergeAllIntoSolid,0
;   onlyRetractWhenCrossingOutline,0
;   retractBetweenLayers,0
;   useRetractionMinTravel,1
;   retractionMinTravel,7
;   retractWhileWiping,1
;   onlyWipeOutlines,1
;   avoidCrossingOutline,0
;   maxMovementDetourFactor,3
;   toolChangeRetractionDistance,12
;   toolChangeExtraRestartDistance,-0.5
;   toolChangeRetractionSpeed,600
;   externalThinWallType,0
;   internalThinWallType,0
;   thinWallAllowedOverlapPercentage,10
;   singleExtrusionMinLength,1
;   singleExtrusionMinPrintingWidthPercentage,50
;   singleExtrusionMaxPrintingWidthPercentage,200
;   singleExtrusionEndpointExtension,0.2
;   horizontalSizeCompensation,0
G90
M83
; **** Replicator 2 start.gcode ****
M73 P0 ; enable build progress
G162 X Y F3000 ; home XY maximum
G161 Z F1200 ; home Z minimum
G92 Z-5 ; set Z to -5
G1 Z0 ; move Z to 0
G161 Z F100 ; home Z slowly
M132 X Y Z A B ; recall home offsets
G1 X-145 Y-75 Z30 F9000 ; move to wait position off table
G130 X20 Y20 Z20 A20 B20 ; lower stepper Vrefs while heating
M126 S170
M140 S60 T0
M134 T0 ; stabilize bed temperature
M104 S230 T0
M133 T0 ; stabilize extruder temperature
G130 X127 Y127 Z40 A127 B127 ; default stepper Vrefs
G92 A0 ; zero extruder
G1 Z0.4 ; position nozzle
G1 E25 F300 ; purge nozzle
G1 X-140 Y-70 Z0.15 F1200 ; slow wipe
G1 X-135 Y-65 Z0.5 F1200 ; lift
G92 A0 ; zero extruder
M73 P1 ;@body (notify GPX body has started)
; **** end of start.gcode ****
; process Process1
; layer 1, Z = 0.200
M135 T0
G1 E-1.9000 F1200
; feature inner perimeter
; tool H0.200 W0.460
G1 Z0.500 F1200
G1 X9.089 Y4.303 F9000
G1 Z0.200 F1200
G1 E1.9000 F1200
G1 X8.925 Y4.269 E0.0064 F1629
G1 X8.213 Y4.075 E0.0282
G1 X7.410 Y3.780 E0.0327
G1 X6.534 Y3.387 E0.0367
G1 X3.820 Y2.026 E0.1161
G1 X2.909 Y1.638 E0.0379
G1 X2.055 Y1.348 E0.0345
G1 X1.226 Y1.147 E0.0326
G1 X0.404 Y1.034 E0.0318
G1 X-0.455 Y1.011 E0.0328
G1 X-1.300 Y1.082 E0.0324
G1 X-2.333 Y1.275 E0.0402
G1 X-3.383 Y1.564 E0.0417
G1 X-4.546 Y1.968 E0.0471
G1 X-5.775 Y2.470 E0.0508
G1 X-8.418 Y3.667 E0.1110
G1 X-9.098 Y3.911 E0.0277
G1 X-9.849 Y4.097 E0.0296
G1 X-10.705 Y4.224 E0.0331
G1 X-11.952 Y4.307 E0.0478
G1 X-12.551 Y4.260 E0.0230
G1 X-13.132 Y4.120 E0.0229
G1 X-13.684 Y3.892 E0.0228
G1 X-14.194 Y3.580 E0.0229
G1 X-14.648 Y3.192 E0.0229
G1 X-15.036 Y2.737 E0.0229
G1 X-15.348 Y2.228 E0.0229
G1 X-15.577 Y1.676 E0.0229
G1 X-15.717 Y1.095 E0.0229
G1 X-15.766 Y0.472 E0.0239
G1 X-15.766 Y-0.474 E0.0362
G1 X-15.717 Y-1.097 E0.0239
G1 X-15.577 Y-1.678 E0.0229
G1 X-15.348 Y-2.230 E0.0229
G1 X-15.036 Y-2.739 E0.0229
G1 X-14.648 Y-3.194 E0.0229
G1 X-14.194 Y-3.582 E0.0229
G1 X-13.684 Y-3.894 E0.0229
G1 X-13.132 Y-4.122 E0.0228
G1 X-12.551 Y-4.262 E0.0229
G1 X-11.952 Y-4.309 E0.0230
G1 X-10.705 Y-4.226 E0.0478
G1 X-9.849 Y-4.099 E0.0331
G1 X-9.098 Y-3.913 E0.0296
G1 X-8.418 Y-3.669 E0.0277
G1 X-5.775 Y-2.472 E0.1110
G1 X-4.546 Y-1.970 E0.0508
G1 X-3.383 Y-1.566 E0.0471
G1 X-2.333 Y-1.277 E0.0417
G1 X-1.300 Y-1.084 E0.0402
G1 X-0.455 Y-1.013 E0.0324
G1 X0.404 Y-1.036 E0.0328
G1 X1.226 Y-1.149 E0.0318
G1 X2.055 Y-1.350 E0.0326
G1 X2.909 Y-1.641 E0.0345
G1 X3.839 Y-2.037 E0.0387
G1 X6.537 Y-3.390 E0.1154
G1 X7.410 Y-3.782 E0.0366
G1 X8.213 Y-4.077 E0.0327
G1 X8.925 Y-4.271 E0.0282
G1 X9.088 Y-4.305 E0.0064
G1 X9.644 Y-4.261 E0.0213
G1 X10.241 Y-4.115 E0.0235
G1 X10.773 Y-3.894 E0.0220
G1 X11.282 Y-3.582 E0.0228
G1 X11.748 Y-3.182 E0.0235
G1 X12.125 Y-2.739 E0.0222
G1 X12.433 Y-2.238 E0.0225
G1 X12.666 Y-1.677 E0.0232
G1 X12.805 Y-1.097 E0.0228
G1 X12.854 Y-0.474 E0.0239
G1 X12.854 Y0.472 E0.0362
G1 X12.805 Y1.095 E0.0239
G1 X12.666 Y1.676 E0.0229
G1 X12.437 Y2.228 E0.0229
G1 X12.125 Y2.737 E0.0229
G1 X11.737 Y3.192 E0.0229
G1 X11.283 Y3.580 E0.0229
G1 X10.773 Y3.892 E0.0229
G1 X10.221 Y4.120 E0.0228
G1 X9.640 Y4.260 E0.0229
G1 X9.089 Y4.303 E0.0212
; feature outer perimeter
G1 X9.059 Y4.767 F9000
G1 X8.818 Y4.717 E0.0094 F1086
G1 X8.073 Y4.514 E0.0295
G1 X7.236 Y4.206 E0.0341
G1 X6.336 Y3.802 E0.0377
G1 X3.627 Y2.444 E0.1159
G1 X2.745 Y2.068 E0.0367
G1 X1.927 Y1.790 E0.0330
G1 X1.140 Y1.599 E0.0310
G1 X0.366 Y1.493 E0.0299
G1 X-0.441 Y1.471 E0.0309
G1 X-1.238 Y1.539 E0.0306
G1 X-2.229 Y1.724 E0.0386
G1 X-3.246 Y2.004 E0.0403
G1 X-4.383 Y2.399 E0.0460
G1 X-5.593 Y2.892 E0.0500
G1 X-8.245 Y4.094 E0.1113
G1 X-8.965 Y4.352 E0.0293
G1 X-9.760 Y4.549 E0.0313
G1 X-10.656 Y4.681 E0.0346
G1 X-11.954 Y4.768 E0.0498
G1 X-12.623 Y4.716 E0.0257
G1 X-13.275 Y4.559 E0.0256
G1 X-13.894 Y4.303 E0.0256
G1 X-14.465 Y3.953 E0.0256
G1 X-14.974 Y3.518 E0.0256
G1 X-15.410 Y3.008 E0.0256
G1 X-15.760 Y2.437 E0.0256
G1 X-16.016 Y1.818 E0.0256
G1 X-16.172 Y1.167 E0.0256
G1 X-16.226 Y0.490 E0.0260
G1 X-16.226 Y-0.492 E0.0376
G1 X-16.172 Y-1.169 E0.0260
G1 X-16.016 Y-1.820 E0.0256
G1 X-15.760 Y-2.439 E0.0256
G1 X-15.410 Y-3.010 E0.0256
G1 X-14.974 Y-3.520 E0.0256
G1 X-14.465 Y-3.955 E0.0256
G1 X-13.894 Y-4.305 E0.0256
G1 X-13.275 Y-4.561 E0.0256
G1 X-12.623 Y-4.718 E0.0256
G1 X-11.954 Y-4.770 E0.0257
G1 X-10.656 Y-4.684 E0.0498
G1 X-9.760 Y-4.551 E0.0346
G1 X-8.965 Y-4.354 E0.0313
G1 X-8.245 Y-4.096 E0.0293
G1 X-5.593 Y-2.895 E0.1113
G1 X-4.383 Y-2.401 E0.0500
G1 X-3.246 Y-2.006 E0.0460
G1 X-2.229 Y-1.726 E0.0403
G1 X-1.238 Y-1.541 E0.0386
G1 X-0.441 Y-1.473 E0.0306
G1 X0.366 Y-1.495 E0.0309
G1 X1.140 Y-1.602 E0.0299
G1 X1.927 Y-1.792 E0.0310
G1 X2.745 Y-2.070 E0.0330
G1 X3.646 Y-2.455 E0.0375
G1 X6.340 Y-3.806 E0.1153
G1 X7.236 Y-4.208 E0.0376
G1 X8.073 Y-4.516 E0.0341
G1 X8.818 Y-4.719 E0.0295
G1 X9.059 Y-4.769 E0.0094
G1 X9.717 Y-4.717 E0.0253
G1 X10.384 Y-4.554 E0.0263
G1 X10.982 Y-4.305 E0.0248
G1 X11.554 Y-3.955 E0.0256
G1 X12.075 Y-3.508 E0.0263
G1 X12.498 Y-3.010 E0.0250
G1 X12.844 Y-2.448 E0.0253
G1 X13.105 Y-1.820 E0.0260
G1 X13.261 Y-1.169 E0.0256
G1 X13.314 Y-0.492 E0.0260
G1 X13.314 Y0.490 E0.0376
G1 X13.261 Y1.167 E0.0260
G1 X13.105 Y1.818 E0.0256
G1 X12.848 Y2.437 E0.0256
G1 X12.498 Y3.008 E0.0256
G1 X12.063 Y3.518 E0.0256
G1 X11.554 Y3.953 E0.0256
G1 X10.983 Y4.303 E0.0256
G1 X10.364 Y4.559 E0.0256
G1 X9.712 Y4.716 E0.0256
G1 X9.059 Y4.767 E0.0251
; feature inner perimeter
G1 X9.097 Y3.143 F9000
G1 X9.635 Y2.999 E0.0213 F1629
G1 X10.141 Y2.764 E0.0213
G1 X10.597 Y2.444 E0.0213
G1 X10.991 Y2.050 E0.0213
G1 X11.311 Y1.593 E0.0213
G1 X11.546 Y1.087 E0.0213
G1 X11.689 Y0.548 E0.0213
G1 X11.737 Y-0.007 E0.0213
G1 X11.689 Y-0.551 E0.0209
G1 X11.546 Y-1.089 E0.0213
G1 X11.311 Y-1.595 E0.0213
G1 X10.991 Y-2.052 E0.0214
G1 X10.589 Y-2.453 E0.0217
G1 X10.141 Y-2.766 E0.0209
G1 X9.646 Y-2.997 E0.0209
G1 X9.109 Y-3.143 E0.0213
G1 X8.545 Y-3.194 E0.0217
G1 X7.986 Y-3.144 E0.0215
G1 X7.447 Y-2.999 E0.0213
G1 X6.943 Y-2.763 E0.0213
G1 X6.495 Y-2.449 E0.0209
G1 X6.094 Y-2.048 E0.0217
G1 X5.780 Y-1.599 E0.0210
G1 X5.541 Y-1.083 E0.0217
G1 X5.399 Y-0.545 E0.0213
G1 X5.352 Y-0.001 E0.0209
G1 X5.400 Y0.553 E0.0213
G1 X5.545 Y1.093 E0.0214
G1 X5.781 Y1.598 E0.0213
G1 X6.101 Y2.054 E0.0213
G1 X6.496 Y2.448 E0.0213
G1 X6.953 Y2.767 E0.0213
G1 X7.448 Y2.997 E0.0209
G1 X7.975 Y3.140 E0.0209
G1 X8.540 Y3.192 E0.0217
G1 X9.097 Y3.143 E0.0214
; feature outer perimeter
G1 X9.017 Y2.689 F9000
G1 X9.478 Y2.565 E0.0182 F1086
G1 X9.910 Y2.364 E0.0182
G1 X10.300 Y2.090 E0.0182
G1 X10.638 Y1.753 E0.0182
G1 X10.911 Y1.362 E0.0182
G1 X11.112 Y0.930 E0.0182
G1 X11.235 Y0.469 E0.0182
G1 X11.275 Y-0.006 E0.0182
G1 X11.234 Y-0.471 E0.0178
G1 X11.112 Y-0.932 E0.0182
G1 X10.911 Y-1.364 E0.0182
G1 X10.637 Y-1.755 E0.0183
G1 X10.292 Y-2.099 E0.0186
G1 X9.910 Y-2.366 E0.0178
G1 X9.487 Y-2.564 E0.0178
G1 X9.027 Y-2.689 E0.0182
G1 X8.545 Y-2.732 E0.0185
G1 X8.067 Y-2.690 E0.0184
G1 X7.606 Y-2.566 E0.0182
G1 X7.175 Y-2.363 E0.0182
G1 X6.792 Y-2.096 E0.0179
G1 X6.448 Y-1.751 E0.0186
G1 X6.181 Y-1.368 E0.0179
G1 X5.975 Y-0.927 E0.0186
G1 X5.854 Y-0.466 E0.0182
G1 X5.814 Y-0.001 E0.0178
G1 X5.855 Y0.473 E0.0182
G1 X5.979 Y0.935 E0.0183
G1 X6.181 Y1.367 E0.0182
G1 X6.455 Y1.757 E0.0182
G1 X6.793 Y2.094 E0.0182
G1 X7.183 Y2.366 E0.0182
G1 X7.606 Y2.564 E0.0178
G1 X8.057 Y2.685 E0.0178
G1 X8.541 Y2.730 E0.0186
G1 X9.017 Y2.689 E0.0183
G1 E-1.9000 F1200
; feature inner perimeter
G1 Z0.700 F1200
G1 X-8.311 Y0.553 F9000
G1 Z0.200 F1200
G1 E1.9000 F1200
G1 X-8.263 Y-0.001 E0.0213 F1629
G1 X-8.311 Y-0.555 E0.0213
G1 X-8.456 Y-1.093 E0.0213
G1 X-8.691 Y-1.597 E0.0213
G1 X-9.010 Y-2.053 E0.0213
G1 X-9.403 Y-2.447 E0.0213
G1 X-9.859 Y-2.766 E0.0213
G1 X-10.364 Y-3.001 E0.0213
G1 X-10.901 Y-3.145 E0.0213
G1 X-11.456 Y-3.194 E0.0213
G1 X-12.010 Y-3.145 E0.0213
G1 X-12.548 Y-3.001 E0.0213
G1 X-13.052 Y-2.766 E0.0213
G1 X-13.508 Y-2.447 E0.0213
G1 X-13.901 Y-2.053 E0.0213
G1 X-14.220 Y-1.597 E0.0213
G1 X-14.456 Y-1.093 E0.0213
G1 X-14.600 Y-0.555 E0.0213
G1 X-14.648 Y0.002 E0.0214
G1 X-14.593 Y0.577 E0.0221
G1 X-14.456 Y1.091 E0.0203
G1 X-14.220 Y1.595 E0.0213
G1 X-13.901 Y2.051 E0.0213
G1 X-13.508 Y2.445 E0.0213
G1 X-13.052 Y2.764 E0.0213
G1 X-12.548 Y2.999 E0.0213
G1 X-12.010 Y3.143 E0.0213
G1 X-11.456 Y3.192 E0.0213
G1 X-10.901 Y3.143 E0.0213
G1 X-10.364 Y2.999 E0.0213
G1 X-9.859 Y2.764 E0.0213
G1 X-9.403 Y2.445 E0.0213
G1 X-9.010 Y2.051 E0.0213
G1 X-8.691 Y1.595 E0.0213
G1 X-8.456 Y1.091 E0.0213
G1 X-8.311 Y0.553 E0.0213
; feature outer perimeter
G1 X-8.766 Y0.473 F9000
G1 X-8.725 Y-0.001 E0.0182 F1086
G1 X-8.766 Y-0.475 E0.0182
G1 X-8.889 Y-0.935 E0.0182
G1 X-9.091 Y-1.366 E0.0182
G1 X-9.364 Y-1.756 E0.0182
G1 X-9.700 Y-2.093 E0.0182
G1 X-10.090 Y-2.366 E0.0182
G1 X-10.522 Y-2.567 E0.0182
G1 X-10.981 Y-2.690 E0.0182
G1 X-11.456 Y-2.732 E0.0182
G1 X-11.930 Y-2.690 E0.0182
G1 X-12.390 Y-2.567 E0.0182
G1 X-12.821 Y-2.366 E0.0182
G1 X-13.211 Y-2.093 E0.0182
G1 X-13.548 Y-1.756 E0.0182
G1 X-13.821 Y-1.366 E0.0182
G1 X-14.022 Y-0.935 E0.0182
G1 X-14.145 Y-0.475 E0.0182
G1 X-14.187 Y-0.000 E0.0182
G1 X-14.139 Y0.495 E0.0190
G1 X-14.022 Y0.933 E0.0173
G1 X-13.821 Y1.364 E0.0182
G1 X-13.548 Y1.754 E0.0182
G1 X-13.211 Y2.091 E0.0182
G1 X-12.821 Y2.364 E0.0182
G1 X-12.390 Y2.565 E0.0182
G1 X-11.930 Y2.688 E0.0182
G1 X-11.456 Y2.730 E0.0182
G1 X-10.981 Y2.688 E0.0182
G1 X-10.522 Y2.565 E0.0182
G1 X-10.090 Y2.364 E0.0182
G1 X-9.700 Y2.091 E0.0182
G1 X-9.364 Y1.754 E0.0182
G1 X-9.091 Y1.364 E0.0182
G1 X-8.889 Y0.933 E0.0182
G1 X-8.766 Y0.473 E0.0182
