; G-Code generated by Simplify3D(R) Version 4.1.2
; Apr 2, 2020 at 2:08:06 PM
; Settings Summary
;   processName,Process1
;   applyToModels,torchv1r2,torchv1r2(2)
;   profileName,MakerBot Replicator 2 HBP (modified)
;   profileVersion,2020-03-12 10:48:50
;   baseProfile,MakerBot Replicator 2(2)
;   printMaterial,PLA
;   printQuality,Medium
;   printExtruders,
;   extruderName,Primary Extruder
;   extruderToolheadNumber,0
;   extruderDiameter,0.4
;   extruderAutoWidth,0
;   extruderWidth,0.4
;   extrusionMultiplier,1
;   extruderUseRetract,1
;   extruderRetractionDistance,1.9
;   extruderExtraRestartDistance,0
;   extruderRetractionZLift,0.5
;   extruderRetractionSpeed,1200
;   extruderUseCoasting,0
;   extruderCoastingDistance,0.2
;   extruderUseWipe,0
;   extruderWipeDistance,5
;   primaryExtruder,0
;   layerHeight,0.2
;   topSolidLayers,3
;   bottomSolidLayers,3
;   perimeterOutlines,2
;   printPerimetersInsideOut,1
;   startPointOption,3
;   startPointOriginX,0
;   startPointOriginY,150
;   sequentialIslands,0
;   spiralVaseMode,0
;   firstLayerHeightPercentage,100
;   firstLayerWidthPercentage,115
;   firstLayerUnderspeed,0.5
;   useRaft,0
;   raftExtruder,0
;   raftTopLayers,2
;   raftBaseLayers,1
;   raftOffset,1
;   raftSeparationDistance,0.14
;   raftTopInfill,90
;   aboveRaftSpeedMultiplier,0.3
;   useSkirt,0
;   skirtExtruder,0
;   skirtLayers,1
;   skirtOutlines,5
;   skirtOffset,0
;   usePrimePillar,0
;   primePillarExtruder,999
;   primePillarWidth,12
;   primePillarLocation,7
;   primePillarSpeedMultiplier,1
;   useOozeShield,0
;   oozeShieldExtruder,999
;   oozeShieldOffset,2
;   oozeShieldOutlines,1
;   oozeShieldSidewallShape,1
;   oozeShieldSidewallAngle,30
;   oozeShieldSpeedMultiplier,1
;   infillExtruder,0
;   internalInfillPattern,Rectilinear
;   externalInfillPattern,Rectilinear
;   infillPercentage,15
;   outlineOverlapPercentage,25
;   infillExtrusionWidthPercentage,100
;   minInfillLength,5
;   infillLayerInterval,1
;   internalInfillAngles,45,-45
;   overlapInternalInfillAngles,0
;   externalInfillAngles,45,-45
;   generateSupport,0
;   supportExtruder,0
;   supportInfillPercentage,30
;   supportExtraInflation,0.5
;   supportBaseLayers,0
;   denseSupportExtruder,0
;   denseSupportLayers,2
;   denseSupportInfillPercentage,90
;   supportLayerInterval,1
;   supportHorizontalPartOffset,0.3
;   supportUpperSeparationLayers,1
;   supportLowerSeparationLayers,1
;   supportType,1
;   supportGridSpacing,2
;   maxOverhangAngle,45
;   supportAngles,45,-45
;   temperatureName,Primary Extruder,Heated Build Platform
;   temperatureNumber,0,0
;   temperatureSetpointCount,1,1
;   temperatureSetpointLayers,1,1
;   temperatureSetpointTemperatures,230,60
;   temperatureStabilizeAtStartup,1,1
;   temperatureHeatedBed,0,1
;   fanLayers,1,2
;   fanSpeeds,0,100
;   blipFanToFullPower,1
;   adjustSpeedForCooling,1
;   minSpeedLayerTime,15
;   minCoolingSpeedSlowdown,20
;   increaseFanForCooling,1
;   minFanLayerTime,45
;   maxCoolingFanSpeed,100
;   increaseFanForBridging,1
;   bridgingFanSpeed,100
;   use5D,1
;   relativeEdistances,1
;   allowEaxisZeroing,0
;   independentExtruderAxes,1
;   includeM10123,0
;   stickySupport,1
;   applyToolheadOffsets,0
;   gcodeXoffset,0
;   gcodeYoffset,0
;   gcodeZoffset,0
;   overrideMachineDefinition,1
;   machineTypeOverride,0
;   strokeXoverride,280
;   strokeYoverride,150
;   strokeZoverride,150
;   originOffsetXoverride,140
;   originOffsetYoverride,75
;   originOffsetZoverride,0
;   homeXdirOverride,1
;   homeYdirOverride,1
;   homeZdirOverride,-1
;   flipXoverride,1
;   flipYoverride,-1
;   flipZoverride,1
;   toolheadOffsets,0,0|0,0|0,0|0,0|0,0|0,0
;   overrideFirmwareConfiguration,1
;   firmwareTypeOverride,MakerBot/Sailfish Firmware
;   GPXconfigOverride,r2h
;   baudRateOverride,115200
;   overridePrinterModels,1
;   printerModelsOverride,MakerBot_Replicator2.stl
;   startingGcode,; **** Replicator 2 start.gcode ****,M73 P0 ; enable build progress,G162 X Y F3000 ; home XY maximum,G161 Z F1200 ; home Z minimum,G92 Z-5 ; set Z to -5,G1 Z0 ; move Z to 0,G161 Z F100 ; home Z slowly,M132 X Y Z A B ; recall home offsets,G1 X-145 Y-75 Z30 F9000 ; move to wait position off table,G130 X20 Y20 Z20 A20 B20 ; lower stepper Vrefs while heating,M126 S[fan_speed_pwm],M140 S[bed0_temperature] T0,M134 T0 ; stabilize bed temperature,M104 S[extruder0_temperature] T0,M133 T0 ; stabilize extruder temperature,G130 X127 Y127 Z40 A127 B127 ; default stepper Vrefs,G92 A0 ; zero extruder,G1 Z0.4 ; position nozzle,G1 E25 F300 ; purge nozzle,G1 X-140 Y-70 Z0.15 F1200 ; slow wipe,G1 X-135 Y-65 Z0.5 F1200 ; lift,G92 A0 ; zero extruder,M73 P1 ;@body (notify GPX body has started),; **** end of start.gcode ****
;   layerChangeGcode,
;   retractionGcode,
;   toolChangeGcode,
;   endingGcode,; **** Replicator 2 end.gcode ****,M73 P100 ; end build progress,G1 Z155 F1000 ; send Z axis to bottom of machine,M104 S0 T0 ; cool down extruder,M140 S0 T0 ; cool down HBP,M127 ; stop blower fan,G162 X Y F3000 ; home XY maximum,M18 ; disable stepper,M0 ; stop codes,M72 P1 ; play Ta-Da song,; **** end of end.gcode ****
;   exportFileFormat,gcode
;   celebration,0
;   celebrationSong,Random Song
;   postProcessing,
;   defaultSpeed,4800
;   outlineUnderspeed,0.5
;   solidInfillUnderspeed,1
;   supportUnderspeed,1
;   rapidXYspeed,9000
;   rapidZspeed,1200
;   minBridgingArea,50
;   bridgingExtraInflation,0
;   bridgingExtrusionMultiplier,1
;   bridgingSpeedMultiplier,0.8
;   useFixedBridgingAngle,0
;   fixedBridgingAngle,0
;   applyBridgingToPerimeters,0
;   filamentDiameters,1.75|1.75|1.75|1.75|1.75|1.75
;   filamentPricesPerKg,46|46|46|46|46|46
;   filamentDensities,1.25|1.25|1.25|1.25|1.25|1.25
;   useMinPrintHeight,0
;   minPrintHeight,0
;   useMaxPrintHeight,0
;   maxPrintHeight,4.84
;   useDiaphragm,0
;   diaphragmLayerInterval,20
;   robustSlicing,1
;   mergeAllIntoSolid,0
;   onlyRetractWhenCrossingOutline,0
;   retractBetweenLayers,0
;   useRetractionMinTravel,1
;   retractionMinTravel,7
;   retractWhileWiping,1
;   onlyWipeOutlines,1
;   avoidCrossingOutline,0
;   maxMovementDetourFactor,3
;   toolChangeRetractionDistance,12
;   toolChangeExtraRestartDistance,-0.5
;   toolChangeRetractionSpeed,600
;   externalThinWallType,0
;   internalThinWallType,0
;   thinWallAllowedOverlapPercentage,10
;   singleExtrusionMinLength,1
;   singleExtrusionMinPrintingWidthPercentage,50
;   singleExtrusionMaxPrintingWidthPercentage,200
;   singleExtrusionEndpointExtension,0.2
;   horizontalSizeCompensation,0
G90
M83
; **** Replicator 2 start.gcode ****
M73 P0 ; enable build progress
G162 X Y F3000 ; home XY maximum
G161 Z F1200 ; home Z minimum
G92 Z-5 ; set Z to -5
G1 Z0 ; move Z to 0
G161 Z F100 ; home Z slowly
M132 X Y Z A B ; recall home offsets
G1 X-145 Y-75 Z30 F9000 ; move to wait position off table
G130 X20 Y20 Z20 A20 B20 ; lower stepper Vrefs while heating
M126 S170
M140 S60 T0
M134 T0 ; stabilize bed temperature
M104 S230 T0
M133 T0 ; stabilize extruder temperature
G130 X127 Y127 Z40 A127 B127 ; default stepper Vrefs
G92 A0 ; zero extruder
G1 Z0.4 ; position nozzle
G1 E25 F300 ; purge nozzle
G1 X-140 Y-70 Z0.15 F1200 ; slow wipe
G1 X-135 Y-65 Z0.5 F1200 ; lift
G92 A0 ; zero extruder
M73 P1 ;@body (notify GPX body has started)
; **** end of start.gcode ****
; process Process1
; layer 1, Z = 0.200
M135 T0
G1 E-1.9000 F1200
; feature inner perimeter
; tool H0.200 W0.460
G1 Z0.500 F1200
G1 X-10.131 Y5.784 F9000
G1 Z0.200 F1200
G1 E1.9000 F1200
G1 X-11.064 Y5.793 E0.0357 F1463
G1 X-11.064 Y-5.793 E0.4432
G1 X-10.080 Y-5.781 E0.0377
G1 X-9.314 Y-5.706 E0.0294
G1 X-8.824 Y-5.617 E0.0190
G1 X-7.898 Y-5.349 E0.0369
G1 X-6.816 Y-4.795 E0.0465
G1 X-6.711 Y-4.711 E0.0051
G1 X-6.431 Y-4.437 E0.0150
G1 X-6.065 Y-4.209 E0.0165
G1 X-5.907 Y-4.085 E0.0077
G1 X-5.148 Y-3.206 E0.0444
G1 X-4.585 Y-2.205 E0.0439
G1 X-4.525 Y-2.018 E0.0075
G1 X-4.446 Y-1.665 E0.0138
G1 X-4.301 Y-1.315 E0.0145
G1 X-4.236 Y-1.102 E0.0085
G1 X-4.125 Y0.027 E0.0434
G1 X-4.200 Y0.755 E0.0280
G1 X-4.306 Y1.215 E0.0180
G1 X-4.342 Y1.437 E0.0086
G1 X-4.586 Y2.206 E0.0309
G1 X-5.147 Y3.204 E0.0438
G1 X-5.275 Y3.351 E0.0075
G1 X-5.558 Y3.615 E0.0148
G1 X-5.762 Y3.917 E0.0139
G1 X-5.907 Y4.085 E0.0085
G1 X-6.835 Y4.809 E0.0450
G1 X-7.529 Y5.164 E0.0298
G1 X-8.126 Y5.413 E0.0247
G1 X-9.080 Y5.686 E0.0380
G1 X-10.131 Y5.784 E0.0404
; feature outer perimeter
G1 X-10.107 Y6.244 F9000
G1 X-11.524 Y6.258 E0.0542 F975
G1 X-11.524 Y-6.258 E0.4787
G1 X-10.054 Y-6.241 E0.0562
G1 X-9.250 Y-6.162 E0.0309
G1 X-8.719 Y-6.066 E0.0207
G1 X-7.728 Y-5.778 E0.0395
G1 X-6.564 Y-5.183 E0.0500
G1 X-6.405 Y-5.055 E0.0078
G1 X-6.145 Y-4.801 E0.0139
G1 X-5.801 Y-4.586 E0.0155
G1 X-5.588 Y-4.420 E0.0103
G1 X-4.769 Y-3.471 E0.0479
G1 X-4.161 Y-2.390 E0.0475
G1 X-4.081 Y-2.139 E0.0101
G1 X-4.005 Y-1.804 E0.0131
G1 X-3.867 Y-1.471 E0.0138
G1 X-3.783 Y-1.192 E0.0111
G1 X-3.662 Y0.028 E0.0469
G1 X-3.746 Y0.831 E0.0309
G1 X-3.855 Y1.303 E0.0185
G1 X-3.894 Y1.544 E0.0093
G1 X-4.162 Y2.390 E0.0340
G1 X-4.769 Y3.471 E0.0474
G1 X-4.944 Y3.671 E0.0102
G1 X-5.206 Y3.916 E0.0137
G1 X-5.396 Y4.197 E0.0130
G1 X-5.588 Y4.420 E0.0113
G1 X-6.587 Y5.199 E0.0485
G1 X-7.336 Y5.582 E0.0322
G1 X-7.973 Y5.847 E0.0264
G1 X-8.995 Y6.140 E0.0407
G1 X-10.107 Y6.244 E0.0427
; feature solid layer
G1 X-10.174 Y5.439 F9000
G1 X-10.719 Y4.894 E0.0295 F1951
G1 X-10.719 Y4.243 E0.0249
G1 X-9.576 Y5.386 E0.0618
G1 X-9.144 Y5.346 E0.0166
G1 X-9.006 Y5.306 E0.0055
G1 X-10.719 Y3.592 E0.0927
G1 X-10.719 Y2.942 E0.0249
G1 X-8.500 Y5.161 E0.1200
G1 X-8.240 Y5.086 E0.0104
G1 X-8.017 Y4.994 E0.0092
G1 X-10.719 Y2.291 E0.1462
G1 X-10.719 Y1.641 E0.0249
G1 X-7.565 Y4.795 E0.1706
G1 X-7.135 Y4.575 E0.0185
G1 X-10.719 Y0.990 E0.1939
G1 X-10.719 Y0.340 E0.0249
G1 X-6.752 Y4.307 E0.2146
G1 X-6.387 Y4.022 E0.0177
G1 X-10.719 Y-0.311 E0.2344
G1 X-10.719 Y-0.961 E0.0249
G1 X-6.043 Y3.715 E0.2529
G1 X-6.037 Y3.707 E0.0004
G1 X-5.822 Y3.390 E0.0146
G1 X-5.768 Y3.339 E0.0028
G1 X-10.719 Y-1.612 E0.2678
G1 X-10.719 Y-2.262 E0.0249
G1 X-5.441 Y3.016 E0.2855
G1 X-5.430 Y3.004 E0.0006
G1 X-5.204 Y2.602 E0.0176
G1 X-10.719 Y-2.913 E0.2983
G1 X-10.719 Y-3.563 E0.0249
G1 X-4.970 Y2.186 E0.3110
G1 X-4.904 Y2.068 E0.0052
G1 X-4.792 Y1.714 E0.0142
G1 X-10.719 Y-4.214 E0.3206
G1 X-10.719 Y-4.865 E0.0249
G1 X-4.654 Y1.201 E0.3281
G1 X-4.645 Y1.149 E0.0020
G1 X-4.541 Y0.698 E0.0177
G1 X-4.538 Y0.666 E0.0012
G1 X-10.647 Y-5.443 E0.3304
G1 X-10.098 Y-5.436 E0.0210
G1 X-9.978 Y-5.425 E0.0046
G1 X-4.477 Y0.077 E0.2976
G1 X-4.471 Y0.026 E0.0020
G1 X-4.537 Y-0.633 E0.0253
G1 X-9.246 Y-5.343 E0.2548
G1 X-8.903 Y-5.281 E0.0133
G1 X-8.383 Y-5.130 E0.0207
G1 X-4.750 Y-1.497 E0.1965
G1 X-4.776 Y-1.560 E0.0026
G1 X-4.858 Y-1.927 E0.0144
G1 X-4.903 Y-2.066 E0.0056
G1 X-5.204 Y-2.602 E0.0235
G1 X-7.213 Y-4.611 E0.1087
G1 E-1.9000 F1200
; feature inner perimeter
G1 Z0.700 F1200
G1 X3.190 Y5.793 F9000
G1 Z0.200 F1200
G1 E1.9000 F1200
G1 X3.190 Y-5.793 E0.4432 F1463
G1 X4.175 Y-5.781 E0.0377
G1 X4.941 Y-5.706 E0.0294
G1 X5.430 Y-5.617 E0.0190
G1 X6.356 Y-5.349 E0.0369
G1 X7.439 Y-4.795 E0.0465
G1 X7.543 Y-4.711 E0.0051
G1 X7.824 Y-4.437 E0.0150
G1 X8.189 Y-4.209 E0.0165
G1 X8.347 Y-4.085 E0.0077
G1 X9.107 Y-3.206 E0.0444
G1 X9.669 Y-2.205 E0.0439
G1 X9.730 Y-2.018 E0.0075
G1 X9.809 Y-1.665 E0.0138
G1 X9.953 Y-1.315 E0.0145
G1 X10.018 Y-1.102 E0.0085
G1 X10.130 Y0.027 E0.0434
G1 X10.054 Y0.755 E0.0280
G1 X9.948 Y1.215 E0.0180
G1 X9.912 Y1.437 E0.0086
G1 X9.668 Y2.206 E0.0309
G1 X9.107 Y3.204 E0.0438
G1 X8.979 Y3.351 E0.0074
G1 X8.696 Y3.615 E0.0148
G1 X8.492 Y3.917 E0.0139
G1 X8.347 Y4.085 E0.0085
G1 X7.419 Y4.809 E0.0450
G1 X6.725 Y5.164 E0.0298
G1 X6.129 Y5.413 E0.0247
G1 X5.174 Y5.686 E0.0380
G1 X4.123 Y5.784 E0.0404
G1 X3.190 Y5.793 E0.0357
; feature outer perimeter
G1 X2.730 Y6.258 F9000
G1 X2.730 Y-6.258 E0.4787 F975
G1 X4.200 Y-6.241 E0.0562
G1 X5.004 Y-6.162 E0.0309
G1 X5.535 Y-6.066 E0.0207
G1 X6.527 Y-5.778 E0.0395
G1 X7.691 Y-5.183 E0.0500
G1 X7.849 Y-5.056 E0.0078
G1 X8.110 Y-4.801 E0.0139
G1 X8.454 Y-4.586 E0.0155
G1 X8.666 Y-4.420 E0.0103
G1 X9.485 Y-3.471 E0.0479
G1 X10.093 Y-2.390 E0.0475
G1 X10.174 Y-2.139 E0.0101
G1 X10.249 Y-1.804 E0.0131
G1 X10.387 Y-1.471 E0.0138
G1 X10.471 Y-1.192 E0.0111
G1 X10.592 Y0.028 E0.0469
G1 X10.509 Y0.831 E0.0309
G1 X10.400 Y1.303 E0.0185
G1 X10.361 Y1.544 E0.0093
G1 X10.093 Y2.390 E0.0340
G1 X9.485 Y3.471 E0.0474
G1 X9.310 Y3.671 E0.0102
G1 X9.048 Y3.916 E0.0137
G1 X8.858 Y4.197 E0.0130
G1 X8.666 Y4.420 E0.0113
G1 X7.667 Y5.199 E0.0485
G1 X6.918 Y5.582 E0.0322
G1 X6.281 Y5.847 E0.0264
G1 X5.259 Y6.140 E0.0407
G1 X4.147 Y6.244 E0.0427
G1 X2.730 Y6.258 E0.0542
; feature solid layer
G1 X4.135 Y5.436 F9000
G1 X3.535 Y4.836 E0.0325 F1951
G1 X3.535 Y4.186 E0.0249
G1 X4.730 Y5.381 E0.0647
G1 X5.110 Y5.346 E0.0146
G1 X5.293 Y5.293 E0.0073
G1 X3.535 Y3.535 E0.0951
G1 X3.535 Y2.884 E0.0249
G1 X5.799 Y5.148 E0.1225
G1 X6.014 Y5.086 E0.0086
G1 X6.278 Y4.977 E0.0109
G1 X3.535 Y2.234 E0.1484
G1 X3.535 Y1.583 E0.0249
G1 X6.727 Y4.775 E0.1727
G1 X7.158 Y4.555 E0.0185
G1 X3.535 Y0.933 E0.1960
G1 X3.535 Y0.282 E0.0249
G1 X7.534 Y4.282 E0.2163
G1 X7.900 Y3.997 E0.0177
G1 X3.535 Y-0.368 E0.2361
G1 X3.535 Y-1.019 E0.0249
G1 X8.235 Y3.681 E0.2542
G1 X8.432 Y3.390 E0.0135
G1 X8.516 Y3.311 E0.0044
G1 X3.535 Y-1.669 E0.2694
G1 X3.535 Y-2.320 E0.0249
G1 X8.837 Y2.982 E0.2868
G1 X9.071 Y2.565 E0.0183
G1 X3.535 Y-2.970 E0.2994
G1 X3.535 Y-3.621 E0.0249
G1 X9.305 Y2.149 E0.3121
G1 X9.350 Y2.068 E0.0035
G1 X9.476 Y1.670 E0.0160
G1 X3.535 Y-4.271 E0.3214
G1 X3.535 Y-4.922 E0.0249
G1 X9.609 Y1.152 E0.3285
G1 X9.713 Y0.698 E0.0178
G1 X9.722 Y0.614 E0.0032
G1 X3.666 Y-5.442 E0.3276
G1 X4.156 Y-5.436 E0.0188
G1 X4.340 Y-5.418 E0.0071
G1 X9.783 Y0.025 E0.2944
G1 X9.712 Y-0.697 E0.0277
G1 X5.078 Y-5.330 E0.2506
G1 X5.351 Y-5.281 E0.0106
G1 X5.952 Y-5.107 E0.0239
G1 X9.473 Y-1.586 E0.1904
G1 X9.396 Y-1.927 E0.0133
G1 X9.352 Y-2.066 E0.0056
G1 X8.976 Y-2.734 E0.0293
G1 X7.159 Y-4.551 E0.0983
G1 E-1.9000 F1200
; layer 2, Z = 0.400
M126 S255
; feature inner perimeter
; tool H0.200 W0.400
G1 Z0.700 F1200
G1 X3.100 Y5.867 F9000
G1 Z0.400 F1200
G1 E1.9000 F1200
G1 X3.100 Y-5.866 E0.3902 F1635
G1 X4.180 Y-5.854 E0.0359
G1 X4.806 Y-5.793 E0.0209
G1 X5.159 Y-5.715 E0.0120
G1 X5.529 Y-5.662 E0.0124
G1 X6.383 Y-5.416 E0.0296
G1 X7.471 Y-4.860 E0.0406
G1 X7.545 Y-4.798 E0.0032
G1 X7.709 Y-4.581 E0.0091
G1 X7.869 Y-4.427 E0.0074
G1 X8.062 Y-4.307 E0.0076
G1 X8.284 Y-4.220 E0.0079
G1 X8.401 Y-4.133 E0.0049
G1 X9.165 Y-3.248 E0.0389
G1 X9.733 Y-2.239 E0.0385
G1 X9.776 Y-2.096 E0.0050
G1 X9.788 Y-1.845 E0.0084
G1 X9.843 Y-1.597 E0.0084
G1 X10.035 Y-1.280 E0.0124
G1 X10.089 Y-1.111 E0.0059
G1 X10.202 Y0.026 E0.0380
G1 X10.129 Y0.708 E0.0228
G1 X10.126 Y0.719 E0.0004
G1 X10.034 Y0.905 E0.0069
G1 X9.978 Y1.125 E0.0076
G1 X9.956 Y1.537 E0.0137
G1 X9.734 Y2.236 E0.0244
G1 X9.168 Y3.243 E0.0384
G1 X9.086 Y3.335 E0.0041
G1 X8.866 Y3.480 E0.0088
G1 X8.696 Y3.639 E0.0077
G1 X8.572 Y3.831 E0.0076
G1 X8.482 Y4.034 E0.0074
G1 X8.393 Y4.141 E0.0046
G1 X7.458 Y4.870 E0.0395
G1 X6.789 Y5.210 E0.0249
G1 X6.756 Y5.220 E0.0012
G1 X6.567 Y5.251 E0.0064
G1 X6.359 Y5.326 E0.0073
G1 X6.045 Y5.510 E0.0121
G1 X5.215 Y5.753 E0.0288
G1 X4.127 Y5.856 E0.0363
G1 X3.100 Y5.867 E0.0342
; feature outer perimeter
G1 X2.700 Y6.271 F9000
G1 X2.700 Y-6.271 E0.4171 F1090
G1 X4.201 Y-6.253 E0.0499
G1 X4.868 Y-6.189 E0.0223
G1 X5.231 Y-6.109 E0.0124
G1 X5.613 Y-6.054 E0.0128
G1 X6.531 Y-5.790 E0.0318
G1 X7.694 Y-5.195 E0.0435
G1 X7.836 Y-5.075 E0.0062
G1 X8.009 Y-4.848 E0.0095
G1 X8.116 Y-4.745 E0.0049
G1 X8.242 Y-4.666 E0.0049
G1 X8.480 Y-4.573 E0.0085
G1 X8.675 Y-4.427 E0.0081
G1 X9.494 Y-3.479 E0.0417
G1 X10.103 Y-2.397 E0.0413
G1 X10.173 Y-2.165 E0.0080
G1 X10.186 Y-1.898 E0.0089
G1 X10.219 Y-1.748 E0.0051
G1 X10.402 Y-1.447 E0.0117
G1 X10.483 Y-1.193 E0.0089
G1 X10.604 Y0.028 E0.0408
G1 X10.523 Y0.784 E0.0253
G1 X10.501 Y0.863 E0.0028
G1 X10.411 Y1.045 E0.0067
G1 X10.375 Y1.186 E0.0048
G1 X10.352 Y1.610 E0.0141
G1 X10.103 Y2.396 E0.0274
G1 X9.495 Y3.477 E0.0413
