; G-Code generated by Simplify3D(R) Version 4.1.2
; Apr 2, 2020 at 2:00:53 PM
; Settings Summary
;   processName,Process1
;   applyToModels,Torch Flame A,Torch Flame A(2)
;   profileName,MakerBot Replicator 2 HBP (modified)
;   profileVersion,2020-03-12 10:48:50
;   baseProfile,MakerBot Replicator 2(2)
;   printMaterial,PLA
;   printQuality,Medium
;   printExtruders,
;   extruderName,Primary Extruder
;   extruderToolheadNumber,0
;   extruderDiameter,0.4
;   extruderAutoWidth,0
;   extruderWidth,0.4
;   extrusionMultiplier,1
;   extruderUseRetract,1
;   extruderRetractionDistance,1.9
;   extruderExtraRestartDistance,0
;   extruderRetractionZLift,0.5
;   extruderRetractionSpeed,1200
;   extruderUseCoasting,0
;   extruderCoastingDistance,0.2
;   extruderUseWipe,0
;   extruderWipeDistance,5
;   primaryExtruder,0
;   layerHeight,0.2
;   topSolidLayers,3
;   bottomSolidLayers,3
;   perimeterOutlines,2
;   printPerimetersInsideOut,1
;   startPointOption,3
;   startPointOriginX,0
;   startPointOriginY,150
;   sequentialIslands,0
;   spiralVaseMode,0
;   firstLayerHeightPercentage,100
;   firstLayerWidthPercentage,115
;   firstLayerUnderspeed,0.5
;   useRaft,0
;   raftExtruder,0
;   raftTopLayers,2
;   raftBaseLayers,1
;   raftOffset,1
;   raftSeparationDistance,0.14
;   raftTopInfill,90
;   aboveRaftSpeedMultiplier,0.3
;   useSkirt,0
;   skirtExtruder,0
;   skirtLayers,1
;   skirtOutlines,5
;   skirtOffset,0
;   usePrimePillar,0
;   primePillarExtruder,999
;   primePillarWidth,12
;   primePillarLocation,7
;   primePillarSpeedMultiplier,1
;   useOozeShield,0
;   oozeShieldExtruder,999
;   oozeShieldOffset,2
;   oozeShieldOutlines,1
;   oozeShieldSidewallShape,1
;   oozeShieldSidewallAngle,30
;   oozeShieldSpeedMultiplier,1
;   infillExtruder,0
;   internalInfillPattern,Rectilinear
;   externalInfillPattern,Rectilinear
;   infillPercentage,15
;   outlineOverlapPercentage,25
;   infillExtrusionWidthPercentage,100
;   minInfillLength,5
;   infillLayerInterval,1
;   internalInfillAngles,45,-45
;   overlapInternalInfillAngles,0
;   externalInfillAngles,45,-45
;   generateSupport,1
;   supportExtruder,0
;   supportInfillPercentage,30
;   supportExtraInflation,0.5
;   supportBaseLayers,0
;   denseSupportExtruder,0
;   denseSupportLayers,2
;   denseSupportInfillPercentage,90
;   supportLayerInterval,1
;   supportHorizontalPartOffset,0.3
;   supportUpperSeparationLayers,1
;   supportLowerSeparationLayers,1
;   supportType,1
;   supportGridSpacing,2
;   maxOverhangAngle,45
;   supportAngles,45,-45
;   temperatureName,Primary Extruder,Heated Build Platform
;   temperatureNumber,0,0
;   temperatureSetpointCount,1,1
;   temperatureSetpointLayers,1,1
;   temperatureSetpointTemperatures,230,60
;   temperatureStabilizeAtStartup,1,1
;   temperatureHeatedBed,0,1
;   fanLayers,1,2
;   fanSpeeds,0,100
;   blipFanToFullPower,1
;   adjustSpeedForCooling,1
;   minSpeedLayerTime,15
;   minCoolingSpeedSlowdown,20
;   increaseFanForCooling,1
;   minFanLayerTime,45
;   maxCoolingFanSpeed,100
;   increaseFanForBridging,1
;   bridgingFanSpeed,100
;   use5D,1
;   relativeEdistances,1
;   allowEaxisZeroing,0
;   independentExtruderAxes,1
;   includeM10123,0
;   stickySupport,1
;   applyToolheadOffsets,0
;   gcodeXoffset,0
;   gcodeYoffset,0
;   gcodeZoffset,0
;   overrideMachineDefinition,1
;   machineTypeOverride,0
;   strokeXoverride,280
;   strokeYoverride,150
;   strokeZoverride,150
;   originOffsetXoverride,140
;   originOffsetYoverride,75
;   originOffsetZoverride,0
;   homeXdirOverride,1
;   homeYdirOverride,1
;   homeZdirOverride,-1
;   flipXoverride,1
;   flipYoverride,-1
;   flipZoverride,1
;   toolheadOffsets,0,0|0,0|0,0|0,0|0,0|0,0
;   overrideFirmwareConfiguration,1
;   firmwareTypeOverride,MakerBot/Sailfish Firmware
;   GPXconfigOverride,r2h
;   baudRateOverride,115200
;   overridePrinterModels,1
;   printerModelsOverride,MakerBot_Replicator2.stl
;   startingGcode,; **** Replicator 2 start.gcode ****,M73 P0 ; enable build progress,G162 X Y F3000 ; home XY maximum,G161 Z F1200 ; home Z minimum,G92 Z-5 ; set Z to -5,G1 Z0 ; move Z to 0,G161 Z F100 ; home Z slowly,M132 X Y Z A B ; recall home offsets,G1 X-145 Y-75 Z30 F9000 ; move to wait position off table,G130 X20 Y20 Z20 A20 B20 ; lower stepper Vrefs while heating,M126 S[fan_speed_pwm],M140 S[bed0_temperature] T0,M134 T0 ; stabilize bed temperature,M104 S[extruder0_temperature] T0,M133 T0 ; stabilize extruder temperature,G130 X127 Y127 Z40 A127 B127 ; default stepper Vrefs,G92 A0 ; zero extruder,G1 Z0.4 ; position nozzle,G1 E25 F300 ; purge nozzle,G1 X-140 Y-70 Z0.15 F1200 ; slow wipe,G1 X-135 Y-65 Z0.5 F1200 ; lift,G92 A0 ; zero extruder,M73 P1 ;@body (notify GPX body has started),; **** end of start.gcode ****
;   layerChangeGcode,
;   retractionGcode,
;   toolChangeGcode,
;   endingGcode,; **** Replicator 2 end.gcode ****,M73 P100 ; end build progress,G1 Z155 F1000 ; send Z axis to bottom of machine,M104 S0 T0 ; cool down extruder,M140 S0 T0 ; cool down HBP,M127 ; stop blower fan,G162 X Y F3000 ; home XY maximum,M18 ; disable stepper,M0 ; stop codes,M72 P1 ; play Ta-Da song,; **** end of end.gcode ****
;   exportFileFormat,gcode
;   celebration,0
;   celebrationSong,Random Song
;   postProcessing,
;   defaultSpeed,4800
;   outlineUnderspeed,0.5
;   solidInfillUnderspeed,1
;   supportUnderspeed,1
;   rapidXYspeed,9000
;   rapidZspeed,1200
;   minBridgingArea,50
;   bridgingExtraInflation,0
;   bridgingExtrusionMultiplier,1
;   bridgingSpeedMultiplier,0.8
;   useFixedBridgingAngle,0
;   fixedBridgingAngle,0
;   applyBridgingToPerimeters,0
;   filamentDiameters,1.75|1.75|1.75|1.75|1.75|1.75
;   filamentPricesPerKg,46|46|46|46|46|46
;   filamentDensities,1.25|1.25|1.25|1.25|1.25|1.25
;   useMinPrintHeight,0
;   minPrintHeight,0
;   useMaxPrintHeight,0
;   maxPrintHeight,4.84
;   useDiaphragm,0
;   diaphragmLayerInterval,20
;   robustSlicing,1
;   mergeAllIntoSolid,0
;   onlyRetractWhenCrossingOutline,0
;   retractBetweenLayers,0
;   useRetractionMinTravel,1
;   retractionMinTravel,7
;   retractWhileWiping,1
;   onlyWipeOutlines,1
;   avoidCrossingOutline,0
;   maxMovementDetourFactor,3
;   toolChangeRetractionDistance,12
;   toolChangeExtraRestartDistance,-0.5
;   toolChangeRetractionSpeed,600
;   externalThinWallType,0
;   internalThinWallType,0
;   thinWallAllowedOverlapPercentage,10
;   singleExtrusionMinLength,1
;   singleExtrusionMinPrintingWidthPercentage,50
;   singleExtrusionMaxPrintingWidthPercentage,200
;   singleExtrusionEndpointExtension,0.2
;   horizontalSizeCompensation,0
G90
M83
; **** Replicator 2 start.gcode ****
M73 P0 ; enable build progress
G162 X Y F3000 ; home XY maximum
G161 Z F1200 ; home Z minimum
G92 Z-5 ; set Z to -5
G1 Z0 ; move Z to 0
G161 Z F100 ; home Z slowly
M132 X Y Z A B ; recall home offsets
G1 X-145 Y-75 Z30 F9000 ; move to wait position off table
G130 X20 Y20 Z20 A20 B20 ; lower stepper Vrefs while heating
M126 S156
M140 S60 T0
M134 T0 ; stabilize bed temperature
M104 S230 T0
M133 T0 ; stabilize extruder temperature
G130 X127 Y127 Z40 A127 B127 ; default stepper Vrefs
G92 A0 ; zero extruder
G1 Z0.4 ; position nozzle
G1 E25 F300 ; purge nozzle
G1 X-140 Y-70 Z0.15 F1200 ; slow wipe
G1 X-135 Y-65 Z0.5 F1200 ; lift
G92 A0 ; zero extruder
M73 P1 ;@body (notify GPX body has started)
; **** end of start.gcode ****
; process Process1
; layer 1, Z = 0.200
M135 T0
G1 E-1.9000 F1200
; feature inner perimeter
; tool H0.200 W0.460
G1 Z0.500 F1200
G1 X-3.196 Y4.340 F9000
G1 Z0.200 F1200
G1 E1.9000 F1200
G1 X-7.498 Y4.342 E0.1645 F1800
G1 X-8.544 Y4.228 E0.0403
G1 X-9.590 Y4.203 E0.0400
G1 X-10.851 Y4.290 E0.0483
G1 X-12.150 Y4.539 E0.0506
G1 X-12.084 Y4.164 E0.0146
G1 X-12.378 Y3.406 E0.0311
G1 X-13.007 Y2.919 E0.0304
G1 X-13.780 Y2.682 E0.0309
G1 X-14.939 Y2.603 E0.0444
G1 X-16.503 Y2.665 E0.0599
G1 X-17.948 Y2.846 E0.0557
G1 X-18.980 Y3.046 E0.0402
G1 X-18.658 Y2.645 E0.0197
G1 X-17.338 Y1.142 E0.0765
G1 X-15.982 Y-0.216 E0.0734
G1 X-14.544 Y-1.417 E0.0717
G1 X-13.540 Y-2.055 E0.0455
G1 X-11.964 Y-2.738 E0.0657
G1 X-11.192 Y-3.206 E0.0345
G1 X-10.640 Y-4.010 E0.0373
G1 X-10.698 Y-4.958 E0.0363
G1 X-10.083 Y-4.779 E0.0245
G1 X-9.350 Y-4.419 E0.0312
G1 X-8.701 Y-4.008 E0.0294
G1 X-7.760 Y-3.335 E0.0443
G1 X-3.202 Y-3.330 E0.1743
G1 X-3.196 Y-3.327 E0.0002
G1 X-3.191 Y4.337 E0.2931
G1 X-3.196 Y4.340 E0.0002
; feature outer perimeter
G1 X-3.069 Y4.799 F9000
G1 X-7.522 Y4.802 E0.1704 F1200
G1 X-8.574 Y4.688 E0.0405
G1 X-9.580 Y4.663 E0.0385
G1 X-10.791 Y4.747 E0.0464
G1 X-12.129 Y5.004 E0.0521
G1 X-12.945 Y5.295 E0.0331
G1 X-12.665 Y4.813 E0.0213
G1 X-12.559 Y4.211 E0.0234
G1 X-12.760 Y3.691 E0.0213
G1 X-13.222 Y3.334 E0.0223
G1 X-13.864 Y3.137 E0.0257
G1 X-14.946 Y3.064 E0.0415
G1 X-16.465 Y3.124 E0.0582
G1 X-17.876 Y3.301 E0.0544
G1 X-19.109 Y3.539 E0.0480
G1 X-20.094 Y3.782 E0.0388
G1 X-20.182 Y3.807 E0.0035
G1 X-19.010 Y2.349 E0.0716
G1 X-17.674 Y0.828 E0.0774
G1 X-16.293 Y-0.556 E0.0748
G1 X-14.816 Y-1.789 E0.0736
G1 X-13.756 Y-2.462 E0.0480
G1 X-12.176 Y-3.148 E0.0659
G1 X-11.515 Y-3.548 E0.0296
G1 X-11.109 Y-4.140 E0.0275
G1 X-11.157 Y-4.926 E0.0301
G1 X-11.294 Y-5.448 E0.0206
G1 X-10.746 Y-5.450 E0.0210
G1 X-9.916 Y-5.210 E0.0330
G1 X-9.125 Y-4.821 E0.0337
G1 X-8.444 Y-4.389 E0.0308
G1 X-7.612 Y-3.794 E0.0391
G1 X-3.074 Y-3.790 E0.1736
G1 X-2.737 Y-3.588 E0.0151
G1 X-2.731 Y4.597 E0.3131
G1 X-3.069 Y4.799 E0.0150
G1 E-1.9000 F1200
; feature solid layer
G1 Z0.700 F1200
G1 X-3.636 Y-2.986 F9000
G1 Z0.200 F1200
G1 E1.9000 F1200
G1 X-3.541 Y-2.891 E0.0051 F2400
G1 X-3.541 Y-2.240 E0.0249
G1 X-4.287 Y-2.986 E0.0404
G1 X-4.938 Y-2.987 E0.0249
G1 X-3.540 Y-1.589 E0.0756
G1 X-3.540 Y-0.938 E0.0249
G1 X-5.590 Y-2.987 E0.1109
G1 X-6.241 Y-2.988 E0.0249
G1 X-3.539 Y-0.287 E0.1461
G1 X-3.539 Y0.364 E0.0249
G1 X-6.892 Y-2.989 E0.1814
G1 X-7.543 Y-2.989 E0.0249
G1 X-3.539 Y1.015 E0.2166
G1 X-3.538 Y1.666 E0.0249
G1 X-8.981 Y-3.777 E0.2944
G1 X-9.519 Y-4.117 E0.0243
G1 X-10.208 Y-4.456 E0.0294
G1 X-10.324 Y-4.490 E0.0046
G1 X-10.322 Y-4.467 E0.0009
G1 X-3.538 Y2.317 E0.3670
G1 X-3.537 Y2.968 E0.0249
G1 X-10.341 Y-3.836 E0.3680
G1 X-10.606 Y-3.450 E0.0179
G1 X-3.537 Y3.619 E0.3824
G1 X-3.537 Y3.995 E0.0144
G1 X-3.812 Y3.995 E0.0105
G1 X-10.871 Y-3.065 E0.3819
G1 X-10.950 Y-2.950 E0.0053
G1 X-11.234 Y-2.777 E0.0127
G1 X-4.462 Y3.995 E0.3663
G1 X-5.112 Y3.995 E0.0249
G1 X-11.639 Y-2.532 E0.3531
G1 X-11.806 Y-2.431 E0.0074
G1 X-12.073 Y-2.315 E0.0112
G1 X-5.762 Y3.996 E0.3414
G1 X-6.412 Y3.996 E0.0249
G1 X-12.527 Y-2.118 E0.3307
G1 X-12.981 Y-1.921 E0.0189
G1 X-7.063 Y3.996 E0.3201
G1 X-7.479 Y3.997 E0.0159
G1 X-7.741 Y3.968 E0.0101
G1 X-13.427 Y-1.718 E0.3076
G1 X-13.825 Y-1.465 E0.0180
G1 X-8.471 Y3.889 E0.2896
G1 X-8.521 Y3.884 E0.0019
G1 X-9.142 Y3.869 E0.0238
G1 X-14.223 Y-1.212 E0.2748
G1 X-14.341 Y-1.138 E0.0053
G1 X-14.590 Y-0.929 E0.0125
G1 X-9.791 Y3.871 E0.2596
G1 X-10.399 Y3.913 E0.0233
G1 X-14.945 Y-0.633 E0.2459
G1 X-15.299 Y-0.337 E0.0177
G1 X-10.996 Y3.966 E0.2328
G1 X-11.542 Y4.071 E0.0213
G1 X-11.882 Y3.731 E0.0184
G1 X-12.091 Y3.191 E0.0221
G1 X-12.846 Y2.608 E0.0365
G1 X-13.076 Y2.537 E0.0092
G1 X-15.654 Y-0.041 E0.1395
G1 X-15.749 Y0.039 E0.0047
G1 X-15.987 Y0.277 E0.0129
G1 X-13.938 Y2.325 E0.1108
G1 X-14.636 Y2.278 E0.0268
G1 X-16.312 Y0.602 E0.0906
G1 X-16.636 Y0.928 E0.0176
G1 X-15.293 Y2.272 E0.0727
G1 X-15.919 Y2.297 E0.0240
G1 X-16.961 Y1.254 E0.0564
G1 X-17.086 Y1.378 E0.0067
G1 X-17.274 Y1.592 E0.0109
G1 X-16.543 Y2.322 E0.0395
G1 X-17.121 Y2.395 E0.0223
G1 X-17.578 Y1.938 E0.0247
G1 X-17.882 Y2.285 E0.0176
G1 X-17.699 Y2.467 E0.0099
G1 E-1.9000 F1200
; feature inner perimeter
G1 Z0.700 F1200
G1 X11.320 Y4.539 F9000
G1 Z0.200 F1200
G1 E1.9000 F1200
G1 X11.386 Y4.164 E0.0146 F1800
G1 X11.093 Y3.406 E0.0311
G1 X10.463 Y2.919 E0.0304
G1 X9.690 Y2.682 E0.0309
G1 X8.531 Y2.603 E0.0444
G1 X6.967 Y2.665 E0.0599
G1 X5.522 Y2.846 E0.0557
G1 X4.490 Y3.046 E0.0402
G1 X4.812 Y2.645 E0.0197
G1 X6.132 Y1.142 E0.0765
G1 X7.488 Y-0.216 E0.0734
G1 X8.926 Y-1.417 E0.0717
G1 X9.930 Y-2.055 E0.0455
G1 X11.506 Y-2.738 E0.0657
G1 X12.278 Y-3.206 E0.0345
G1 X12.830 Y-4.010 E0.0373
G1 X12.772 Y-4.958 E0.0363
G1 X13.387 Y-4.779 E0.0245
G1 X14.120 Y-4.419 E0.0312
G1 X14.769 Y-4.008 E0.0294
G1 X15.710 Y-3.335 E0.0443
G1 X20.268 Y-3.330 E0.1743
G1 X20.274 Y-3.327 E0.0002
G1 X20.279 Y4.337 E0.2931
G1 X20.274 Y4.340 E0.0002
G1 X15.972 Y4.342 E0.1645
G1 X14.926 Y4.228 E0.0403
G1 X13.880 Y4.203 E0.0400
G1 X12.620 Y4.290 E0.0483
G1 X11.320 Y4.539 E0.0506
; feature outer perimeter
G1 X11.341 Y5.004 F9000
G1 X10.525 Y5.295 E0.0331 F1200
G1 X10.805 Y4.813 E0.0213
G1 X10.911 Y4.211 E0.0234
G1 X10.710 Y3.691 E0.0213
G1 X10.248 Y3.334 E0.0223
G1 X9.606 Y3.137 E0.0257
G1 X8.525 Y3.064 E0.0415
G1 X7.005 Y3.124 E0.0582
G1 X5.594 Y3.301 E0.0544
G1 X4.361 Y3.539 E0.0480
G1 X3.376 Y3.782 E0.0388
G1 X3.288 Y3.807 E0.0035
G1 X4.460 Y2.349 E0.0716
G1 X5.796 Y0.828 E0.0774
G1 X7.177 Y-0.556 E0.0748
G1 X8.654 Y-1.789 E0.0736
G1 X9.714 Y-2.462 E0.0480
G1 X11.294 Y-3.148 E0.0659
G1 X11.955 Y-3.548 E0.0296
G1 X12.361 Y-4.140 E0.0275
G1 X12.313 Y-4.926 E0.0301
G1 X12.176 Y-5.448 E0.0206
G1 X12.724 Y-5.450 E0.0210
G1 X13.554 Y-5.210 E0.0330
G1 X14.345 Y-4.821 E0.0337
G1 X15.026 Y-4.389 E0.0308
G1 X15.858 Y-3.794 E0.0391
G1 X20.396 Y-3.790 E0.1736
G1 X20.734 Y-3.588 E0.0151
G1 X20.739 Y4.597 E0.3131
G1 X20.402 Y4.799 E0.0150
G1 X15.948 Y4.802 E0.1704
G1 X14.896 Y4.688 E0.0405
G1 X13.890 Y4.663 E0.0385
G1 X12.679 Y4.747 E0.0464
G1 X11.341 Y5.004 E0.0521
; feature solid layer
G1 X5.726 Y2.473 F9000
G1 X5.564 Y2.312 E0.0087 F2400
G1 X5.869 Y1.965 E0.0176
G1 X6.304 Y2.401 E0.0235
G1 X6.882 Y2.328 E0.0223
G1 X6.173 Y1.619 E0.0383
G1 X6.384 Y1.378 E0.0123
G1 X6.483 Y1.279 E0.0054
G1 X7.503 Y2.298 E0.0551
G1 X8.129 Y2.274 E0.0240
G1 X6.808 Y0.953 E0.0714
G1 X7.133 Y0.628 E0.0176
G1 X8.780 Y2.274 E0.0891
G1 X9.478 Y2.322 E0.0268
G1 X7.458 Y0.302 E0.1092
G1 X7.721 Y0.039 E0.0142
G1 X7.789 Y-0.018 E0.0034
G1 X10.321 Y2.515 E0.1370
G1 X10.624 Y2.608 E0.0121
G1 X11.380 Y3.191 E0.0365
G1 X11.620 Y3.814 E0.0255
G1 X11.886 Y4.079 E0.0144
G1 X12.432 Y3.975 E0.0213
G1 X8.143 Y-0.314 E0.2320
G1 X8.498 Y-0.610 E0.0177
G1 X13.024 Y3.916 E0.2448
G1 X13.632 Y3.874 E0.0233
G1 X8.852 Y-0.906 E0.2586
G1 X9.130 Y-1.138 E0.0138
G1 X9.216 Y-1.193 E0.0039
G1 X14.276 Y3.867 E0.2737
G1 X14.943 Y3.884 E0.0255
G1 X9.614 Y-1.445 E0.2883
G1 X10.012 Y-1.698 E0.0180
G1 X15.672 Y3.962 E0.3062
G1 X15.991 Y3.997 E0.0123
G1 X16.357 Y3.996 E0.0140
G1 X10.454 Y-1.906 E0.3193
G1 X10.908 Y-2.103 E0.0189
G1 X17.007 Y3.996 E0.3299
G1 X17.657 Y3.996 E0.0249
G1 X11.362 Y-2.300 E0.3405
G1 X11.664 Y-2.431 E0.0126
G1 X11.799 Y-2.513 E0.0060
G1 X18.307 Y3.996 E0.3520
G1 X18.958 Y3.995 E0.0249
G1 X12.204 Y-2.758 E0.3653
G1 X12.520 Y-2.950 E0.0141
G1 X12.578 Y-3.035 E0.0039
G1 X19.608 Y3.995 E0.3802
G1 X19.934 Y3.995 E0.0125
G1 X19.933 Y3.670 E0.0124
G1 X12.843 Y-3.420 E0.3835
G1 X13.108 Y-3.806 E0.0179
G1 X19.933 Y3.019 E0.3691
G1 X19.932 Y2.368 E0.0249
G1 X13.151 Y-4.413 E0.3668
G1 X13.147 Y-4.490 E0.0029
G1 X13.262 Y-4.456 E0.0046
G1 X13.951 Y-4.117 E0.0294
G1 X14.351 Y-3.864 E0.0181
G1 X19.932 Y1.717 E0.3019
G1 X19.932 Y1.066 E0.0249
G1 X15.876 Y-2.989 E0.2194
G1 X16.527 Y-2.989 E0.0249
G1 X19.931 Y0.415 E0.1841
G1 X19.931 Y-0.236 E0.0249
G1 X17.179 Y-2.988 E0.1489
G1 X17.830 Y-2.987 E0.0249
G1 X19.930 Y-0.887 E0.1136
G1 X19.930 Y-1.538 E0.0249
G1 X18.481 Y-2.987 E0.0784
G1 X19.132 Y-2.986 E0.0249
G1 X19.930 Y-2.189 E0.0431
G1 X19.929 Y-2.840 E0.0249
G1 X19.783 Y-2.986 E0.0079
G1 E-1.9000 F1200
; layer 2, Z = 0.400
M126 S255
; feature inner perimeter
; tool H0.200 W0.400
G1 Z0.700 F1200
G1 X11.308 Y4.593 F9000
G1 Z0.400 F1200
G1 E1.9000 F1200
G1 X11.358 Y4.042 E0.0184 F2271
G1 X11.024 Y3.370 E0.0249
G1 X10.412 Y2.952 E0.0247
G1 X9.667 Y2.743 E0.0258
G1 X8.527 Y2.673 E0.0380
G1 X6.972 Y2.740 E0.0518
G1 X5.532 Y2.929 E0.0483
G1 X4.542 Y3.129 E0.0336
G1 X4.812 Y2.798 E0.0142
G1 X6.070 Y1.346 E0.0639
G1 X7.431 Y-0.041 E0.0646
G1 X8.878 Y-1.272 E0.0632
G1 X9.895 Y-1.937 E0.0404
G1 X11.467 Y-2.656 E0.0575
G1 X12.209 Y-3.110 E0.0289
