; G-Code generated by Simplify3D(R) Version 4.1.2
; Apr 2, 2020 at 2:02:39 PM
; Settings Summary
;   processName,Process1
;   applyToModels,Torch Flame B,Torch Flame B(2)
;   profileName,MakerBot Replicator 2 HBP (modified)
;   profileVersion,2020-03-12 10:48:50
;   baseProfile,MakerBot Replicator 2(2)
;   printMaterial,PLA
;   printQuality,Medium
;   printExtruders,
;   extruderName,Primary Extruder
;   extruderToolheadNumber,0
;   extruderDiameter,0.4
;   extruderAutoWidth,0
;   extruderWidth,0.4
;   extrusionMultiplier,1
;   extruderUseRetract,1
;   extruderRetractionDistance,1.9
;   extruderExtraRestartDistance,0
;   extruderRetractionZLift,0.5
;   extruderRetractionSpeed,1200
;   extruderUseCoasting,0
;   extruderCoastingDistance,0.2
;   extruderUseWipe,0
;   extruderWipeDistance,5
;   primaryExtruder,0
;   layerHeight,0.2
;   topSolidLayers,3
;   bottomSolidLayers,3
;   perimeterOutlines,2
;   printPerimetersInsideOut,1
;   startPointOption,3
;   startPointOriginX,0
;   startPointOriginY,150
;   sequentialIslands,0
;   spiralVaseMode,0
;   firstLayerHeightPercentage,100
;   firstLayerWidthPercentage,115
;   firstLayerUnderspeed,0.5
;   useRaft,0
;   raftExtruder,0
;   raftTopLayers,2
;   raftBaseLayers,1
;   raftOffset,1
;   raftSeparationDistance,0.14
;   raftTopInfill,90
;   aboveRaftSpeedMultiplier,0.3
;   useSkirt,0
;   skirtExtruder,0
;   skirtLayers,1
;   skirtOutlines,5
;   skirtOffset,0
;   usePrimePillar,0
;   primePillarExtruder,999
;   primePillarWidth,12
;   primePillarLocation,7
;   primePillarSpeedMultiplier,1
;   useOozeShield,0
;   oozeShieldExtruder,999
;   oozeShieldOffset,2
;   oozeShieldOutlines,1
;   oozeShieldSidewallShape,1
;   oozeShieldSidewallAngle,30
;   oozeShieldSpeedMultiplier,1
;   infillExtruder,0
;   internalInfillPattern,Rectilinear
;   externalInfillPattern,Rectilinear
;   infillPercentage,15
;   outlineOverlapPercentage,25
;   infillExtrusionWidthPercentage,100
;   minInfillLength,5
;   infillLayerInterval,1
;   internalInfillAngles,45,-45
;   overlapInternalInfillAngles,0
;   externalInfillAngles,45,-45
;   generateSupport,1
;   supportExtruder,0
;   supportInfillPercentage,30
;   supportExtraInflation,0.5
;   supportBaseLayers,0
;   denseSupportExtruder,0
;   denseSupportLayers,2
;   denseSupportInfillPercentage,90
;   supportLayerInterval,1
;   supportHorizontalPartOffset,0.3
;   supportUpperSeparationLayers,1
;   supportLowerSeparationLayers,1
;   supportType,1
;   supportGridSpacing,2
;   maxOverhangAngle,45
;   supportAngles,45,-45
;   temperatureName,Primary Extruder,Heated Build Platform
;   temperatureNumber,0,0
;   temperatureSetpointCount,1,1
;   temperatureSetpointLayers,1,1
;   temperatureSetpointTemperatures,230,60
;   temperatureStabilizeAtStartup,1,1
;   temperatureHeatedBed,0,1
;   fanLayers,1,2
;   fanSpeeds,0,100
;   blipFanToFullPower,1
;   adjustSpeedForCooling,1
;   minSpeedLayerTime,15
;   minCoolingSpeedSlowdown,20
;   increaseFanForCooling,1
;   minFanLayerTime,45
;   maxCoolingFanSpeed,100
;   increaseFanForBridging,1
;   bridgingFanSpeed,100
;   use5D,1
;   relativeEdistances,1
;   allowEaxisZeroing,0
;   independentExtruderAxes,1
;   includeM10123,0
;   stickySupport,1
;   applyToolheadOffsets,0
;   gcodeXoffset,0
;   gcodeYoffset,0
;   gcodeZoffset,0
;   overrideMachineDefinition,1
;   machineTypeOverride,0
;   strokeXoverride,280
;   strokeYoverride,150
;   strokeZoverride,150
;   originOffsetXoverride,140
;   originOffsetYoverride,75
;   originOffsetZoverride,0
;   homeXdirOverride,1
;   homeYdirOverride,1
;   homeZdirOverride,-1
;   flipXoverride,1
;   flipYoverride,-1
;   flipZoverride,1
;   toolheadOffsets,0,0|0,0|0,0|0,0|0,0|0,0
;   overrideFirmwareConfiguration,1
;   firmwareTypeOverride,MakerBot/Sailfish Firmware
;   GPXconfigOverride,r2h
;   baudRateOverride,115200
;   overridePrinterModels,1
;   printerModelsOverride,MakerBot_Replicator2.stl
;   startingGcode,; **** Replicator 2 start.gcode ****,M73 P0 ; enable build progress,G162 X Y F3000 ; home XY maximum,G161 Z F1200 ; home Z minimum,G92 Z-5 ; set Z to -5,G1 Z0 ; move Z to 0,G161 Z F100 ; home Z slowly,M132 X Y Z A B ; recall home offsets,G1 X-145 Y-75 Z30 F9000 ; move to wait position off table,G130 X20 Y20 Z20 A20 B20 ; lower stepper Vrefs while heating,M126 S[fan_speed_pwm],M140 S[bed0_temperature] T0,M134 T0 ; stabilize bed temperature,M104 S[extruder0_temperature] T0,M133 T0 ; stabilize extruder temperature,G130 X127 Y127 Z40 A127 B127 ; default stepper Vrefs,G92 A0 ; zero extruder,G1 Z0.4 ; position nozzle,G1 E25 F300 ; purge nozzle,G1 X-140 Y-70 Z0.15 F1200 ; slow wipe,G1 X-135 Y-65 Z0.5 F1200 ; lift,G92 A0 ; zero extruder,M73 P1 ;@body (notify GPX body has started),; **** end of start.gcode ****
;   layerChangeGcode,
;   retractionGcode,
;   toolChangeGcode,
;   endingGcode,; **** Replicator 2 end.gcode ****,M73 P100 ; end build progress,G1 Z155 F1000 ; send Z axis to bottom of machine,M104 S0 T0 ; cool down extruder,M140 S0 T0 ; cool down HBP,M127 ; stop blower fan,G162 X Y F3000 ; home XY maximum,M18 ; disable stepper,M0 ; stop codes,M72 P1 ; play Ta-Da song,; **** end of end.gcode ****
;   exportFileFormat,gcode
;   celebration,0
;   celebrationSong,Random Song
;   postProcessing,
;   defaultSpeed,4800
;   outlineUnderspeed,0.5
;   solidInfillUnderspeed,1
;   supportUnderspeed,1
;   rapidXYspeed,9000
;   rapidZspeed,1200
;   minBridgingArea,50
;   bridgingExtraInflation,0
;   bridgingExtrusionMultiplier,1
;   bridgingSpeedMultiplier,0.8
;   useFixedBridgingAngle,0
;   fixedBridgingAngle,0
;   applyBridgingToPerimeters,0
;   filamentDiameters,1.75|1.75|1.75|1.75|1.75|1.75
;   filamentPricesPerKg,46|46|46|46|46|46
;   filamentDensities,1.25|1.25|1.25|1.25|1.25|1.25
;   useMinPrintHeight,0
;   minPrintHeight,0
;   useMaxPrintHeight,0
;   maxPrintHeight,4.84
;   useDiaphragm,0
;   diaphragmLayerInterval,20
;   robustSlicing,1
;   mergeAllIntoSolid,0
;   onlyRetractWhenCrossingOutline,0
;   retractBetweenLayers,0
;   useRetractionMinTravel,1
;   retractionMinTravel,7
;   retractWhileWiping,1
;   onlyWipeOutlines,1
;   avoidCrossingOutline,0
;   maxMovementDetourFactor,3
;   toolChangeRetractionDistance,12
;   toolChangeExtraRestartDistance,-0.5
;   toolChangeRetractionSpeed,600
;   externalThinWallType,0
;   internalThinWallType,0
;   thinWallAllowedOverlapPercentage,10
;   singleExtrusionMinLength,1
;   singleExtrusionMinPrintingWidthPercentage,50
;   singleExtrusionMaxPrintingWidthPercentage,200
;   singleExtrusionEndpointExtension,0.2
;   horizontalSizeCompensation,0
G90
M83
; **** Replicator 2 start.gcode ****
M73 P0 ; enable build progress
G162 X Y F3000 ; home XY maximum
G161 Z F1200 ; home Z minimum
G92 Z-5 ; set Z to -5
G1 Z0 ; move Z to 0
G161 Z F100 ; home Z slowly
M132 X Y Z A B ; recall home offsets
G1 X-145 Y-75 Z30 F9000 ; move to wait position off table
G130 X20 Y20 Z20 A20 B20 ; lower stepper Vrefs while heating
M126 S170
M140 S60 T0
M134 T0 ; stabilize bed temperature
M104 S230 T0
M133 T0 ; stabilize extruder temperature
G130 X127 Y127 Z40 A127 B127 ; default stepper Vrefs
G92 A0 ; zero extruder
G1 Z0.4 ; position nozzle
G1 E25 F300 ; purge nozzle
G1 X-140 Y-70 Z0.15 F1200 ; slow wipe
G1 X-135 Y-65 Z0.5 F1200 ; lift
G92 A0 ; zero extruder
M73 P1 ;@body (notify GPX body has started)
; **** end of start.gcode ****
; process Process1
; layer 1, Z = 0.200
M135 T0
G1 E-1.9000 F1200
; feature inner perimeter
; tool H0.200 W0.460
G1 Z0.500 F1200
G1 X-10.671 Y5.755 F9000
G1 Z0.200 F1200
G1 E1.9000 F1200
G1 X-10.668 Y-5.571 E0.4333 F1390
G1 X-9.535 Y-5.499 E0.0435
G1 X-9.223 Y-5.453 E0.0121
G1 X-8.896 Y-5.363 E0.0129
G1 X-8.524 Y-5.203 E0.0155
G1 X-8.081 Y-4.941 E0.0197
G1 X-7.556 Y-4.547 E0.0251
G1 X-5.867 Y-3.036 E0.0867
G1 X-5.494 Y-2.661 E0.0202
G1 X-5.361 Y-2.484 E0.0085
G1 X-5.306 Y-2.381 E0.0045
G1 X-5.238 Y-2.173 E0.0084
G1 X-5.193 Y-1.893 E0.0108
G1 X-5.150 Y-1.064 E0.0318
G1 X-5.108 Y1.527 E0.0991
G1 X-5.136 Y2.043 E0.0198
G1 X-5.184 Y2.280 E0.0092
G1 X-5.258 Y2.462 E0.0075
G1 X-5.389 Y2.662 E0.0092
G1 X-5.517 Y2.815 E0.0076
G1 X-5.821 Y3.130 E0.0167
G1 X-7.212 Y4.464 E0.0737
G1 X-7.594 Y4.797 E0.0194
G1 X-7.942 Y5.062 E0.0167
G1 X-8.255 Y5.265 E0.0143
G1 X-8.534 Y5.415 E0.0121
G1 X-8.783 Y5.519 E0.0103
G1 X-9.003 Y5.587 E0.0088
G1 X-9.389 Y5.658 E0.0150
G1 X-10.323 Y5.716 E0.0358
G1 X-10.671 Y5.755 E0.0134
; feature outer perimeter
G1 X-10.693 Y6.220 F9000
G1 X-11.131 Y6.317 E0.0172 F926
G1 X-11.131 Y-6.137 E0.4763
G1 X-10.997 Y-6.096 E0.0053
G1 X-10.614 Y-6.029 E0.0149
G1 X-9.486 Y-5.957 E0.0432
G1 X-9.128 Y-5.904 E0.0139
G1 X-8.744 Y-5.798 E0.0152
G1 X-8.315 Y-5.614 E0.0179
G1 X-7.825 Y-5.324 E0.0218
G1 X-7.264 Y-4.903 E0.0268
G1 X-5.550 Y-3.370 E0.0880
G1 X-5.145 Y-2.963 E0.0220
G1 X-4.972 Y-2.731 E0.0111
G1 X-4.881 Y-2.562 E0.0073
G1 X-4.790 Y-2.282 E0.0113
G1 X-4.735 Y-1.942 E0.0132
G1 X-4.690 Y-1.079 E0.0330
G1 X-4.648 Y1.535 E0.1000
G1 X-4.679 Y2.102 E0.0217
G1 X-4.741 Y2.413 E0.0121
G1 X-4.848 Y2.676 E0.0109
G1 X-5.019 Y2.937 E0.0119
G1 X-5.175 Y3.123 E0.0093
G1 X-5.496 Y3.456 E0.0177
G1 X-6.901 Y4.803 E0.0745
G1 X-7.304 Y5.154 E0.0204
G1 X-7.676 Y5.438 E0.0179
G1 X-8.020 Y5.662 E0.0157
G1 X-8.336 Y5.831 E0.0137
G1 X-8.626 Y5.952 E0.0120
G1 X-8.893 Y6.034 E0.0107
G1 X-9.333 Y6.116 E0.0171
G1 X-10.283 Y6.174 E0.0364
G1 X-10.693 Y6.220 E0.0157
; feature solid layer
G1 X-10.248 Y5.365 F9000
G1 X-10.326 Y5.287 E0.0042 F1853
G1 X-10.326 Y4.637 E0.0249
G1 X-9.635 Y5.328 E0.0374
G1 X-9.431 Y5.315 E0.0078
G1 X-9.085 Y5.251 E0.0135
G1 X-9.066 Y5.246 E0.0007
G1 X-10.326 Y3.986 E0.0681
G1 X-10.326 Y3.335 E0.0249
G1 X-8.602 Y5.060 E0.0933
G1 X-8.430 Y4.968 E0.0074
G1 X-8.195 Y4.815 E0.0107
G1 X-10.326 Y2.685 E0.1152
G1 X-10.326 Y2.034 E0.0249
G1 X-7.823 Y4.537 E0.1354
G1 X-7.812 Y4.529 E0.0005
G1 X-7.475 Y4.235 E0.0171
G1 X-10.326 Y1.384 E0.1542
G1 X-10.326 Y0.733 E0.0249
G1 X-7.141 Y3.918 E0.1723
G1 X-6.809 Y3.600 E0.0176
G1 X-10.326 Y0.083 E0.1902
G1 X-10.326 Y-0.568 E0.0249
G1 X-6.477 Y3.281 E0.2082
G1 X-6.145 Y2.963 E0.0176
G1 X-10.326 Y-1.218 E0.2262
G1 X-10.326 Y-1.869 E0.0249
G1 X-5.822 Y2.635 E0.2436
G1 X-5.774 Y2.584 E0.0027
G1 X-5.666 Y2.457 E0.0064
G1 X-5.565 Y2.301 E0.0071
G1 X-5.548 Y2.259 E0.0017
G1 X-10.326 Y-2.519 E0.2585
G1 X-10.326 Y-3.170 E0.0249
G1 X-5.463 Y1.693 E0.2631
G1 X-5.453 Y1.520 E0.0066
G1 X-5.461 Y1.045 E0.0182
G1 X-10.326 Y-3.820 E0.2632
G1 X-10.326 Y-4.471 E0.0249
G1 X-5.471 Y0.383 E0.2626
G1 X-5.482 Y-0.278 E0.0253
G1 X-10.326 Y-5.122 E0.2620
G1 X-10.326 Y-5.204 E0.0031
G1 X-9.719 Y-5.165 E0.0233
G1 X-5.493 Y-0.939 E0.2286
G1 X-5.495 Y-1.052 E0.0043
G1 X-5.524 Y-1.621 E0.0218
G1 X-8.887 Y-4.983 E0.1819
G1 E-1.9000 F1200
; feature inner perimeter
G1 Z0.700 F1200
G1 X3.190 Y5.755 F9000
G1 Z0.200 F1200
G1 E1.9000 F1200
G1 X3.192 Y-5.571 E0.4333 F1390
G1 X4.326 Y-5.499 E0.0435
G1 X4.638 Y-5.453 E0.0121
G1 X4.964 Y-5.363 E0.0129
G1 X5.337 Y-5.203 E0.0155
G1 X5.780 Y-4.941 E0.0197
G1 X6.305 Y-4.547 E0.0251
G1 X7.994 Y-3.036 E0.0867
G1 X8.367 Y-2.661 E0.0202
G1 X8.500 Y-2.484 E0.0085
G1 X8.555 Y-2.381 E0.0045
G1 X8.623 Y-2.173 E0.0084
G1 X8.668 Y-1.893 E0.0108
G1 X8.711 Y-1.064 E0.0318
G1 X8.753 Y1.527 E0.0991
G1 X8.725 Y2.043 E0.0198
G1 X8.677 Y2.280 E0.0092
G1 X8.603 Y2.462 E0.0075
G1 X8.472 Y2.662 E0.0092
G1 X8.344 Y2.815 E0.0076
G1 X8.040 Y3.130 E0.0167
G1 X6.649 Y4.464 E0.0737
G1 X6.267 Y4.797 E0.0194
G1 X5.919 Y5.062 E0.0167
G1 X5.606 Y5.265 E0.0143
G1 X5.327 Y5.415 E0.0121
G1 X5.078 Y5.519 E0.0103
G1 X4.858 Y5.587 E0.0088
G1 X4.472 Y5.658 E0.0150
G1 X3.538 Y5.716 E0.0358
G1 X3.190 Y5.755 E0.0134
; feature outer perimeter
G1 X3.168 Y6.220 F9000
G1 X2.730 Y6.317 E0.0172 F926
G1 X2.730 Y-6.137 E0.4763
G1 X2.864 Y-6.096 E0.0053
G1 X3.247 Y-6.029 E0.0149
G1 X4.374 Y-5.957 E0.0432
G1 X4.733 Y-5.904 E0.0139
G1 X5.117 Y-5.798 E0.0152
G1 X5.546 Y-5.614 E0.0179
G1 X6.036 Y-5.324 E0.0218
G1 X6.597 Y-4.903 E0.0268
G1 X8.311 Y-3.370 E0.0880
G1 X8.716 Y-2.963 E0.0220
G1 X8.889 Y-2.731 E0.0111
G1 X8.979 Y-2.562 E0.0073
G1 X9.071 Y-2.282 E0.0113
G1 X9.126 Y-1.942 E0.0132
G1 X9.171 Y-1.079 E0.0330
G1 X9.213 Y1.535 E0.1000
G1 X9.182 Y2.102 E0.0217
G1 X9.119 Y2.413 E0.0121
G1 X9.012 Y2.676 E0.0109
G1 X8.842 Y2.937 E0.0119
G1 X8.686 Y3.123 E0.0093
G1 X8.365 Y3.456 E0.0177
G1 X6.960 Y4.803 E0.0745
G1 X6.557 Y5.154 E0.0204
G1 X6.185 Y5.438 E0.0179
G1 X5.841 Y5.662 E0.0157
G1 X5.525 Y5.831 E0.0137
G1 X5.235 Y5.952 E0.0120
G1 X4.968 Y6.034 E0.0107
G1 X4.528 Y6.116 E0.0171
G1 X3.577 Y6.174 E0.0364
G1 X3.168 Y6.220 E0.0157
; feature solid layer
G1 X4.038 Y5.339 F9000
G1 X3.535 Y4.836 E0.0272 F1853
G1 X3.535 Y4.186 E0.0249
G1 X4.628 Y5.279 E0.0591
G1 X4.776 Y5.251 E0.0057
G1 X4.960 Y5.195 E0.0074
G1 X5.125 Y5.125 E0.0069
G1 X3.535 Y3.535 E0.0860
G1 X3.535 Y2.884 E0.0249
G1 X5.544 Y4.894 E0.1087
G1 X5.720 Y4.780 E0.0080
G1 X5.925 Y4.624 E0.0098
G1 X3.535 Y2.234 E0.1293
G1 X3.535 Y1.583 E0.0249
G1 X6.280 Y4.328 E0.1485
G1 X6.416 Y4.209 E0.0069
G1 X6.618 Y4.016 E0.0107
G1 X3.535 Y0.933 E0.1668
G1 X3.535 Y0.282 E0.0249
G1 X6.950 Y3.697 E0.1847
G1 X7.282 Y3.379 E0.0176
G1 X3.535 Y-0.368 E0.2027
G1 X3.535 Y-1.019 E0.0249
G1 X7.614 Y3.060 E0.2207
G1 X7.796 Y2.886 E0.0097
G1 X7.941 Y2.736 E0.0079
G1 X3.535 Y-1.669 E0.2383
G1 X3.535 Y-2.320 E0.0249
G1 X8.241 Y2.386 E0.2545
G1 X8.296 Y2.301 E0.0039
G1 X8.345 Y2.180 E0.0050
G1 X8.381 Y2.000 E0.0070
G1 X8.388 Y1.882 E0.0045
G1 X3.535 Y-2.970 E0.2625
G1 X3.535 Y-3.621 E0.0249
G1 X8.403 Y1.247 E0.2633
G1 X8.393 Y0.586 E0.0253
G1 X3.535 Y-4.271 E0.2628
G1 X3.535 Y-4.922 E0.0249
G1 X8.382 Y-0.075 E0.2622
G1 X8.371 Y-0.736 E0.0253
G1 X3.929 Y-5.179 E0.2403
G1 X4.290 Y-5.156 E0.0138
G1 X4.567 Y-5.115 E0.0107
G1 X4.673 Y-5.085 E0.0042
G1 X8.347 Y-1.411 E0.1988
G1 X8.324 Y-1.857 E0.0171
G1 X8.287 Y-2.091 E0.0091
G1 X8.271 Y-2.137 E0.0019
G1 X6.489 Y-3.920 E0.0964
G1 E-1.9000 F1200
; feature support
G1 Z0.700 F1200
G1 X4.393 Y7.622 F9000
G1 Z0.200 F1200
G1 E1.9000 F1200
G1 X5.251 Y8.480 E0.0464 F1853
G1 X3.366 Y8.480 E0.0721
G1 X2.450 Y7.565 E0.0495
G1 E-1.9000 F1200
G1 Z0.700 F1200
G1 X-8.722 Y7.706 F9000
G1 Z0.200 F1200
G1 E1.9000 F1200
G1 X-8.440 Y7.988 E0.0152 F1853
G1 X-8.440 Y8.480 E0.0188
G1 X-9.834 Y8.480 E0.0533
G1 X-10.827 Y7.487 E0.0537
; feature dense support
G1 X-9.661 Y7.097 F9000
G1 X-9.636 Y7.122 E0.0014 F1853
G1 X-9.264 Y7.192 E0.0145
G1 X-8.906 Y7.240 E0.0138
G1 X-8.866 Y7.242 E0.0015
G1 X-8.993 Y7.115 E0.0069
G1 X-8.566 Y7.080 E0.0164
G1 X-8.416 Y7.041 E0.0059
G1 X-8.240 Y7.217 E0.0095
G1 X-7.980 Y7.185 E0.0100
G1 X-7.980 Y7.477 E0.0111
G1 X-6.977 Y8.480 E0.0543
G1 X-6.450 Y8.480 E0.0201
G1 X-6.450 Y8.356 E0.0047
G1 X-7.930 Y6.876 E0.0801
G1 X-7.674 Y6.760 E0.0108
G1 X-7.508 Y6.648 E0.0077
G1 X-6.450 Y7.705 E0.0572
G1 X-6.450 Y7.055 E0.0249
G1 X-7.134 Y6.372 E0.0370
G1 X-6.847 Y6.122 E0.0145
G1 X-6.790 Y6.065 E0.0031
G1 X-6.375 Y6.480 E0.0225
G1 X-5.724 Y6.480 E0.0249
G1 X-6.467 Y5.738 E0.0402
G1 X-6.440 Y5.711 E0.0015
G1 X-6.154 Y5.400 E0.0161
G1 X-5.074 Y6.480 E0.0584
G1 X-4.450 Y6.480 E0.0238
G1 X-4.450 Y6.453 E0.0010
G1 X-5.842 Y5.062 E0.0752
G1 X-5.575 Y4.773 E0.0150
G1 X-5.527 Y4.726 E0.0026
G1 X-4.450 Y5.802 E0.0582
G1 X-4.450 Y5.152 E0.0249
G1 X-5.196 Y4.406 E0.0403
G1 X-4.865 Y4.087 E0.0176
G1 X-4.450 Y4.501 E0.0224
G1 X-4.450 Y3.851 E0.0249
G1 X-4.544 Y3.757 E0.0051
G1 X-7.980 Y8.127 F9000
G1 X-7.628 Y8.480 E0.0191 F1853
G1 E-1.9000 F1200
G1 Z0.700 F1200
G1 X4.769 Y7.215 F9000
G1 Z0.200 F1200
G1 E1.9000 F1200
G1 X4.676 Y7.123 E0.0050 F1853
G1 X4.734 Y7.126 E0.0022
G1 X5.285 Y7.081 E0.0212
G1 X5.443 Y7.239 E0.0086
G1 X5.880 Y7.185 E0.0168
G1 X5.880 Y7.676 E0.0188
G1 X6.684 Y8.480 E0.0435
G1 X7.335 Y8.480 E0.0249
G1 X5.793 Y6.938 E0.0834
G1 X6.186 Y6.760 E0.0165
G1 X6.234 Y6.728 E0.0022
G1 X7.410 Y7.905 E0.0637
G1 X7.410 Y7.254 E0.0249
G1 X6.620 Y6.464 E0.0427
G1 X6.968 Y6.162 E0.0176
G1 X7.410 Y6.604 E0.0239
G1 X7.410 Y6.480 E0.0047
G1 X7.937 Y6.480 E0.0201
G1 X7.295 Y5.838 E0.0347
G1 X7.421 Y5.711 E0.0069
G1 X7.612 Y5.504 E0.0107
G1 X8.588 Y6.480 E0.0528
G1 X9.238 Y6.480 E0.0249
G1 X7.924 Y5.166 E0.0711
G1 X8.236 Y4.827 E0.0176
G1 X9.410 Y6.002 E0.0635
