; G-Code generated by Simplify3D(R) Version 4.1.2
; Apr 2, 2020 at 1:44:44 PM
; Settings Summary
;   processName,Process1
;   applyToModels,PyramidV1R1,PyramidV1R1(2)
;   profileName,MakerBot Replicator 2 HBP (modified)
;   profileVersion,2020-03-12 10:48:50
;   baseProfile,MakerBot Replicator 2(2)
;   printMaterial,PLA
;   printQuality,Medium
;   printExtruders,
;   extruderName,Primary Extruder
;   extruderToolheadNumber,0
;   extruderDiameter,0.4
;   extruderAutoWidth,0
;   extruderWidth,0.4
;   extrusionMultiplier,1
;   extruderUseRetract,1
;   extruderRetractionDistance,1.9
;   extruderExtraRestartDistance,0
;   extruderRetractionZLift,0.5
;   extruderRetractionSpeed,1200
;   extruderUseCoasting,0
;   extruderCoastingDistance,0.2
;   extruderUseWipe,0
;   extruderWipeDistance,5
;   primaryExtruder,0
;   layerHeight,0.2
;   topSolidLayers,3
;   bottomSolidLayers,3
;   perimeterOutlines,2
;   printPerimetersInsideOut,1
;   startPointOption,3
;   startPointOriginX,0
;   startPointOriginY,150
;   sequentialIslands,0
;   spiralVaseMode,0
;   firstLayerHeightPercentage,100
;   firstLayerWidthPercentage,115
;   firstLayerUnderspeed,0.5
;   useRaft,0
;   raftExtruder,0
;   raftTopLayers,2
;   raftBaseLayers,1
;   raftOffset,1
;   raftSeparationDistance,0.14
;   raftTopInfill,90
;   aboveRaftSpeedMultiplier,0.3
;   useSkirt,0
;   skirtExtruder,0
;   skirtLayers,1
;   skirtOutlines,5
;   skirtOffset,0
;   usePrimePillar,0
;   primePillarExtruder,999
;   primePillarWidth,12
;   primePillarLocation,7
;   primePillarSpeedMultiplier,1
;   useOozeShield,0
;   oozeShieldExtruder,999
;   oozeShieldOffset,2
;   oozeShieldOutlines,1
;   oozeShieldSidewallShape,1
;   oozeShieldSidewallAngle,30
;   oozeShieldSpeedMultiplier,1
;   infillExtruder,0
;   internalInfillPattern,Rectilinear
;   externalInfillPattern,Rectilinear
;   infillPercentage,15
;   outlineOverlapPercentage,25
;   infillExtrusionWidthPercentage,100
;   minInfillLength,5
;   infillLayerInterval,1
;   internalInfillAngles,45,-45
;   overlapInternalInfillAngles,0
;   externalInfillAngles,45,-45
;   generateSupport,0
;   supportExtruder,0
;   supportInfillPercentage,30
;   supportExtraInflation,0.5
;   supportBaseLayers,0
;   denseSupportExtruder,0
;   denseSupportLayers,2
;   denseSupportInfillPercentage,90
;   supportLayerInterval,1
;   supportHorizontalPartOffset,0.3
;   supportUpperSeparationLayers,1
;   supportLowerSeparationLayers,1
;   supportType,1
;   supportGridSpacing,2
;   maxOverhangAngle,45
;   supportAngles,45,-45
;   temperatureName,Primary Extruder,Heated Build Platform
;   temperatureNumber,0,0
;   temperatureSetpointCount,1,1
;   temperatureSetpointLayers,1,1
;   temperatureSetpointTemperatures,230,60
;   temperatureStabilizeAtStartup,1,1
;   temperatureHeatedBed,0,1
;   fanLayers,1,2
;   fanSpeeds,0,100
;   blipFanToFullPower,1
;   adjustSpeedForCooling,1
;   minSpeedLayerTime,15
;   minCoolingSpeedSlowdown,20
;   increaseFanForCooling,1
;   minFanLayerTime,45
;   maxCoolingFanSpeed,100
;   increaseFanForBridging,1
;   bridgingFanSpeed,100
;   use5D,1
;   relativeEdistances,1
;   allowEaxisZeroing,0
;   independentExtruderAxes,1
;   includeM10123,0
;   stickySupport,1
;   applyToolheadOffsets,0
;   gcodeXoffset,0
;   gcodeYoffset,0
;   gcodeZoffset,0
;   overrideMachineDefinition,1
;   machineTypeOverride,0
;   strokeXoverride,280
;   strokeYoverride,150
;   strokeZoverride,150
;   originOffsetXoverride,140
;   originOffsetYoverride,75
;   originOffsetZoverride,0
;   homeXdirOverride,1
;   homeYdirOverride,1
;   homeZdirOverride,-1
;   flipXoverride,1
;   flipYoverride,-1
;   flipZoverride,1
;   toolheadOffsets,0,0|0,0|0,0|0,0|0,0|0,0
;   overrideFirmwareConfiguration,1
;   firmwareTypeOverride,MakerBot/Sailfish Firmware
;   GPXconfigOverride,r2h
;   baudRateOverride,115200
;   overridePrinterModels,1
;   printerModelsOverride,MakerBot_Replicator2.stl
;   startingGcode,; **** Replicator 2 start.gcode ****,M73 P0 ; enable build progress,G162 X Y F3000 ; home XY maximum,G161 Z F1200 ; home Z minimum,G92 Z-5 ; set Z to -5,G1 Z0 ; move Z to 0,G161 Z F100 ; home Z slowly,M132 X Y Z A B ; recall home offsets,G1 X-145 Y-75 Z30 F9000 ; move to wait position off table,G130 X20 Y20 Z20 A20 B20 ; lower stepper Vrefs while heating,M126 S[fan_speed_pwm],M140 S[bed0_temperature] T0,M134 T0 ; stabilize bed temperature,M104 S[extruder0_temperature] T0,M133 T0 ; stabilize extruder temperature,G130 X127 Y127 Z40 A127 B127 ; default stepper Vrefs,G92 A0 ; zero extruder,G1 Z0.4 ; position nozzle,G1 E25 F300 ; purge nozzle,G1 X-140 Y-70 Z0.15 F1200 ; slow wipe,G1 X-135 Y-65 Z0.5 F1200 ; lift,G92 A0 ; zero extruder,M73 P1 ;@body (notify GPX body has started),; **** end of start.gcode ****
;   layerChangeGcode,
;   retractionGcode,
;   toolChangeGcode,
;   endingGcode,; **** Replicator 2 end.gcode ****,M73 P100 ; end build progress,G1 Z155 F1000 ; send Z axis to bottom of machine,M104 S0 T0 ; cool down extruder,M140 S0 T0 ; cool down HBP,M127 ; stop blower fan,G162 X Y F3000 ; home XY maximum,M18 ; disable stepper,M0 ; stop codes,M72 P1 ; play Ta-Da song,; **** end of end.gcode ****
;   exportFileFormat,gcode
;   celebration,0
;   celebrationSong,Random Song
;   postProcessing,
;   defaultSpeed,4800
;   outlineUnderspeed,0.5
;   solidInfillUnderspeed,1
;   supportUnderspeed,1
;   rapidXYspeed,9000
;   rapidZspeed,1200
;   minBridgingArea,50
;   bridgingExtraInflation,0
;   bridgingExtrusionMultiplier,1
;   bridgingSpeedMultiplier,0.8
;   useFixedBridgingAngle,0
;   fixedBridgingAngle,0
;   applyBridgingToPerimeters,0
;   filamentDiameters,1.75|1.75|1.75|1.75|1.75|1.75
;   filamentPricesPerKg,46|46|46|46|46|46
;   filamentDensities,1.25|1.25|1.25|1.25|1.25|1.25
;   useMinPrintHeight,0
;   minPrintHeight,0
;   useMaxPrintHeight,0
;   maxPrintHeight,4.84
;   useDiaphragm,0
;   diaphragmLayerInterval,20
;   robustSlicing,1
;   mergeAllIntoSolid,0
;   onlyRetractWhenCrossingOutline,0
;   retractBetweenLayers,0
;   useRetractionMinTravel,1
;   retractionMinTravel,7
;   retractWhileWiping,1
;   onlyWipeOutlines,1
;   avoidCrossingOutline,0
;   maxMovementDetourFactor,3
;   toolChangeRetractionDistance,12
;   toolChangeExtraRestartDistance,-0.5
;   toolChangeRetractionSpeed,600
;   externalThinWallType,0
;   internalThinWallType,0
;   thinWallAllowedOverlapPercentage,10
;   singleExtrusionMinLength,1
;   singleExtrusionMinPrintingWidthPercentage,50
;   singleExtrusionMaxPrintingWidthPercentage,200
;   singleExtrusionEndpointExtension,0.2
;   horizontalSizeCompensation,0
G90
M83
; **** Replicator 2 start.gcode ****
M73 P0 ; enable build progress
G162 X Y F3000 ; home XY maximum
G161 Z F1200 ; home Z minimum
G92 Z-5 ; set Z to -5
G1 Z0 ; move Z to 0
G161 Z F100 ; home Z slowly
M132 X Y Z A B ; recall home offsets
G1 X-145 Y-75 Z30 F9000 ; move to wait position off table
G130 X20 Y20 Z20 A20 B20 ; lower stepper Vrefs while heating
M127
M140 S60 T0
M134 T0 ; stabilize bed temperature
M104 S230 T0
M133 T0 ; stabilize extruder temperature
G130 X127 Y127 Z40 A127 B127 ; default stepper Vrefs
G92 A0 ; zero extruder
G1 Z0.4 ; position nozzle
G1 E25 F300 ; purge nozzle
G1 X-140 Y-70 Z0.15 F1200 ; slow wipe
G1 X-135 Y-65 Z0.5 F1200 ; lift
G92 A0 ; zero extruder
M73 P1 ;@body (notify GPX body has started)
; **** end of start.gcode ****
; process Process1
; layer 1, Z = 0.200
M135 T0
G1 E-1.9000 F1200
; feature inner perimeter
; tool H0.200 W0.460
G1 Z0.500 F1200
G1 X1.650 Y54.094 F9000
G1 Z0.200 F1200
G1 E1.9000 F1200
G1 X-27.911 Y54.094 E1.1307 F1800
G1 X-27.911 Y7.033 E1.8001
G1 X-26.925 Y7.033 E0.0377
G1 X-26.925 Y-18.966 E0.9944
G1 X-24.307 Y-18.966 E0.1001
G1 X-24.307 Y50.475 E2.6561
G1 X46.978 Y50.475 E2.7266
G1 X46.978 Y-18.966 E2.6561
G1 X49.596 Y-18.966 E0.1001
G1 X49.596 Y7.033 E0.9944
G1 X50.582 Y7.033 E0.0377
G1 X50.582 Y54.094 E1.8001
G1 X21.021 Y54.094 E1.1307
G1 X21.021 Y51.800 E0.0878
G1 X11.335 Y51.829 E0.3705
G1 X1.650 Y51.800 E0.3705
G1 X1.650 Y54.094 E0.0878
; feature outer perimeter
G1 X2.110 Y54.554 F9000
G1 X-28.371 Y54.554 E1.1659 F1200
G1 X-28.371 Y6.573 E1.8352
G1 X-27.385 Y6.573 E0.0377
G1 X-27.385 Y-19.426 E0.9944
G1 X-23.847 Y-19.426 E0.1353
G1 X-23.847 Y50.015 E2.6561
G1 X46.518 Y50.015 E2.6914
G1 X46.518 Y-19.426 E2.6561
G1 X50.056 Y-19.426 E0.1353
G1 X50.056 Y6.573 E0.9944
G1 X51.042 Y6.573 E0.0377
G1 X51.042 Y54.554 E1.8352
G1 X20.561 Y54.554 E1.1659
G1 X20.561 Y52.261 E0.0877
G1 X11.335 Y52.289 E0.3529
G1 X2.110 Y52.261 E0.3529
G1 X2.110 Y54.554 E0.0877
G1 E-1.9000 F1200
; feature solid layer
G1 Z0.700 F1200
G1 X21.366 Y53.634 F9000
G1 Z0.200 F1200
G1 E1.9000 F1200
G1 X21.481 Y53.749 E0.0063 F2400
G1 X22.132 Y53.749 E0.0249
G1 X21.366 Y52.983 E0.0414
G1 X21.366 Y52.333 E0.0249
G1 X22.782 Y53.749 E0.0766
G1 X23.433 Y53.749 E0.0249
G1 X21.366 Y51.682 E0.1118
G1 E-1.9000 F1200
G1 Z0.700 F1200
G1 X-27.309 Y53.749 F9000
G1 Z0.200 F1200
G1 E1.9000 F1200
G1 X-27.566 Y53.492 E0.0139 F2400
G1 X-27.566 Y52.842 E0.0249
G1 X-26.659 Y53.749 E0.0491
G1 X-26.008 Y53.749 E0.0249
G1 X-27.566 Y52.191 E0.0843
G1 X-27.566 Y51.541 E0.0249
G1 X-25.358 Y53.749 E0.1195
G1 X-24.707 Y53.749 E0.0249
G1 X-27.566 Y50.890 E0.1547
G1 X-27.566 Y50.239 E0.0249
G1 X-24.056 Y53.749 E0.1899
G1 X-23.406 Y53.749 E0.0249
G1 X-27.566 Y49.589 E0.2250
G1 X-27.566 Y48.938 E0.0249
G1 X-22.755 Y53.749 E0.2602
G1 X-22.105 Y53.749 E0.0249
G1 X-27.566 Y48.288 E0.2954
G1 E-1.9000 F1200
G1 Z0.700 F1200
G1 X-24.868 Y-18.621 F9000
G1 Z0.200 F1200
G1 E1.9000 F1200
G1 X-24.652 Y-18.406 E0.0117 F2400
G1 X-24.652 Y-17.755 E0.0249
G1 X-25.518 Y-18.621 E0.0469
G1 X-26.169 Y-18.621 E0.0249
G1 X-24.652 Y-17.104 E0.0820
G1 X-24.652 Y-16.454 E0.0249
G1 X-26.580 Y-18.382 E0.1043
G1 X-26.580 Y-17.731 E0.0249
G1 X-24.652 Y-15.803 E0.1043
G1 X-24.652 Y-15.153 E0.0249
G1 X-26.580 Y-17.081 E0.1043
G1 X-26.580 Y-16.430 E0.0249
G1 X-24.652 Y-14.502 E0.1043
G1 X-24.652 Y-13.852 E0.0249
G1 X-26.580 Y-15.780 E0.1043
G1 X-26.580 Y-15.129 E0.0249
G1 X-24.652 Y-13.201 E0.1043
G1 X-24.652 Y-12.551 E0.0249
G1 X-26.580 Y-14.479 E0.1043
G1 X-26.580 Y-13.828 E0.0249
G1 X-24.652 Y-11.900 E0.1043
G1 X-24.652 Y-11.250 E0.0249
G1 X-26.580 Y-13.178 E0.1043
G1 X-26.580 Y-12.527 E0.0249
G1 X-24.652 Y-10.599 E0.1043
G1 X-24.652 Y-9.949 E0.0249
G1 X-26.580 Y-11.877 E0.1043
G1 X-26.580 Y-11.226 E0.0249
G1 X-24.652 Y-9.298 E0.1043
G1 X-24.652 Y-8.647 E0.0249
G1 X-26.580 Y-10.576 E0.1043
G1 X-26.580 Y-9.925 E0.0249
G1 X-24.652 Y-7.997 E0.1043
G1 X-24.652 Y-7.346 E0.0249
G1 X-26.580 Y-9.274 E0.1043
G1 X-26.580 Y-8.624 E0.0249
G1 X-24.652 Y-6.696 E0.1043
G1 X-24.652 Y-6.045 E0.0249
G1 X-26.580 Y-7.973 E0.1043
G1 X-26.580 Y-7.323 E0.0249
G1 X-24.652 Y-5.395 E0.1043
G1 X-24.652 Y-4.744 E0.0249
G1 X-26.580 Y-6.672 E0.1043
G1 X-26.580 Y-6.022 E0.0249
G1 X-24.652 Y-4.094 E0.1043
G1 X-24.652 Y-3.443 E0.0249
G1 X-26.580 Y-5.371 E0.1043
G1 X-26.580 Y-4.721 E0.0249
G1 X-24.652 Y-2.793 E0.1043
G1 X-24.652 Y-2.142 E0.0249
G1 X-26.580 Y-4.070 E0.1043
G1 X-26.580 Y-3.420 E0.0249
G1 X-24.652 Y-1.492 E0.1043
G1 X-24.652 Y-0.841 E0.0249
G1 X-26.580 Y-2.769 E0.1043
G1 X-26.580 Y-2.119 E0.0249
G1 X-24.652 Y-0.190 E0.1043
G1 X-24.652 Y0.460 E0.0249
G1 X-26.580 Y-1.468 E0.1043
G1 X-26.580 Y-0.817 E0.0249
G1 X-24.652 Y1.111 E0.1043
G1 X-24.652 Y1.761 E0.0249
G1 X-26.580 Y-0.167 E0.1043
G1 X-26.580 Y0.484 E0.0249
G1 X-24.652 Y2.412 E0.1043
G1 X-24.652 Y3.062 E0.0249
G1 X-26.580 Y1.134 E0.1043
G1 X-26.580 Y1.785 E0.0249
G1 X-24.652 Y3.713 E0.1043
G1 X-24.652 Y4.363 E0.0249
G1 X-26.580 Y2.435 E0.1043
G1 X-26.580 Y3.086 E0.0249
G1 X-24.652 Y5.014 E0.1043
G1 X-24.652 Y5.664 E0.0249
G1 X-26.580 Y3.736 E0.1043
G1 X-26.580 Y4.387 E0.0249
G1 X-24.652 Y6.315 E0.1043
G1 X-24.652 Y6.965 E0.0249
G1 X-26.580 Y5.037 E0.1043
G1 X-26.580 Y5.688 E0.0249
G1 X-24.652 Y7.616 E0.1043
G1 X-24.652 Y8.267 E0.0249
G1 X-26.580 Y6.338 E0.1043
G1 X-26.580 Y6.989 E0.0249
G1 X-24.652 Y8.917 E0.1043
G1 X-24.652 Y9.568 E0.0249
G1 X-26.842 Y7.378 E0.1184
G1 X-27.492 Y7.378 E0.0249
G1 X-24.652 Y10.218 E0.1536
G1 X-24.652 Y10.869 E0.0249
G1 X-27.566 Y7.954 E0.1576
G1 X-27.566 Y8.605 E0.0249
G1 X-24.652 Y11.519 E0.1576
G1 X-24.652 Y12.170 E0.0249
G1 X-27.566 Y9.256 E0.1576
G1 X-27.566 Y9.906 E0.0249
G1 X-24.652 Y12.820 E0.1576
G1 X-24.652 Y13.471 E0.0249
G1 X-27.566 Y10.557 E0.1576
G1 X-27.566 Y11.207 E0.0249
G1 X-24.652 Y14.121 E0.1576
G1 X-24.652 Y14.772 E0.0249
G1 X-27.566 Y11.858 E0.1576
G1 X-27.566 Y12.508 E0.0249
G1 X-24.652 Y15.422 E0.1576
G1 X-24.652 Y16.073 E0.0249
G1 X-27.566 Y13.159 E0.1576
G1 X-27.566 Y13.809 E0.0249
G1 X-24.652 Y16.724 E0.1576
G1 X-24.652 Y17.374 E0.0249
G1 X-27.566 Y14.460 E0.1576
G1 X-27.566 Y15.110 E0.0249
G1 X-24.652 Y18.025 E0.1576
G1 X-24.652 Y18.675 E0.0249
G1 X-27.566 Y15.761 E0.1576
G1 X-27.566 Y16.411 E0.0249
G1 X-24.652 Y19.326 E0.1576
G1 X-24.652 Y19.976 E0.0249
G1 X-27.566 Y17.062 E0.1576
G1 X-27.566 Y17.713 E0.0249
G1 X-24.652 Y20.627 E0.1576
G1 X-24.652 Y21.277 E0.0249
G1 X-27.566 Y18.363 E0.1576
G1 X-27.566 Y19.014 E0.0249
G1 X-24.652 Y21.928 E0.1576
G1 X-24.652 Y22.578 E0.0249
G1 X-27.566 Y19.664 E0.1576
G1 X-27.566 Y20.315 E0.0249
G1 X-24.652 Y23.229 E0.1576
G1 X-24.652 Y23.879 E0.0249
G1 X-27.566 Y20.965 E0.1576
G1 X-27.566 Y21.616 E0.0249
G1 X-24.652 Y24.530 E0.1576
G1 X-24.652 Y25.181 E0.0249
G1 X-27.566 Y22.266 E0.1576
G1 X-27.566 Y22.917 E0.0249
G1 X-24.652 Y25.831 E0.1576
G1 X-24.652 Y26.482 E0.0249
G1 X-27.566 Y23.567 E0.1576
G1 X-27.566 Y24.218 E0.0249
G1 X-24.652 Y27.132 E0.1576
G1 X-24.652 Y27.783 E0.0249
G1 X-27.566 Y24.868 E0.1576
G1 X-27.566 Y25.519 E0.0249
G1 X-24.652 Y28.433 E0.1576
G1 X-24.652 Y29.084 E0.0249
G1 X-27.566 Y26.170 E0.1576
G1 X-27.566 Y26.820 E0.0249
G1 X-24.652 Y29.734 E0.1576
G1 X-24.652 Y30.385 E0.0249
G1 X-27.566 Y27.471 E0.1576
G1 X-27.566 Y28.121 E0.0249
G1 X-24.652 Y31.035 E0.1576
G1 X-24.652 Y31.686 E0.0249
G1 X-27.566 Y28.772 E0.1576
G1 X-27.566 Y29.422 E0.0249
G1 X-24.652 Y32.336 E0.1576
G1 X-24.652 Y32.987 E0.0249
G1 X-27.566 Y30.073 E0.1576
G1 X-27.566 Y30.723 E0.0249
G1 X-24.652 Y33.638 E0.1576
G1 X-24.652 Y34.288 E0.0249
G1 X-27.566 Y31.374 E0.1576
G1 X-27.566 Y32.024 E0.0249
G1 X-24.652 Y34.939 E0.1576
G1 X-24.652 Y35.589 E0.0249
G1 X-27.566 Y32.675 E0.1576
G1 X-27.566 Y33.325 E0.0249
G1 X-24.652 Y36.240 E0.1576
G1 X-24.652 Y36.890 E0.0249
G1 X-27.566 Y33.976 E0.1576
G1 X-27.566 Y34.627 E0.0249
G1 X-24.652 Y37.541 E0.1576
G1 X-24.652 Y38.191 E0.0249
G1 X-27.566 Y35.277 E0.1576
G1 X-27.566 Y35.928 E0.0249
G1 X-24.652 Y38.842 E0.1576
G1 X-24.652 Y39.492 E0.0249
G1 X-27.566 Y36.578 E0.1576
G1 X-27.566 Y37.229 E0.0249
G1 X-24.652 Y40.143 E0.1576
G1 X-24.652 Y40.793 E0.0249
G1 X-27.566 Y37.879 E0.1576
G1 X-27.566 Y38.530 E0.0249
G1 X-24.652 Y41.444 E0.1576
G1 X-24.652 Y42.095 E0.0249
G1 X-27.566 Y39.180 E0.1576
G1 X-27.566 Y39.831 E0.0249
G1 X-24.652 Y42.745 E0.1576
G1 X-24.652 Y43.396 E0.0249
G1 X-27.566 Y40.481 E0.1576
G1 X-27.566 Y41.132 E0.0249
G1 X-24.652 Y44.046 E0.1576
G1 X-24.652 Y44.697 E0.0249
G1 X-27.566 Y41.782 E0.1576
G1 X-27.566 Y42.433 E0.0249
G1 X-24.652 Y45.347 E0.1576
G1 X-24.652 Y45.998 E0.0249
G1 X-27.566 Y43.084 E0.1576
G1 X-27.566 Y43.734 E0.0249
G1 X-24.652 Y46.648 E0.1576
G1 X-24.652 Y47.299 E0.0249
G1 X-27.566 Y44.385 E0.1576
G1 X-27.566 Y45.035 E0.0249
G1 X-24.652 Y47.949 E0.1576
G1 X-24.652 Y48.600 E0.0249
G1 X-27.566 Y45.686 E0.1576
G1 X-27.566 Y46.336 E0.0249
G1 X-24.652 Y49.250 E0.1576
G1 X-24.652 Y49.901 E0.0249
G1 X-27.566 Y46.987 E0.1576
G1 X-27.566 Y47.637 E0.0249
G1 X-24.652 Y50.552 E0.1576
G1 X-24.652 Y50.820 E0.0103
G1 X-24.383 Y50.820 E0.0103
G1 X-21.454 Y53.749 E0.1584
G1 X-20.804 Y53.749 E0.0249
G1 X-23.733 Y50.820 E0.1584
G1 X-23.082 Y50.820 E0.0249
G1 X-20.153 Y53.749 E0.1584
G1 X-19.503 Y53.749 E0.0249
G1 X-22.432 Y50.820 E0.1584
G1 X-21.781 Y50.820 E0.0249
G1 X-18.852 Y53.749 E0.1584
G1 X-18.202 Y53.749 E0.0249
G1 X-21.131 Y50.820 E0.1584
G1 X-20.480 Y50.820 E0.0249
G1 X-17.551 Y53.749 E0.1584
G1 X-16.901 Y53.749 E0.0249
G1 X-19.830 Y50.820 E0.1584
G1 X-19.179 Y50.820 E0.0249
G1 X-16.250 Y53.749 E0.1584
G1 X-15.599 Y53.749 E0.0249
