; G-Code generated by Simplify3D(R) Version 4.1.2
; Apr 6, 2020 at 11:32:37 AM
; Settings Summary
;   processName,Process1
;   applyToModels,Standoff,Bulb,Standoff(2),Standoff(3),Standoff(4),Standoff(5),Standoff(6),Standoff(7),Standoff(8),Standoff(9),Bulb(2),Bulb(3),Bulb(4),Bulb(5),Bulb(6),Bulb(7),Bulb(8),Bulb(9),Bulb(10),Bulb(11),Bulb(12),Bulb(13),Bulb(14),Bulb(15),Bulb(16),Bulb(17),Bulb(18),Bulb(19),Bulb(20),Bulb(21),Bulb(22),Bulb(23),Bulb(24),Bulb(25),Bulb(26),Bulb(27),Bulb(28),Bulb(29),Bulb(30),Bulb(31)
;   profileName,MakerBot Replicator 2 HBP (modified)
;   profileVersion,2020-03-12 10:48:50
;   baseProfile,MakerBot Replicator 2(2)
;   printMaterial,PLA
;   printQuality,Medium
;   printExtruders,
;   extruderName,Primary Extruder
;   extruderToolheadNumber,0
;   extruderDiameter,0.4
;   extruderAutoWidth,0
;   extruderWidth,0.4
;   extrusionMultiplier,1
;   extruderUseRetract,1
;   extruderRetractionDistance,1.9
;   extruderExtraRestartDistance,0
;   extruderRetractionZLift,0.5
;   extruderRetractionSpeed,1200
;   extruderUseCoasting,0
;   extruderCoastingDistance,0.2
;   extruderUseWipe,0
;   extruderWipeDistance,5
;   primaryExtruder,0
;   layerHeight,0.2
;   topSolidLayers,3
;   bottomSolidLayers,3
;   perimeterOutlines,2
;   printPerimetersInsideOut,1
;   startPointOption,3
;   startPointOriginX,0
;   startPointOriginY,150
;   sequentialIslands,0
;   spiralVaseMode,0
;   firstLayerHeightPercentage,100
;   firstLayerWidthPercentage,115
;   firstLayerUnderspeed,0.5
;   useRaft,0
;   raftExtruder,0
;   raftTopLayers,2
;   raftBaseLayers,1
;   raftOffset,1
;   raftSeparationDistance,0.14
;   raftTopInfill,90
;   aboveRaftSpeedMultiplier,0.3
;   useSkirt,0
;   skirtExtruder,0
;   skirtLayers,1
;   skirtOutlines,5
;   skirtOffset,0
;   usePrimePillar,0
;   primePillarExtruder,999
;   primePillarWidth,12
;   primePillarLocation,7
;   primePillarSpeedMultiplier,1
;   useOozeShield,0
;   oozeShieldExtruder,999
;   oozeShieldOffset,2
;   oozeShieldOutlines,1
;   oozeShieldSidewallShape,1
;   oozeShieldSidewallAngle,30
;   oozeShieldSpeedMultiplier,1
;   infillExtruder,0
;   internalInfillPattern,Rectilinear
;   externalInfillPattern,Rectilinear
;   infillPercentage,15
;   outlineOverlapPercentage,25
;   infillExtrusionWidthPercentage,100
;   minInfillLength,5
;   infillLayerInterval,1
;   internalInfillAngles,45,-45
;   overlapInternalInfillAngles,0
;   externalInfillAngles,45,-45
;   generateSupport,0
;   supportExtruder,0
;   supportInfillPercentage,5
;   supportExtraInflation,0.5
;   supportBaseLayers,0
;   denseSupportExtruder,0
;   denseSupportLayers,2
;   denseSupportInfillPercentage,90
;   supportLayerInterval,1
;   supportHorizontalPartOffset,0.3
;   supportUpperSeparationLayers,1
;   supportLowerSeparationLayers,1
;   supportType,1
;   supportGridSpacing,2
;   maxOverhangAngle,45
;   supportAngles,45,-45
;   temperatureName,Primary Extruder,Heated Build Platform
;   temperatureNumber,0,0
;   temperatureSetpointCount,1,1
;   temperatureSetpointLayers,1,1
;   temperatureSetpointTemperatures,230,60
;   temperatureStabilizeAtStartup,1,1
;   temperatureHeatedBed,0,1
;   fanLayers,1,2
;   fanSpeeds,0,100
;   blipFanToFullPower,1
;   adjustSpeedForCooling,1
;   minSpeedLayerTime,15
;   minCoolingSpeedSlowdown,20
;   increaseFanForCooling,1
;   minFanLayerTime,45
;   maxCoolingFanSpeed,100
;   increaseFanForBridging,1
;   bridgingFanSpeed,100
;   use5D,1
;   relativeEdistances,1
;   allowEaxisZeroing,0
;   independentExtruderAxes,1
;   includeM10123,0
;   stickySupport,1
;   applyToolheadOffsets,0
;   gcodeXoffset,0
;   gcodeYoffset,0
;   gcodeZoffset,0
;   overrideMachineDefinition,1
;   machineTypeOverride,0
;   strokeXoverride,280
;   strokeYoverride,150
;   strokeZoverride,150
;   originOffsetXoverride,140
;   originOffsetYoverride,75
;   originOffsetZoverride,0
;   homeXdirOverride,1
;   homeYdirOverride,1
;   homeZdirOverride,-1
;   flipXoverride,1
;   flipYoverride,-1
;   flipZoverride,1
;   toolheadOffsets,0,0|0,0|0,0|0,0|0,0|0,0
;   overrideFirmwareConfiguration,1
;   firmwareTypeOverride,MakerBot/Sailfish Firmware
;   GPXconfigOverride,r2h
;   baudRateOverride,115200
;   overridePrinterModels,1
;   printerModelsOverride,MakerBot_Replicator2.stl
;   startingGcode,; **** Replicator 2 start.gcode ****,M73 P0 ; enable build progress,G162 X Y F3000 ; home XY maximum,G161 Z F1200 ; home Z minimum,G92 Z-5 ; set Z to -5,G1 Z0 ; move Z to 0,G161 Z F100 ; home Z slowly,M132 X Y Z A B ; recall home offsets,G1 X-145 Y-75 Z30 F9000 ; move to wait position off table,G130 X20 Y20 Z20 A20 B20 ; lower stepper Vrefs while heating,M126 S[fan_speed_pwm],M140 S[bed0_temperature] T0,M134 T0 ; stabilize bed temperature,M104 S[extruder0_temperature] T0,M133 T0 ; stabilize extruder temperature,G130 X127 Y127 Z40 A127 B127 ; default stepper Vrefs,G92 A0 ; zero extruder,G1 Z0.4 ; position nozzle,G1 E25 F300 ; purge nozzle,G1 X-140 Y-70 Z0.15 F1200 ; slow wipe,G1 X-135 Y-65 Z0.5 F1200 ; lift,G92 A0 ; zero extruder,M73 P1 ;@body (notify GPX body has started),; **** end of start.gcode ****
;   layerChangeGcode,
;   retractionGcode,
;   toolChangeGcode,
;   endingGcode,; **** Replicator 2 end.gcode ****,M73 P100 ; end build progress,G1 Z155 F1000 ; send Z axis to bottom of machine,M104 S0 T0 ; cool down extruder,M140 S0 T0 ; cool down HBP,M127 ; stop blower fan,G162 X Y F3000 ; home XY maximum,M18 ; disable stepper,M0 ; stop codes,M72 P1 ; play Ta-Da song,; **** end of end.gcode ****
;   exportFileFormat,gcode
;   celebration,0
;   celebrationSong,Random Song
;   postProcessing,
;   defaultSpeed,4800
;   outlineUnderspeed,0.5
;   solidInfillUnderspeed,1
;   supportUnderspeed,1
;   rapidXYspeed,9000
;   rapidZspeed,1200
;   minBridgingArea,50
;   bridgingExtraInflation,0
;   bridgingExtrusionMultiplier,1
;   bridgingSpeedMultiplier,0.8
;   useFixedBridgingAngle,0
;   fixedBridgingAngle,0
;   applyBridgingToPerimeters,0
;   filamentDiameters,1.75|1.75|1.75|1.75|1.75|1.75
;   filamentPricesPerKg,46|46|46|46|46|46
;   filamentDensities,1.25|1.25|1.25|1.25|1.25|1.25
;   useMinPrintHeight,0
;   minPrintHeight,0
;   useMaxPrintHeight,0
;   maxPrintHeight,4.84
;   useDiaphragm,0
;   diaphragmLayerInterval,20
;   robustSlicing,1
;   mergeAllIntoSolid,0
;   onlyRetractWhenCrossingOutline,0
;   retractBetweenLayers,0
;   useRetractionMinTravel,1
;   retractionMinTravel,7
;   retractWhileWiping,1
;   onlyWipeOutlines,1
;   avoidCrossingOutline,0
;   maxMovementDetourFactor,3
;   toolChangeRetractionDistance,12
;   toolChangeExtraRestartDistance,-0.5
;   toolChangeRetractionSpeed,600
;   externalThinWallType,0
;   internalThinWallType,0
;   thinWallAllowedOverlapPercentage,10
;   singleExtrusionMinLength,1
;   singleExtrusionMinPrintingWidthPercentage,50
;   singleExtrusionMaxPrintingWidthPercentage,200
;   singleExtrusionEndpointExtension,0.2
;   horizontalSizeCompensation,0
G90
M83
; **** Replicator 2 start.gcode ****
M73 P0 ; enable build progress
G162 X Y F3000 ; home XY maximum
G161 Z F1200 ; home Z minimum
G92 Z-5 ; set Z to -5
G1 Z0 ; move Z to 0
G161 Z F100 ; home Z slowly
M132 X Y Z A B ; recall home offsets
G1 X-145 Y-75 Z30 F9000 ; move to wait position off table
G130 X20 Y20 Z20 A20 B20 ; lower stepper Vrefs while heating
M127
M140 S60 T0
M134 T0 ; stabilize bed temperature
M104 S230 T0
M133 T0 ; stabilize extruder temperature
G130 X127 Y127 Z40 A127 B127 ; default stepper Vrefs
G92 A0 ; zero extruder
G1 Z0.4 ; position nozzle
G1 E25 F300 ; purge nozzle
G1 X-140 Y-70 Z0.15 F1200 ; slow wipe
G1 X-135 Y-65 Z0.5 F1200 ; lift
G92 A0 ; zero extruder
M73 P1 ;@body (notify GPX body has started)
; **** end of start.gcode ****
; process Process1
; layer 1, Z = 0.200
M135 T0
G1 E-1.9000 F1200
; feature inner perimeter
; tool H0.200 W0.460
G1 Z0.500 F1200
G1 X-2.686 Y-2.310 F9000
G1 Z0.200 F1200
G1 E1.9000 F1200
G1 X-4.767 Y-2.310 E0.0796 F1800
G1 X-5.000 Y-2.514 E0.0119
G1 X-5.274 Y-2.818 E0.0157
G1 X-5.428 Y-3.018 E0.0096
G1 X-5.689 Y-3.410 E0.0180
G1 X-5.774 Y-3.562 E0.0066
G1 X-5.920 Y-3.890 E0.0137
G1 X-5.966 Y-4.029 E0.0056
G1 X-6.032 Y-4.323 E0.0115
G1 X-6.071 Y-4.706 E0.0147
G1 X-6.069 Y-5.162 E0.0175
G1 X-6.051 Y-5.401 E0.0091
G1 X-5.965 Y-6.011 E0.0236
G1 X-5.787 Y-6.849 E0.0328
G1 X-5.672 Y-7.292 E0.0175
G1 X-5.393 Y-8.237 E0.0377
G1 X-5.266 Y-8.611 E0.0151
G1 X-5.006 Y-9.279 E0.0274
G1 X-4.725 Y-9.863 E0.0248
G1 X-4.427 Y-10.368 E0.0224
G1 X-4.156 Y-10.748 E0.0178
G1 X-4.011 Y-10.906 E0.0082
G1 X-3.915 Y-10.981 E0.0046
G1 X-3.853 Y-11.009 E0.0026
G1 X-3.757 Y-11.026 E0.0037
G1 X-3.628 Y-11.019 E0.0049
G1 X-3.565 Y-10.999 E0.0025
G1 X-3.488 Y-10.951 E0.0035
G1 X-3.370 Y-10.841 E0.0062
G1 X-3.165 Y-10.583 E0.0126
G1 X-2.866 Y-10.122 E0.0210
G1 X-2.578 Y-9.581 E0.0235
G1 X-2.442 Y-9.285 E0.0124
G1 X-2.179 Y-8.611 E0.0277
G1 X-2.053 Y-8.237 E0.0151
G1 X-1.773 Y-7.293 E0.0377
G1 X-1.657 Y-6.844 E0.0177
G1 X-1.556 Y-6.397 E0.0175
G1 X-1.429 Y-5.683 E0.0277
G1 X-1.396 Y-5.416 E0.0103
G1 X-1.369 Y-4.912 E0.0193
G1 X-1.373 Y-4.715 E0.0075
G1 X-1.414 Y-4.323 E0.0151
G1 X-1.477 Y-4.040 E0.0111
G1 X-1.593 Y-3.727 E0.0128
G1 X-1.766 Y-3.395 E0.0143
G1 X-1.871 Y-3.228 E0.0075
G1 X-2.182 Y-2.806 E0.0201
G1 X-2.308 Y-2.658 E0.0074
G1 X-2.572 Y-2.397 E0.0142
G1 X-2.686 Y-2.310 E0.0055
; feature outer perimeter
G1 X-2.531 Y-1.850 F9000
G1 X-4.919 Y-1.850 E0.0913 F1200
G1 X-5.026 Y-1.925 E0.0050
G1 X-5.323 Y-2.186 E0.0151
G1 X-5.628 Y-2.524 E0.0174
G1 X-5.802 Y-2.750 E0.0109
G1 X-6.081 Y-3.170 E0.0193
G1 X-6.185 Y-3.355 E0.0081
G1 X-6.350 Y-3.724 E0.0154
G1 X-6.410 Y-3.906 E0.0074
G1 X-6.486 Y-4.249 E0.0134
G1 X-6.532 Y-4.683 E0.0167
G1 X-6.529 Y-5.181 E0.0190
G1 X-6.509 Y-5.450 E0.0103
G1 X-6.418 Y-6.091 E0.0247
G1 X-6.235 Y-6.954 E0.0338
G1 X-6.116 Y-7.415 E0.0182
G1 X-5.831 Y-8.376 E0.0383
G1 X-5.699 Y-8.769 E0.0158
G1 X-5.428 Y-9.462 E0.0285
G1 X-5.131 Y-10.080 E0.0262
G1 X-4.813 Y-10.619 E0.0240
G1 X-4.514 Y-11.037 E0.0196
G1 X-4.324 Y-11.246 E0.0108
G1 X-4.156 Y-11.376 E0.0082
G1 X-3.991 Y-11.452 E0.0069
G1 X-3.784 Y-11.488 E0.0081
G1 X-3.545 Y-11.475 E0.0092
G1 X-3.372 Y-11.420 E0.0069
G1 X-3.207 Y-11.319 E0.0074
G1 X-3.031 Y-11.154 E0.0093
G1 X-2.791 Y-10.851 E0.0148
G1 X-2.470 Y-10.357 E0.0226
G1 X-2.165 Y-9.785 E0.0248
G1 X-2.019 Y-9.464 E0.0135
G1 X-1.747 Y-8.769 E0.0286
G1 X-1.614 Y-8.376 E0.0158
G1 X-1.330 Y-7.415 E0.0383
G1 X-1.210 Y-6.953 E0.0183
G1 X-1.105 Y-6.489 E0.0182
G1 X-0.973 Y-5.751 E0.0286
G1 X-0.938 Y-5.456 E0.0114
G1 X-0.909 Y-4.920 E0.0205
G1 X-0.914 Y-4.686 E0.0089
G1 X-0.959 Y-4.249 E0.0168
G1 X-1.035 Y-3.910 E0.0133
G1 X-1.171 Y-3.540 E0.0151
G1 X-1.367 Y-3.165 E0.0162
G1 X-1.491 Y-2.969 E0.0089
G1 X-1.821 Y-2.520 E0.0213
G1 X-1.971 Y-2.345 E0.0088
G1 X-2.270 Y-2.049 E0.0161
G1 X-2.531 Y-1.850 E0.0126
; feature solid layer
G1 X-5.068 Y-3.116 F9000
G1 X-4.607 Y-2.655 E0.0249 F2400
G1 X-3.956 Y-2.655 E0.0249
G1 X-5.692 Y-4.391 E0.0939
G1 X-5.726 Y-4.723 E0.0128
G1 X-5.725 Y-5.074 E0.0134
G1 X-3.306 Y-2.655 E0.1309
G1 X-2.802 Y-2.655 E0.0192
G1 X-2.728 Y-2.728 E0.0040
G1 X-5.665 Y-5.665 E0.1589
G1 X-5.625 Y-5.951 E0.0110
G1 X-5.568 Y-6.218 E0.0105
G1 X-2.417 Y-3.068 E0.1704
G1 X-2.157 Y-3.423 E0.0168
G1 X-2.143 Y-3.444 E0.0010
G1 X-5.454 Y-6.755 E0.1791
G1 X-5.451 Y-6.770 E0.0006
G1 X-5.340 Y-7.200 E0.0170
G1 X-5.319 Y-7.271 E0.0028
G1 X-1.911 Y-3.862 E0.1844
G1 X-1.809 Y-4.138 E0.0112
G1 X-1.759 Y-4.361 E0.0088
G1 X-5.170 Y-7.773 E0.1845
G1 X-5.064 Y-8.133 E0.0144
G1 X-5.017 Y-8.270 E0.0055
G1 X-1.718 Y-4.970 E0.1785
G1 X-1.740 Y-5.386 E0.0159
G1 X-1.770 Y-5.632 E0.0095
G1 X-1.779 Y-5.682 E0.0019
G1 X-4.843 Y-8.747 E0.1658
G1 X-4.689 Y-9.141 E0.0162
G1 X-4.656 Y-9.210 E0.0029
G1 X-1.929 Y-6.483 E0.1475
G1 X-1.993 Y-6.763 E0.0110
G1 X-2.106 Y-7.200 E0.0173
G1 X-2.152 Y-7.356 E0.0062
G1 X-4.445 Y-9.649 E0.1240
G1 X-4.421 Y-9.700 E0.0022
G1 X-4.207 Y-10.062 E0.0161
G1 X-2.435 Y-8.290 E0.0959
G1 X-2.504 Y-8.493 E0.0082
G1 X-2.760 Y-9.151 E0.0270
G1 X-2.857 Y-9.362 E0.0089
G1 X-3.945 Y-10.450 E0.0588
G1 E-1.9000 F1200
; feature inner perimeter
G1 Z0.700 F1200
G1 X-13.783 Y-2.310 F9000
G1 Z0.200 F1200
G1 E1.9000 F1200
G1 X-15.864 Y-2.310 E0.0796 F1800
G1 X-16.097 Y-2.514 E0.0119
G1 X-16.371 Y-2.818 E0.0157
G1 X-16.525 Y-3.018 E0.0096
G1 X-16.786 Y-3.410 E0.0180
G1 X-16.871 Y-3.562 E0.0066
G1 X-17.017 Y-3.890 E0.0137
G1 X-17.063 Y-4.028 E0.0056
G1 X-17.129 Y-4.323 E0.0116
G1 X-17.169 Y-4.706 E0.0147
G1 X-17.167 Y-5.162 E0.0175
G1 X-17.148 Y-5.401 E0.0091
G1 X-17.062 Y-6.011 E0.0236
G1 X-16.884 Y-6.849 E0.0328
G1 X-16.770 Y-7.292 E0.0175
G1 X-16.490 Y-8.237 E0.0377
G1 X-16.364 Y-8.611 E0.0151
G1 X-16.103 Y-9.279 E0.0274
G1 X-15.822 Y-9.863 E0.0248
G1 X-15.524 Y-10.368 E0.0224
G1 X-15.253 Y-10.748 E0.0178
G1 X-15.108 Y-10.907 E0.0082
G1 X-15.012 Y-10.981 E0.0046
G1 X-14.951 Y-11.009 E0.0026
G1 X-14.854 Y-11.026 E0.0037
G1 X-14.725 Y-11.019 E0.0049
G1 X-14.662 Y-10.999 E0.0025
G1 X-14.585 Y-10.951 E0.0035
G1 X-14.467 Y-10.841 E0.0062
G1 X-14.262 Y-10.583 E0.0126
G1 X-13.963 Y-10.122 E0.0210
G1 X-13.675 Y-9.581 E0.0235
G1 X-13.539 Y-9.285 E0.0125
G1 X-13.276 Y-8.611 E0.0277
G1 X-13.150 Y-8.237 E0.0151
G1 X-12.870 Y-7.292 E0.0377
G1 X-12.755 Y-6.844 E0.0177
G1 X-12.653 Y-6.397 E0.0175
G1 X-12.526 Y-5.683 E0.0277
G1 X-12.493 Y-5.415 E0.0103
G1 X-12.466 Y-4.912 E0.0193
G1 X-12.470 Y-4.715 E0.0075
G1 X-12.511 Y-4.323 E0.0151
G1 X-12.575 Y-4.040 E0.0111
G1 X-12.690 Y-3.727 E0.0128
G1 X-12.863 Y-3.395 E0.0143
G1 X-12.969 Y-3.228 E0.0075
G1 X-13.279 Y-2.806 E0.0201
G1 X-13.405 Y-2.658 E0.0074
G1 X-13.669 Y-2.397 E0.0142
G1 X-13.783 Y-2.310 E0.0055
; feature outer perimeter
G1 X-13.628 Y-1.850 F9000
G1 X-16.016 Y-1.850 E0.0913 F1200
G1 X-16.123 Y-1.925 E0.0050
G1 X-16.421 Y-2.186 E0.0151
G1 X-16.725 Y-2.524 E0.0174
G1 X-16.899 Y-2.750 E0.0109
G1 X-17.179 Y-3.170 E0.0193
G1 X-17.282 Y-3.355 E0.0081
G1 X-17.447 Y-3.724 E0.0154
G1 X-17.507 Y-3.906 E0.0074
G1 X-17.583 Y-4.249 E0.0134
G1 X-17.629 Y-4.683 E0.0167
G1 X-17.627 Y-5.181 E0.0190
G1 X-17.606 Y-5.450 E0.0103
G1 X-17.515 Y-6.091 E0.0247
G1 X-17.332 Y-6.954 E0.0338
G1 X-17.213 Y-7.415 E0.0182
G1 X-16.928 Y-8.376 E0.0383
G1 X-16.796 Y-8.769 E0.0158
G1 X-16.525 Y-9.462 E0.0285
G1 X-16.228 Y-10.080 E0.0262
G1 X-15.910 Y-10.619 E0.0240
G1 X-15.611 Y-11.037 E0.0196
G1 X-15.421 Y-11.246 E0.0108
G1 X-15.253 Y-11.376 E0.0082
G1 X-15.089 Y-11.452 E0.0069
G1 X-14.881 Y-11.488 E0.0081
G1 X-14.642 Y-11.475 E0.0092
G1 X-14.469 Y-11.420 E0.0069
G1 X-14.305 Y-11.319 E0.0074
G1 X-14.128 Y-11.154 E0.0093
G1 X-13.888 Y-10.851 E0.0147
G1 X-13.567 Y-10.356 E0.0226
G1 X-13.262 Y-9.785 E0.0248
G1 X-13.116 Y-9.464 E0.0135
G1 X-12.844 Y-8.769 E0.0286
G1 X-12.712 Y-8.376 E0.0158
G1 X-12.427 Y-7.415 E0.0383
G1 X-12.308 Y-6.953 E0.0183
G1 X-12.202 Y-6.489 E0.0182
G1 X-12.071 Y-5.751 E0.0286
G1 X-12.035 Y-5.456 E0.0114
G1 X-12.006 Y-4.920 E0.0205
G1 X-12.011 Y-4.686 E0.0089
G1 X-12.057 Y-4.249 E0.0168
G1 X-12.132 Y-3.910 E0.0133
G1 X-12.268 Y-3.540 E0.0151
G1 X-12.465 Y-3.165 E0.0162
G1 X-12.588 Y-2.969 E0.0089
G1 X-12.918 Y-2.520 E0.0213
G1 X-13.068 Y-2.345 E0.0088
G1 X-13.367 Y-2.049 E0.0161
G1 X-13.628 Y-1.850 E0.0126
; feature solid layer
G1 X-16.272 Y-3.261 F9000
G1 X-15.666 Y-2.655 E0.0328 F2400
G1 X-15.015 Y-2.655 E0.0249
G1 X-16.793 Y-4.433 E0.0962
G1 X-16.824 Y-4.723 E0.0112
G1 X-16.822 Y-5.112 E0.0149
G1 X-14.365 Y-2.655 E0.1329
G1 X-13.899 Y-2.655 E0.0178
G1 X-13.806 Y-2.747 E0.0050
G1 X-16.758 Y-5.698 E0.1597
G1 X-16.722 Y-5.950 E0.0097
G1 X-16.658 Y-6.250 E0.0117
G1 X-13.498 Y-3.090 E0.1709
G1 X-13.254 Y-3.423 E0.0158
G1 X-13.226 Y-3.467 E0.0020
G1 X-16.544 Y-6.786 E0.1795
G1 X-16.437 Y-7.200 E0.0164
G1 X-16.408 Y-7.300 E0.0040
G1 X-12.997 Y-3.890 E0.1845
G1 X-12.906 Y-4.138 E0.0101
G1 X-12.852 Y-4.379 E0.0094
G1 X-12.851 Y-4.394 E0.0006
G1 X-16.259 Y-7.802 E0.1844
G1 X-16.161 Y-8.133 E0.0132
G1 X-16.105 Y-8.299 E0.0067
G1 X-12.817 Y-5.010 E0.1779
G1 X-12.837 Y-5.386 E0.0144
G1 X-12.867 Y-5.632 E0.0095
G1 X-12.884 Y-5.728 E0.0037
G1 X-15.930 Y-8.774 E0.1647
G1 X-15.786 Y-9.141 E0.0151
G1 X-15.741 Y-9.236 E0.0040
G1 X-13.038 Y-6.532 E0.1462
G1 X-13.090 Y-6.763 E0.0091
