; G-Code generated by Simplify3D(R) Version 4.1.2
; Apr 6, 2020 at 11:35:35 AM
; Settings Summary
;   processName,Process1
;   applyToModels,Sign Insert,Sign Insert(2)
;   profileName,MakerBot Replicator 2 HBP (modified)
;   profileVersion,2020-03-12 10:48:50
;   baseProfile,MakerBot Replicator 2(2)
;   printMaterial,PLA
;   printQuality,Medium
;   printExtruders,
;   extruderName,Primary Extruder
;   extruderToolheadNumber,0
;   extruderDiameter,0.4
;   extruderAutoWidth,0
;   extruderWidth,0.4
;   extrusionMultiplier,1
;   extruderUseRetract,1
;   extruderRetractionDistance,1.9
;   extruderExtraRestartDistance,0
;   extruderRetractionZLift,0.5
;   extruderRetractionSpeed,1200
;   extruderUseCoasting,0
;   extruderCoastingDistance,0.2
;   extruderUseWipe,0
;   extruderWipeDistance,5
;   primaryExtruder,0
;   layerHeight,0.2
;   topSolidLayers,3
;   bottomSolidLayers,3
;   perimeterOutlines,2
;   printPerimetersInsideOut,1
;   startPointOption,3
;   startPointOriginX,0
;   startPointOriginY,150
;   sequentialIslands,0
;   spiralVaseMode,0
;   firstLayerHeightPercentage,100
;   firstLayerWidthPercentage,115
;   firstLayerUnderspeed,0.5
;   useRaft,0
;   raftExtruder,0
;   raftTopLayers,2
;   raftBaseLayers,1
;   raftOffset,1
;   raftSeparationDistance,0.14
;   raftTopInfill,90
;   aboveRaftSpeedMultiplier,0.3
;   useSkirt,0
;   skirtExtruder,0
;   skirtLayers,1
;   skirtOutlines,5
;   skirtOffset,0
;   usePrimePillar,0
;   primePillarExtruder,999
;   primePillarWidth,12
;   primePillarLocation,7
;   primePillarSpeedMultiplier,1
;   useOozeShield,0
;   oozeShieldExtruder,999
;   oozeShieldOffset,2
;   oozeShieldOutlines,1
;   oozeShieldSidewallShape,1
;   oozeShieldSidewallAngle,30
;   oozeShieldSpeedMultiplier,1
;   infillExtruder,0
;   internalInfillPattern,Rectilinear
;   externalInfillPattern,Rectilinear
;   infillPercentage,15
;   outlineOverlapPercentage,25
;   infillExtrusionWidthPercentage,100
;   minInfillLength,5
;   infillLayerInterval,1
;   internalInfillAngles,45,-45
;   overlapInternalInfillAngles,0
;   externalInfillAngles,45,-45
;   generateSupport,0
;   supportExtruder,0
;   supportInfillPercentage,5
;   supportExtraInflation,0.5
;   supportBaseLayers,0
;   denseSupportExtruder,0
;   denseSupportLayers,2
;   denseSupportInfillPercentage,90
;   supportLayerInterval,1
;   supportHorizontalPartOffset,0.3
;   supportUpperSeparationLayers,1
;   supportLowerSeparationLayers,1
;   supportType,1
;   supportGridSpacing,2
;   maxOverhangAngle,45
;   supportAngles,45,-45
;   temperatureName,Primary Extruder,Heated Build Platform
;   temperatureNumber,0,0
;   temperatureSetpointCount,1,1
;   temperatureSetpointLayers,1,1
;   temperatureSetpointTemperatures,230,60
;   temperatureStabilizeAtStartup,1,1
;   temperatureHeatedBed,0,1
;   fanLayers,1,2
;   fanSpeeds,0,100
;   blipFanToFullPower,1
;   adjustSpeedForCooling,1
;   minSpeedLayerTime,15
;   minCoolingSpeedSlowdown,20
;   increaseFanForCooling,1
;   minFanLayerTime,45
;   maxCoolingFanSpeed,100
;   increaseFanForBridging,1
;   bridgingFanSpeed,100
;   use5D,1
;   relativeEdistances,1
;   allowEaxisZeroing,0
;   independentExtruderAxes,1
;   includeM10123,0
;   stickySupport,1
;   applyToolheadOffsets,0
;   gcodeXoffset,0
;   gcodeYoffset,0
;   gcodeZoffset,0
;   overrideMachineDefinition,1
;   machineTypeOverride,0
;   strokeXoverride,280
;   strokeYoverride,150
;   strokeZoverride,150
;   originOffsetXoverride,140
;   originOffsetYoverride,75
;   originOffsetZoverride,0
;   homeXdirOverride,1
;   homeYdirOverride,1
;   homeZdirOverride,-1
;   flipXoverride,1
;   flipYoverride,-1
;   flipZoverride,1
;   toolheadOffsets,0,0|0,0|0,0|0,0|0,0|0,0
;   overrideFirmwareConfiguration,1
;   firmwareTypeOverride,MakerBot/Sailfish Firmware
;   GPXconfigOverride,r2h
;   baudRateOverride,115200
;   overridePrinterModels,1
;   printerModelsOverride,MakerBot_Replicator2.stl
;   startingGcode,; **** Replicator 2 start.gcode ****,M73 P0 ; enable build progress,G162 X Y F3000 ; home XY maximum,G161 Z F1200 ; home Z minimum,G92 Z-5 ; set Z to -5,G1 Z0 ; move Z to 0,G161 Z F100 ; home Z slowly,M132 X Y Z A B ; recall home offsets,G1 X-145 Y-75 Z30 F9000 ; move to wait position off table,G130 X20 Y20 Z20 A20 B20 ; lower stepper Vrefs while heating,M126 S[fan_speed_pwm],M140 S[bed0_temperature] T0,M134 T0 ; stabilize bed temperature,M104 S[extruder0_temperature] T0,M133 T0 ; stabilize extruder temperature,G130 X127 Y127 Z40 A127 B127 ; default stepper Vrefs,G92 A0 ; zero extruder,G1 Z0.4 ; position nozzle,G1 E25 F300 ; purge nozzle,G1 X-140 Y-70 Z0.15 F1200 ; slow wipe,G1 X-135 Y-65 Z0.5 F1200 ; lift,G92 A0 ; zero extruder,M73 P1 ;@body (notify GPX body has started),; **** end of start.gcode ****
;   layerChangeGcode,
;   retractionGcode,
;   toolChangeGcode,
;   endingGcode,; **** Replicator 2 end.gcode ****,M73 P100 ; end build progress,G1 Z155 F1000 ; send Z axis to bottom of machine,M104 S0 T0 ; cool down extruder,M140 S0 T0 ; cool down HBP,M127 ; stop blower fan,G162 X Y F3000 ; home XY maximum,M18 ; disable stepper,M0 ; stop codes,M72 P1 ; play Ta-Da song,; **** end of end.gcode ****
;   exportFileFormat,gcode
;   celebration,0
;   celebrationSong,Random Song
;   postProcessing,
;   defaultSpeed,4800
;   outlineUnderspeed,0.5
;   solidInfillUnderspeed,1
;   supportUnderspeed,1
;   rapidXYspeed,9000
;   rapidZspeed,1200
;   minBridgingArea,50
;   bridgingExtraInflation,0
;   bridgingExtrusionMultiplier,1
;   bridgingSpeedMultiplier,0.8
;   useFixedBridgingAngle,0
;   fixedBridgingAngle,0
;   applyBridgingToPerimeters,0
;   filamentDiameters,1.75|1.75|1.75|1.75|1.75|1.75
;   filamentPricesPerKg,46|46|46|46|46|46
;   filamentDensities,1.25|1.25|1.25|1.25|1.25|1.25
;   useMinPrintHeight,0
;   minPrintHeight,0
;   useMaxPrintHeight,0
;   maxPrintHeight,4.84
;   useDiaphragm,0
;   diaphragmLayerInterval,20
;   robustSlicing,1
;   mergeAllIntoSolid,0
;   onlyRetractWhenCrossingOutline,0
;   retractBetweenLayers,0
;   useRetractionMinTravel,1
;   retractionMinTravel,7
;   retractWhileWiping,1
;   onlyWipeOutlines,1
;   avoidCrossingOutline,0
;   maxMovementDetourFactor,3
;   toolChangeRetractionDistance,12
;   toolChangeExtraRestartDistance,-0.5
;   toolChangeRetractionSpeed,600
;   externalThinWallType,0
;   internalThinWallType,0
;   thinWallAllowedOverlapPercentage,10
;   singleExtrusionMinLength,1
;   singleExtrusionMinPrintingWidthPercentage,50
;   singleExtrusionMaxPrintingWidthPercentage,200
;   singleExtrusionEndpointExtension,0.2
;   horizontalSizeCompensation,0
G90
M83
; **** Replicator 2 start.gcode ****
M73 P0 ; enable build progress
G162 X Y F3000 ; home XY maximum
G161 Z F1200 ; home Z minimum
G92 Z-5 ; set Z to -5
G1 Z0 ; move Z to 0
G161 Z F100 ; home Z slowly
M132 X Y Z A B ; recall home offsets
G1 X-145 Y-75 Z30 F9000 ; move to wait position off table
G130 X20 Y20 Z20 A20 B20 ; lower stepper Vrefs while heating
M127
M140 S60 T0
M134 T0 ; stabilize bed temperature
M104 S230 T0
M133 T0 ; stabilize extruder temperature
G130 X127 Y127 Z40 A127 B127 ; default stepper Vrefs
G92 A0 ; zero extruder
G1 Z0.4 ; position nozzle
G1 E25 F300 ; purge nozzle
G1 X-140 Y-70 Z0.15 F1200 ; slow wipe
G1 X-135 Y-65 Z0.5 F1200 ; lift
G92 A0 ; zero extruder
M73 P1 ;@body (notify GPX body has started)
; **** end of start.gcode ****
; process Process1
; layer 1, Z = 0.200
M135 T0
G1 E-1.9000 F1200
; feature inner perimeter
; tool H0.200 W0.460
G1 Z0.500 F1200
G1 X-49.971 Y38.324 F9000
G1 Z0.200 F1200
G1 E1.9000 F1200
G1 X-50.853 Y38.251 E0.0338 F1800
G1 X-51.683 Y38.041 E0.0327
G1 X-52.467 Y37.698 E0.0327
G1 X-53.185 Y37.231 E0.0327
G1 X-53.815 Y36.653 E0.0327
G1 X-54.343 Y35.978 E0.0327
G1 X-54.752 Y35.227 E0.0327
G1 X-55.033 Y34.418 E0.0327
G1 X-55.177 Y33.574 E0.0327
G1 X-55.180 Y32.718 E0.0327
G1 X-55.043 Y31.873 E0.0327
G1 X-54.769 Y31.062 E0.0327
G1 X-54.366 Y30.307 E0.0327
G1 X-53.844 Y29.629 E0.0327
G1 X-53.218 Y29.045 E0.0327
G1 X-52.513 Y28.578 E0.0323
G1 X-7.435 Y3.773 E1.9680
G1 X-6.705 Y3.448 E0.0305
G1 X-5.960 Y3.257 E0.0294
G1 X-5.164 Y3.190 E0.0305
G1 X5.164 Y3.190 E0.3950
G1 X5.960 Y3.257 E0.0305
G1 X6.705 Y3.448 E0.0294
G1 X7.435 Y3.773 E0.0306
G1 X52.481 Y28.556 E1.9665
G1 X53.218 Y29.045 E0.0338
G1 X53.844 Y29.629 E0.0327
G1 X54.366 Y30.307 E0.0327
G1 X54.769 Y31.062 E0.0327
G1 X55.043 Y31.873 E0.0327
G1 X55.180 Y32.718 E0.0327
G1 X55.177 Y33.574 E0.0327
G1 X55.033 Y34.418 E0.0327
G1 X54.752 Y35.227 E0.0327
G1 X54.343 Y35.978 E0.0327
G1 X53.815 Y36.653 E0.0327
G1 X53.185 Y37.231 E0.0327
G1 X52.467 Y37.698 E0.0327
G1 X51.683 Y38.041 E0.0327
G1 X50.853 Y38.251 E0.0327
G1 X49.971 Y38.324 E0.0338
G1 X-49.971 Y38.324 E3.8227
; feature outer perimeter
G1 X-49.990 Y38.784 F9000
G1 X-50.929 Y38.706 E0.0360 F1200
G1 X-51.832 Y38.478 E0.0356
G1 X-52.686 Y38.104 E0.0356
G1 X-53.467 Y37.596 E0.0357
G1 X-54.154 Y36.966 E0.0356
G1 X-54.729 Y36.232 E0.0357
G1 X-55.174 Y35.413 E0.0356
G1 X-55.480 Y34.533 E0.0356
G1 X-55.637 Y33.614 E0.0356
G1 X-55.641 Y32.682 E0.0357
G1 X-55.491 Y31.762 E0.0356
G1 X-55.193 Y30.879 E0.0357
G1 X-54.754 Y30.057 E0.0356
G1 X-54.186 Y29.318 E0.0357
G1 X-53.504 Y28.683 E0.0356
G1 X-52.752 Y28.184 E0.0345
G1 X-7.640 Y3.361 E1.9695
G1 X-6.857 Y3.012 E0.0328
G1 X-6.037 Y2.802 E0.0324
G1 X-5.183 Y2.730 E0.0328
G1 X5.183 Y2.730 E0.3965
G1 X6.037 Y2.802 E0.0328
G1 X6.857 Y3.012 E0.0324
G1 X7.640 Y3.361 E0.0328
G1 X52.719 Y28.162 E1.9680
G1 X53.504 Y28.683 E0.0360
G1 X54.186 Y29.318 E0.0356
G1 X54.754 Y30.057 E0.0357
G1 X55.193 Y30.879 E0.0356
G1 X55.491 Y31.762 E0.0357
G1 X55.641 Y32.682 E0.0356
G1 X55.637 Y33.614 E0.0357
G1 X55.480 Y34.533 E0.0356
G1 X55.174 Y35.413 E0.0356
G1 X54.729 Y36.232 E0.0356
G1 X54.154 Y36.966 E0.0357
G1 X53.467 Y37.596 E0.0356
G1 X52.686 Y38.104 E0.0356
G1 X51.832 Y38.478 E0.0356
G1 X50.929 Y38.706 E0.0356
G1 X49.990 Y38.784 E0.0360
G1 X-49.990 Y38.784 E3.8242
; feature solid layer
G1 X-52.526 Y37.248 F9000
G1 X-54.134 Y35.640 E0.0870 F2400
G1 X-54.436 Y35.087 E0.0241
G1 X-54.647 Y34.476 E0.0247
G1 X-51.356 Y37.768 E0.1781
G1 X-50.796 Y37.909 E0.0221
G1 X-50.543 Y37.930 E0.0097
G1 X-54.812 Y33.661 E0.2309
G1 X-54.832 Y33.544 E0.0045
G1 X-54.834 Y32.988 E0.0213
G1 X-49.844 Y37.979 E0.2699
G1 X-49.194 Y37.979 E0.0249
G1 X-54.778 Y32.394 E0.3021
G1 X-54.707 Y31.957 E0.0169
G1 X-54.671 Y31.850 E0.0043
G1 X-48.543 Y37.979 E0.3315
G1 X-47.892 Y37.979 E0.0249
G1 X-54.507 Y31.364 E0.3578
G1 X-54.452 Y31.200 E0.0066
G1 X-54.302 Y30.919 E0.0122
G1 X-47.242 Y37.979 E0.3819
G1 X-46.591 Y37.979 E0.0249
G1 X-54.075 Y30.495 E0.4048
G1 X-53.792 Y30.127 E0.0177
G1 X-45.941 Y37.979 E0.4247
G1 X-45.290 Y37.979 E0.0249
G1 X-53.495 Y29.774 E0.4438
G1 X-53.158 Y29.460 E0.0176
G1 X-44.640 Y37.979 E0.4608
G1 X-43.989 Y37.979 E0.0249
G1 X-52.792 Y29.176 E0.4761
G1 X-52.400 Y28.917 E0.0180
G1 X-43.339 Y37.979 E0.4902
G1 X-42.688 Y37.979 E0.0249
G1 X-51.986 Y28.681 E0.5029
G1 X-51.566 Y28.450 E0.0183
G1 X-42.038 Y37.979 E0.5154
G1 X-41.387 Y37.979 E0.0249
G1 X-51.146 Y28.219 E0.5279
G1 X-50.727 Y27.988 E0.0183
G1 X-40.737 Y37.979 E0.5404
G1 X-40.086 Y37.979 E0.0249
G1 X-50.307 Y27.757 E0.5529
G1 X-49.887 Y27.527 E0.0183
G1 X-39.435 Y37.979 E0.5654
G1 X-38.785 Y37.979 E0.0249
G1 X-49.468 Y27.296 E0.5779
G1 X-49.048 Y27.065 E0.0183
G1 X-38.134 Y37.979 E0.5904
G1 X-37.484 Y37.979 E0.0249
G1 X-48.629 Y26.834 E0.6028
G1 X-48.209 Y26.603 E0.0183
G1 X-36.833 Y37.979 E0.6153
G1 X-36.183 Y37.979 E0.0249
G1 X-47.789 Y26.372 E0.6278
G1 X-47.370 Y26.141 E0.0183
G1 X-35.532 Y37.979 E0.6403
G1 X-34.882 Y37.979 E0.0249
G1 X-46.950 Y25.910 E0.6528
G1 X-46.530 Y25.679 E0.0183
G1 X-34.231 Y37.979 E0.6653
G1 X-33.581 Y37.979 E0.0249
G1 X-46.111 Y25.448 E0.6778
G1 X-45.691 Y25.218 E0.0183
G1 X-32.930 Y37.979 E0.6903
G1 X-32.280 Y37.979 E0.0249
G1 X-45.271 Y24.987 E0.7028
G1 X-44.852 Y24.756 E0.0183
G1 X-31.629 Y37.979 E0.7153
G1 X-30.978 Y37.979 E0.0249
G1 X-44.432 Y24.525 E0.7277
G1 X-44.013 Y24.294 E0.0183
G1 X-30.328 Y37.979 E0.7402
G1 X-29.677 Y37.979 E0.0249
G1 X-43.593 Y24.063 E0.7527
G1 X-43.173 Y23.832 E0.0183
G1 X-29.027 Y37.979 E0.7652
G1 X-28.376 Y37.979 E0.0249
G1 X-42.754 Y23.601 E0.7777
G1 X-42.334 Y23.370 E0.0183
G1 X-27.726 Y37.979 E0.7902
G1 X-27.075 Y37.979 E0.0249
G1 X-41.914 Y23.139 E0.8027
G1 X-41.495 Y22.909 E0.0183
G1 X-26.425 Y37.979 E0.8152
G1 X-25.774 Y37.979 E0.0249
G1 X-41.075 Y22.678 E0.8277
G1 X-40.655 Y22.447 E0.0183
G1 X-25.124 Y37.979 E0.8402
G1 X-24.473 Y37.979 E0.0249
G1 X-40.236 Y22.216 E0.8526
G1 X-39.816 Y21.985 E0.0183
G1 X-23.823 Y37.979 E0.8651
G1 X-23.172 Y37.979 E0.0249
G1 X-39.397 Y21.754 E0.8776
G1 X-38.977 Y21.523 E0.0183
G1 X-22.522 Y37.979 E0.8901
G1 X-21.871 Y37.979 E0.0249
G1 X-38.557 Y21.292 E0.9026
G1 X-38.138 Y21.061 E0.0183
G1 X-21.220 Y37.979 E0.9151
G1 X-20.570 Y37.979 E0.0249
G1 X-37.718 Y20.830 E0.9276
G1 X-37.298 Y20.599 E0.0183
G1 X-19.919 Y37.979 E0.9401
G1 X-19.269 Y37.979 E0.0249
G1 X-36.879 Y20.369 E0.9526
G1 X-36.459 Y20.138 E0.0183
G1 X-18.618 Y37.979 E0.9651
G1 X-17.968 Y37.979 E0.0249
G1 X-36.039 Y19.907 E0.9775
G1 X-35.620 Y19.676 E0.0183
G1 X-17.317 Y37.979 E0.9900
G1 X-16.667 Y37.979 E0.0249
G1 X-35.200 Y19.445 E1.0025
G1 X-34.781 Y19.214 E0.0183
G1 X-16.016 Y37.979 E1.0150
G1 X-15.366 Y37.979 E0.0249
G1 X-34.361 Y18.983 E1.0275
G1 X-33.941 Y18.752 E0.0183
G1 X-14.715 Y37.979 E1.0400
G1 X-14.065 Y37.979 E0.0249
G1 X-33.522 Y18.521 E1.0525
G1 X-33.102 Y18.290 E0.0183
G1 X-13.414 Y37.979 E1.0650
G1 X-12.763 Y37.979 E0.0249
G1 X-32.682 Y18.060 E1.0775
G1 X-32.263 Y17.829 E0.0183
G1 X-12.113 Y37.979 E1.0900
G1 X-11.462 Y37.979 E0.0249
G1 X-31.843 Y17.598 E1.1024
G1 X-31.423 Y17.367 E0.0183
G1 X-10.812 Y37.979 E1.1149
G1 X-10.161 Y37.979 E0.0249
G1 X-31.004 Y17.136 E1.1274
G1 X-30.584 Y16.905 E0.0183
G1 X-9.511 Y37.979 E1.1399
G1 X-8.860 Y37.979 E0.0249
G1 X-30.165 Y16.674 E1.1524
G1 X-29.745 Y16.443 E0.0183
G1 X-8.210 Y37.979 E1.1649
G1 X-7.559 Y37.979 E0.0249
G1 X-29.325 Y16.212 E1.1774
G1 X-28.906 Y15.981 E0.0183
G1 X-6.909 Y37.979 E1.1899
G1 X-6.258 Y37.979 E0.0249
G1 X-28.486 Y15.751 E1.2024
G1 X-28.066 Y15.520 E0.0183
G1 X-5.608 Y37.979 E1.2149
G1 X-4.957 Y37.979 E0.0249
G1 X-27.647 Y15.289 E1.2273
G1 X-27.227 Y15.058 E0.0183
G1 X-4.306 Y37.979 E1.2398
G1 X-3.656 Y37.979 E0.0249
G1 X-26.808 Y14.827 E1.2523
G1 X-26.388 Y14.596 E0.0183
G1 X-3.005 Y37.979 E1.2648
G1 X-2.355 Y37.979 E0.0249
G1 X-25.968 Y14.365 E1.2773
G1 X-25.549 Y14.134 E0.0183
G1 X-1.704 Y37.979 E1.2898
G1 X-1.054 Y37.979 E0.0249
G1 X-25.129 Y13.903 E1.3023
G1 X-24.709 Y13.672 E0.0183
G1 X-0.403 Y37.979 E1.3148
G1 X0.247 Y37.979 E0.0249
G1 X-24.290 Y13.442 E1.3273
G1 X-23.870 Y13.211 E0.0183
G1 X0.898 Y37.979 E1.3398
G1 X1.548 Y37.979 E0.0249
G1 X-23.450 Y12.980 E1.3522
G1 X-23.031 Y12.749 E0.0183
G1 X2.199 Y37.979 E1.3647
G1 X2.849 Y37.979 E0.0249
G1 X-22.611 Y12.518 E1.3772
G1 X-22.192 Y12.287 E0.0183
G1 X3.500 Y37.979 E1.3897
G1 X4.151 Y37.979 E0.0249
G1 X-21.772 Y12.056 E1.4022
G1 X-21.352 Y11.825 E0.0183
G1 X4.801 Y37.979 E1.4147
G1 X5.452 Y37.979 E0.0249
G1 X-20.933 Y11.594 E1.4272
G1 X-20.513 Y11.363 E0.0183
G1 X6.102 Y37.979 E1.4397
G1 X6.753 Y37.979 E0.0249
G1 X-20.093 Y11.132 E1.4522
G1 X-19.674 Y10.902 E0.0183
G1 X7.403 Y37.979 E1.4647
G1 X8.054 Y37.979 E0.0249
G1 X-19.254 Y10.671 E1.4772
G1 X-18.834 Y10.440 E0.0183
G1 X8.704 Y37.979 E1.4896
G1 X9.355 Y37.979 E0.0249
G1 X-18.415 Y10.209 E1.5021
G1 X-17.995 Y9.978 E0.0183
G1 X10.005 Y37.979 E1.5146
G1 X10.656 Y37.979 E0.0249
G1 X-17.576 Y9.747 E1.5271
G1 X-17.156 Y9.516 E0.0183
G1 X11.306 Y37.979 E1.5396
G1 X11.957 Y37.979 E0.0249
G1 X-16.736 Y9.285 E1.5521
G1 X-16.317 Y9.054 E0.0183
G1 X12.608 Y37.979 E1.5646
G1 X13.258 Y37.979 E0.0249
G1 X-15.897 Y8.823 E1.5771
G1 X-15.477 Y8.593 E0.0183
G1 X13.909 Y37.979 E1.5896
G1 X14.559 Y37.979 E0.0249
G1 X-15.058 Y8.362 E1.6021
G1 X-14.638 Y8.131 E0.0183
G1 X15.210 Y37.979 E1.6145
G1 X15.860 Y37.979 E0.0249
G1 X-14.218 Y7.900 E1.6270
G1 X-13.799 Y7.669 E0.0183
G1 X16.511 Y37.979 E1.6395
G1 X17.161 Y37.979 E0.0249
G1 X-13.379 Y7.438 E1.6520
G1 X-12.960 Y7.207 E0.0183
G1 X17.812 Y37.979 E1.6645
G1 X18.462 Y37.979 E0.0249
