; G-Code generated by Simplify3D(R) Version 4.1.2
; Apr 6, 2020 at 11:40:17 AM
; Settings Summary
;   processName,Process1
;   applyToModels,Bat
;   profileName,MakerBot Replicator 2 HBP (modified)
;   profileVersion,2020-03-12 10:48:50
;   baseProfile,MakerBot Replicator 2(2)
;   printMaterial,PLA
;   printQuality,Medium
;   printExtruders,
;   extruderName,Primary Extruder
;   extruderToolheadNumber,0
;   extruderDiameter,0.4
;   extruderAutoWidth,0
;   extruderWidth,0.4
;   extrusionMultiplier,1
;   extruderUseRetract,1
;   extruderRetractionDistance,1.9
;   extruderExtraRestartDistance,0
;   extruderRetractionZLift,0.5
;   extruderRetractionSpeed,1200
;   extruderUseCoasting,0
;   extruderCoastingDistance,0.2
;   extruderUseWipe,0
;   extruderWipeDistance,5
;   primaryExtruder,0
;   layerHeight,0.2
;   topSolidLayers,3
;   bottomSolidLayers,3
;   perimeterOutlines,3
;   printPerimetersInsideOut,1
;   startPointOption,3
;   startPointOriginX,0
;   startPointOriginY,150
;   sequentialIslands,0
;   spiralVaseMode,0
;   firstLayerHeightPercentage,100
;   firstLayerWidthPercentage,115
;   firstLayerUnderspeed,0.5
;   useRaft,0
;   raftExtruder,0
;   raftTopLayers,2
;   raftBaseLayers,1
;   raftOffset,1
;   raftSeparationDistance,0.14
;   raftTopInfill,90
;   aboveRaftSpeedMultiplier,0.3
;   useSkirt,0
;   skirtExtruder,0
;   skirtLayers,1
;   skirtOutlines,5
;   skirtOffset,0
;   usePrimePillar,0
;   primePillarExtruder,999
;   primePillarWidth,12
;   primePillarLocation,7
;   primePillarSpeedMultiplier,1
;   useOozeShield,0
;   oozeShieldExtruder,999
;   oozeShieldOffset,2
;   oozeShieldOutlines,1
;   oozeShieldSidewallShape,1
;   oozeShieldSidewallAngle,30
;   oozeShieldSpeedMultiplier,1
;   infillExtruder,0
;   internalInfillPattern,Rectilinear
;   externalInfillPattern,Rectilinear
;   infillPercentage,15
;   outlineOverlapPercentage,25
;   infillExtrusionWidthPercentage,100
;   minInfillLength,5
;   infillLayerInterval,1
;   internalInfillAngles,45,-45
;   overlapInternalInfillAngles,0
;   externalInfillAngles,45,-45
;   generateSupport,1
;   supportExtruder,0
;   supportInfillPercentage,5
;   supportExtraInflation,0.5
;   supportBaseLayers,0
;   denseSupportExtruder,0
;   denseSupportLayers,2
;   denseSupportInfillPercentage,90
;   supportLayerInterval,1
;   supportHorizontalPartOffset,0.3
;   supportUpperSeparationLayers,1
;   supportLowerSeparationLayers,1
;   supportType,1
;   supportGridSpacing,2
;   maxOverhangAngle,45
;   supportAngles,45,-45
;   temperatureName,Primary Extruder,Heated Build Platform
;   temperatureNumber,0,0
;   temperatureSetpointCount,1,1
;   temperatureSetpointLayers,1,1
;   temperatureSetpointTemperatures,230,60
;   temperatureStabilizeAtStartup,1,1
;   temperatureHeatedBed,0,1
;   fanLayers,1,2
;   fanSpeeds,0,100
;   blipFanToFullPower,1
;   adjustSpeedForCooling,1
;   minSpeedLayerTime,15
;   minCoolingSpeedSlowdown,20
;   increaseFanForCooling,1
;   minFanLayerTime,45
;   maxCoolingFanSpeed,100
;   increaseFanForBridging,1
;   bridgingFanSpeed,100
;   use5D,1
;   relativeEdistances,1
;   allowEaxisZeroing,0
;   independentExtruderAxes,1
;   includeM10123,0
;   stickySupport,1
;   applyToolheadOffsets,0
;   gcodeXoffset,0
;   gcodeYoffset,0
;   gcodeZoffset,0
;   overrideMachineDefinition,1
;   machineTypeOverride,0
;   strokeXoverride,280
;   strokeYoverride,150
;   strokeZoverride,150
;   originOffsetXoverride,140
;   originOffsetYoverride,75
;   originOffsetZoverride,0
;   homeXdirOverride,1
;   homeYdirOverride,1
;   homeZdirOverride,-1
;   flipXoverride,1
;   flipYoverride,-1
;   flipZoverride,1
;   toolheadOffsets,0,0|0,0|0,0|0,0|0,0|0,0
;   overrideFirmwareConfiguration,1
;   firmwareTypeOverride,MakerBot/Sailfish Firmware
;   GPXconfigOverride,r2h
;   baudRateOverride,115200
;   overridePrinterModels,1
;   printerModelsOverride,MakerBot_Replicator2.stl
;   startingGcode,; **** Replicator 2 start.gcode ****,M73 P0 ; enable build progress,G162 X Y F3000 ; home XY maximum,G161 Z F1200 ; home Z minimum,G92 Z-5 ; set Z to -5,G1 Z0 ; move Z to 0,G161 Z F100 ; home Z slowly,M132 X Y Z A B ; recall home offsets,G1 X-145 Y-75 Z30 F9000 ; move to wait position off table,G130 X20 Y20 Z20 A20 B20 ; lower stepper Vrefs while heating,M126 S[fan_speed_pwm],M140 S[bed0_temperature] T0,M134 T0 ; stabilize bed temperature,M104 S[extruder0_temperature] T0,M133 T0 ; stabilize extruder temperature,G130 X127 Y127 Z40 A127 B127 ; default stepper Vrefs,G92 A0 ; zero extruder,G1 Z0.4 ; position nozzle,G1 E25 F300 ; purge nozzle,G1 X-140 Y-70 Z0.15 F1200 ; slow wipe,G1 X-135 Y-65 Z0.5 F1200 ; lift,G92 A0 ; zero extruder,M73 P1 ;@body (notify GPX body has started),; **** end of start.gcode ****
;   layerChangeGcode,
;   retractionGcode,
;   toolChangeGcode,
;   endingGcode,; **** Replicator 2 end.gcode ****,M73 P100 ; end build progress,G1 Z155 F1000 ; send Z axis to bottom of machine,M104 S0 T0 ; cool down extruder,M140 S0 T0 ; cool down HBP,M127 ; stop blower fan,G162 X Y F3000 ; home XY maximum,M18 ; disable stepper,M0 ; stop codes,M72 P1 ; play Ta-Da song,; **** end of end.gcode ****
;   exportFileFormat,gcode
;   celebration,0
;   celebrationSong,Random Song
;   postProcessing,
;   defaultSpeed,4800
;   outlineUnderspeed,0.5
;   solidInfillUnderspeed,1
;   supportUnderspeed,1
;   rapidXYspeed,9000
;   rapidZspeed,1200
;   minBridgingArea,50
;   bridgingExtraInflation,0
;   bridgingExtrusionMultiplier,1
;   bridgingSpeedMultiplier,0.8
;   useFixedBridgingAngle,0
;   fixedBridgingAngle,0
;   applyBridgingToPerimeters,0
;   filamentDiameters,1.75|1.75|1.75|1.75|1.75|1.75
;   filamentPricesPerKg,46|46|46|46|46|46
;   filamentDensities,1.25|1.25|1.25|1.25|1.25|1.25
;   useMinPrintHeight,0
;   minPrintHeight,0
;   useMaxPrintHeight,0
;   maxPrintHeight,4.84
;   useDiaphragm,0
;   diaphragmLayerInterval,20
;   robustSlicing,1
;   mergeAllIntoSolid,0
;   onlyRetractWhenCrossingOutline,0
;   retractBetweenLayers,0
;   useRetractionMinTravel,1
;   retractionMinTravel,7
;   retractWhileWiping,1
;   onlyWipeOutlines,1
;   avoidCrossingOutline,0
;   maxMovementDetourFactor,3
;   toolChangeRetractionDistance,12
;   toolChangeExtraRestartDistance,-0.5
;   toolChangeRetractionSpeed,600
;   externalThinWallType,0
;   internalThinWallType,0
;   thinWallAllowedOverlapPercentage,10
;   singleExtrusionMinLength,1
;   singleExtrusionMinPrintingWidthPercentage,50
;   singleExtrusionMaxPrintingWidthPercentage,200
;   singleExtrusionEndpointExtension,0.2
;   horizontalSizeCompensation,0
G90
M83
; **** Replicator 2 start.gcode ****
M73 P0 ; enable build progress
G162 X Y F3000 ; home XY maximum
G161 Z F1200 ; home Z minimum
G92 Z-5 ; set Z to -5
G1 Z0 ; move Z to 0
G161 Z F100 ; home Z slowly
M132 X Y Z A B ; recall home offsets
G1 X-145 Y-75 Z30 F9000 ; move to wait position off table
G130 X20 Y20 Z20 A20 B20 ; lower stepper Vrefs while heating
M127
M140 S60 T0
M134 T0 ; stabilize bed temperature
M104 S230 T0
M133 T0 ; stabilize extruder temperature
G130 X127 Y127 Z40 A127 B127 ; default stepper Vrefs
G92 A0 ; zero extruder
G1 Z0.4 ; position nozzle
G1 E25 F300 ; purge nozzle
G1 X-140 Y-70 Z0.15 F1200 ; slow wipe
G1 X-135 Y-65 Z0.5 F1200 ; lift
G92 A0 ; zero extruder
M73 P1 ;@body (notify GPX body has started)
; **** end of start.gcode ****
; process Process1
; layer 1, Z = 0.200
M135 T0
G1 E-1.9000 F1200
; feature inner perimeter
; tool H0.200 W0.460
G1 Z0.500 F1200
G1 X-4.744 Y20.767 F9000
G1 Z0.200 F1200
G1 E1.9000 F1200
G1 X-5.608 Y20.687 E0.0332 F1800
G1 X-6.446 Y20.463 E0.0332
G1 X-7.235 Y20.102 E0.0332
G1 X-7.952 Y19.613 E0.0332
G1 X-8.576 Y19.011 E0.0332
G1 X-9.091 Y18.312 E0.0332
G1 X-9.481 Y17.537 E0.0332
G1 X-9.749 Y16.661 E0.0350
G1 X-13.091 Y1.193 E0.6053
G1 X-21.433 Y0.731 E0.3196
G1 X-51.854 Y-0.663 E1.1648
G1 X-59.126 Y-0.930 E0.2783
G1 X-62.541 Y16.559 E0.6816
G1 X-62.799 Y17.460 E0.0358
G1 X-63.186 Y18.258 E0.0339
G1 X-63.705 Y18.978 E0.0339
G1 X-64.339 Y19.598 E0.0339
G1 X-65.071 Y20.099 E0.0339
G1 X-65.877 Y20.468 E0.0339
G1 X-66.736 Y20.693 E0.0339
G1 X-67.620 Y20.767 E0.0339
G1 X-68.503 Y20.688 E0.0339
G1 X-69.360 Y20.458 E0.0339
G1 X-70.165 Y20.085 E0.0339
G1 X-70.893 Y19.579 E0.0339
G1 X-71.524 Y18.955 E0.0339
G1 X-72.038 Y18.233 E0.0339
G1 X-72.421 Y17.432 E0.0339
G1 X-72.674 Y16.530 E0.0358
G1 X-76.078 Y-1.449 E0.6999
G1 X-82.305 Y-1.604 E0.2383
G1 X-112.803 Y-2.093 E1.1666
G1 X-113.820 Y-2.013 E0.0390
G1 X-114.853 Y-1.747 E0.0408
G1 X-115.824 Y-1.307 E0.0408
G1 X-116.705 Y-0.706 E0.0408
G1 X-117.469 Y0.038 E0.0408
G1 X-118.093 Y0.902 E0.0408
G1 X-118.736 Y2.228 E0.0564
G1 X-118.974 Y2.558 E0.0155
G1 X-119.265 Y2.841 E0.0156
G1 X-119.601 Y3.070 E0.0156
G1 X-119.972 Y3.238 E0.0155
G1 X-120.366 Y3.339 E0.0156
G1 X-120.771 Y3.371 E0.0156
G1 X-121.176 Y3.332 E0.0156
G1 X-121.568 Y3.224 E0.0156
G1 X-121.935 Y3.050 E0.0155
G1 X-122.267 Y2.815 E0.0156
G1 X-122.553 Y2.526 E0.0156
G1 X-122.785 Y2.192 E0.0155
G1 X-122.956 Y1.823 E0.0156
G1 X-123.060 Y1.430 E0.0156
G1 X-123.100 Y0.975 E0.0175
G1 X-123.100 Y-14.908 E0.6075
G1 X-123.060 Y-15.363 E0.0175
G1 X-122.956 Y-15.756 E0.0156
G1 X-122.785 Y-16.125 E0.0156
G1 X-122.553 Y-16.459 E0.0156
G1 X-122.267 Y-16.748 E0.0156
G1 X-121.935 Y-16.983 E0.0156
G1 X-121.568 Y-17.157 E0.0155
G1 X-121.176 Y-17.265 E0.0155
G1 X-120.771 Y-17.304 E0.0156
G1 X-120.366 Y-17.272 E0.0155
G1 X-119.972 Y-17.171 E0.0156
G1 X-119.601 Y-17.003 E0.0155
G1 X-119.266 Y-16.774 E0.0155
G1 X-118.974 Y-16.491 E0.0156
G1 X-118.736 Y-16.161 E0.0155
G1 X-118.093 Y-14.835 E0.0564
G1 X-117.469 Y-13.971 E0.0408
G1 X-116.705 Y-13.227 E0.0408
G1 X-115.824 Y-12.626 E0.0408
G1 X-114.853 Y-12.186 E0.0408
G1 X-113.993 Y-11.965 E0.0339
G1 X-113.820 Y-11.920 E0.0068
G1 X-112.803 Y-11.841 E0.0390
G1 X-82.302 Y-12.329 E1.1668
G1 X-51.857 Y-13.270 E1.1650
G1 X-21.430 Y-14.665 E1.1650
G1 X8.973 Y-16.512 E1.1650
G1 X39.334 Y-18.811 E1.1646
G1 X54.598 Y-19.874 E0.5852
G1 X69.873 Y-20.525 E0.5848
G1 X85.160 Y-20.763 E0.5848
G1 X100.448 Y-20.588 E0.5848
G1 X115.685 Y-20.002 E0.5832
G1 X116.711 Y-19.860 E0.0396
G1 X117.659 Y-19.560 E0.0380
G1 X118.542 Y-19.102 E0.0380
G1 X119.335 Y-18.502 E0.0380
G1 X120.015 Y-17.776 E0.0380
G1 X120.569 Y-16.935 E0.0385
G1 X121.669 Y-14.565 E0.0999
G1 X121.934 Y-13.845 E0.0294
G1 X122.456 Y-12.109 E0.0693
G1 X122.778 Y-10.573 E0.0600
G1 X122.834 Y-10.263 E0.0120
G1 X123.066 Y-7.460 E0.1076
G1 X123.091 Y-6.915 E0.0209
G1 X123.067 Y-6.479 E0.0167
G1 X122.835 Y-3.684 E0.1073
G1 X122.455 Y-1.821 E0.0727
G1 X121.934 Y-0.088 E0.0692
G1 X121.669 Y0.632 E0.0294
G1 X120.569 Y3.002 E0.0999
G1 X120.015 Y3.843 E0.0385
G1 X119.335 Y4.569 E0.0380
G1 X118.542 Y5.169 E0.0380
G1 X117.659 Y5.626 E0.0380
G1 X116.711 Y5.927 E0.0380
G1 X115.685 Y6.069 E0.0396
G1 X100.448 Y6.655 E0.5832
G1 X85.160 Y6.829 E0.5848
G1 X69.873 Y6.592 E0.5848
G1 X54.598 Y5.941 E0.5848
G1 X39.334 Y4.878 E0.5852
G1 X8.977 Y2.579 E1.1645
G1 X3.692 Y2.225 E0.2026
G1 X0.323 Y16.738 E0.5699
G1 X0.041 Y17.610 E0.0350
G1 X-0.361 Y18.379 E0.0332
G1 X-0.886 Y19.070 E0.0332
G1 X-1.519 Y19.662 E0.0332
G1 X-2.243 Y20.140 E0.0332
G1 X-3.038 Y20.489 E0.0332
G1 X-3.879 Y20.700 E0.0332
G1 X-4.744 Y20.767 E0.0332
G1 X-4.748 Y21.228 F9000
G1 X-5.689 Y21.141 E0.0362 F1800
G1 X-6.602 Y20.898 E0.0362
G1 X-7.462 Y20.504 E0.0362
G1 X-8.243 Y19.971 E0.0362
G1 X-8.924 Y19.315 E0.0362
G1 X-9.484 Y18.554 E0.0362
G1 X-9.909 Y17.709 E0.0362
G1 X-10.194 Y16.777 E0.0373
G1 X-13.467 Y1.633 E0.5926
G1 X-21.456 Y1.191 E0.3061
G1 X-51.873 Y-0.203 E1.1646
G1 X-58.750 Y-0.456 E0.2632
G1 X-62.093 Y16.667 E0.6673
G1 X-62.368 Y17.625 E0.0381
G1 X-62.790 Y18.495 E0.0370
G1 X-63.355 Y19.279 E0.0370
G1 X-64.046 Y19.954 E0.0370
G1 X-64.843 Y20.501 E0.0370
G1 X-65.722 Y20.903 E0.0370
G1 X-66.657 Y21.148 E0.0370
G1 X-67.621 Y21.228 E0.0370
G1 X-68.584 Y21.142 E0.0370
G1 X-69.517 Y20.892 E0.0370
G1 X-70.394 Y20.485 E0.0370
G1 X-71.188 Y19.934 E0.0370
G1 X-71.876 Y19.254 E0.0370
G1 X-72.436 Y18.467 E0.0370
G1 X-72.853 Y17.595 E0.0370
G1 X-73.122 Y16.635 E0.0381
G1 X-76.461 Y-0.999 E0.6865
G1 X-82.315 Y-1.144 E0.2240
G1 X-112.788 Y-1.632 E1.1657
G1 X-113.744 Y-1.557 E0.0367
G1 X-114.700 Y-1.312 E0.0377
G1 X-115.598 Y-0.905 E0.0377
G1 X-116.413 Y-0.349 E0.0377
G1 X-117.120 Y0.339 E0.0377
G1 X-117.697 Y1.139 E0.0377
G1 X-118.340 Y2.465 E0.0564
G1 X-118.625 Y2.859 E0.0186
G1 X-118.973 Y3.199 E0.0186
G1 X-119.375 Y3.473 E0.0186
G1 X-119.819 Y3.674 E0.0186
G1 X-120.290 Y3.795 E0.0186
G1 X-120.775 Y3.832 E0.0186
G1 X-121.259 Y3.786 E0.0186
G1 X-121.728 Y3.657 E0.0186
G1 X-122.168 Y3.448 E0.0186
G1 X-122.565 Y3.167 E0.0186
G1 X-122.908 Y2.821 E0.0186
G1 X-123.185 Y2.422 E0.0186
G1 X-123.390 Y1.980 E0.0186
G1 X-123.515 Y1.510 E0.0186
G1 X-123.560 Y0.995 E0.0198
G1 X-123.560 Y-14.928 E0.6091
G1 X-123.515 Y-15.443 E0.0198
G1 X-123.390 Y-15.913 E0.0186
G1 X-123.185 Y-16.355 E0.0186
G1 X-122.908 Y-16.754 E0.0186
G1 X-122.565 Y-17.100 E0.0186
G1 X-122.168 Y-17.381 E0.0186
G1 X-121.728 Y-17.590 E0.0186
G1 X-121.259 Y-17.719 E0.0186
G1 X-120.775 Y-17.766 E0.0186
G1 X-120.290 Y-17.728 E0.0186
G1 X-119.819 Y-17.607 E0.0186
G1 X-119.375 Y-17.406 E0.0186
G1 X-118.973 Y-17.132 E0.0186
G1 X-118.625 Y-16.792 E0.0186
G1 X-118.340 Y-16.398 E0.0186
G1 X-117.697 Y-15.072 E0.0564
G1 X-117.120 Y-14.272 E0.0377
G1 X-116.413 Y-13.584 E0.0377
G1 X-115.598 Y-13.028 E0.0377
G1 X-114.700 Y-12.621 E0.0377
G1 X-113.879 Y-12.410 E0.0324
G1 X-113.744 Y-12.376 E0.0053
G1 X-112.788 Y-12.301 E0.0367
G1 X-82.313 Y-12.789 E1.1658
G1 X-51.875 Y-13.730 E1.1648
G1 X-21.454 Y-15.124 E1.1648
G1 X8.942 Y-16.971 E1.1648
G1 X39.301 Y-19.270 E1.1645
G1 X54.572 Y-20.334 E0.5855
G1 X69.860 Y-20.985 E0.5853
G1 X85.159 Y-21.223 E0.5853
G1 X100.460 Y-21.048 E0.5853
G1 X115.726 Y-20.461 E0.5843
G1 X116.813 Y-20.311 E0.0420
G1 X117.836 Y-19.986 E0.0410
G1 X118.788 Y-19.493 E0.0410
G1 X119.644 Y-18.845 E0.0410
G1 X120.377 Y-18.062 E0.0410
G1 X120.972 Y-17.159 E0.0413
G1 X122.094 Y-14.742 E0.1019
G1 X122.370 Y-13.991 E0.0306
G1 X122.902 Y-12.223 E0.0706
G1 X123.230 Y-10.661 E0.0611
G1 X123.290 Y-10.323 E0.0131
G1 X123.525 Y-7.490 E0.1087
G1 X123.552 Y-6.912 E0.0221
G1 X123.526 Y-6.447 E0.0178
G1 X123.291 Y-3.619 E0.1086
G1 X122.901 Y-1.708 E0.0746
G1 X122.370 Y0.058 E0.0705
G1 X122.094 Y0.809 E0.0306
G1 X120.972 Y3.226 E0.1019
G1 X120.377 Y4.129 E0.0413
G1 X119.644 Y4.912 E0.0410
G1 X118.788 Y5.560 E0.0410
G1 X117.836 Y6.053 E0.0410
G1 X116.813 Y6.378 E0.0410
G1 X115.726 Y6.528 E0.0420
G1 X100.460 Y7.115 E0.5843
G1 X85.159 Y7.289 E0.5853
G1 X69.860 Y7.051 E0.5853
G1 X54.572 Y6.401 E0.5853
G1 X39.301 Y5.337 E0.5855
G1 X8.944 Y3.038 E1.1644
G1 X4.051 Y2.710 E0.1876
G1 X0.766 Y16.861 E0.5557
G1 X0.467 Y17.789 E0.0373
G1 X0.029 Y18.627 E0.0362
G1 X-0.543 Y19.379 E0.0362
G1 X-1.233 Y20.025 E0.0362
G1 X-2.023 Y20.545 E0.0362
G1 X-2.888 Y20.926 E0.0362
G1 X-3.805 Y21.156 E0.0362
G1 X-4.748 Y21.228 E0.0362
; feature outer perimeter
G1 X-4.751 Y21.690 F9000
G1 X-5.770 Y21.596 E0.0391 F1200
G1 X-6.759 Y21.332 E0.0391
G1 X-7.689 Y20.906 E0.0391
G1 X-8.534 Y20.329 E0.0391
G1 X-9.271 Y19.619 E0.0391
G1 X-9.878 Y18.795 E0.0391
G1 X-10.337 Y17.881 E0.0391
G1 X-10.640 Y16.893 E0.0395
G1 X-13.842 Y2.073 E0.5800
G1 X-21.479 Y1.650 E0.2926
G1 X-51.892 Y0.257 E1.1645
G1 X-58.373 Y0.018 E0.2481
G1 X-61.645 Y16.775 E0.6530
G1 X-61.936 Y17.790 E0.0404
G1 X-62.393 Y18.731 E0.0400
G1 X-63.005 Y19.580 E0.0400
G1 X-63.753 Y20.311 E0.0400
G1 X-64.616 Y20.903 E0.0400
G1 X-65.567 Y21.338 E0.0400
G1 X-66.580 Y21.603 E0.0400
G1 X-67.622 Y21.690 E0.0400
G1 X-68.664 Y21.597 E0.0400
G1 X-69.675 Y21.326 E0.0400
G1 X-70.624 Y20.886 E0.0400
G1 X-71.483 Y20.289 E0.0400
G1 X-72.227 Y19.554 E0.0400
G1 X-72.834 Y18.701 E0.0400
G1 X-73.285 Y17.757 E0.0400
G1 X-73.571 Y16.740 E0.0404
G1 X-76.844 Y-0.548 E0.6730
G1 X-82.324 Y-0.684 E0.2097
G1 X-112.774 Y-1.172 E1.1648
G1 X-113.668 Y-1.102 E0.0343
G1 X-114.546 Y-0.876 E0.0347
G1 X-115.372 Y-0.502 E0.0347
G1 X-116.121 Y0.008 E0.0347
G1 X-116.770 Y0.641 E0.0347
G1 X-117.301 Y1.376 E0.0347
G1 X-117.943 Y2.702 E0.0564
G1 X-118.275 Y3.161 E0.0217
G1 X-118.681 Y3.556 E0.0217
G1 X-119.149 Y3.876 E0.0217
