; G-Code generated by Simplify3D(R) Version 4.1.2
; Apr 6, 2020 at 11:39:08 AM
; Settings Summary
;   processName,Process1
;   applyToModels,Nail,Nail(2),Nail(3),Nail(4),Nail(5),Nail(6),Nail(7),Nail(8),Nail(9),Nail(10),Nail(11)
;   profileName,MakerBot Replicator 2 HBP (modified)
;   profileVersion,2020-03-12 10:48:50
;   baseProfile,MakerBot Replicator 2(2)
;   printMaterial,PLA
;   printQuality,Medium
;   printExtruders,
;   extruderName,Primary Extruder
;   extruderToolheadNumber,0
;   extruderDiameter,0.4
;   extruderAutoWidth,0
;   extruderWidth,0.4
;   extrusionMultiplier,1
;   extruderUseRetract,1
;   extruderRetractionDistance,1.9
;   extruderExtraRestartDistance,0
;   extruderRetractionZLift,0.5
;   extruderRetractionSpeed,1200
;   extruderUseCoasting,0
;   extruderCoastingDistance,0.2
;   extruderUseWipe,0
;   extruderWipeDistance,5
;   primaryExtruder,0
;   layerHeight,0.2
;   topSolidLayers,3
;   bottomSolidLayers,3
;   perimeterOutlines,2
;   printPerimetersInsideOut,1
;   startPointOption,3
;   startPointOriginX,0
;   startPointOriginY,150
;   sequentialIslands,0
;   spiralVaseMode,0
;   firstLayerHeightPercentage,100
;   firstLayerWidthPercentage,115
;   firstLayerUnderspeed,0.5
;   useRaft,1
;   raftExtruder,0
;   raftTopLayers,2
;   raftBaseLayers,1
;   raftOffset,1
;   raftSeparationDistance,0.14
;   raftTopInfill,90
;   aboveRaftSpeedMultiplier,0.3
;   useSkirt,0
;   skirtExtruder,0
;   skirtLayers,1
;   skirtOutlines,5
;   skirtOffset,0
;   usePrimePillar,0
;   primePillarExtruder,999
;   primePillarWidth,12
;   primePillarLocation,7
;   primePillarSpeedMultiplier,1
;   useOozeShield,0
;   oozeShieldExtruder,999
;   oozeShieldOffset,2
;   oozeShieldOutlines,1
;   oozeShieldSidewallShape,1
;   oozeShieldSidewallAngle,30
;   oozeShieldSpeedMultiplier,1
;   infillExtruder,0
;   internalInfillPattern,Rectilinear
;   externalInfillPattern,Rectilinear
;   infillPercentage,15
;   outlineOverlapPercentage,25
;   infillExtrusionWidthPercentage,100
;   minInfillLength,5
;   infillLayerInterval,1
;   internalInfillAngles,45,-45
;   overlapInternalInfillAngles,0
;   externalInfillAngles,45,-45
;   generateSupport,0
;   supportExtruder,0
;   supportInfillPercentage,5
;   supportExtraInflation,0.5
;   supportBaseLayers,0
;   denseSupportExtruder,0
;   denseSupportLayers,2
;   denseSupportInfillPercentage,90
;   supportLayerInterval,1
;   supportHorizontalPartOffset,0.3
;   supportUpperSeparationLayers,1
;   supportLowerSeparationLayers,1
;   supportType,1
;   supportGridSpacing,2
;   maxOverhangAngle,45
;   supportAngles,45,-45
;   temperatureName,Primary Extruder,Heated Build Platform
;   temperatureNumber,0,0
;   temperatureSetpointCount,1,1
;   temperatureSetpointLayers,1,1
;   temperatureSetpointTemperatures,230,60
;   temperatureStabilizeAtStartup,1,1
;   temperatureHeatedBed,0,1
;   fanLayers,1,2
;   fanSpeeds,0,100
;   blipFanToFullPower,1
;   adjustSpeedForCooling,1
;   minSpeedLayerTime,15
;   minCoolingSpeedSlowdown,20
;   increaseFanForCooling,1
;   minFanLayerTime,45
;   maxCoolingFanSpeed,100
;   increaseFanForBridging,1
;   bridgingFanSpeed,100
;   use5D,1
;   relativeEdistances,1
;   allowEaxisZeroing,0
;   independentExtruderAxes,1
;   includeM10123,0
;   stickySupport,1
;   applyToolheadOffsets,0
;   gcodeXoffset,0
;   gcodeYoffset,0
;   gcodeZoffset,0
;   overrideMachineDefinition,1
;   machineTypeOverride,0
;   strokeXoverride,280
;   strokeYoverride,150
;   strokeZoverride,150
;   originOffsetXoverride,140
;   originOffsetYoverride,75
;   originOffsetZoverride,0
;   homeXdirOverride,1
;   homeYdirOverride,1
;   homeZdirOverride,-1
;   flipXoverride,1
;   flipYoverride,-1
;   flipZoverride,1
;   toolheadOffsets,0,0|0,0|0,0|0,0|0,0|0,0
;   overrideFirmwareConfiguration,1
;   firmwareTypeOverride,MakerBot/Sailfish Firmware
;   GPXconfigOverride,r2h
;   baudRateOverride,115200
;   overridePrinterModels,1
;   printerModelsOverride,MakerBot_Replicator2.stl
;   startingGcode,; **** Replicator 2 start.gcode ****,M73 P0 ; enable build progress,G162 X Y F3000 ; home XY maximum,G161 Z F1200 ; home Z minimum,G92 Z-5 ; set Z to -5,G1 Z0 ; move Z to 0,G161 Z F100 ; home Z slowly,M132 X Y Z A B ; recall home offsets,G1 X-145 Y-75 Z30 F9000 ; move to wait position off table,G130 X20 Y20 Z20 A20 B20 ; lower stepper Vrefs while heating,M126 S[fan_speed_pwm],M140 S[bed0_temperature] T0,M134 T0 ; stabilize bed temperature,M104 S[extruder0_temperature] T0,M133 T0 ; stabilize extruder temperature,G130 X127 Y127 Z40 A127 B127 ; default stepper Vrefs,G92 A0 ; zero extruder,G1 Z0.4 ; position nozzle,G1 E25 F300 ; purge nozzle,G1 X-140 Y-70 Z0.15 F1200 ; slow wipe,G1 X-135 Y-65 Z0.5 F1200 ; lift,G92 A0 ; zero extruder,M73 P1 ;@body (notify GPX body has started),; **** end of start.gcode ****
;   layerChangeGcode,
;   retractionGcode,
;   toolChangeGcode,
;   endingGcode,; **** Replicator 2 end.gcode ****,M73 P100 ; end build progress,G1 Z155 F1000 ; send Z axis to bottom of machine,M104 S0 T0 ; cool down extruder,M140 S0 T0 ; cool down HBP,M127 ; stop blower fan,G162 X Y F3000 ; home XY maximum,M18 ; disable stepper,M0 ; stop codes,M72 P1 ; play Ta-Da song,; **** end of end.gcode ****
;   exportFileFormat,gcode
;   celebration,0
;   celebrationSong,Random Song
;   postProcessing,
;   defaultSpeed,4800
;   outlineUnderspeed,0.5
;   solidInfillUnderspeed,1
;   supportUnderspeed,1
;   rapidXYspeed,9000
;   rapidZspeed,1200
;   minBridgingArea,50
;   bridgingExtraInflation,0
;   bridgingExtrusionMultiplier,1
;   bridgingSpeedMultiplier,0.8
;   useFixedBridgingAngle,0
;   fixedBridgingAngle,0
;   applyBridgingToPerimeters,0
;   filamentDiameters,1.75|1.75|1.75|1.75|1.75|1.75
;   filamentPricesPerKg,46|46|46|46|46|46
;   filamentDensities,1.25|1.25|1.25|1.25|1.25|1.25
;   useMinPrintHeight,0
;   minPrintHeight,0
;   useMaxPrintHeight,0
;   maxPrintHeight,4.84
;   useDiaphragm,0
;   diaphragmLayerInterval,20
;   robustSlicing,1
;   mergeAllIntoSolid,0
;   onlyRetractWhenCrossingOutline,0
;   retractBetweenLayers,0
;   useRetractionMinTravel,1
;   retractionMinTravel,7
;   retractWhileWiping,1
;   onlyWipeOutlines,1
;   avoidCrossingOutline,0
;   maxMovementDetourFactor,3
;   toolChangeRetractionDistance,12
;   toolChangeExtraRestartDistance,-0.5
;   toolChangeRetractionSpeed,600
;   externalThinWallType,0
;   internalThinWallType,0
;   thinWallAllowedOverlapPercentage,10
;   singleExtrusionMinLength,1
;   singleExtrusionMinPrintingWidthPercentage,50
;   singleExtrusionMaxPrintingWidthPercentage,200
;   singleExtrusionEndpointExtension,0.2
;   horizontalSizeCompensation,0
G90
M83
; **** Replicator 2 start.gcode ****
M73 P0 ; enable build progress
G162 X Y F3000 ; home XY maximum
G161 Z F1200 ; home Z minimum
G92 Z-5 ; set Z to -5
G1 Z0 ; move Z to 0
G161 Z F100 ; home Z slowly
M132 X Y Z A B ; recall home offsets
G1 X-145 Y-75 Z30 F9000 ; move to wait position off table
G130 X20 Y20 Z20 A20 B20 ; lower stepper Vrefs while heating
M127
M140 S60 T0
M134 T0 ; stabilize bed temperature
M104 S230 T0
M133 T0 ; stabilize extruder temperature
G130 X127 Y127 Z40 A127 B127 ; default stepper Vrefs
G92 A0 ; zero extruder
G1 Z0.4 ; position nozzle
G1 E25 F300 ; purge nozzle
G1 X-140 Y-70 Z0.15 F1200 ; slow wipe
G1 X-135 Y-65 Z0.5 F1200 ; lift
G92 A0 ; zero extruder
M73 P1 ;@body (notify GPX body has started)
; **** end of start.gcode ****
; process Process1
; layer 1, Z = 0.500
M135 T0
G1 E-1.9000 F1200
; feature raft
; tool H0.500 W0.800
G1 Z0.500 F1200
G1 X0.141 Y18.807 F9000
G1 E1.9000 F1200
G1 X-0.141 Y18.807 E0.0468 F600
G1 X-0.571 Y18.594 E0.0798
G1 X-0.694 Y18.482 E0.0277
G1 X-1.066 Y17.886 E0.1168
G1 X-1.112 Y17.724 E0.0280
G1 X-1.112 Y-18.400 E6.0075
G1 X-2.375 Y-18.400 E0.2101
G1 X-2.727 Y-18.751 E0.0827
G1 X-2.727 Y-21.249 E0.4153
G1 X-2.375 Y-21.600 E0.0827
G1 X2.375 Y-21.600 E0.7901
G1 X2.727 Y-21.249 E0.0827
G1 X2.727 Y-18.751 E0.4153
G1 X2.375 Y-18.400 E0.0827
G1 X1.112 Y-18.400 E0.2101
G1 X1.112 Y17.724 E6.0075
G1 X1.066 Y17.886 E0.0280
G1 X0.694 Y18.482 E0.1168
G1 X0.571 Y18.594 E0.0277
G1 X0.141 Y18.807 E0.0798
G1 X0.512 Y16.000 F9000
G1 X-0.512 Y16.000 E0.1704 F600
G1 X-0.512 Y13.714 E0.3801
G1 X0.512 Y13.714 E0.1704
G1 X0.512 Y11.429 E0.3801
G1 X-0.512 Y11.429 E0.1704
G1 X-0.512 Y9.143 E0.3801
G1 X0.512 Y9.143 E0.1704
G1 X0.512 Y6.857 E0.3801
G1 X-0.512 Y6.857 E0.1704
G1 X-0.512 Y4.571 E0.3801
G1 X0.512 Y4.571 E0.1704
G1 X0.512 Y2.286 E0.3801
G1 X-0.512 Y2.286 E0.1704
G1 X-0.512 Y0.000 E0.3801
G1 X0.512 Y0.000 E0.1704
G1 X0.512 Y-2.286 E0.3801
G1 X-0.512 Y-2.286 E0.1704
G1 X-0.512 Y-4.571 E0.3801
G1 X0.512 Y-4.571 E0.1704
G1 X0.512 Y-6.857 E0.3801
G1 X-0.512 Y-6.857 E0.1704
G1 X-0.512 Y-9.143 E0.3801
G1 X0.512 Y-9.143 E0.1704
G1 X0.512 Y-11.429 E0.3801
G1 X-0.512 Y-11.429 E0.1704
G1 X-0.512 Y-13.714 E0.3801
G1 X0.512 Y-13.714 E0.1704
G1 X0.512 Y-16.000 E0.3801
G1 X-0.512 Y-16.000 E0.1704
G1 X-0.512 Y-18.286 E0.3801
G1 X0.512 Y-18.286 E0.1704
G1 X0.512 Y-19.000 E0.1188
G1 X2.127 Y-19.000 E0.2685
G1 X2.127 Y-20.571 E0.2613
G1 X-2.127 Y-20.571 E0.7074
G1 E-1.9000 F1200
G1 Z1.000 F1200
G1 X-9.845 Y18.807 F9000
G1 Z0.500 F1200
G1 E1.9000 F1200
G1 X-10.127 Y18.807 E0.0468 F600
G1 X-10.557 Y18.594 E0.0798
G1 X-10.680 Y18.482 E0.0277
G1 X-11.052 Y17.886 E0.1168
G1 X-11.098 Y17.724 E0.0280
G1 X-11.098 Y-18.400 E6.0075
G1 X-12.361 Y-18.400 E0.2101
G1 X-12.713 Y-18.751 E0.0827
G1 X-12.713 Y-21.249 E0.4153
G1 X-12.361 Y-21.600 E0.0827
G1 X-7.611 Y-21.600 E0.7901
G1 X-7.259 Y-21.249 E0.0827
G1 X-7.259 Y-18.751 E0.4153
G1 X-7.611 Y-18.400 E0.0827
G1 X-8.874 Y-18.400 E0.2101
G1 X-8.874 Y17.724 E6.0075
G1 X-8.920 Y17.886 E0.0280
G1 X-9.292 Y18.482 E0.1168
G1 X-9.415 Y18.594 E0.0277
G1 X-9.845 Y18.807 E0.0798
G1 X-9.474 Y16.000 F9000
G1 X-10.498 Y16.000 E0.1704 F600
G1 X-10.498 Y13.714 E0.3801
G1 X-9.474 Y13.714 E0.1704
G1 X-9.474 Y11.429 E0.3801
G1 X-10.498 Y11.429 E0.1704
G1 X-10.498 Y9.143 E0.3801
G1 X-9.474 Y9.143 E0.1704
G1 X-9.474 Y6.857 E0.3801
G1 X-10.498 Y6.857 E0.1704
G1 X-10.498 Y4.571 E0.3801
G1 X-9.474 Y4.571 E0.1704
G1 X-9.474 Y2.286 E0.3801
G1 X-10.498 Y2.286 E0.1704
G1 X-10.498 Y0.000 E0.3801
G1 X-9.474 Y0.000 E0.1704
G1 X-9.474 Y-2.286 E0.3801
G1 X-10.498 Y-2.286 E0.1704
G1 X-10.498 Y-4.571 E0.3801
G1 X-9.474 Y-4.571 E0.1704
G1 X-9.474 Y-6.857 E0.3801
G1 X-10.498 Y-6.857 E0.1704
G1 X-10.498 Y-9.143 E0.3801
G1 X-9.474 Y-9.143 E0.1704
G1 X-9.474 Y-11.429 E0.3801
G1 X-10.498 Y-11.429 E0.1704
G1 X-10.498 Y-13.714 E0.3801
G1 X-9.474 Y-13.714 E0.1704
G1 X-9.474 Y-16.000 E0.3801
G1 X-10.498 Y-16.000 E0.1704
G1 X-10.498 Y-18.286 E0.3801
G1 X-9.474 Y-18.286 E0.1704
G1 X-9.474 Y-19.000 E0.1188
G1 X-7.859 Y-19.000 E0.2685
G1 X-7.859 Y-20.571 E0.2613
G1 X-12.113 Y-20.571 E0.7074
G1 E-1.9000 F1200
G1 Z1.000 F1200
G1 X-19.831 Y18.807 F9000
G1 Z0.500 F1200
G1 E1.9000 F1200
G1 X-20.113 Y18.807 E0.0468 F600
G1 X-20.543 Y18.594 E0.0798
G1 X-20.666 Y18.482 E0.0277
G1 X-21.038 Y17.886 E0.1168
G1 X-21.084 Y17.724 E0.0280
G1 X-21.084 Y-18.400 E6.0075
G1 X-22.347 Y-18.400 E0.2101
G1 X-22.699 Y-18.751 E0.0827
G1 X-22.699 Y-21.249 E0.4153
G1 X-22.347 Y-21.600 E0.0827
G1 X-17.597 Y-21.600 E0.7901
G1 X-17.245 Y-21.249 E0.0827
G1 X-17.245 Y-18.751 E0.4153
G1 X-17.597 Y-18.400 E0.0827
G1 X-18.860 Y-18.400 E0.2101
G1 X-18.860 Y17.724 E6.0075
G1 X-18.906 Y17.886 E0.0280
G1 X-19.278 Y18.482 E0.1168
G1 X-19.401 Y18.594 E0.0277
G1 X-19.831 Y18.807 E0.0798
G1 X-19.460 Y16.000 F9000
G1 X-20.484 Y16.000 E0.1704 F600
G1 X-20.484 Y13.714 E0.3801
G1 X-19.460 Y13.714 E0.1704
G1 X-19.460 Y11.429 E0.3801
G1 X-20.484 Y11.429 E0.1704
G1 X-20.484 Y9.143 E0.3801
G1 X-19.460 Y9.143 E0.1704
G1 X-19.460 Y6.857 E0.3801
G1 X-20.484 Y6.857 E0.1704
G1 X-20.484 Y4.571 E0.3801
G1 X-19.460 Y4.571 E0.1704
G1 X-19.460 Y2.286 E0.3801
G1 X-20.484 Y2.286 E0.1704
G1 X-20.484 Y0.000 E0.3801
G1 X-19.460 Y0.000 E0.1704
G1 X-19.460 Y-2.286 E0.3801
G1 X-20.484 Y-2.286 E0.1704
G1 X-20.484 Y-4.571 E0.3801
G1 X-19.460 Y-4.571 E0.1704
G1 X-19.460 Y-6.857 E0.3801
G1 X-20.484 Y-6.857 E0.1704
G1 X-20.484 Y-9.143 E0.3801
G1 X-19.460 Y-9.143 E0.1704
G1 X-19.460 Y-11.429 E0.3801
G1 X-20.484 Y-11.429 E0.1704
G1 X-20.484 Y-13.714 E0.3801
G1 X-19.460 Y-13.714 E0.1704
G1 X-19.460 Y-16.000 E0.3801
G1 X-20.484 Y-16.000 E0.1704
G1 X-20.484 Y-18.286 E0.3801
G1 X-19.460 Y-18.286 E0.1704
G1 X-19.460 Y-19.000 E0.1188
G1 X-17.845 Y-19.000 E0.2685
G1 X-17.845 Y-20.571 E0.2613
G1 X-22.099 Y-20.571 E0.7074
G1 E-1.9000 F1200
G1 Z1.000 F1200
G1 X-29.817 Y18.807 F9000
G1 Z0.500 F1200
G1 E1.9000 F1200
G1 X-30.099 Y18.807 E0.0468 F600
G1 X-30.529 Y18.594 E0.0798
G1 X-30.652 Y18.482 E0.0277
G1 X-31.024 Y17.886 E0.1168
G1 X-31.070 Y17.724 E0.0280
G1 X-31.070 Y-18.400 E6.0075
G1 X-32.334 Y-18.400 E0.2101
G1 X-32.685 Y-18.751 E0.0827
G1 X-32.685 Y-21.249 E0.4153
G1 X-32.334 Y-21.600 E0.0827
G1 X-27.583 Y-21.600 E0.7901
G1 X-27.231 Y-21.249 E0.0827
G1 X-27.231 Y-18.751 E0.4153
G1 X-27.583 Y-18.400 E0.0827
G1 X-28.846 Y-18.400 E0.2101
G1 X-28.846 Y17.724 E6.0075
G1 X-28.892 Y17.886 E0.0280
G1 X-29.264 Y18.482 E0.1168
G1 X-29.388 Y18.594 E0.0277
G1 X-29.817 Y18.807 E0.0798
G1 X-29.446 Y16.000 F9000
G1 X-30.470 Y16.000 E0.1704 F600
G1 X-30.470 Y13.714 E0.3801
G1 X-29.446 Y13.714 E0.1704
G1 X-29.446 Y11.429 E0.3801
G1 X-30.470 Y11.429 E0.1704
G1 X-30.470 Y9.143 E0.3801
G1 X-29.446 Y9.143 E0.1704
G1 X-29.446 Y6.857 E0.3801
G1 X-30.470 Y6.857 E0.1704
G1 X-30.470 Y4.571 E0.3801
G1 X-29.446 Y4.571 E0.1704
G1 X-29.446 Y2.286 E0.3801
G1 X-30.470 Y2.286 E0.1704
G1 X-30.470 Y0.000 E0.3801
G1 X-29.446 Y0.000 E0.1704
G1 X-29.446 Y-2.286 E0.3801
G1 X-30.470 Y-2.286 E0.1704
G1 X-30.470 Y-4.571 E0.3801
G1 X-29.446 Y-4.571 E0.1704
G1 X-29.446 Y-6.857 E0.3801
G1 X-30.470 Y-6.857 E0.1704
G1 X-30.470 Y-9.143 E0.3801
G1 X-29.446 Y-9.143 E0.1704
G1 X-29.446 Y-11.429 E0.3801
G1 X-30.470 Y-11.429 E0.1704
G1 X-30.470 Y-13.714 E0.3801
G1 X-29.446 Y-13.714 E0.1704
G1 X-29.446 Y-16.000 E0.3801
G1 X-30.470 Y-16.000 E0.1704
G1 X-30.470 Y-18.286 E0.3801
G1 X-29.446 Y-18.286 E0.1704
G1 X-29.446 Y-19.000 E0.1188
G1 X-27.831 Y-19.000 E0.2685
G1 X-27.831 Y-20.571 E0.2613
G1 X-32.085 Y-20.571 E0.7074
G1 E-1.9000 F1200
G1 Z1.000 F1200
G1 X-39.803 Y18.807 F9000
G1 Z0.500 F1200
G1 E1.9000 F1200
G1 X-40.085 Y18.807 E0.0468 F600
G1 X-40.515 Y18.594 E0.0798
G1 X-40.638 Y18.482 E0.0277
G1 X-41.010 Y17.886 E0.1168
G1 X-41.056 Y17.724 E0.0280
G1 X-41.056 Y-18.400 E6.0075
G1 X-42.320 Y-18.400 E0.2101
G1 X-42.671 Y-18.751 E0.0827
G1 X-42.671 Y-21.249 E0.4153
G1 X-42.320 Y-21.600 E0.0827
G1 X-37.569 Y-21.600 E0.7901
G1 X-37.217 Y-21.249 E0.0827
G1 X-37.217 Y-18.751 E0.4153
G1 X-37.569 Y-18.400 E0.0827
G1 X-38.832 Y-18.400 E0.2101
G1 X-38.832 Y17.724 E6.0075
G1 X-38.878 Y17.886 E0.0280
G1 X-39.250 Y18.482 E0.1168
G1 X-39.374 Y18.594 E0.0277
G1 X-39.803 Y18.807 E0.0798
G1 X-39.432 Y16.000 F9000
G1 X-40.456 Y16.000 E0.1704 F600
G1 X-40.456 Y13.714 E0.3801
G1 X-39.432 Y13.714 E0.1704
G1 X-39.432 Y11.429 E0.3801
G1 X-40.456 Y11.429 E0.1704
G1 X-40.456 Y9.143 E0.3801
G1 X-39.432 Y9.143 E0.1704
G1 X-39.432 Y6.857 E0.3801
G1 X-40.456 Y6.857 E0.1704
G1 X-40.456 Y4.571 E0.3801
G1 X-39.432 Y4.571 E0.1704
G1 X-39.432 Y2.286 E0.3801
G1 X-40.456 Y2.286 E0.1704
G1 X-40.456 Y0.000 E0.3801
G1 X-39.432 Y0.000 E0.1704
G1 X-39.432 Y-2.286 E0.3801
G1 X-40.456 Y-2.286 E0.1704
G1 X-40.456 Y-4.571 E0.3801
G1 X-39.432 Y-4.571 E0.1704
G1 X-39.432 Y-6.857 E0.3801
G1 X-40.456 Y-6.857 E0.1704
G1 X-40.456 Y-9.143 E0.3801
G1 X-39.432 Y-9.143 E0.1704
G1 X-39.432 Y-11.429 E0.3801
G1 X-40.456 Y-11.429 E0.1704
G1 X-40.456 Y-13.714 E0.3801
G1 X-39.432 Y-13.714 E0.1704
G1 X-39.432 Y-16.000 E0.3801
G1 X-40.456 Y-16.000 E0.1704
G1 X-40.456 Y-18.286 E0.3801
G1 X-39.432 Y-18.286 E0.1704
G1 X-39.432 Y-19.000 E0.1188
G1 X-37.817 Y-19.000 E0.2685
G1 X-37.817 Y-20.571 E0.2613
G1 X-42.071 Y-20.571 E0.7074
G1 E-1.9000 F1200
G1 Z1.000 F1200
G1 X-49.790 Y18.807 F9000
G1 Z0.500 F1200
G1 E1.9000 F1200
G1 X-50.071 Y18.807 E0.0468 F600
G1 X-50.501 Y18.594 E0.0798
G1 X-50.624 Y18.482 E0.0277
G1 X-50.996 Y17.886 E0.1168
G1 X-51.042 Y17.724 E0.0280
G1 X-51.042 Y-18.400 E6.0075
