; G-Code generated by Simplify3D(R) Version 4.1.2
; Apr 6, 2020 at 11:38:21 AM
; Settings Summary
;   processName,Process1
;   applyToModels,discV1R3
;   profileName,MakerBot Replicator 2 HBP (modified)
;   profileVersion,2020-03-12 10:48:50
;   baseProfile,MakerBot Replicator 2(2)
;   printMaterial,PLA
;   printQuality,Medium
;   printExtruders,
;   extruderName,Primary Extruder
;   extruderToolheadNumber,0
;   extruderDiameter,0.4
;   extruderAutoWidth,0
;   extruderWidth,0.4
;   extrusionMultiplier,1
;   extruderUseRetract,1
;   extruderRetractionDistance,1.9
;   extruderExtraRestartDistance,0
;   extruderRetractionZLift,0.5
;   extruderRetractionSpeed,1200
;   extruderUseCoasting,0
;   extruderCoastingDistance,0.2
;   extruderUseWipe,0
;   extruderWipeDistance,5
;   primaryExtruder,0
;   layerHeight,0.2
;   topSolidLayers,3
;   bottomSolidLayers,3
;   perimeterOutlines,2
;   printPerimetersInsideOut,1
;   startPointOption,3
;   startPointOriginX,0
;   startPointOriginY,150
;   sequentialIslands,0
;   spiralVaseMode,0
;   firstLayerHeightPercentage,100
;   firstLayerWidthPercentage,115
;   firstLayerUnderspeed,0.5
;   useRaft,0
;   raftExtruder,0
;   raftTopLayers,2
;   raftBaseLayers,1
;   raftOffset,1
;   raftSeparationDistance,0.14
;   raftTopInfill,90
;   aboveRaftSpeedMultiplier,0.3
;   useSkirt,0
;   skirtExtruder,0
;   skirtLayers,1
;   skirtOutlines,5
;   skirtOffset,0
;   usePrimePillar,0
;   primePillarExtruder,999
;   primePillarWidth,12
;   primePillarLocation,7
;   primePillarSpeedMultiplier,1
;   useOozeShield,0
;   oozeShieldExtruder,999
;   oozeShieldOffset,2
;   oozeShieldOutlines,1
;   oozeShieldSidewallShape,1
;   oozeShieldSidewallAngle,30
;   oozeShieldSpeedMultiplier,1
;   infillExtruder,0
;   internalInfillPattern,Rectilinear
;   externalInfillPattern,Rectilinear
;   infillPercentage,15
;   outlineOverlapPercentage,25
;   infillExtrusionWidthPercentage,100
;   minInfillLength,5
;   infillLayerInterval,1
;   internalInfillAngles,45,-45
;   overlapInternalInfillAngles,0
;   externalInfillAngles,45,-45
;   generateSupport,0
;   supportExtruder,0
;   supportInfillPercentage,5
;   supportExtraInflation,0.5
;   supportBaseLayers,0
;   denseSupportExtruder,0
;   denseSupportLayers,2
;   denseSupportInfillPercentage,90
;   supportLayerInterval,1
;   supportHorizontalPartOffset,0.3
;   supportUpperSeparationLayers,1
;   supportLowerSeparationLayers,1
;   supportType,1
;   supportGridSpacing,2
;   maxOverhangAngle,45
;   supportAngles,45,-45
;   temperatureName,Primary Extruder,Heated Build Platform
;   temperatureNumber,0,0
;   temperatureSetpointCount,1,1
;   temperatureSetpointLayers,1,1
;   temperatureSetpointTemperatures,230,60
;   temperatureStabilizeAtStartup,1,1
;   temperatureHeatedBed,0,1
;   fanLayers,1,2
;   fanSpeeds,0,100
;   blipFanToFullPower,1
;   adjustSpeedForCooling,1
;   minSpeedLayerTime,15
;   minCoolingSpeedSlowdown,20
;   increaseFanForCooling,1
;   minFanLayerTime,45
;   maxCoolingFanSpeed,100
;   increaseFanForBridging,1
;   bridgingFanSpeed,100
;   use5D,1
;   relativeEdistances,1
;   allowEaxisZeroing,0
;   independentExtruderAxes,1
;   includeM10123,0
;   stickySupport,1
;   applyToolheadOffsets,0
;   gcodeXoffset,0
;   gcodeYoffset,0
;   gcodeZoffset,0
;   overrideMachineDefinition,1
;   machineTypeOverride,0
;   strokeXoverride,280
;   strokeYoverride,150
;   strokeZoverride,150
;   originOffsetXoverride,140
;   originOffsetYoverride,75
;   originOffsetZoverride,0
;   homeXdirOverride,1
;   homeYdirOverride,1
;   homeZdirOverride,-1
;   flipXoverride,1
;   flipYoverride,-1
;   flipZoverride,1
;   toolheadOffsets,0,0|0,0|0,0|0,0|0,0|0,0
;   overrideFirmwareConfiguration,1
;   firmwareTypeOverride,MakerBot/Sailfish Firmware
;   GPXconfigOverride,r2h
;   baudRateOverride,115200
;   overridePrinterModels,1
;   printerModelsOverride,MakerBot_Replicator2.stl
;   startingGcode,; **** Replicator 2 start.gcode ****,M73 P0 ; enable build progress,G162 X Y F3000 ; home XY maximum,G161 Z F1200 ; home Z minimum,G92 Z-5 ; set Z to -5,G1 Z0 ; move Z to 0,G161 Z F100 ; home Z slowly,M132 X Y Z A B ; recall home offsets,G1 X-145 Y-75 Z30 F9000 ; move to wait position off table,G130 X20 Y20 Z20 A20 B20 ; lower stepper Vrefs while heating,M126 S[fan_speed_pwm],M140 S[bed0_temperature] T0,M134 T0 ; stabilize bed temperature,M104 S[extruder0_temperature] T0,M133 T0 ; stabilize extruder temperature,G130 X127 Y127 Z40 A127 B127 ; default stepper Vrefs,G92 A0 ; zero extruder,G1 Z0.4 ; position nozzle,G1 E25 F300 ; purge nozzle,G1 X-140 Y-70 Z0.15 F1200 ; slow wipe,G1 X-135 Y-65 Z0.5 F1200 ; lift,G92 A0 ; zero extruder,M73 P1 ;@body (notify GPX body has started),; **** end of start.gcode ****
;   layerChangeGcode,
;   retractionGcode,
;   toolChangeGcode,
;   endingGcode,; **** Replicator 2 end.gcode ****,M73 P100 ; end build progress,G1 Z155 F1000 ; send Z axis to bottom of machine,M104 S0 T0 ; cool down extruder,M140 S0 T0 ; cool down HBP,M127 ; stop blower fan,G162 X Y F3000 ; home XY maximum,M18 ; disable stepper,M0 ; stop codes,M72 P1 ; play Ta-Da song,; **** end of end.gcode ****
;   exportFileFormat,gcode
;   celebration,0
;   celebrationSong,Random Song
;   postProcessing,
;   defaultSpeed,4800
;   outlineUnderspeed,0.5
;   solidInfillUnderspeed,1
;   supportUnderspeed,1
;   rapidXYspeed,9000
;   rapidZspeed,1200
;   minBridgingArea,50
;   bridgingExtraInflation,0
;   bridgingExtrusionMultiplier,1
;   bridgingSpeedMultiplier,0.8
;   useFixedBridgingAngle,0
;   fixedBridgingAngle,0
;   applyBridgingToPerimeters,0
;   filamentDiameters,1.75|1.75|1.75|1.75|1.75|1.75
;   filamentPricesPerKg,46|46|46|46|46|46
;   filamentDensities,1.25|1.25|1.25|1.25|1.25|1.25
;   useMinPrintHeight,0
;   minPrintHeight,0
;   useMaxPrintHeight,0
;   maxPrintHeight,4.84
;   useDiaphragm,0
;   diaphragmLayerInterval,20
;   robustSlicing,1
;   mergeAllIntoSolid,0
;   onlyRetractWhenCrossingOutline,0
;   retractBetweenLayers,0
;   useRetractionMinTravel,1
;   retractionMinTravel,7
;   retractWhileWiping,1
;   onlyWipeOutlines,1
;   avoidCrossingOutline,0
;   maxMovementDetourFactor,3
;   toolChangeRetractionDistance,12
;   toolChangeExtraRestartDistance,-0.5
;   toolChangeRetractionSpeed,600
;   externalThinWallType,0
;   internalThinWallType,0
;   thinWallAllowedOverlapPercentage,10
;   singleExtrusionMinLength,1
;   singleExtrusionMinPrintingWidthPercentage,50
;   singleExtrusionMaxPrintingWidthPercentage,200
;   singleExtrusionEndpointExtension,0.2
;   horizontalSizeCompensation,0
G90
M83
; **** Replicator 2 start.gcode ****
M73 P0 ; enable build progress
G162 X Y F3000 ; home XY maximum
G161 Z F1200 ; home Z minimum
G92 Z-5 ; set Z to -5
G1 Z0 ; move Z to 0
G161 Z F100 ; home Z slowly
M132 X Y Z A B ; recall home offsets
G1 X-145 Y-75 Z30 F9000 ; move to wait position off table
G130 X20 Y20 Z20 A20 B20 ; lower stepper Vrefs while heating
M126 S15
M140 S60 T0
M134 T0 ; stabilize bed temperature
M104 S230 T0
M133 T0 ; stabilize extruder temperature
G130 X127 Y127 Z40 A127 B127 ; default stepper Vrefs
G92 A0 ; zero extruder
G1 Z0.4 ; position nozzle
G1 E25 F300 ; purge nozzle
G1 X-140 Y-70 Z0.15 F1200 ; slow wipe
G1 X-135 Y-65 Z0.5 F1200 ; lift
G92 A0 ; zero extruder
M73 P1 ;@body (notify GPX body has started)
; **** end of start.gcode ****
; process Process1
; layer 1, Z = 0.200
M135 T0
G1 E-1.9000 F1200
; feature inner perimeter
; tool H0.200 W0.460
G1 Z0.500 F1200
G1 X0.000 Y22.777 F9000
G1 Z0.200 F1200
G1 E1.9000 F1200
G1 X-1.183 Y22.504 E0.0464 F1800
G1 X-2.304 Y21.706 E0.0526
G1 X-6.207 Y10.088 E0.4688
G1 X-9.448 Y8.355 E0.1406
G1 X-12.025 Y6.240 E0.1275
G1 X-14.140 Y3.663 E0.1275
G1 X-15.712 Y0.723 E0.1275
G1 X-16.680 Y-2.468 E0.1275
G1 X-17.006 Y-5.786 E0.1275
G1 X-16.680 Y-9.103 E0.1275
G1 X-15.712 Y-12.294 E0.1275
G1 X-14.140 Y-15.234 E0.1275
G1 X-12.025 Y-17.811 E0.1275
G1 X-9.448 Y-19.926 E0.1275
G1 X-6.508 Y-21.497 E0.1275
G1 X-3.318 Y-22.465 E0.1275
G1 X0.000 Y-22.792 E0.1275
G1 X3.318 Y-22.465 E0.1275
G1 X6.508 Y-21.497 E0.1275
G1 X9.448 Y-19.926 E0.1275
G1 X12.025 Y-17.811 E0.1275
G1 X14.140 Y-15.234 E0.1275
G1 X15.712 Y-12.294 E0.1275
G1 X16.680 Y-9.103 E0.1275
G1 X17.006 Y-5.786 E0.1275
G1 X16.680 Y-2.468 E0.1275
G1 X15.712 Y0.723 E0.1275
G1 X14.140 Y3.663 E0.1275
G1 X12.025 Y6.240 E0.1275
G1 X9.448 Y8.355 E0.1275
G1 X6.207 Y10.088 E0.1406
G1 X2.304 Y21.706 E0.4688
G1 X1.183 Y22.504 E0.0526
G1 X0.000 Y22.777 E0.0464
; feature outer perimeter
G1 X0.000 Y23.249 F9000
G1 X-1.375 Y22.931 E0.0540 F1200
G1 X-2.693 Y21.994 E0.0618
G1 X-6.584 Y10.407 E0.4675
G1 X-9.705 Y8.739 E0.1353
G1 X-12.352 Y6.567 E0.1310
G1 X-14.525 Y3.920 E0.1310
G1 X-16.139 Y0.899 E0.1310
G1 X-17.133 Y-2.378 E0.1310
G1 X-17.469 Y-5.786 E0.1310
G1 X-17.133 Y-9.193 E0.1310
G1 X-16.139 Y-12.471 E0.1310
G1 X-14.525 Y-15.491 E0.1310
G1 X-12.352 Y-18.138 E0.1310
G1 X-9.705 Y-20.310 E0.1310
G1 X-6.685 Y-21.924 E0.1310
G1 X-3.408 Y-22.919 E0.1310
G1 X0.000 Y-23.254 E0.1310
G1 X3.408 Y-22.919 E0.1310
G1 X6.685 Y-21.924 E0.1310
G1 X9.705 Y-20.310 E0.1310
G1 X12.352 Y-18.138 E0.1310
G1 X14.525 Y-15.491 E0.1310
G1 X16.139 Y-12.471 E0.1310
G1 X17.133 Y-9.193 E0.1310
G1 X17.469 Y-5.786 E0.1310
G1 X17.133 Y-2.378 E0.1310
G1 X16.139 Y0.899 E0.1310
G1 X14.525 Y3.920 E0.1310
G1 X12.352 Y6.567 E0.1310
G1 X9.705 Y8.739 E0.1310
G1 X6.584 Y10.407 E0.1353
G1 X2.693 Y21.994 E0.4675
G1 X1.375 Y22.931 E0.0618
G1 X0.000 Y23.249 E0.0540
; feature inner perimeter
G1 X0.000 Y21.188 F9000
G1 X1.226 Y20.944 E0.0478 F1800
G1 X2.265 Y20.250 E0.0478
G1 X2.960 Y19.210 E0.0478
G1 X3.204 Y17.984 E0.0478
G1 X2.960 Y16.759 E0.0478
G1 X2.265 Y15.719 E0.0478
G1 X1.226 Y15.025 E0.0478
G1 X0.000 Y14.781 E0.0478
G1 X-1.226 Y15.025 E0.0478
G1 X-2.265 Y15.719 E0.0478
G1 X-2.960 Y16.759 E0.0478
G1 X-3.204 Y17.984 E0.0478
G1 X-2.960 Y19.210 E0.0478
G1 X-2.265 Y20.250 E0.0478
G1 X-1.226 Y20.944 E0.0478
G1 X0.000 Y21.188 E0.0478
; feature outer perimeter
G1 X0.000 Y20.719 F9000
G1 X1.046 Y20.511 E0.0408 F1200
G1 X1.934 Y19.918 E0.0408
G1 X2.526 Y19.031 E0.0408
G1 X2.735 Y17.984 E0.0408
G1 X2.526 Y16.938 E0.0408
G1 X1.934 Y16.051 E0.0408
G1 X1.046 Y15.458 E0.0408
G1 X0.000 Y15.250 E0.0408
G1 X-1.046 Y15.458 E0.0408
G1 X-1.934 Y16.051 E0.0408
G1 X-2.526 Y16.938 E0.0408
G1 X-2.735 Y17.984 E0.0408
G1 X-2.526 Y19.031 E0.0408
G1 X-1.934 Y19.918 E0.0408
G1 X-1.046 Y20.511 E0.0408
G1 X0.000 Y20.719 E0.0408
G1 E-1.9000 F1200
; feature inner perimeter
G1 Z0.700 F1200
G1 X0.000 Y6.796 F9000
G1 Z0.200 F1200
G1 E1.9000 F1200
G1 X2.455 Y6.555 E0.0943 F1800
G1 X4.815 Y5.839 E0.0943
G1 X6.990 Y4.676 E0.0943
G1 X8.897 Y3.111 E0.0943
G1 X10.461 Y1.205 E0.0943
G1 X11.624 Y-0.971 E0.0943
G1 X12.340 Y-3.331 E0.0943
G1 X12.582 Y-5.786 E0.0943
G1 X12.340 Y-8.240 E0.0943
G1 X11.624 Y-10.600 E0.0943
G1 X10.461 Y-12.776 E0.0943
G1 X8.897 Y-14.682 E0.0943
G1 X6.990 Y-16.247 E0.0943
G1 X4.815 Y-17.410 E0.0943
G1 X2.455 Y-18.126 E0.0943
G1 X0.000 Y-18.367 E0.0943
G1 X-2.455 Y-18.126 E0.0943
G1 X-4.815 Y-17.410 E0.0943
G1 X-6.990 Y-16.247 E0.0943
G1 X-8.897 Y-14.682 E0.0943
G1 X-10.461 Y-12.776 E0.0943
G1 X-11.624 Y-10.600 E0.0943
G1 X-12.340 Y-8.240 E0.0943
G1 X-12.582 Y-5.786 E0.0943
G1 X-12.340 Y-3.331 E0.0943
G1 X-11.624 Y-0.971 E0.0943
G1 X-10.461 Y1.205 E0.0943
G1 X-8.897 Y3.111 E0.0943
G1 X-6.990 Y4.676 E0.0943
G1 X-4.815 Y5.839 E0.0943
G1 X-2.455 Y6.555 E0.0943
G1 X0.000 Y6.796 E0.0943
; feature outer perimeter
G1 X0.000 Y6.334 F9000
G1 X2.364 Y6.101 E0.0909 F1200
G1 X4.638 Y5.412 E0.0909
G1 X6.733 Y4.292 E0.0909
G1 X8.570 Y2.784 E0.0909
G1 X10.077 Y0.948 E0.0909
G1 X11.197 Y-1.148 E0.0909
G1 X11.887 Y-3.421 E0.0909
G1 X12.120 Y-5.786 E0.0909
G1 X11.887 Y-8.150 E0.0909
G1 X11.197 Y-10.424 E0.0909
G1 X10.077 Y-12.519 E0.0909
G1 X8.570 Y-14.355 E0.0909
G1 X6.733 Y-15.863 E0.0909
G1 X4.638 Y-16.983 E0.0909
G1 X2.364 Y-17.672 E0.0909
G1 X0.000 Y-17.905 E0.0909
G1 X-2.364 Y-17.672 E0.0909
G1 X-4.638 Y-16.983 E0.0909
G1 X-6.733 Y-15.863 E0.0909
G1 X-8.570 Y-14.355 E0.0909
G1 X-10.077 Y-12.519 E0.0909
G1 X-11.197 Y-10.424 E0.0909
G1 X-11.887 Y-8.150 E0.0909
G1 X-12.120 Y-5.786 E0.0909
G1 X-11.887 Y-3.421 E0.0909
G1 X-11.197 Y-1.148 E0.0909
G1 X-10.077 Y0.948 E0.0909
G1 X-8.570 Y2.784 E0.0909
G1 X-6.733 Y4.292 E0.0909
G1 X-4.638 Y5.412 E0.0909
G1 X-2.364 Y6.101 E0.0909
G1 X0.000 Y6.334 E0.0909
; feature solid layer
G1 X-6.244 Y5.466 F9000
G1 X3.966 Y15.675 E0.5522 F2400
G1 X4.129 Y15.188 E0.0196
G1 X-4.880 Y6.179 E0.4873
G1 X-3.946 Y6.463 E0.0373
G1 X4.293 Y14.701 E0.4457
G1 X4.456 Y14.214 E0.0196
G1 X-3.012 Y6.746 E0.4040
G1 X-2.522 Y6.895 E0.0196
G1 X-2.179 Y6.928 E0.0132
G1 X4.620 Y13.728 E0.3678
G1 X4.784 Y13.241 E0.0196
G1 X-1.458 Y6.999 E0.3376
G1 X-0.736 Y7.071 E0.0277
G1 X4.947 Y12.754 E0.3074
G1 X5.111 Y12.267 E0.0196
G1 X-0.014 Y7.142 E0.2772
G1 X0.000 Y7.143 E0.0006
G1 X0.580 Y7.086 E0.0223
G1 X5.274 Y11.780 E0.2539
G1 X5.438 Y11.293 E0.0196
G1 X1.173 Y7.027 E0.2307
G1 X1.765 Y6.969 E0.0228
G1 X5.601 Y10.806 E0.2075
G1 X5.765 Y10.319 E0.0196
G1 X2.357 Y6.911 E0.1843
G1 X2.522 Y6.895 E0.0063
G1 X2.882 Y6.785 E0.0144
G1 X5.937 Y9.840 E0.1653
G1 X6.361 Y9.614 E0.0184
G1 X3.381 Y6.634 E0.1612
G1 X3.880 Y6.483 E0.0200
G1 X6.785 Y9.387 E0.1571
G1 X7.209 Y9.161 E0.0184
G1 X4.380 Y6.331 E0.1530
G1 X4.879 Y6.180 E0.0200
G1 X7.633 Y8.934 E0.1490
G1 X8.057 Y8.707 E0.0184
G1 X5.313 Y5.964 E0.1484
G1 X5.737 Y5.737 E0.0184
G1 X8.481 Y8.481 E0.1484
G1 X8.905 Y8.254 E0.0184
G1 X6.161 Y5.510 E0.1484
G1 X6.585 Y5.284 E0.0184
G1 X9.317 Y8.016 E0.1478
G1 X9.674 Y7.723 E0.0177
G1 X7.009 Y5.057 E0.1442
G1 X7.183 Y4.964 E0.0075
G1 X7.393 Y4.791 E0.0104
G1 X10.032 Y7.430 E0.1427
G1 X10.389 Y7.136 E0.0177
G1 X7.751 Y4.498 E0.1427
G1 X8.108 Y4.205 E0.0177
G1 X10.746 Y6.843 E0.1427
G1 X11.104 Y6.550 E0.0177
G1 X8.465 Y3.912 E0.1427
G1 X8.823 Y3.618 E0.0177
G1 X11.461 Y6.257 E0.1427
G1 X11.780 Y5.995 E0.0158
G1 X11.811 Y5.957 E0.0019
G1 X9.173 Y3.318 E0.1427
G1 X9.466 Y2.961 E0.0177
G1 X12.105 Y5.599 E0.1427
G1 X12.398 Y5.242 E0.0177
G1 X9.760 Y2.604 E0.1427
G1 X10.053 Y2.246 E0.0177
G1 X12.691 Y4.885 E0.1427
G1 X12.984 Y4.527 E0.0177
G1 X10.346 Y1.889 E0.1427
G1 X10.639 Y1.532 E0.0177
G1 X13.278 Y4.170 E0.1427
G1 X13.571 Y3.813 E0.0177
G1 X10.891 Y1.133 E0.1450
G1 X11.118 Y0.709 E0.0184
G1 X13.861 Y3.453 E0.1484
G1 X14.088 Y3.029 E0.0184
G1 X11.344 Y0.285 E0.1484
G1 X11.571 Y-0.139 E0.0184
G1 X14.315 Y2.605 E0.1484
G1 X14.541 Y2.181 E0.0184
G1 X11.797 Y-0.563 E0.1484
G1 X11.944 Y-0.838 E0.0119
G1 X11.998 Y-1.013 E0.0070
G1 X14.768 Y1.757 E0.1498
G1 X14.994 Y1.333 E0.0184
G1 X12.149 Y-1.512 E0.1539
G1 X12.300 Y-2.011 E0.0200
G1 X15.221 Y0.909 E0.1580
G1 X15.392 Y0.590 E0.0138
G1 X15.429 Y0.467 E0.0049
G1 X12.452 Y-2.511 E0.1610
G1 X12.603 Y-3.010 E0.0200
G1 X15.580 Y-0.033 E0.1610
G1 X15.732 Y-0.532 E0.0200
G1 X12.709 Y-3.555 E0.1635
G1 X12.767 Y-4.147 E0.0228
G1 X15.883 Y-1.031 E0.1686
G1 X16.035 Y-1.530 E0.0200
G1 X12.825 Y-4.739 E0.1736
G1 X12.884 Y-5.331 E0.0228
G1 X16.186 Y-2.029 E0.1786
G1 X16.337 Y-2.528 E0.0200
G1 X12.912 Y-5.954 E0.1853
G1 X12.841 Y-6.675 E0.0277
G1 X16.397 Y-3.119 E0.1924
G1 X16.455 Y-3.711 E0.0228
G1 X12.770 Y-7.397 E0.1994
G1 X12.699 Y-8.118 E0.0277
G1 X16.514 Y-4.303 E0.2064
G1 X16.572 Y-4.896 E0.0228
G1 X12.471 Y-8.997 E0.2218
G1 X12.188 Y-9.930 E0.0373
G1 X16.630 Y-5.488 E0.2403
G1 X16.660 Y-5.786 E0.0114
G1 X16.624 Y-6.144 E0.0138
G1 X11.840 Y-10.929 E0.2588
G1 X11.380 Y-17.894 F9000
G1 X12.109 Y-17.166 E0.0394 F2400
G1 X13.852 Y-15.041 E0.1051
G1 X14.162 Y-14.462 E0.0251
G1 X8.677 Y-19.947 E0.2967
G1 X7.279 Y-20.694 E0.0606
G1 X14.909 Y-13.065 E0.4127
G1 X15.392 Y-12.161 E0.0392
G1 X15.492 Y-11.831 E0.0132
G1 X6.045 Y-21.277 E0.5110
G1 X5.112 Y-21.561 E0.0373
G1 X15.775 Y-10.897 E0.5768
G1 X16.058 Y-9.963 E0.0373
G1 X4.178 Y-21.844 E0.6426
G1 X3.245 Y-22.126 E0.0373
G1 X16.340 Y-9.031 E0.7083
G1 X16.411 Y-8.309 E0.0277
G1 X2.524 Y-22.197 E0.7512
G1 X1.802 Y-22.268 E0.0277
G1 X16.482 Y-7.588 E0.7941
G1 X16.553 Y-6.866 E0.0277
G1 X11.093 Y-12.327 E0.2954
G1 X10.750 Y-12.968 E0.0278
G1 X9.142 Y-14.927 E0.0969
G1 X7.183 Y-16.535 E0.0969
G1 X6.541 Y-16.878 E0.0278
