; G-Code generated by Simplify3D(R) Version 4.1.2
; Apr 6, 2020 at 11:37:53 AM
; Settings Summary
;   processName,Process1
;   applyToModels,LEDV2R3
;   profileName,MakerBot Replicator 2 HBP (modified)
;   profileVersion,2020-03-12 10:48:50
;   baseProfile,MakerBot Replicator 2(2)
;   printMaterial,PLA
;   printQuality,Medium
;   printExtruders,
;   extruderName,Primary Extruder
;   extruderToolheadNumber,0
;   extruderDiameter,0.4
;   extruderAutoWidth,0
;   extruderWidth,0.4
;   extrusionMultiplier,1
;   extruderUseRetract,1
;   extruderRetractionDistance,1.9
;   extruderExtraRestartDistance,0
;   extruderRetractionZLift,0.5
;   extruderRetractionSpeed,1200
;   extruderUseCoasting,0
;   extruderCoastingDistance,0.2
;   extruderUseWipe,0
;   extruderWipeDistance,5
;   primaryExtruder,0
;   layerHeight,0.2
;   topSolidLayers,3
;   bottomSolidLayers,3
;   perimeterOutlines,2
;   printPerimetersInsideOut,1
;   startPointOption,3
;   startPointOriginX,0
;   startPointOriginY,150
;   sequentialIslands,0
;   spiralVaseMode,0
;   firstLayerHeightPercentage,100
;   firstLayerWidthPercentage,115
;   firstLayerUnderspeed,0.5
;   useRaft,0
;   raftExtruder,0
;   raftTopLayers,2
;   raftBaseLayers,1
;   raftOffset,1
;   raftSeparationDistance,0.14
;   raftTopInfill,90
;   aboveRaftSpeedMultiplier,0.3
;   useSkirt,0
;   skirtExtruder,0
;   skirtLayers,1
;   skirtOutlines,5
;   skirtOffset,0
;   usePrimePillar,0
;   primePillarExtruder,999
;   primePillarWidth,12
;   primePillarLocation,7
;   primePillarSpeedMultiplier,1
;   useOozeShield,0
;   oozeShieldExtruder,999
;   oozeShieldOffset,2
;   oozeShieldOutlines,1
;   oozeShieldSidewallShape,1
;   oozeShieldSidewallAngle,30
;   oozeShieldSpeedMultiplier,1
;   infillExtruder,0
;   internalInfillPattern,Rectilinear
;   externalInfillPattern,Rectilinear
;   infillPercentage,15
;   outlineOverlapPercentage,25
;   infillExtrusionWidthPercentage,100
;   minInfillLength,5
;   infillLayerInterval,1
;   internalInfillAngles,45,-45
;   overlapInternalInfillAngles,0
;   externalInfillAngles,45,-45
;   generateSupport,0
;   supportExtruder,0
;   supportInfillPercentage,5
;   supportExtraInflation,0.5
;   supportBaseLayers,0
;   denseSupportExtruder,0
;   denseSupportLayers,2
;   denseSupportInfillPercentage,90
;   supportLayerInterval,1
;   supportHorizontalPartOffset,0.3
;   supportUpperSeparationLayers,1
;   supportLowerSeparationLayers,1
;   supportType,1
;   supportGridSpacing,2
;   maxOverhangAngle,45
;   supportAngles,45,-45
;   temperatureName,Primary Extruder,Heated Build Platform
;   temperatureNumber,0,0
;   temperatureSetpointCount,1,1
;   temperatureSetpointLayers,1,1
;   temperatureSetpointTemperatures,230,60
;   temperatureStabilizeAtStartup,1,1
;   temperatureHeatedBed,0,1
;   fanLayers,1,2
;   fanSpeeds,0,100
;   blipFanToFullPower,1
;   adjustSpeedForCooling,1
;   minSpeedLayerTime,15
;   minCoolingSpeedSlowdown,20
;   increaseFanForCooling,1
;   minFanLayerTime,45
;   maxCoolingFanSpeed,100
;   increaseFanForBridging,1
;   bridgingFanSpeed,100
;   use5D,1
;   relativeEdistances,1
;   allowEaxisZeroing,0
;   independentExtruderAxes,1
;   includeM10123,0
;   stickySupport,1
;   applyToolheadOffsets,0
;   gcodeXoffset,0
;   gcodeYoffset,0
;   gcodeZoffset,0
;   overrideMachineDefinition,1
;   machineTypeOverride,0
;   strokeXoverride,280
;   strokeYoverride,150
;   strokeZoverride,150
;   originOffsetXoverride,140
;   originOffsetYoverride,75
;   originOffsetZoverride,0
;   homeXdirOverride,1
;   homeYdirOverride,1
;   homeZdirOverride,-1
;   flipXoverride,1
;   flipYoverride,-1
;   flipZoverride,1
;   toolheadOffsets,0,0|0,0|0,0|0,0|0,0|0,0
;   overrideFirmwareConfiguration,1
;   firmwareTypeOverride,MakerBot/Sailfish Firmware
;   GPXconfigOverride,r2h
;   baudRateOverride,115200
;   overridePrinterModels,1
;   printerModelsOverride,MakerBot_Replicator2.stl
;   startingGcode,; **** Replicator 2 start.gcode ****,M73 P0 ; enable build progress,G162 X Y F3000 ; home XY maximum,G161 Z F1200 ; home Z minimum,G92 Z-5 ; set Z to -5,G1 Z0 ; move Z to 0,G161 Z F100 ; home Z slowly,M132 X Y Z A B ; recall home offsets,G1 X-145 Y-75 Z30 F9000 ; move to wait position off table,G130 X20 Y20 Z20 A20 B20 ; lower stepper Vrefs while heating,M126 S[fan_speed_pwm],M140 S[bed0_temperature] T0,M134 T0 ; stabilize bed temperature,M104 S[extruder0_temperature] T0,M133 T0 ; stabilize extruder temperature,G130 X127 Y127 Z40 A127 B127 ; default stepper Vrefs,G92 A0 ; zero extruder,G1 Z0.4 ; position nozzle,G1 E25 F300 ; purge nozzle,G1 X-140 Y-70 Z0.15 F1200 ; slow wipe,G1 X-135 Y-65 Z0.5 F1200 ; lift,G92 A0 ; zero extruder,M73 P1 ;@body (notify GPX body has started),; **** end of start.gcode ****
;   layerChangeGcode,
;   retractionGcode,
;   toolChangeGcode,
;   endingGcode,; **** Replicator 2 end.gcode ****,M73 P100 ; end build progress,G1 Z155 F1000 ; send Z axis to bottom of machine,M104 S0 T0 ; cool down extruder,M140 S0 T0 ; cool down HBP,M127 ; stop blower fan,G162 X Y F3000 ; home XY maximum,M18 ; disable stepper,M0 ; stop codes,M72 P1 ; play Ta-Da song,; **** end of end.gcode ****
;   exportFileFormat,gcode
;   celebration,0
;   celebrationSong,Random Song
;   postProcessing,
;   defaultSpeed,4800
;   outlineUnderspeed,0.5
;   solidInfillUnderspeed,1
;   supportUnderspeed,1
;   rapidXYspeed,9000
;   rapidZspeed,1200
;   minBridgingArea,50
;   bridgingExtraInflation,0
;   bridgingExtrusionMultiplier,1
;   bridgingSpeedMultiplier,0.8
;   useFixedBridgingAngle,0
;   fixedBridgingAngle,0
;   applyBridgingToPerimeters,0
;   filamentDiameters,1.75|1.75|1.75|1.75|1.75|1.75
;   filamentPricesPerKg,46|46|46|46|46|46
;   filamentDensities,1.25|1.25|1.25|1.25|1.25|1.25
;   useMinPrintHeight,0
;   minPrintHeight,0
;   useMaxPrintHeight,0
;   maxPrintHeight,4.84
;   useDiaphragm,0
;   diaphragmLayerInterval,20
;   robustSlicing,1
;   mergeAllIntoSolid,0
;   onlyRetractWhenCrossingOutline,0
;   retractBetweenLayers,0
;   useRetractionMinTravel,1
;   retractionMinTravel,7
;   retractWhileWiping,1
;   onlyWipeOutlines,1
;   avoidCrossingOutline,0
;   maxMovementDetourFactor,3
;   toolChangeRetractionDistance,12
;   toolChangeExtraRestartDistance,-0.5
;   toolChangeRetractionSpeed,600
;   externalThinWallType,0
;   internalThinWallType,0
;   thinWallAllowedOverlapPercentage,10
;   singleExtrusionMinLength,1
;   singleExtrusionMinPrintingWidthPercentage,50
;   singleExtrusionMaxPrintingWidthPercentage,200
;   singleExtrusionEndpointExtension,0.2
;   horizontalSizeCompensation,0
G90
M83
; **** Replicator 2 start.gcode ****
M73 P0 ; enable build progress
G162 X Y F3000 ; home XY maximum
G161 Z F1200 ; home Z minimum
G92 Z-5 ; set Z to -5
G1 Z0 ; move Z to 0
G161 Z F100 ; home Z slowly
M132 X Y Z A B ; recall home offsets
G1 X-145 Y-75 Z30 F9000 ; move to wait position off table
G130 X20 Y20 Z20 A20 B20 ; lower stepper Vrefs while heating
M126 S29
M140 S60 T0
M134 T0 ; stabilize bed temperature
M104 S230 T0
M133 T0 ; stabilize extruder temperature
G130 X127 Y127 Z40 A127 B127 ; default stepper Vrefs
G92 A0 ; zero extruder
G1 Z0.4 ; position nozzle
G1 E25 F300 ; purge nozzle
G1 X-140 Y-70 Z0.15 F1200 ; slow wipe
G1 X-135 Y-65 Z0.5 F1200 ; lift
G92 A0 ; zero extruder
M73 P1 ;@body (notify GPX body has started)
; **** end of start.gcode ****
; process Process1
; layer 1, Z = 0.200
M135 T0
G1 E-1.9000 F1200
; feature inner perimeter
; tool H0.200 W0.460
G1 Z0.500 F1200
G1 X8.265 Y17.647 F9000
G1 Z0.200 F1200
G1 E1.9000 F1200
G1 X-8.265 Y17.647 E0.6323 F1800
G1 X-8.265 Y-17.647 E1.3499
G1 X8.265 Y-17.647 E0.6323
G1 X8.265 Y17.647 E1.3499
; feature outer perimeter
G1 X8.725 Y18.107 F9000
G1 X-8.725 Y18.107 E0.6675 F1200
G1 X-8.725 Y-18.107 E1.3851
G1 X8.725 Y-18.107 E0.6675
G1 X8.725 Y18.107 E1.3851
G1 E-1.9000 F1200
; feature solid layer
G1 Z0.700 F1200
G1 X-7.419 Y17.302 F9000
G1 Z0.200 F1200
G1 E1.9000 F1200
G1 X-7.920 Y16.800 E0.0271 F2400
G1 X-7.920 Y16.150 E0.0249
G1 X-6.768 Y17.302 E0.0623
G1 X-6.118 Y17.302 E0.0249
G1 X-7.920 Y15.499 E0.0975
G1 X-7.920 Y14.849 E0.0249
G1 X-5.467 Y17.302 E0.1327
G1 X-4.817 Y17.302 E0.0249
G1 X-7.920 Y14.198 E0.1679
G1 X-7.920 Y13.547 E0.0249
G1 X-4.166 Y17.302 E0.2031
G1 X-3.516 Y17.302 E0.0249
G1 X-7.920 Y12.897 E0.2383
G1 X-7.920 Y12.246 E0.0249
G1 X-2.865 Y17.302 E0.2735
G1 X-2.214 Y17.302 E0.0249
G1 X-7.920 Y11.596 E0.3086
G1 X-7.920 Y10.945 E0.0249
G1 X-1.564 Y17.302 E0.3438
G1 X-0.913 Y17.302 E0.0249
G1 X-7.920 Y10.295 E0.3790
G1 X-7.920 Y9.644 E0.0249
G1 X-0.263 Y17.302 E0.4142
G1 X0.388 Y17.302 E0.0249
G1 X-7.920 Y8.994 E0.4494
G1 X-7.920 Y8.343 E0.0249
G1 X1.038 Y17.302 E0.4846
G1 X1.689 Y17.302 E0.0249
G1 X-7.920 Y7.693 E0.5198
G1 X-7.920 Y7.042 E0.0249
G1 X2.339 Y17.302 E0.5550
G1 X2.990 Y17.302 E0.0249
G1 X-7.920 Y6.392 E0.5902
G1 X-7.920 Y5.741 E0.0249
G1 X3.640 Y17.302 E0.6253
G1 X4.291 Y17.302 E0.0249
G1 X-7.920 Y5.090 E0.6605
G1 X-7.920 Y4.440 E0.0249
G1 X4.941 Y17.302 E0.6957
G1 X5.592 Y17.302 E0.0249
G1 X-7.920 Y3.789 E0.7309
G1 X-7.920 Y3.139 E0.0249
G1 X6.243 Y17.302 E0.7661
G1 X6.893 Y17.302 E0.0249
G1 X-7.920 Y2.488 E0.8013
G1 X-7.920 Y1.838 E0.0249
G1 X7.544 Y17.302 E0.8365
G1 X7.920 Y17.302 E0.0144
G1 X7.920 Y17.028 E0.0105
G1 X-7.920 Y1.187 E0.8569
G1 X-7.920 Y0.537 E0.0249
G1 X7.920 Y16.377 E0.8569
G1 X7.920 Y15.727 E0.0249
G1 X-7.920 Y-0.114 E0.8569
G1 X-7.920 Y-0.764 E0.0249
G1 X7.920 Y15.076 E0.8569
G1 X7.920 Y14.426 E0.0249
G1 X-7.920 Y-1.415 E0.8569
G1 X-7.920 Y-2.065 E0.0249
G1 X7.920 Y13.775 E0.8569
G1 X7.920 Y13.125 E0.0249
G1 X-7.920 Y-2.716 E0.8569
G1 X-7.920 Y-3.367 E0.0249
G1 X7.920 Y12.474 E0.8569
G1 X7.920 Y11.824 E0.0249
G1 X-7.920 Y-4.017 E0.8569
G1 X-7.920 Y-4.668 E0.0249
G1 X7.920 Y11.173 E0.8569
G1 X7.920 Y10.522 E0.0249
G1 X-7.920 Y-5.318 E0.8569
G1 X-7.920 Y-5.969 E0.0249
G1 X7.920 Y9.872 E0.8569
G1 X7.920 Y9.221 E0.0249
G1 X-7.920 Y-6.619 E0.8569
G1 X-7.920 Y-7.270 E0.0249
G1 X7.920 Y8.571 E0.8569
G1 X7.920 Y7.920 E0.0249
G1 X-7.920 Y-7.920 E0.8569
G1 X-7.920 Y-8.571 E0.0249
G1 X7.920 Y7.270 E0.8569
G1 X7.920 Y6.619 E0.0249
G1 X-7.920 Y-9.221 E0.8569
G1 X-7.920 Y-9.872 E0.0249
G1 X7.920 Y5.969 E0.8569
G1 X7.920 Y5.318 E0.0249
G1 X-7.920 Y-10.522 E0.8569
G1 X-7.920 Y-11.173 E0.0249
G1 X7.920 Y4.668 E0.8569
G1 X7.920 Y4.017 E0.0249
G1 X-7.920 Y-11.824 E0.8569
G1 X-7.920 Y-12.474 E0.0249
G1 X7.920 Y3.367 E0.8569
G1 X7.920 Y2.716 E0.0249
G1 X-7.920 Y-13.125 E0.8569
G1 X-7.920 Y-13.775 E0.0249
G1 X7.920 Y2.065 E0.8569
G1 X7.920 Y1.415 E0.0249
G1 X-7.920 Y-14.426 E0.8569
G1 X-7.920 Y-15.076 E0.0249
G1 X7.920 Y0.764 E0.8569
G1 X7.920 Y0.114 E0.0249
G1 X-7.920 Y-15.727 E0.8569
G1 X-7.920 Y-16.377 E0.0249
G1 X7.920 Y-0.537 E0.8569
G1 X7.920 Y-1.187 E0.0249
G1 X-7.920 Y-17.028 E0.8569
G1 X-7.920 Y-17.302 E0.0105
G1 X-7.544 Y-17.302 E0.0144
G1 X7.920 Y-1.838 E0.8365
G1 X7.920 Y-2.488 E0.0249
G1 X-6.893 Y-17.302 E0.8013
G1 X-6.243 Y-17.302 E0.0249
G1 X7.920 Y-3.139 E0.7661
G1 X7.920 Y-3.789 E0.0249
G1 X-5.592 Y-17.302 E0.7309
G1 X-4.941 Y-17.302 E0.0249
G1 X7.920 Y-4.440 E0.6957
G1 X7.920 Y-5.090 E0.0249
G1 X-4.291 Y-17.302 E0.6605
G1 X-3.640 Y-17.302 E0.0249
G1 X7.920 Y-5.741 E0.6253
G1 X7.920 Y-6.392 E0.0249
G1 X-2.990 Y-17.302 E0.5902
G1 X-2.339 Y-17.302 E0.0249
G1 X7.920 Y-7.042 E0.5550
G1 X7.920 Y-7.693 E0.0249
G1 X-1.689 Y-17.302 E0.5198
G1 X-1.038 Y-17.302 E0.0249
G1 X7.920 Y-8.343 E0.4846
G1 X7.920 Y-8.994 E0.0249
G1 X-0.388 Y-17.302 E0.4494
G1 X0.263 Y-17.302 E0.0249
G1 X7.920 Y-9.644 E0.4142
G1 X7.920 Y-10.295 E0.0249
G1 X0.913 Y-17.302 E0.3790
G1 X1.564 Y-17.302 E0.0249
G1 X7.920 Y-10.945 E0.3438
G1 X7.920 Y-11.596 E0.0249
G1 X2.214 Y-17.302 E0.3086
G1 X2.865 Y-17.302 E0.0249
G1 X7.920 Y-12.246 E0.2735
G1 X7.920 Y-12.897 E0.0249
G1 X3.516 Y-17.302 E0.2383
G1 X4.166 Y-17.302 E0.0249
G1 X7.920 Y-13.547 E0.2031
G1 X7.920 Y-14.198 E0.0249
G1 X4.817 Y-17.302 E0.1679
G1 X5.467 Y-17.302 E0.0249
G1 X7.920 Y-14.849 E0.1327
G1 X7.920 Y-15.499 E0.0249
G1 X6.118 Y-17.302 E0.0975
G1 X6.768 Y-17.302 E0.0249
G1 X7.920 Y-16.150 E0.0623
G1 X7.920 Y-16.800 E0.0249
G1 X7.419 Y-17.302 E0.0271
G1 E-1.9000 F1200
; layer 2, Z = 0.400
M126 S255
; feature inner perimeter
; tool H0.200 W0.400
G1 Z0.700 F1200
G1 X8.355 Y17.737 F9000
G1 Z0.400 F1200
G1 E1.9000 F1200
G1 X-8.355 Y17.737 E0.5558 F3600
G1 X-8.355 Y-17.737 E1.1799
G1 X8.355 Y-17.737 E0.5558
G1 X8.355 Y17.737 E1.1799
; feature outer perimeter
G1 X8.755 Y18.137 F9000
G1 X-8.755 Y18.137 E0.5824 F2400
G1 X-8.755 Y-18.137 E1.2065
G1 X8.755 Y-18.137 E0.5824
G1 X8.755 Y18.137 E1.2065
; feature solid layer
G1 X8.055 Y17.401 F9000
G1 X8.019 Y17.437 E0.0017 F4800
G1 X7.453 Y17.437 E0.0188
G1 X8.055 Y16.835 E0.0283
G1 X8.055 Y16.269 E0.0188
G1 X6.888 Y17.437 E0.0549
G1 X6.322 Y17.437 E0.0188
G1 X8.055 Y15.704 E0.0815
G1 X8.055 Y15.138 E0.0188
G1 X5.756 Y17.437 E0.1081
G1 X5.191 Y17.437 E0.0188
G1 X8.055 Y14.572 E0.1347
G1 X8.055 Y14.006 E0.0188
G1 X4.625 Y17.437 E0.1613
G1 X4.059 Y17.437 E0.0188
G1 X8.055 Y13.441 E0.1880
G1 X8.055 Y12.875 E0.0188
G1 X3.494 Y17.437 E0.2146
G1 X2.928 Y17.437 E0.0188
G1 X8.055 Y12.309 E0.2412
G1 X8.055 Y11.744 E0.0188
G1 X2.362 Y17.437 E0.2678
G1 X1.797 Y17.437 E0.0188
G1 X8.055 Y11.178 E0.2944
G1 X8.055 Y10.612 E0.0188
G1 X1.231 Y17.437 E0.3210
G1 X0.665 Y17.437 E0.0188
G1 X8.055 Y10.047 E0.3476
G1 X8.055 Y9.481 E0.0188
G1 X0.100 Y17.437 E0.3742
G1 X-0.466 Y17.437 E0.0188
G1 X8.055 Y8.915 E0.4008
G1 X8.055 Y8.350 E0.0188
G1 X-1.032 Y17.437 E0.4274
G1 X-1.597 Y17.437 E0.0188
G1 X8.055 Y7.784 E0.4540
G1 X8.055 Y7.218 E0.0188
G1 X-2.163 Y17.437 E0.4806
G1 X-2.729 Y17.437 E0.0188
G1 X8.055 Y6.653 E0.5073
G1 X8.055 Y6.087 E0.0188
G1 X-3.295 Y17.437 E0.5339
G1 X-3.860 Y17.437 E0.0188
G1 X8.055 Y5.521 E0.5605
G1 X8.055 Y4.956 E0.0188
G1 X-4.426 Y17.437 E0.5871
G1 X-4.992 Y17.437 E0.0188
G1 X8.055 Y4.390 E0.6137
G1 X8.055 Y3.824 E0.0188
G1 X-5.557 Y17.437 E0.6403
G1 X-6.123 Y17.437 E0.0188
G1 X8.055 Y3.258 E0.6669
G1 X8.055 Y2.693 E0.0188
G1 X-6.689 Y17.437 E0.6935
G1 X-7.254 Y17.437 E0.0188
G1 X8.055 Y2.127 E0.7201
G1 X8.055 Y1.561 E0.0188
G1 X-7.820 Y17.437 E0.7467
G1 X-8.055 Y17.437 E0.0078
G1 X-8.055 Y17.106 E0.0110
G1 X8.055 Y0.996 E0.7578
G1 X8.055 Y0.430 E0.0188
G1 X-8.055 Y16.541 E0.7578
G1 X-8.055 Y15.975 E0.0188
G1 X8.055 Y-0.136 E0.7578
G1 X8.055 Y-0.701 E0.0188
G1 X-8.055 Y15.409 E0.7578
G1 X-8.055 Y14.844 E0.0188
G1 X8.055 Y-1.267 E0.7578
G1 X8.055 Y-1.833 E0.0188
G1 X-8.055 Y14.278 E0.7578
G1 X-8.055 Y13.712 E0.0188
G1 X8.055 Y-2.398 E0.7578
G1 X8.055 Y-2.964 E0.0188
G1 X-8.055 Y13.146 E0.7578
G1 X-8.055 Y12.581 E0.0188
G1 X8.055 Y-3.530 E0.7578
G1 X8.055 Y-4.095 E0.0188
G1 X-8.055 Y12.015 E0.7578
G1 X-8.055 Y11.449 E0.0188
G1 X8.055 Y-4.661 E0.7578
G1 X8.055 Y-5.227 E0.0188
G1 X-8.055 Y10.884 E0.7578
G1 X-8.055 Y10.318 E0.0188
G1 X8.055 Y-5.793 E0.7578
G1 X8.055 Y-6.358 E0.0188
G1 X-8.055 Y9.752 E0.7578
G1 X-8.055 Y9.187 E0.0188
G1 X8.055 Y-6.924 E0.7578
G1 X8.055 Y-7.490 E0.0188
G1 X-8.055 Y8.621 E0.7578
G1 X-8.055 Y8.055 E0.0188
G1 X8.055 Y-8.055 E0.7578
G1 X8.055 Y-8.621 E0.0188
G1 X-8.055 Y7.490 E0.7578
G1 X-8.055 Y6.924 E0.0188
G1 X8.055 Y-9.187 E0.7578
G1 X8.055 Y-9.752 E0.0188
G1 X-8.055 Y6.358 E0.7578
G1 X-8.055 Y5.793 E0.0188
G1 X8.055 Y-10.318 E0.7578
G1 X8.055 Y-10.884 E0.0188
G1 X-8.055 Y5.227 E0.7578
G1 X-8.055 Y4.661 E0.0188
G1 X8.055 Y-11.449 E0.7578
G1 X8.055 Y-12.015 E0.0188
G1 X-8.055 Y4.096 E0.7578
G1 X-8.055 Y3.530 E0.0188
G1 X8.055 Y-12.581 E0.7578
G1 X8.055 Y-13.146 E0.0188
G1 X-8.055 Y2.964 E0.7578
G1 X-8.055 Y2.398 E0.0188
G1 X8.055 Y-13.712 E0.7578
G1 X8.055 Y-14.278 E0.0188
G1 X-8.055 Y1.833 E0.7578
G1 X-8.055 Y1.267 E0.0188
G1 X8.055 Y-14.843 E0.7578
G1 X8.055 Y-15.409 E0.0188
G1 X-8.055 Y0.701 E0.7578
G1 X-8.055 Y0.136 E0.0188
G1 X8.055 Y-15.975 E0.7578
G1 X8.055 Y-16.541 E0.0188
G1 X-8.055 Y-0.430 E0.7578
G1 X-8.055 Y-0.996 E0.0188
G1 X8.055 Y-17.106 E0.7578
G1 X8.055 Y-17.437 E0.0110
G1 X7.820 Y-17.437 E0.0078
G1 X-8.055 Y-1.561 E0.7467
G1 X-8.055 Y-2.127 E0.0188
G1 X7.254 Y-17.437 E0.7201
G1 X6.689 Y-17.437 E0.0188
G1 X-8.055 Y-2.693 E0.6935
G1 X-8.055 Y-3.258 E0.0188
G1 X6.123 Y-17.437 E0.6669
