; G-Code generated by Simplify3D(R) Version 4.1.2
; Apr 6, 2020 at 11:36:25 AM
; Settings Summary
;   processName,Process1
;   applyToModels,D20Base
;   profileName,MakerBot Replicator 2 HBP (modified)
;   profileVersion,2020-03-12 10:48:50
;   baseProfile,MakerBot Replicator 2(2)
;   printMaterial,PLA
;   printQuality,Medium
;   printExtruders,
;   extruderName,Primary Extruder
;   extruderToolheadNumber,0
;   extruderDiameter,0.4
;   extruderAutoWidth,0
;   extruderWidth,0.4
;   extrusionMultiplier,1
;   extruderUseRetract,1
;   extruderRetractionDistance,1.9
;   extruderExtraRestartDistance,0
;   extruderRetractionZLift,0.5
;   extruderRetractionSpeed,1200
;   extruderUseCoasting,0
;   extruderCoastingDistance,0.2
;   extruderUseWipe,0
;   extruderWipeDistance,5
;   primaryExtruder,0
;   layerHeight,0.2
;   topSolidLayers,3
;   bottomSolidLayers,3
;   perimeterOutlines,2
;   printPerimetersInsideOut,1
;   startPointOption,3
;   startPointOriginX,0
;   startPointOriginY,150
;   sequentialIslands,0
;   spiralVaseMode,0
;   firstLayerHeightPercentage,100
;   firstLayerWidthPercentage,115
;   firstLayerUnderspeed,0.5
;   useRaft,0
;   raftExtruder,0
;   raftTopLayers,2
;   raftBaseLayers,1
;   raftOffset,1
;   raftSeparationDistance,0.14
;   raftTopInfill,90
;   aboveRaftSpeedMultiplier,0.3
;   useSkirt,0
;   skirtExtruder,0
;   skirtLayers,1
;   skirtOutlines,5
;   skirtOffset,0
;   usePrimePillar,0
;   primePillarExtruder,999
;   primePillarWidth,12
;   primePillarLocation,7
;   primePillarSpeedMultiplier,1
;   useOozeShield,0
;   oozeShieldExtruder,999
;   oozeShieldOffset,2
;   oozeShieldOutlines,1
;   oozeShieldSidewallShape,1
;   oozeShieldSidewallAngle,30
;   oozeShieldSpeedMultiplier,1
;   infillExtruder,0
;   internalInfillPattern,Rectilinear
;   externalInfillPattern,Rectilinear
;   infillPercentage,15
;   outlineOverlapPercentage,25
;   infillExtrusionWidthPercentage,100
;   minInfillLength,5
;   infillLayerInterval,1
;   internalInfillAngles,45,-45
;   overlapInternalInfillAngles,0
;   externalInfillAngles,45,-45
;   generateSupport,0
;   supportExtruder,0
;   supportInfillPercentage,5
;   supportExtraInflation,0.5
;   supportBaseLayers,0
;   denseSupportExtruder,0
;   denseSupportLayers,2
;   denseSupportInfillPercentage,90
;   supportLayerInterval,1
;   supportHorizontalPartOffset,0.3
;   supportUpperSeparationLayers,1
;   supportLowerSeparationLayers,1
;   supportType,1
;   supportGridSpacing,2
;   maxOverhangAngle,45
;   supportAngles,45,-45
;   temperatureName,Primary Extruder,Heated Build Platform
;   temperatureNumber,0,0
;   temperatureSetpointCount,1,1
;   temperatureSetpointLayers,1,1
;   temperatureSetpointTemperatures,230,60
;   temperatureStabilizeAtStartup,1,1
;   temperatureHeatedBed,0,1
;   fanLayers,1,2
;   fanSpeeds,0,100
;   blipFanToFullPower,1
;   adjustSpeedForCooling,1
;   minSpeedLayerTime,15
;   minCoolingSpeedSlowdown,20
;   increaseFanForCooling,1
;   minFanLayerTime,45
;   maxCoolingFanSpeed,100
;   increaseFanForBridging,1
;   bridgingFanSpeed,100
;   use5D,1
;   relativeEdistances,1
;   allowEaxisZeroing,0
;   independentExtruderAxes,1
;   includeM10123,0
;   stickySupport,1
;   applyToolheadOffsets,0
;   gcodeXoffset,0
;   gcodeYoffset,0
;   gcodeZoffset,0
;   overrideMachineDefinition,1
;   machineTypeOverride,0
;   strokeXoverride,280
;   strokeYoverride,150
;   strokeZoverride,150
;   originOffsetXoverride,140
;   originOffsetYoverride,75
;   originOffsetZoverride,0
;   homeXdirOverride,1
;   homeYdirOverride,1
;   homeZdirOverride,-1
;   flipXoverride,1
;   flipYoverride,-1
;   flipZoverride,1
;   toolheadOffsets,0,0|0,0|0,0|0,0|0,0|0,0
;   overrideFirmwareConfiguration,1
;   firmwareTypeOverride,MakerBot/Sailfish Firmware
;   GPXconfigOverride,r2h
;   baudRateOverride,115200
;   overridePrinterModels,1
;   printerModelsOverride,MakerBot_Replicator2.stl
;   startingGcode,; **** Replicator 2 start.gcode ****,M73 P0 ; enable build progress,G162 X Y F3000 ; home XY maximum,G161 Z F1200 ; home Z minimum,G92 Z-5 ; set Z to -5,G1 Z0 ; move Z to 0,G161 Z F100 ; home Z slowly,M132 X Y Z A B ; recall home offsets,G1 X-145 Y-75 Z30 F9000 ; move to wait position off table,G130 X20 Y20 Z20 A20 B20 ; lower stepper Vrefs while heating,M126 S[fan_speed_pwm],M140 S[bed0_temperature] T0,M134 T0 ; stabilize bed temperature,M104 S[extruder0_temperature] T0,M133 T0 ; stabilize extruder temperature,G130 X127 Y127 Z40 A127 B127 ; default stepper Vrefs,G92 A0 ; zero extruder,G1 Z0.4 ; position nozzle,G1 E25 F300 ; purge nozzle,G1 X-140 Y-70 Z0.15 F1200 ; slow wipe,G1 X-135 Y-65 Z0.5 F1200 ; lift,G92 A0 ; zero extruder,M73 P1 ;@body (notify GPX body has started),; **** end of start.gcode ****
;   layerChangeGcode,
;   retractionGcode,
;   toolChangeGcode,
;   endingGcode,; **** Replicator 2 end.gcode ****,M73 P100 ; end build progress,G1 Z155 F1000 ; send Z axis to bottom of machine,M104 S0 T0 ; cool down extruder,M140 S0 T0 ; cool down HBP,M127 ; stop blower fan,G162 X Y F3000 ; home XY maximum,M18 ; disable stepper,M0 ; stop codes,M72 P1 ; play Ta-Da song,; **** end of end.gcode ****
;   exportFileFormat,gcode
;   celebration,0
;   celebrationSong,Random Song
;   postProcessing,
;   defaultSpeed,4800
;   outlineUnderspeed,0.5
;   solidInfillUnderspeed,1
;   supportUnderspeed,1
;   rapidXYspeed,9000
;   rapidZspeed,1200
;   minBridgingArea,50
;   bridgingExtraInflation,0
;   bridgingExtrusionMultiplier,1
;   bridgingSpeedMultiplier,0.8
;   useFixedBridgingAngle,0
;   fixedBridgingAngle,0
;   applyBridgingToPerimeters,0
;   filamentDiameters,1.75|1.75|1.75|1.75|1.75|1.75
;   filamentPricesPerKg,46|46|46|46|46|46
;   filamentDensities,1.25|1.25|1.25|1.25|1.25|1.25
;   useMinPrintHeight,0
;   minPrintHeight,0
;   useMaxPrintHeight,0
;   maxPrintHeight,4.84
;   useDiaphragm,0
;   diaphragmLayerInterval,20
;   robustSlicing,1
;   mergeAllIntoSolid,0
;   onlyRetractWhenCrossingOutline,0
;   retractBetweenLayers,0
;   useRetractionMinTravel,1
;   retractionMinTravel,7
;   retractWhileWiping,1
;   onlyWipeOutlines,1
;   avoidCrossingOutline,0
;   maxMovementDetourFactor,3
;   toolChangeRetractionDistance,12
;   toolChangeExtraRestartDistance,-0.5
;   toolChangeRetractionSpeed,600
;   externalThinWallType,0
;   internalThinWallType,0
;   thinWallAllowedOverlapPercentage,10
;   singleExtrusionMinLength,1
;   singleExtrusionMinPrintingWidthPercentage,50
;   singleExtrusionMaxPrintingWidthPercentage,200
;   singleExtrusionEndpointExtension,0.2
;   horizontalSizeCompensation,0
G90
M83
; **** Replicator 2 start.gcode ****
M73 P0 ; enable build progress
G162 X Y F3000 ; home XY maximum
G161 Z F1200 ; home Z minimum
G92 Z-5 ; set Z to -5
G1 Z0 ; move Z to 0
G161 Z F100 ; home Z slowly
M132 X Y Z A B ; recall home offsets
G1 X-145 Y-75 Z30 F9000 ; move to wait position off table
G130 X20 Y20 Z20 A20 B20 ; lower stepper Vrefs while heating
M127
M140 S60 T0
M134 T0 ; stabilize bed temperature
M104 S230 T0
M133 T0 ; stabilize extruder temperature
G130 X127 Y127 Z40 A127 B127 ; default stepper Vrefs
G92 A0 ; zero extruder
G1 Z0.4 ; position nozzle
G1 E25 F300 ; purge nozzle
G1 X-140 Y-70 Z0.15 F1200 ; slow wipe
G1 X-135 Y-65 Z0.5 F1200 ; lift
G92 A0 ; zero extruder
M73 P1 ;@body (notify GPX body has started)
; **** end of start.gcode ****
; process Process1
; layer 1, Z = 0.200
M135 T0
G1 E-1.9000 F1200
; feature inner perimeter
; tool H0.200 W0.460
G1 Z0.500 F1200
G1 X28.310 Y34.310 F9000
G1 Z0.200 F1200
G1 E1.9000 F1200
G1 X-28.310 Y34.310 E2.1657 F1800
G1 X-28.310 Y-34.310 E2.6247
G1 X28.310 Y-34.310 E2.1657
G1 X28.310 Y34.310 E2.6247
; feature outer perimeter
G1 X28.770 Y34.770 F9000
G1 X-28.770 Y34.770 E2.2009 F1200
G1 X-28.770 Y-34.770 E2.6598
G1 X28.770 Y-34.770 E2.2009
G1 X28.770 Y34.770 E2.6598
G1 E-1.9000 F1200
; feature inner perimeter
G1 Z0.700 F1200
G1 X15.518 Y9.256 F9000
G1 Z0.200 F1200
G1 E1.9000 F1200
G1 X0.079 Y-6.225 E0.8363 F1800
G1 X-5.608 Y14.886 E0.8363
G1 X15.518 Y9.256 E0.8363
; feature outer perimeter
G1 X14.630 Y9.017 F9000
G1 X0.316 Y-5.336 E0.7753 F1200
G1 X-4.957 Y14.237 E0.7753
G1 X14.630 Y9.017 E0.7753
G1 E-1.9000 F1200
; feature inner perimeter
G1 Z0.700 F1200
G1 X9.822 Y-14.117 F9000
G1 Z0.200 F1200
G1 E1.9000 F1200
G1 X10.374 Y-14.284 E0.0221 F1800
G1 X10.883 Y-14.556 E0.0221
G1 X11.329 Y-14.922 E0.0221
G1 X11.695 Y-15.369 E0.0221
G1 X11.967 Y-15.877 E0.0221
G1 X12.135 Y-16.430 E0.0221
G1 X12.191 Y-17.004 E0.0221
G1 X12.135 Y-17.578 E0.0221
G1 X11.967 Y-18.130 E0.0221
G1 X11.695 Y-18.639 E0.0221
G1 X11.329 Y-19.085 E0.0221
G1 X10.883 Y-19.451 E0.0221
G1 X10.374 Y-19.723 E0.0221
G1 X9.822 Y-19.891 E0.0221
G1 X9.248 Y-19.947 E0.0221
G1 X8.674 Y-19.891 E0.0221
G1 X8.122 Y-19.723 E0.0221
G1 X7.613 Y-19.451 E0.0221
G1 X7.167 Y-19.085 E0.0221
G1 X6.801 Y-18.639 E0.0221
G1 X6.529 Y-18.130 E0.0221
G1 X6.361 Y-17.578 E0.0221
G1 X6.305 Y-17.004 E0.0221
G1 X6.358 Y-16.459 E0.0209
G1 X6.527 Y-15.881 E0.0230
G1 X6.801 Y-15.369 E0.0222
G1 X7.167 Y-14.922 E0.0221
G1 X7.613 Y-14.556 E0.0221
G1 X8.122 Y-14.284 E0.0221
G1 X8.674 Y-14.117 E0.0221
G1 X9.248 Y-14.060 E0.0221
G1 X9.822 Y-14.117 E0.0221
; feature outer perimeter
G1 X9.732 Y-14.570 F9000
G1 X10.198 Y-14.711 E0.0186 F1200
G1 X10.627 Y-14.941 E0.0186
G1 X11.002 Y-15.249 E0.0186
G1 X11.311 Y-15.625 E0.0186
G1 X11.540 Y-16.054 E0.0186
G1 X11.681 Y-16.520 E0.0186
G1 X11.729 Y-17.004 E0.0186
G1 X11.681 Y-17.488 E0.0186
G1 X11.540 Y-17.953 E0.0186
G1 X11.311 Y-18.382 E0.0186
G1 X11.002 Y-18.758 E0.0186
G1 X10.627 Y-19.067 E0.0186
G1 X10.198 Y-19.296 E0.0186
G1 X9.732 Y-19.437 E0.0186
G1 X9.248 Y-19.485 E0.0186
G1 X8.764 Y-19.437 E0.0186
G1 X8.299 Y-19.296 E0.0186
G1 X7.870 Y-19.067 E0.0186
G1 X7.494 Y-18.758 E0.0186
G1 X7.185 Y-18.382 E0.0186
G1 X6.956 Y-17.953 E0.0186
G1 X6.815 Y-17.488 E0.0186
G1 X6.767 Y-17.004 E0.0186
G1 X6.812 Y-16.546 E0.0176
G1 X6.955 Y-16.055 E0.0196
G1 X7.185 Y-15.625 E0.0187
G1 X7.494 Y-15.249 E0.0186
G1 X7.870 Y-14.941 E0.0186
G1 X8.299 Y-14.711 E0.0186
G1 X8.764 Y-14.570 E0.0186
G1 X9.248 Y-14.523 E0.0186
G1 X9.732 Y-14.570 E0.0186
G1 E-1.9000 F1200
; feature inner perimeter
G1 Z0.700 F1200
G1 X-20.522 Y-27.616 F9000
G1 Z0.200 F1200
G1 E1.9000 F1200
G1 X-20.355 Y-28.168 E0.0221 F1800
G1 X-20.298 Y-28.742 E0.0221
G1 X-20.352 Y-29.287 E0.0209
G1 X-20.520 Y-29.865 E0.0230
G1 X-20.794 Y-30.378 E0.0222
G1 X-21.160 Y-30.824 E0.0221
G1 X-21.606 Y-31.190 E0.0221
G1 X-22.115 Y-31.462 E0.0221
G1 X-22.667 Y-31.629 E0.0221
G1 X-23.241 Y-31.686 E0.0221
G1 X-23.816 Y-31.629 E0.0221
G1 X-24.368 Y-31.462 E0.0221
G1 X-24.877 Y-31.190 E0.0221
G1 X-25.323 Y-30.824 E0.0221
G1 X-25.689 Y-30.378 E0.0221
G1 X-25.961 Y-29.869 E0.0221
G1 X-26.128 Y-29.317 E0.0221
G1 X-26.185 Y-28.742 E0.0221
G1 X-26.128 Y-28.168 E0.0221
G1 X-25.961 Y-27.616 E0.0221
G1 X-25.689 Y-27.107 E0.0221
G1 X-25.323 Y-26.661 E0.0221
G1 X-24.877 Y-26.295 E0.0221
G1 X-24.368 Y-26.023 E0.0221
G1 X-23.816 Y-25.856 E0.0221
G1 X-23.241 Y-25.799 E0.0221
G1 X-22.667 Y-25.856 E0.0221
G1 X-22.115 Y-26.023 E0.0221
G1 X-21.606 Y-26.295 E0.0221
G1 X-21.160 Y-26.661 E0.0221
G1 X-20.794 Y-27.107 E0.0221
G1 X-20.522 Y-27.616 E0.0221
; feature outer perimeter
G1 X-20.949 Y-27.793 F9000
G1 X-20.808 Y-28.258 E0.0186 F1200
G1 X-20.760 Y-28.742 E0.0186
G1 X-20.805 Y-29.200 E0.0176
G1 X-20.949 Y-29.691 E0.0196
G1 X-21.178 Y-30.121 E0.0187
G1 X-21.487 Y-30.497 E0.0186
G1 X-21.863 Y-30.805 E0.0186
G1 X-22.292 Y-31.035 E0.0186
G1 X-22.757 Y-31.176 E0.0186
G1 X-23.241 Y-31.223 E0.0186
G1 X-23.725 Y-31.176 E0.0186
G1 X-24.191 Y-31.035 E0.0186
G1 X-24.620 Y-30.805 E0.0186
G1 X-24.996 Y-30.497 E0.0186
G1 X-25.304 Y-30.121 E0.0186
G1 X-25.534 Y-29.692 E0.0186
G1 X-25.675 Y-29.226 E0.0186
G1 X-25.722 Y-28.742 E0.0186
G1 X-25.675 Y-28.258 E0.0186
G1 X-25.534 Y-27.793 E0.0186
G1 X-25.304 Y-27.364 E0.0186
G1 X-24.996 Y-26.988 E0.0186
G1 X-24.620 Y-26.679 E0.0186
G1 X-24.191 Y-26.450 E0.0186
G1 X-23.725 Y-26.309 E0.0186
G1 X-23.241 Y-26.261 E0.0186
G1 X-22.757 Y-26.309 E0.0186
G1 X-22.292 Y-26.450 E0.0186
G1 X-21.863 Y-26.679 E0.0186
G1 X-21.487 Y-26.988 E0.0186
G1 X-21.178 Y-27.364 E0.0186
G1 X-20.949 Y-27.793 E0.0186
G1 E-1.9000 F1200
; feature inner perimeter
G1 Z0.700 F1200
G1 X-23.241 Y3.310 F9000
G1 Z0.200 F1200
G1 E1.9000 F1200
G1 X-23.816 Y3.366 E0.0221 F1800
G1 X-24.368 Y3.534 E0.0221
G1 X-24.877 Y3.806 E0.0221
G1 X-25.323 Y4.172 E0.0221
G1 X-25.689 Y4.618 E0.0221
G1 X-25.961 Y5.126 E0.0221
G1 X-26.128 Y5.679 E0.0221
G1 X-26.185 Y6.253 E0.0221
G1 X-26.128 Y6.827 E0.0221
G1 X-25.961 Y7.379 E0.0221
G1 X-25.689 Y7.888 E0.0221
G1 X-25.323 Y8.334 E0.0221
G1 X-24.877 Y8.700 E0.0221
G1 X-24.368 Y8.972 E0.0221
G1 X-23.816 Y9.140 E0.0221
G1 X-23.241 Y9.196 E0.0221
G1 X-22.667 Y9.140 E0.0221
G1 X-22.115 Y8.972 E0.0221
G1 X-21.606 Y8.700 E0.0221
G1 X-21.160 Y8.334 E0.0221
G1 X-20.794 Y7.888 E0.0221
G1 X-20.522 Y7.379 E0.0221
G1 X-20.355 Y6.827 E0.0221
G1 X-20.298 Y6.253 E0.0221
G1 X-20.352 Y5.708 E0.0209
G1 X-20.520 Y5.130 E0.0230
G1 X-20.794 Y4.618 E0.0222
G1 X-21.160 Y4.172 E0.0221
G1 X-21.606 Y3.806 E0.0221
G1 X-22.115 Y3.534 E0.0221
G1 X-22.667 Y3.366 E0.0221
G1 X-23.241 Y3.310 E0.0221
; feature outer perimeter
G1 X-23.241 Y3.772 F9000
G1 X-23.725 Y3.819 E0.0186 F1200
G1 X-24.191 Y3.961 E0.0186
G1 X-24.620 Y4.190 E0.0186
G1 X-24.996 Y4.498 E0.0186
G1 X-25.304 Y4.874 E0.0186
G1 X-25.534 Y5.303 E0.0186
G1 X-25.675 Y5.769 E0.0186
G1 X-25.722 Y6.253 E0.0186
G1 X-25.675 Y6.737 E0.0186
G1 X-25.534 Y7.202 E0.0186
G1 X-25.304 Y7.631 E0.0186
G1 X-24.996 Y8.007 E0.0186
G1 X-24.620 Y8.316 E0.0186
G1 X-24.191 Y8.545 E0.0186
G1 X-23.725 Y8.686 E0.0186
G1 X-23.241 Y8.734 E0.0186
G1 X-22.757 Y8.686 E0.0186
G1 X-22.292 Y8.545 E0.0186
G1 X-21.863 Y8.316 E0.0186
G1 X-21.487 Y8.007 E0.0186
G1 X-21.178 Y7.631 E0.0186
G1 X-20.949 Y7.202 E0.0186
G1 X-20.808 Y6.737 E0.0186
G1 X-20.760 Y6.253 E0.0186
G1 X-20.805 Y5.796 E0.0176
G1 X-20.949 Y5.304 E0.0196
G1 X-21.178 Y4.874 E0.0187
G1 X-21.487 Y4.498 E0.0186
G1 X-21.863 Y4.190 E0.0186
G1 X-22.292 Y3.961 E0.0186
G1 X-22.757 Y3.819 E0.0186
G1 X-23.241 Y3.772 E0.0186
; feature solid layer
G1 X-20.128 Y5.243 F9000
G1 X8.594 Y33.965 E1.5536 F2400
G1 X7.943 Y33.965 E0.0249
G1 X-19.971 Y6.050 E1.5100
G1 X-19.951 Y6.253 E0.0078
G1 X-19.993 Y6.679 E0.0164
G1 X7.293 Y33.965 E1.4760
G1 X6.642 Y33.965 E0.0249
G1 X-20.111 Y7.212 E1.4471
G1 X-20.202 Y7.512 E0.0120
G1 X-20.292 Y7.681 E0.0073
G1 X5.992 Y33.965 E1.4218
G1 X5.341 Y33.965 E0.0249
G1 X-20.523 Y8.101 E1.3990
G1 X-20.816 Y8.458 E0.0177
G1 X4.691 Y33.965 E1.3797
G1 X4.040 Y33.965 E0.0249
G1 X-21.151 Y8.773 E1.3627
G1 X-21.414 Y8.988 E0.0130
G1 X-21.526 Y9.049 E0.0049
G1 X3.390 Y33.965 E1.3478
G1 X2.739 Y33.965 E0.0249
G1 X-21.950 Y9.275 E1.3355
G1 X-21.982 Y9.292 E0.0014
G1 X-22.444 Y9.432 E0.0184
G1 X2.089 Y33.965 E1.3270
G1 X1.438 Y33.965 E0.0249
G1 X-23.007 Y9.520 E1.3223
G1 X-23.241 Y9.543 E0.0090
G1 X-23.678 Y9.500 E0.0168
G1 X0.788 Y33.965 E1.3234
G1 X0.137 Y33.965 E0.0249
G1 X-24.576 Y9.252 E1.3368
G1 E-1.9000 F1200
G1 Z0.700 F1200
G1 X-5.581 Y15.236 F9000
G1 Z0.200 F1200
G1 E1.9000 F1200
G1 X13.148 Y33.965 E1.0131 F2400
G1 X13.798 Y33.965 E0.0249
G1 X-5.067 Y15.099 E1.0205
G1 X-4.554 Y14.962 E0.0203
G1 X14.449 Y33.965 E1.0279
G1 X15.099 Y33.965 E0.0249
G1 X-4.040 Y14.825 E1.0353
G1 X-3.526 Y14.689 E0.0203
G1 X15.750 Y33.965 E1.0427
G1 X16.400 Y33.965 E0.0249
G1 X-3.013 Y14.552 E1.0501
G1 X-2.499 Y14.415 E0.0203
G1 X17.051 Y33.965 E1.0575
G1 X17.702 Y33.965 E0.0249
G1 X-1.986 Y14.278 E1.0649
G1 X-1.472 Y14.141 E0.0203
G1 X18.352 Y33.965 E1.0723
G1 X19.003 Y33.965 E0.0249
G1 X-0.958 Y14.004 E1.0797
G1 X-0.445 Y13.867 E0.0203
G1 X19.653 Y33.965 E1.0871
G1 X20.304 Y33.965 E0.0249
G1 X0.069 Y13.730 E1.0945
G1 X0.583 Y13.593 E0.0203
G1 X20.954 Y33.965 E1.1019
G1 X21.605 Y33.965 E0.0249
G1 X1.096 Y13.457 E1.1094
G1 X1.610 Y13.320 E0.0203
G1 X22.255 Y33.965 E1.1168
G1 X22.906 Y33.965 E0.0249
G1 X2.124 Y13.183 E1.1242
G1 X2.637 Y13.046 E0.0203
G1 X23.556 Y33.965 E1.1316
G1 X24.207 Y33.965 E0.0249
G1 X3.151 Y12.909 E1.1390
G1 X3.665 Y12.772 E0.0203
G1 X24.857 Y33.965 E1.1464
G1 X25.508 Y33.965 E0.0249
