; G-Code generated by Simplify3D(R) Version 4.1.2
; Apr 6, 2020 at 11:33:53 AM
; Settings Summary
;   processName,Process1
;   applyToModels,DT Bank BracketV1R2
;   profileName,MakerBot Replicator 2 HBP (modified)
;   profileVersion,2020-03-12 10:48:50
;   baseProfile,MakerBot Replicator 2(2)
;   printMaterial,PLA
;   printQuality,Medium
;   printExtruders,
;   extruderName,Primary Extruder
;   extruderToolheadNumber,0
;   extruderDiameter,0.4
;   extruderAutoWidth,0
;   extruderWidth,0.4
;   extrusionMultiplier,1
;   extruderUseRetract,1
;   extruderRetractionDistance,1.9
;   extruderExtraRestartDistance,0
;   extruderRetractionZLift,0.5
;   extruderRetractionSpeed,1200
;   extruderUseCoasting,0
;   extruderCoastingDistance,0.2
;   extruderUseWipe,0
;   extruderWipeDistance,5
;   primaryExtruder,0
;   layerHeight,0.2
;   topSolidLayers,3
;   bottomSolidLayers,3
;   perimeterOutlines,2
;   printPerimetersInsideOut,1
;   startPointOption,3
;   startPointOriginX,0
;   startPointOriginY,150
;   sequentialIslands,0
;   spiralVaseMode,0
;   firstLayerHeightPercentage,100
;   firstLayerWidthPercentage,115
;   firstLayerUnderspeed,0.5
;   useRaft,0
;   raftExtruder,0
;   raftTopLayers,2
;   raftBaseLayers,1
;   raftOffset,1
;   raftSeparationDistance,0.14
;   raftTopInfill,90
;   aboveRaftSpeedMultiplier,0.3
;   useSkirt,0
;   skirtExtruder,0
;   skirtLayers,1
;   skirtOutlines,5
;   skirtOffset,0
;   usePrimePillar,0
;   primePillarExtruder,999
;   primePillarWidth,12
;   primePillarLocation,7
;   primePillarSpeedMultiplier,1
;   useOozeShield,0
;   oozeShieldExtruder,999
;   oozeShieldOffset,2
;   oozeShieldOutlines,1
;   oozeShieldSidewallShape,1
;   oozeShieldSidewallAngle,30
;   oozeShieldSpeedMultiplier,1
;   infillExtruder,0
;   internalInfillPattern,Rectilinear
;   externalInfillPattern,Rectilinear
;   infillPercentage,15
;   outlineOverlapPercentage,25
;   infillExtrusionWidthPercentage,100
;   minInfillLength,5
;   infillLayerInterval,1
;   internalInfillAngles,45,-45
;   overlapInternalInfillAngles,0
;   externalInfillAngles,45,-45
;   generateSupport,0
;   supportExtruder,0
;   supportInfillPercentage,5
;   supportExtraInflation,0.5
;   supportBaseLayers,0
;   denseSupportExtruder,0
;   denseSupportLayers,2
;   denseSupportInfillPercentage,90
;   supportLayerInterval,1
;   supportHorizontalPartOffset,0.3
;   supportUpperSeparationLayers,1
;   supportLowerSeparationLayers,1
;   supportType,1
;   supportGridSpacing,2
;   maxOverhangAngle,45
;   supportAngles,45,-45
;   temperatureName,Primary Extruder,Heated Build Platform
;   temperatureNumber,0,0
;   temperatureSetpointCount,1,1
;   temperatureSetpointLayers,1,1
;   temperatureSetpointTemperatures,230,60
;   temperatureStabilizeAtStartup,1,1
;   temperatureHeatedBed,0,1
;   fanLayers,1,2
;   fanSpeeds,0,100
;   blipFanToFullPower,1
;   adjustSpeedForCooling,1
;   minSpeedLayerTime,15
;   minCoolingSpeedSlowdown,20
;   increaseFanForCooling,1
;   minFanLayerTime,45
;   maxCoolingFanSpeed,100
;   increaseFanForBridging,1
;   bridgingFanSpeed,100
;   use5D,1
;   relativeEdistances,1
;   allowEaxisZeroing,0
;   independentExtruderAxes,1
;   includeM10123,0
;   stickySupport,1
;   applyToolheadOffsets,0
;   gcodeXoffset,0
;   gcodeYoffset,0
;   gcodeZoffset,0
;   overrideMachineDefinition,1
;   machineTypeOverride,0
;   strokeXoverride,280
;   strokeYoverride,150
;   strokeZoverride,150
;   originOffsetXoverride,140
;   originOffsetYoverride,75
;   originOffsetZoverride,0
;   homeXdirOverride,1
;   homeYdirOverride,1
;   homeZdirOverride,-1
;   flipXoverride,1
;   flipYoverride,-1
;   flipZoverride,1
;   toolheadOffsets,0,0|0,0|0,0|0,0|0,0|0,0
;   overrideFirmwareConfiguration,1
;   firmwareTypeOverride,MakerBot/Sailfish Firmware
;   GPXconfigOverride,r2h
;   baudRateOverride,115200
;   overridePrinterModels,1
;   printerModelsOverride,MakerBot_Replicator2.stl
;   startingGcode,; **** Replicator 2 start.gcode ****,M73 P0 ; enable build progress,G162 X Y F3000 ; home XY maximum,G161 Z F1200 ; home Z minimum,G92 Z-5 ; set Z to -5,G1 Z0 ; move Z to 0,G161 Z F100 ; home Z slowly,M132 X Y Z A B ; recall home offsets,G1 X-145 Y-75 Z30 F9000 ; move to wait position off table,G130 X20 Y20 Z20 A20 B20 ; lower stepper Vrefs while heating,M126 S[fan_speed_pwm],M140 S[bed0_temperature] T0,M134 T0 ; stabilize bed temperature,M104 S[extruder0_temperature] T0,M133 T0 ; stabilize extruder temperature,G130 X127 Y127 Z40 A127 B127 ; default stepper Vrefs,G92 A0 ; zero extruder,G1 Z0.4 ; position nozzle,G1 E25 F300 ; purge nozzle,G1 X-140 Y-70 Z0.15 F1200 ; slow wipe,G1 X-135 Y-65 Z0.5 F1200 ; lift,G92 A0 ; zero extruder,M73 P1 ;@body (notify GPX body has started),; **** end of start.gcode ****
;   layerChangeGcode,
;   retractionGcode,
;   toolChangeGcode,
;   endingGcode,; **** Replicator 2 end.gcode ****,M73 P100 ; end build progress,G1 Z155 F1000 ; send Z axis to bottom of machine,M104 S0 T0 ; cool down extruder,M140 S0 T0 ; cool down HBP,M127 ; stop blower fan,G162 X Y F3000 ; home XY maximum,M18 ; disable stepper,M0 ; stop codes,M72 P1 ; play Ta-Da song,; **** end of end.gcode ****
;   exportFileFormat,gcode
;   celebration,0
;   celebrationSong,Random Song
;   postProcessing,
;   defaultSpeed,4800
;   outlineUnderspeed,0.5
;   solidInfillUnderspeed,1
;   supportUnderspeed,1
;   rapidXYspeed,9000
;   rapidZspeed,1200
;   minBridgingArea,50
;   bridgingExtraInflation,0
;   bridgingExtrusionMultiplier,1
;   bridgingSpeedMultiplier,0.8
;   useFixedBridgingAngle,0
;   fixedBridgingAngle,0
;   applyBridgingToPerimeters,0
;   filamentDiameters,1.75|1.75|1.75|1.75|1.75|1.75
;   filamentPricesPerKg,46|46|46|46|46|46
;   filamentDensities,1.25|1.25|1.25|1.25|1.25|1.25
;   useMinPrintHeight,0
;   minPrintHeight,0
;   useMaxPrintHeight,0
;   maxPrintHeight,4.84
;   useDiaphragm,0
;   diaphragmLayerInterval,20
;   robustSlicing,1
;   mergeAllIntoSolid,0
;   onlyRetractWhenCrossingOutline,0
;   retractBetweenLayers,0
;   useRetractionMinTravel,1
;   retractionMinTravel,7
;   retractWhileWiping,1
;   onlyWipeOutlines,1
;   avoidCrossingOutline,0
;   maxMovementDetourFactor,3
;   toolChangeRetractionDistance,12
;   toolChangeExtraRestartDistance,-0.5
;   toolChangeRetractionSpeed,600
;   externalThinWallType,0
;   internalThinWallType,0
;   thinWallAllowedOverlapPercentage,10
;   singleExtrusionMinLength,1
;   singleExtrusionMinPrintingWidthPercentage,50
;   singleExtrusionMaxPrintingWidthPercentage,200
;   singleExtrusionEndpointExtension,0.2
;   horizontalSizeCompensation,0
G90
M83
; **** Replicator 2 start.gcode ****
M73 P0 ; enable build progress
G162 X Y F3000 ; home XY maximum
G161 Z F1200 ; home Z minimum
G92 Z-5 ; set Z to -5
G1 Z0 ; move Z to 0
G161 Z F100 ; home Z slowly
M132 X Y Z A B ; recall home offsets
G1 X-145 Y-75 Z30 F9000 ; move to wait position off table
G130 X20 Y20 Z20 A20 B20 ; lower stepper Vrefs while heating
M127
M140 S60 T0
M134 T0 ; stabilize bed temperature
M104 S230 T0
M133 T0 ; stabilize extruder temperature
G130 X127 Y127 Z40 A127 B127 ; default stepper Vrefs
G92 A0 ; zero extruder
G1 Z0.4 ; position nozzle
G1 E25 F300 ; purge nozzle
G1 X-140 Y-70 Z0.15 F1200 ; slow wipe
G1 X-135 Y-65 Z0.5 F1200 ; lift
G92 A0 ; zero extruder
M73 P1 ;@body (notify GPX body has started)
; **** end of start.gcode ****
; process Process1
; layer 1, Z = 0.200
M135 T0
G1 E-1.9000 F1200
; feature inner perimeter
; tool H0.200 W0.460
G1 Z0.500 F1200
G1 X50.299 Y3.956 F9000
G1 Z0.200 F1200
G1 E1.9000 F1200
G1 X44.219 Y-2.540 E0.3403 F1800
G1 X-44.219 Y-2.540 E3.3827
G1 X-50.299 Y3.956 E0.3403
G1 X-68.716 Y3.956 E0.7044
G1 X-68.716 Y-3.956 E0.3026
G1 X68.716 Y-3.956 E5.2566
G1 X68.716 Y3.956 E0.3026
G1 X50.299 Y3.956 E0.7044
; feature outer perimeter
G1 X50.100 Y4.416 F9000
G1 X44.020 Y-2.080 E0.3403 F1200
G1 X-44.020 Y-2.080 E3.3674
G1 X-50.100 Y4.416 E0.3403
G1 X-69.176 Y4.416 E0.7296
G1 X-69.176 Y-4.416 E0.3378
G1 X69.176 Y-4.416 E5.2918
G1 X69.176 Y4.416 E0.3378
G1 X50.100 Y4.416 E0.7296
G1 E-1.9000 F1200
; feature inner perimeter
G1 Z0.700 F1200
G1 X61.378 Y0.721 F9000
G1 Z0.200 F1200
G1 E1.9000 F1200
G1 X61.588 Y1.413 E0.0277 F1800
G1 X61.929 Y2.052 E0.0277
G1 X62.388 Y2.612 E0.0277
G1 X62.948 Y3.071 E0.0277
G1 X63.587 Y3.412 E0.0277
G1 X64.279 Y3.622 E0.0277
G1 X65.000 Y3.693 E0.0277
G1 X65.721 Y3.622 E0.0277
G1 X66.413 Y3.412 E0.0277
G1 X67.052 Y3.071 E0.0277
G1 X67.612 Y2.612 E0.0277
G1 X68.071 Y2.052 E0.0277
G1 X68.412 Y1.413 E0.0277
G1 X68.622 Y0.721 E0.0277
G1 X68.693 Y0.000 E0.0277
G1 X68.622 Y-0.721 E0.0277
G1 X68.412 Y-1.413 E0.0277
G1 X68.071 Y-2.052 E0.0277
G1 X67.612 Y-2.612 E0.0277
G1 X67.052 Y-3.071 E0.0277
G1 X66.413 Y-3.412 E0.0277
G1 X65.721 Y-3.622 E0.0277
G1 X65.000 Y-3.693 E0.0277
G1 X64.279 Y-3.622 E0.0277
G1 X63.587 Y-3.412 E0.0277
G1 X62.948 Y-3.071 E0.0277
G1 X62.388 Y-2.612 E0.0277
G1 X61.929 Y-2.052 E0.0277
G1 X61.588 Y-1.413 E0.0277
G1 X61.378 Y-0.721 E0.0277
G1 X61.307 Y0.000 E0.0277
G1 X61.378 Y0.721 E0.0277
; feature outer perimeter
G1 X61.831 Y0.630 F9000
G1 X62.015 Y1.236 E0.0242 F1200
G1 X62.313 Y1.795 E0.0242
G1 X62.715 Y2.285 E0.0242
G1 X63.205 Y2.687 E0.0242
G1 X63.763 Y2.985 E0.0242
G1 X64.370 Y3.169 E0.0242
G1 X65.000 Y3.231 E0.0242
G1 X65.630 Y3.169 E0.0242
G1 X66.236 Y2.985 E0.0242
G1 X66.795 Y2.687 E0.0242
G1 X67.285 Y2.285 E0.0242
G1 X67.687 Y1.795 E0.0242
G1 X67.985 Y1.236 E0.0242
G1 X68.169 Y0.630 E0.0242
G1 X68.231 Y0.000 E0.0242
G1 X68.169 Y-0.630 E0.0242
G1 X67.985 Y-1.236 E0.0242
G1 X67.687 Y-1.795 E0.0242
G1 X67.285 Y-2.285 E0.0242
G1 X66.795 Y-2.687 E0.0242
G1 X66.236 Y-2.985 E0.0242
G1 X65.630 Y-3.169 E0.0242
G1 X65.000 Y-3.231 E0.0242
G1 X64.370 Y-3.169 E0.0242
G1 X63.763 Y-2.985 E0.0242
G1 X63.205 Y-2.687 E0.0242
G1 X62.715 Y-2.285 E0.0242
G1 X62.313 Y-1.795 E0.0242
G1 X62.015 Y-1.236 E0.0242
G1 X61.831 Y-0.630 E0.0242
G1 X61.769 Y0.000 E0.0242
G1 X61.831 Y0.630 E0.0242
G1 E-1.9000 F1200
; feature inner perimeter
G1 Z0.700 F1200
G1 X-61.307 Y0.000 F9000
G1 Z0.200 F1200
G1 E1.9000 F1200
G1 X-61.378 Y-0.721 E0.0277 F1800
G1 X-61.588 Y-1.413 E0.0277
G1 X-61.929 Y-2.052 E0.0277
G1 X-62.388 Y-2.612 E0.0277
G1 X-62.948 Y-3.071 E0.0277
G1 X-63.587 Y-3.412 E0.0277
G1 X-64.279 Y-3.622 E0.0277
G1 X-65.000 Y-3.693 E0.0277
G1 X-65.688 Y-3.626 E0.0264
G1 X-66.410 Y-3.414 E0.0288
G1 X-67.052 Y-3.071 E0.0278
G1 X-67.612 Y-2.612 E0.0277
G1 X-68.071 Y-2.052 E0.0277
G1 X-68.412 Y-1.413 E0.0277
G1 X-68.622 Y-0.721 E0.0277
G1 X-68.693 Y0.000 E0.0277
G1 X-68.622 Y0.721 E0.0277
G1 X-68.412 Y1.413 E0.0277
G1 X-68.071 Y2.052 E0.0277
G1 X-67.612 Y2.612 E0.0277
G1 X-67.052 Y3.071 E0.0277
G1 X-66.413 Y3.412 E0.0277
G1 X-65.721 Y3.622 E0.0277
G1 X-65.000 Y3.693 E0.0277
G1 X-64.279 Y3.622 E0.0277
G1 X-63.587 Y3.412 E0.0277
G1 X-62.948 Y3.071 E0.0277
G1 X-62.388 Y2.612 E0.0277
G1 X-61.929 Y2.052 E0.0277
G1 X-61.588 Y1.413 E0.0277
G1 X-61.378 Y0.721 E0.0277
G1 X-61.307 Y0.000 E0.0277
; feature outer perimeter
G1 X-61.769 Y0.000 F9000
G1 X-61.831 Y-0.630 E0.0242 F1200
G1 X-62.015 Y-1.236 E0.0242
G1 X-62.313 Y-1.795 E0.0242
G1 X-62.715 Y-2.285 E0.0242
G1 X-63.205 Y-2.687 E0.0242
G1 X-63.763 Y-2.985 E0.0242
G1 X-64.370 Y-3.169 E0.0242
G1 X-65.000 Y-3.231 E0.0242
G1 X-65.600 Y-3.172 E0.0231
G1 X-66.236 Y-2.986 E0.0253
G1 X-66.795 Y-2.687 E0.0243
G1 X-67.285 Y-2.285 E0.0242
G1 X-67.687 Y-1.795 E0.0242
G1 X-67.985 Y-1.236 E0.0242
G1 X-68.169 Y-0.630 E0.0242
G1 X-68.231 Y0.000 E0.0242
G1 X-68.169 Y0.630 E0.0242
G1 X-67.985 Y1.236 E0.0242
G1 X-67.687 Y1.795 E0.0242
G1 X-67.285 Y2.285 E0.0242
G1 X-66.795 Y2.687 E0.0242
G1 X-66.236 Y2.985 E0.0242
G1 X-65.630 Y3.169 E0.0242
G1 X-65.000 Y3.231 E0.0242
G1 X-64.370 Y3.169 E0.0242
G1 X-63.763 Y2.985 E0.0242
G1 X-63.205 Y2.687 E0.0242
G1 X-62.715 Y2.285 E0.0242
G1 X-62.313 Y1.795 E0.0242
G1 X-62.015 Y1.236 E0.0242
G1 X-61.831 Y0.630 E0.0242
G1 X-61.769 Y0.000 E0.0242
; feature solid layer
G1 X-62.744 Y3.611 F9000
G1 X-62.912 Y3.443 E0.0091 F2400
G1 X-62.755 Y3.359 E0.0068
G1 X-62.530 Y3.174 E0.0111
G1 X-62.094 Y3.611 E0.0236
G1 X-61.443 Y3.611 E0.0249
G1 X-62.173 Y2.881 E0.0395
G1 X-62.143 Y2.857 E0.0015
G1 X-61.874 Y2.529 E0.0162
G1 X-60.793 Y3.611 E0.0585
G1 X-60.142 Y3.611 E0.0249
G1 X-61.595 Y2.158 E0.0786
G1 X-61.368 Y1.734 E0.0184
G1 X-59.491 Y3.611 E0.1015
G1 X-58.841 Y3.611 E0.0249
G1 X-61.183 Y1.268 E0.1267
G1 X-61.038 Y0.788 E0.0192
G1 X-61.035 Y0.766 E0.0009
G1 X-58.190 Y3.611 E0.1539
G1 X-57.540 Y3.611 E0.0249
G1 X-60.977 Y0.174 E0.1859
G1 X-60.960 Y0.000 E0.0067
G1 X-61.010 Y-0.510 E0.0196
G1 X-56.889 Y3.611 E0.2229
G1 X-56.239 Y3.611 E0.0249
G1 X-61.212 Y-1.362 E0.2690
G1 X-61.267 Y-1.546 E0.0073
G1 X-61.641 Y-2.245 E0.0303
G1 X-62.143 Y-2.857 E0.0303
G1 X-62.755 Y-3.359 E0.0303
G1 X-63.226 Y-3.611 E0.0204
G1 X-62.810 Y-3.611 E0.0159
G1 X-55.588 Y3.611 E0.3906
G1 X-54.938 Y3.611 E0.0249
G1 X-62.159 Y-3.611 E0.3906
G1 X-61.509 Y-3.611 E0.0249
G1 X-54.287 Y3.611 E0.3906
G1 X-53.637 Y3.611 E0.0249
G1 X-60.858 Y-3.611 E0.3906
G1 X-60.208 Y-3.611 E0.0249
G1 X-52.986 Y3.611 E0.3906
G1 X-52.336 Y3.611 E0.0249
G1 X-59.557 Y-3.611 E0.3906
G1 X-58.906 Y-3.611 E0.0249
G1 X-51.685 Y3.611 E0.3906
G1 X-51.034 Y3.611 E0.0249
G1 X-58.256 Y-3.611 E0.3906
G1 X-57.605 Y-3.611 E0.0249
G1 X-50.417 Y3.577 E0.3888
G1 X-50.103 Y3.241 E0.0176
G1 X-56.955 Y-3.611 E0.3706
G1 X-56.304 Y-3.611 E0.0249
G1 X-49.788 Y2.905 E0.3525
G1 X-49.474 Y2.569 E0.0176
G1 X-55.654 Y-3.611 E0.3343
G1 X-55.003 Y-3.611 E0.0249
G1 X-49.159 Y2.233 E0.3161
G1 X-48.845 Y1.897 E0.0176
G1 X-54.353 Y-3.611 E0.2979
G1 X-53.702 Y-3.611 E0.0249
G1 X-48.530 Y1.561 E0.2798
G1 X-48.216 Y1.225 E0.0176
G1 X-53.052 Y-3.611 E0.2616
G1 X-52.401 Y-3.611 E0.0249
G1 X-47.901 Y0.889 E0.2434
G1 X-47.587 Y0.553 E0.0176
G1 X-51.751 Y-3.611 E0.2252
G1 X-51.100 Y-3.611 E0.0249
G1 X-47.272 Y0.217 E0.2070
G1 X-46.958 Y-0.119 E0.0176
G1 X-50.449 Y-3.611 E0.1889
G1 X-49.799 Y-3.611 E0.0249
G1 X-46.643 Y-0.455 E0.1707
G1 X-46.329 Y-0.791 E0.0176
G1 X-49.148 Y-3.611 E0.1525
G1 X-48.498 Y-3.611 E0.0249
G1 X-46.014 Y-1.127 E0.1343
G1 X-45.700 Y-1.463 E0.0176
G1 X-47.847 Y-3.611 E0.1162
G1 X-47.197 Y-3.611 E0.0249
G1 X-45.385 Y-1.799 E0.0980
G1 X-45.071 Y-2.135 E0.0176
G1 X-46.546 Y-3.611 E0.0798
G1 X-45.896 Y-3.611 E0.0249
G1 X-44.756 Y-2.471 E0.0616
G1 X-44.442 Y-2.807 E0.0176
G1 X-45.245 Y-3.611 E0.0435
G1 X-44.595 Y-3.611 E0.0249
G1 X-43.869 Y-2.885 E0.0392
G1 X-43.219 Y-2.885 E0.0249
G1 X-43.944 Y-3.611 E0.0392
G1 X-43.294 Y-3.611 E0.0249
G1 X-42.568 Y-2.885 E0.0392
G1 X-41.918 Y-2.885 E0.0249
G1 X-42.643 Y-3.611 E0.0392
G1 X-41.992 Y-3.611 E0.0249
G1 X-41.267 Y-2.885 E0.0392
G1 X-40.617 Y-2.885 E0.0249
G1 X-41.342 Y-3.611 E0.0392
G1 X-40.691 Y-3.611 E0.0249
G1 X-39.966 Y-2.885 E0.0392
G1 X-39.315 Y-2.885 E0.0249
G1 X-40.041 Y-3.611 E0.0392
G1 X-39.390 Y-3.611 E0.0249
G1 X-38.665 Y-2.885 E0.0392
G1 X-38.014 Y-2.885 E0.0249
G1 X-38.740 Y-3.611 E0.0392
G1 X-38.089 Y-3.611 E0.0249
G1 X-37.364 Y-2.885 E0.0392
G1 X-36.713 Y-2.885 E0.0249
G1 X-37.439 Y-3.611 E0.0392
G1 X-36.788 Y-3.611 E0.0249
G1 X-36.063 Y-2.885 E0.0392
G1 X-35.412 Y-2.885 E0.0249
G1 X-36.138 Y-3.611 E0.0392
G1 X-35.487 Y-3.611 E0.0249
G1 X-34.762 Y-2.885 E0.0392
G1 X-34.111 Y-2.885 E0.0249
G1 X-34.837 Y-3.611 E0.0392
G1 X-34.186 Y-3.611 E0.0249
G1 X-33.461 Y-2.885 E0.0392
G1 X-32.810 Y-2.885 E0.0249
G1 X-33.535 Y-3.611 E0.0392
G1 X-32.885 Y-3.611 E0.0249
G1 X-32.160 Y-2.885 E0.0392
G1 X-31.509 Y-2.885 E0.0249
G1 X-32.234 Y-3.611 E0.0392
G1 X-31.584 Y-3.611 E0.0249
G1 X-30.858 Y-2.885 E0.0392
G1 X-30.208 Y-2.885 E0.0249
G1 X-30.933 Y-3.611 E0.0392
G1 X-30.283 Y-3.611 E0.0249
G1 X-29.557 Y-2.885 E0.0392
G1 X-28.907 Y-2.885 E0.0249
G1 X-29.632 Y-3.611 E0.0392
G1 X-28.982 Y-3.611 E0.0249
G1 X-28.256 Y-2.885 E0.0392
G1 X-27.606 Y-2.885 E0.0249
G1 X-28.331 Y-3.611 E0.0392
G1 X-27.681 Y-3.611 E0.0249
G1 X-26.955 Y-2.885 E0.0392
G1 X-26.305 Y-2.885 E0.0249
G1 X-27.030 Y-3.611 E0.0392
G1 X-26.380 Y-3.611 E0.0249
G1 X-25.654 Y-2.885 E0.0392
G1 X-25.004 Y-2.885 E0.0249
G1 X-25.729 Y-3.611 E0.0392
G1 X-25.078 Y-3.611 E0.0249
G1 X-24.353 Y-2.885 E0.0392
G1 X-23.703 Y-2.885 E0.0249
G1 X-24.428 Y-3.611 E0.0392
