; G-Code generated by Simplify3D(R) Version 4.1.2
; Apr 6, 2020 at 11:33:17 AM
; Settings Summary
;   processName,Process1
;   applyToModels,Camaro Bracket
;   profileName,MakerBot Replicator 2 HBP (modified)
;   profileVersion,2020-03-12 10:48:50
;   baseProfile,MakerBot Replicator 2(2)
;   printMaterial,PLA
;   printQuality,Medium
;   printExtruders,
;   extruderName,Primary Extruder
;   extruderToolheadNumber,0
;   extruderDiameter,0.4
;   extruderAutoWidth,0
;   extruderWidth,0.4
;   extrusionMultiplier,1
;   extruderUseRetract,1
;   extruderRetractionDistance,1.9
;   extruderExtraRestartDistance,0
;   extruderRetractionZLift,0.5
;   extruderRetractionSpeed,1200
;   extruderUseCoasting,0
;   extruderCoastingDistance,0.2
;   extruderUseWipe,0
;   extruderWipeDistance,5
;   primaryExtruder,0
;   layerHeight,0.2
;   topSolidLayers,3
;   bottomSolidLayers,3
;   perimeterOutlines,2
;   printPerimetersInsideOut,1
;   startPointOption,3
;   startPointOriginX,0
;   startPointOriginY,150
;   sequentialIslands,0
;   spiralVaseMode,0
;   firstLayerHeightPercentage,100
;   firstLayerWidthPercentage,115
;   firstLayerUnderspeed,0.5
;   useRaft,0
;   raftExtruder,0
;   raftTopLayers,2
;   raftBaseLayers,1
;   raftOffset,1
;   raftSeparationDistance,0.14
;   raftTopInfill,90
;   aboveRaftSpeedMultiplier,0.3
;   useSkirt,0
;   skirtExtruder,0
;   skirtLayers,1
;   skirtOutlines,5
;   skirtOffset,0
;   usePrimePillar,0
;   primePillarExtruder,999
;   primePillarWidth,12
;   primePillarLocation,7
;   primePillarSpeedMultiplier,1
;   useOozeShield,0
;   oozeShieldExtruder,999
;   oozeShieldOffset,2
;   oozeShieldOutlines,1
;   oozeShieldSidewallShape,1
;   oozeShieldSidewallAngle,30
;   oozeShieldSpeedMultiplier,1
;   infillExtruder,0
;   internalInfillPattern,Rectilinear
;   externalInfillPattern,Rectilinear
;   infillPercentage,15
;   outlineOverlapPercentage,25
;   infillExtrusionWidthPercentage,100
;   minInfillLength,5
;   infillLayerInterval,1
;   internalInfillAngles,45,-45
;   overlapInternalInfillAngles,0
;   externalInfillAngles,45,-45
;   generateSupport,0
;   supportExtruder,0
;   supportInfillPercentage,5
;   supportExtraInflation,0.5
;   supportBaseLayers,0
;   denseSupportExtruder,0
;   denseSupportLayers,2
;   denseSupportInfillPercentage,90
;   supportLayerInterval,1
;   supportHorizontalPartOffset,0.3
;   supportUpperSeparationLayers,1
;   supportLowerSeparationLayers,1
;   supportType,1
;   supportGridSpacing,2
;   maxOverhangAngle,45
;   supportAngles,45,-45
;   temperatureName,Primary Extruder,Heated Build Platform
;   temperatureNumber,0,0
;   temperatureSetpointCount,1,1
;   temperatureSetpointLayers,1,1
;   temperatureSetpointTemperatures,230,60
;   temperatureStabilizeAtStartup,1,1
;   temperatureHeatedBed,0,1
;   fanLayers,1,2
;   fanSpeeds,0,100
;   blipFanToFullPower,1
;   adjustSpeedForCooling,1
;   minSpeedLayerTime,15
;   minCoolingSpeedSlowdown,20
;   increaseFanForCooling,1
;   minFanLayerTime,45
;   maxCoolingFanSpeed,100
;   increaseFanForBridging,1
;   bridgingFanSpeed,100
;   use5D,1
;   relativeEdistances,1
;   allowEaxisZeroing,0
;   independentExtruderAxes,1
;   includeM10123,0
;   stickySupport,1
;   applyToolheadOffsets,0
;   gcodeXoffset,0
;   gcodeYoffset,0
;   gcodeZoffset,0
;   overrideMachineDefinition,1
;   machineTypeOverride,0
;   strokeXoverride,280
;   strokeYoverride,150
;   strokeZoverride,150
;   originOffsetXoverride,140
;   originOffsetYoverride,75
;   originOffsetZoverride,0
;   homeXdirOverride,1
;   homeYdirOverride,1
;   homeZdirOverride,-1
;   flipXoverride,1
;   flipYoverride,-1
;   flipZoverride,1
;   toolheadOffsets,0,0|0,0|0,0|0,0|0,0|0,0
;   overrideFirmwareConfiguration,1
;   firmwareTypeOverride,MakerBot/Sailfish Firmware
;   GPXconfigOverride,r2h
;   baudRateOverride,115200
;   overridePrinterModels,1
;   printerModelsOverride,MakerBot_Replicator2.stl
;   startingGcode,; **** Replicator 2 start.gcode ****,M73 P0 ; enable build progress,G162 X Y F3000 ; home XY maximum,G161 Z F1200 ; home Z minimum,G92 Z-5 ; set Z to -5,G1 Z0 ; move Z to 0,G161 Z F100 ; home Z slowly,M132 X Y Z A B ; recall home offsets,G1 X-145 Y-75 Z30 F9000 ; move to wait position off table,G130 X20 Y20 Z20 A20 B20 ; lower stepper Vrefs while heating,M126 S[fan_speed_pwm],M140 S[bed0_temperature] T0,M134 T0 ; stabilize bed temperature,M104 S[extruder0_temperature] T0,M133 T0 ; stabilize extruder temperature,G130 X127 Y127 Z40 A127 B127 ; default stepper Vrefs,G92 A0 ; zero extruder,G1 Z0.4 ; position nozzle,G1 E25 F300 ; purge nozzle,G1 X-140 Y-70 Z0.15 F1200 ; slow wipe,G1 X-135 Y-65 Z0.5 F1200 ; lift,G92 A0 ; zero extruder,M73 P1 ;@body (notify GPX body has started),; **** end of start.gcode ****
;   layerChangeGcode,
;   retractionGcode,
;   toolChangeGcode,
;   endingGcode,; **** Replicator 2 end.gcode ****,M73 P100 ; end build progress,G1 Z155 F1000 ; send Z axis to bottom of machine,M104 S0 T0 ; cool down extruder,M140 S0 T0 ; cool down HBP,M127 ; stop blower fan,G162 X Y F3000 ; home XY maximum,M18 ; disable stepper,M0 ; stop codes,M72 P1 ; play Ta-Da song,; **** end of end.gcode ****
;   exportFileFormat,gcode
;   celebration,0
;   celebrationSong,Random Song
;   postProcessing,
;   defaultSpeed,4800
;   outlineUnderspeed,0.5
;   solidInfillUnderspeed,1
;   supportUnderspeed,1
;   rapidXYspeed,9000
;   rapidZspeed,1200
;   minBridgingArea,50
;   bridgingExtraInflation,0
;   bridgingExtrusionMultiplier,1
;   bridgingSpeedMultiplier,0.8
;   useFixedBridgingAngle,0
;   fixedBridgingAngle,0
;   applyBridgingToPerimeters,0
;   filamentDiameters,1.75|1.75|1.75|1.75|1.75|1.75
;   filamentPricesPerKg,46|46|46|46|46|46
;   filamentDensities,1.25|1.25|1.25|1.25|1.25|1.25
;   useMinPrintHeight,0
;   minPrintHeight,0
;   useMaxPrintHeight,0
;   maxPrintHeight,4.84
;   useDiaphragm,0
;   diaphragmLayerInterval,20
;   robustSlicing,1
;   mergeAllIntoSolid,0
;   onlyRetractWhenCrossingOutline,0
;   retractBetweenLayers,0
;   useRetractionMinTravel,1
;   retractionMinTravel,7
;   retractWhileWiping,1
;   onlyWipeOutlines,1
;   avoidCrossingOutline,0
;   maxMovementDetourFactor,3
;   toolChangeRetractionDistance,12
;   toolChangeExtraRestartDistance,-0.5
;   toolChangeRetractionSpeed,600
;   externalThinWallType,0
;   internalThinWallType,0
;   thinWallAllowedOverlapPercentage,10
;   singleExtrusionMinLength,1
;   singleExtrusionMinPrintingWidthPercentage,50
;   singleExtrusionMaxPrintingWidthPercentage,200
;   singleExtrusionEndpointExtension,0.2
;   horizontalSizeCompensation,0
G90
M83
; **** Replicator 2 start.gcode ****
M73 P0 ; enable build progress
G162 X Y F3000 ; home XY maximum
G161 Z F1200 ; home Z minimum
G92 Z-5 ; set Z to -5
G1 Z0 ; move Z to 0
G161 Z F100 ; home Z slowly
M132 X Y Z A B ; recall home offsets
G1 X-145 Y-75 Z30 F9000 ; move to wait position off table
G130 X20 Y20 Z20 A20 B20 ; lower stepper Vrefs while heating
M127
M140 S60 T0
M134 T0 ; stabilize bed temperature
M104 S230 T0
M133 T0 ; stabilize extruder temperature
G130 X127 Y127 Z40 A127 B127 ; default stepper Vrefs
G92 A0 ; zero extruder
G1 Z0.4 ; position nozzle
G1 E25 F300 ; purge nozzle
G1 X-140 Y-70 Z0.15 F1200 ; slow wipe
G1 X-135 Y-65 Z0.5 F1200 ; lift
G92 A0 ; zero extruder
M73 P1 ;@body (notify GPX body has started)
; **** end of start.gcode ****
; process Process1
; layer 1, Z = 0.200
M135 T0
G1 E-1.9000 F1200
; feature inner perimeter
; tool H0.200 W0.460
G1 Z0.500 F1200
G1 X46.160 Y28.385 F9000
G1 Z0.200 F1200
G1 E1.9000 F1200
G1 X-46.160 Y28.385 E3.5312 F1800
G1 X-46.160 Y-18.935 E1.8099
G1 X-27.432 Y-18.935 E0.7163
G1 X-19.658 Y-25.964 E0.4009
G1 X-18.559 Y-26.819 E0.0533
G1 X-17.369 Y-27.492 E0.0523
G1 X-16.093 Y-27.984 E0.0523
G1 X-14.759 Y-28.283 E0.0523
G1 X-13.370 Y-28.385 E0.0533
G1 X-7.252 Y-28.385 E0.2340
G1 X-5.863 Y-28.283 E0.0533
G1 X-4.529 Y-27.984 E0.0523
G1 X-3.253 Y-27.492 E0.0523
G1 X-2.062 Y-26.819 E0.0523
G1 X-0.964 Y-25.964 E0.0533
G1 X6.811 Y-18.935 E0.4009
G1 X46.160 Y-18.935 E1.5051
G1 X46.160 Y28.385 E1.8099
; feature outer perimeter
G1 X46.620 Y28.845 F9000
G1 X-46.620 Y28.845 E3.5664 F1200
G1 X-46.620 Y-19.395 E1.8451
G1 X-27.609 Y-19.395 E0.7271
G1 X-19.954 Y-26.316 E0.3947
G1 X-18.815 Y-27.203 E0.0552
G1 X-17.566 Y-27.909 E0.0549
G1 X-16.227 Y-28.425 E0.0549
G1 X-14.827 Y-28.739 E0.0549
G1 X-13.387 Y-28.845 E0.0552
G1 X-7.235 Y-28.845 E0.2353
G1 X-5.795 Y-28.739 E0.0552
G1 X-4.395 Y-28.425 E0.0549
G1 X-3.056 Y-27.909 E0.0549
G1 X-1.807 Y-27.203 E0.0549
G1 X-0.668 Y-26.317 E0.0552
G1 X6.988 Y-19.395 E0.3948
G1 X46.620 Y-19.395 E1.5159
G1 X46.620 Y28.845 E1.8451
G1 E-1.9000 F1200
; feature inner perimeter
G1 Z0.700 F1200
G1 X42.090 Y-6.935 F9000
G1 Z0.200 F1200
G1 E1.9000 F1200
G1 X42.090 Y-12.815 E0.2249 F1800
G1 X38.210 Y-12.815 E0.1484
G1 X38.210 Y-6.935 E0.2249
G1 X42.090 Y-6.935 E0.1484
; feature outer perimeter
G1 X41.630 Y-7.395 F9000
G1 X41.630 Y-12.355 E0.1897 F1200
G1 X38.670 Y-12.355 E0.1132
G1 X38.670 Y-7.395 E0.1897
G1 X41.630 Y-7.395 E0.1132
; feature inner perimeter
G1 X35.090 Y-6.935 F9000
G1 X35.090 Y-12.815 E0.2249 F1800
G1 X31.210 Y-12.815 E0.1484
G1 X31.210 Y-6.935 E0.2249
G1 X35.090 Y-6.935 E0.1484
; feature outer perimeter
G1 X34.630 Y-7.395 F9000
G1 X34.630 Y-12.355 E0.1897 F1200
G1 X31.670 Y-12.355 E0.1132
G1 X31.670 Y-7.395 E0.1897
G1 X34.630 Y-7.395 E0.1132
G1 E-1.9000 F1200
; feature inner perimeter
G1 Z0.700 F1200
G1 X-7.781 Y-21.954 F9000
G1 Z0.200 F1200
G1 E1.9000 F1200
G1 X-7.659 Y-22.407 E0.0180 F1800
G1 X-7.618 Y-22.875 E0.0180
G1 X-7.659 Y-23.343 E0.0180
G1 X-7.781 Y-23.796 E0.0180
G1 X-7.979 Y-24.221 E0.0180
G1 X-8.248 Y-24.606 E0.0180
G1 X-8.580 Y-24.938 E0.0180
G1 X-8.965 Y-25.207 E0.0180
G1 X-9.390 Y-25.405 E0.0180
G1 X-9.843 Y-25.527 E0.0180
G1 X-10.311 Y-25.568 E0.0180
G1 X-10.778 Y-25.527 E0.0180
G1 X-11.232 Y-25.405 E0.0180
G1 X-11.660 Y-25.206 E0.0181
G1 X-12.056 Y-24.923 E0.0186
G1 X-12.374 Y-24.606 E0.0172
G1 X-12.643 Y-24.221 E0.0180
G1 X-12.841 Y-23.796 E0.0180
G1 X-12.963 Y-23.343 E0.0180
G1 X-13.004 Y-22.875 E0.0180
G1 X-12.963 Y-22.407 E0.0180
G1 X-12.841 Y-21.954 E0.0180
G1 X-12.643 Y-21.529 E0.0180
G1 X-12.374 Y-21.144 E0.0180
G1 X-12.042 Y-20.812 E0.0180
G1 X-11.657 Y-20.543 E0.0180
G1 X-11.229 Y-20.344 E0.0181
G1 X-10.758 Y-20.221 E0.0186
G1 X-10.311 Y-20.182 E0.0172
G1 X-9.843 Y-20.223 E0.0180
G1 X-9.390 Y-20.345 E0.0180
G1 X-8.962 Y-20.544 E0.0181
G1 X-8.566 Y-20.827 E0.0186
G1 X-8.248 Y-21.144 E0.0172
G1 X-7.979 Y-21.529 E0.0180
G1 X-7.781 Y-21.954 E0.0180
; feature outer perimeter
G1 X-8.215 Y-22.112 F9000
G1 X-8.114 Y-22.488 E0.0149 F1200
G1 X-8.080 Y-22.875 E0.0149
G1 X-8.114 Y-23.262 E0.0149
G1 X-8.215 Y-23.638 E0.0149
G1 X-8.379 Y-23.990 E0.0149
G1 X-8.602 Y-24.309 E0.0149
G1 X-8.877 Y-24.584 E0.0149
G1 X-9.195 Y-24.807 E0.0149
G1 X-9.548 Y-24.971 E0.0149
G1 X-9.924 Y-25.072 E0.0149
G1 X-10.311 Y-25.106 E0.0149
G1 X-10.698 Y-25.072 E0.0149
G1 X-11.074 Y-24.971 E0.0149
G1 X-11.427 Y-24.807 E0.0149
G1 X-11.758 Y-24.571 E0.0155
G1 X-12.020 Y-24.309 E0.0142
G1 X-12.243 Y-23.990 E0.0149
G1 X-12.407 Y-23.638 E0.0149
G1 X-12.508 Y-23.262 E0.0149
G1 X-12.542 Y-22.875 E0.0149
G1 X-12.508 Y-22.488 E0.0149
G1 X-12.407 Y-22.112 E0.0149
G1 X-12.243 Y-21.760 E0.0149
G1 X-12.020 Y-21.441 E0.0149
G1 X-11.745 Y-21.166 E0.0149
G1 X-11.426 Y-20.943 E0.0149
G1 X-11.073 Y-20.778 E0.0149
G1 X-10.680 Y-20.676 E0.0155
G1 X-10.311 Y-20.644 E0.0142
G1 X-9.924 Y-20.678 E0.0149
G1 X-9.548 Y-20.779 E0.0149
G1 X-9.195 Y-20.943 E0.0149
G1 X-8.864 Y-21.179 E0.0155
G1 X-8.602 Y-21.441 E0.0142
G1 X-8.379 Y-21.760 E0.0149
G1 X-8.215 Y-22.112 E0.0149
G1 E-1.9000 F1200
; feature inner perimeter
G1 Z0.700 F1200
G1 X-31.630 Y16.552 F9000
G1 Z0.200 F1200
G1 E1.9000 F1200
G1 X-35.510 Y16.552 E0.1484 F1800
G1 X-35.510 Y22.432 E0.2249
G1 X-31.630 Y22.432 E0.1484
G1 X-31.630 Y16.552 E0.2249
; feature outer perimeter
G1 X-32.090 Y17.012 F9000
G1 X-35.050 Y17.012 E0.1132 F1200
G1 X-35.050 Y21.972 E0.1897
G1 X-32.090 Y21.972 E0.1132
G1 X-32.090 Y17.012 E0.1897
; feature inner perimeter
G1 X-38.630 Y16.552 F9000
G1 X-42.510 Y16.552 E0.1484 F1800
G1 X-42.510 Y22.432 E0.2249
G1 X-38.630 Y22.432 E0.1484
G1 X-38.630 Y16.552 E0.2249
; feature outer perimeter
G1 X-39.090 Y17.012 F9000
G1 X-42.050 Y17.012 E0.1132 F1200
G1 X-42.050 Y21.972 E0.1897
G1 X-39.090 Y21.972 E0.1132
G1 X-39.090 Y17.012 E0.1897
; feature solid layer
G1 X-38.285 Y20.914 F9000
G1 X-31.159 Y28.040 E0.3855 F2400
G1 X-31.810 Y28.040 E0.0249
G1 X-38.285 Y21.565 E0.3503
G1 X-38.285 Y22.215 E0.0249
G1 X-32.460 Y28.040 E0.3151
G1 X-33.111 Y28.040 E0.0249
G1 X-38.373 Y22.777 E0.2847
G1 X-39.024 Y22.777 E0.0249
G1 X-33.761 Y28.040 E0.2847
G1 X-34.412 Y28.040 E0.0249
G1 X-39.674 Y22.777 E0.2847
G1 X-40.325 Y22.777 E0.0249
G1 X-35.062 Y28.040 E0.2847
G1 X-35.713 Y28.040 E0.0249
G1 X-40.976 Y22.777 E0.2847
G1 X-41.626 Y22.777 E0.0249
G1 X-36.363 Y28.040 E0.2847
G1 X-37.014 Y28.040 E0.0249
G1 X-42.277 Y22.777 E0.2847
G1 X-45.471 Y28.040 F9000
G1 X-45.815 Y27.696 E0.0186 F2400
G1 X-45.815 Y27.045 E0.0249
G1 X-44.820 Y28.040 E0.0538
G1 X-44.170 Y28.040 E0.0249
G1 X-45.815 Y26.395 E0.0890
G1 X-45.815 Y25.744 E0.0249
G1 X-43.519 Y28.040 E0.1242
G1 X-42.869 Y28.040 E0.0249
G1 X-45.815 Y25.094 E0.1594
G1 X-45.815 Y24.443 E0.0249
G1 X-42.218 Y28.040 E0.1946
G1 X-41.568 Y28.040 E0.0249
G1 X-45.815 Y23.793 E0.2298
G1 X-45.815 Y23.142 E0.0249
G1 X-40.917 Y28.040 E0.2649
G1 X-40.267 Y28.040 E0.0249
G1 X-45.815 Y22.492 E0.3001
G1 X-45.815 Y21.841 E0.0249
G1 X-39.616 Y28.040 E0.3353
G1 X-38.965 Y28.040 E0.0249
G1 X-45.815 Y21.190 E0.3705
G1 X-45.815 Y20.540 E0.0249
G1 X-38.315 Y28.040 E0.4057
G1 X-37.664 Y28.040 E0.0249
G1 X-45.815 Y19.889 E0.4409
G1 X-45.815 Y19.239 E0.0249
G1 X-42.855 Y22.199 E0.1601
G1 X-42.855 Y21.548 E0.0249
G1 X-45.815 Y18.588 E0.1601
G1 X-45.815 Y17.938 E0.0249
G1 X-42.855 Y20.898 E0.1601
G1 X-42.855 Y20.247 E0.0249
G1 X-45.815 Y17.287 E0.1601
G1 X-45.815 Y16.637 E0.0249
G1 X-42.855 Y19.597 E0.1601
G1 X-42.855 Y18.946 E0.0249
G1 X-45.815 Y15.986 E0.1601
G1 X-45.815 Y15.336 E0.0249
G1 X-42.855 Y18.296 E0.1601
G1 X-42.855 Y17.645 E0.0249
G1 X-45.815 Y14.685 E0.1601
G1 X-45.815 Y14.035 E0.0249
G1 X-42.855 Y16.995 E0.1601
G1 X-42.855 Y16.344 E0.0249
G1 X-45.815 Y13.384 E0.1601
G1 X-45.815 Y12.733 E0.0249
G1 X-42.341 Y16.207 E0.1879
G1 X-41.691 Y16.207 E0.0249
G1 X-45.815 Y12.083 E0.2231
G1 X-45.815 Y11.432 E0.0249
G1 X-41.040 Y16.207 E0.2583
G1 X-40.390 Y16.207 E0.0249
G1 X-45.815 Y10.782 E0.2935
G1 X-45.815 Y10.131 E0.0249
G1 X-39.739 Y16.207 E0.3287
G1 X-39.089 Y16.207 E0.0249
G1 X-45.815 Y9.481 E0.3639
G1 X-45.815 Y8.830 E0.0249
G1 X-38.438 Y16.207 E0.3990
G1 X-38.285 Y16.207 E0.0059
G1 X-38.285 Y16.360 E0.0059
G1 X-35.855 Y18.790 E0.1314
G1 X-35.855 Y18.140 E0.0249
G1 X-45.815 Y8.180 E0.5388
G1 X-45.815 Y7.529 E0.0249
G1 X-35.855 Y17.489 E0.5388
G1 X-35.855 Y16.839 E0.0249
G1 X-45.815 Y6.879 E0.5388
G1 X-45.815 Y6.228 E0.0249
G1 X-35.836 Y16.207 E0.5398
G1 X-35.185 Y16.207 E0.0249
G1 X-45.815 Y5.578 E0.5750
G1 X-45.815 Y4.927 E0.0249
G1 X-34.535 Y16.207 E0.6102
G1 X-33.884 Y16.207 E0.0249
G1 X-45.815 Y4.276 E0.6454
G1 X-45.815 Y3.626 E0.0249
G1 X-33.234 Y16.207 E0.6806
G1 X-32.583 Y16.207 E0.0249
G1 X-45.815 Y2.975 E0.7157
G1 X-45.815 Y2.325 E0.0249
G1 X-31.933 Y16.207 E0.7509
G1 X-31.285 Y16.207 E0.0248
G1 X-31.285 Y16.855 E0.0248
G1 X-20.100 Y28.040 E0.6050
G1 X-19.449 Y28.040 E0.0249
G1 X-45.815 Y1.674 E1.4262
G1 X-45.815 Y1.024 E0.0249
G1 X-18.799 Y28.040 E1.4614
G1 X-18.148 Y28.040 E0.0249
G1 X-45.815 Y0.373 E1.4966
G1 X-45.815 Y-0.277 E0.0249
G1 X-17.498 Y28.040 E1.5318
G1 X-16.847 Y28.040 E0.0249
G1 X-45.815 Y-0.928 E1.5669
G1 X-45.815 Y-1.578 E0.0249
G1 X-16.197 Y28.040 E1.6021
G1 X-15.546 Y28.040 E0.0249
G1 X-45.815 Y-2.229 E1.6373
G1 X-45.815 Y-2.879 E0.0249
G1 X-14.896 Y28.040 E1.6725
G1 X-14.245 Y28.040 E0.0249
G1 X-45.815 Y-3.530 E1.7077
G1 X-45.815 Y-4.181 E0.0249
G1 X-13.594 Y28.040 E1.7429
G1 X-12.944 Y28.040 E0.0249
G1 X-45.815 Y-4.831 E1.7781
G1 X-45.815 Y-5.482 E0.0249
G1 X-12.293 Y28.040 E1.8133
G1 X-11.643 Y28.040 E0.0249
G1 X-45.815 Y-6.132 E1.8485
