; G-Code generated by Simplify3D(R) Version 4.1.2
; Apr 2, 2020 at 4:24:04 PM
; Settings Summary
;   processName,Process1
;   applyToModels,CanStandoff,CanStandoff(2)
;   profileName,MakerBot Replicator 2 HBP (modified)
;   profileVersion,2020-03-12 10:48:50
;   baseProfile,MakerBot Replicator 2(2)
;   printMaterial,PLA
;   printQuality,Medium
;   printExtruders,
;   extruderName,Primary Extruder
;   extruderToolheadNumber,0
;   extruderDiameter,0.4
;   extruderAutoWidth,0
;   extruderWidth,0.4
;   extrusionMultiplier,1
;   extruderUseRetract,1
;   extruderRetractionDistance,1.9
;   extruderExtraRestartDistance,0
;   extruderRetractionZLift,0.5
;   extruderRetractionSpeed,1200
;   extruderUseCoasting,0
;   extruderCoastingDistance,0.2
;   extruderUseWipe,0
;   extruderWipeDistance,5
;   primaryExtruder,0
;   layerHeight,0.2
;   topSolidLayers,3
;   bottomSolidLayers,3
;   perimeterOutlines,2
;   printPerimetersInsideOut,1
;   startPointOption,3
;   startPointOriginX,0
;   startPointOriginY,150
;   sequentialIslands,0
;   spiralVaseMode,0
;   firstLayerHeightPercentage,100
;   firstLayerWidthPercentage,115
;   firstLayerUnderspeed,0.5
;   useRaft,0
;   raftExtruder,0
;   raftTopLayers,2
;   raftBaseLayers,1
;   raftOffset,1
;   raftSeparationDistance,0.14
;   raftTopInfill,90
;   aboveRaftSpeedMultiplier,0.3
;   useSkirt,0
;   skirtExtruder,0
;   skirtLayers,1
;   skirtOutlines,5
;   skirtOffset,0
;   usePrimePillar,0
;   primePillarExtruder,999
;   primePillarWidth,12
;   primePillarLocation,7
;   primePillarSpeedMultiplier,1
;   useOozeShield,0
;   oozeShieldExtruder,999
;   oozeShieldOffset,2
;   oozeShieldOutlines,1
;   oozeShieldSidewallShape,1
;   oozeShieldSidewallAngle,30
;   oozeShieldSpeedMultiplier,1
;   infillExtruder,0
;   internalInfillPattern,Rectilinear
;   externalInfillPattern,Rectilinear
;   infillPercentage,15
;   outlineOverlapPercentage,25
;   infillExtrusionWidthPercentage,100
;   minInfillLength,5
;   infillLayerInterval,1
;   internalInfillAngles,45,-45
;   overlapInternalInfillAngles,0
;   externalInfillAngles,45,-45
;   generateSupport,0
;   supportExtruder,0
;   supportInfillPercentage,30
;   supportExtraInflation,0.5
;   supportBaseLayers,0
;   denseSupportExtruder,0
;   denseSupportLayers,2
;   denseSupportInfillPercentage,90
;   supportLayerInterval,1
;   supportHorizontalPartOffset,0.3
;   supportUpperSeparationLayers,1
;   supportLowerSeparationLayers,1
;   supportType,1
;   supportGridSpacing,2
;   maxOverhangAngle,45
;   supportAngles,45,-45
;   temperatureName,Primary Extruder,Heated Build Platform
;   temperatureNumber,0,0
;   temperatureSetpointCount,1,1
;   temperatureSetpointLayers,1,1
;   temperatureSetpointTemperatures,230,60
;   temperatureStabilizeAtStartup,1,1
;   temperatureHeatedBed,0,1
;   fanLayers,1,2
;   fanSpeeds,0,100
;   blipFanToFullPower,1
;   adjustSpeedForCooling,1
;   minSpeedLayerTime,15
;   minCoolingSpeedSlowdown,20
;   increaseFanForCooling,1
;   minFanLayerTime,45
;   maxCoolingFanSpeed,100
;   increaseFanForBridging,1
;   bridgingFanSpeed,100
;   use5D,1
;   relativeEdistances,1
;   allowEaxisZeroing,0
;   independentExtruderAxes,1
;   includeM10123,0
;   stickySupport,1
;   applyToolheadOffsets,0
;   gcodeXoffset,0
;   gcodeYoffset,0
;   gcodeZoffset,0
;   overrideMachineDefinition,1
;   machineTypeOverride,0
;   strokeXoverride,280
;   strokeYoverride,150
;   strokeZoverride,150
;   originOffsetXoverride,140
;   originOffsetYoverride,75
;   originOffsetZoverride,0
;   homeXdirOverride,1
;   homeYdirOverride,1
;   homeZdirOverride,-1
;   flipXoverride,1
;   flipYoverride,-1
;   flipZoverride,1
;   toolheadOffsets,0,0|0,0|0,0|0,0|0,0|0,0
;   overrideFirmwareConfiguration,1
;   firmwareTypeOverride,MakerBot/Sailfish Firmware
;   GPXconfigOverride,r2h
;   baudRateOverride,115200
;   overridePrinterModels,1
;   printerModelsOverride,MakerBot_Replicator2.stl
;   startingGcode,; **** Replicator 2 start.gcode ****,M73 P0 ; enable build progress,G162 X Y F3000 ; home XY maximum,G161 Z F1200 ; home Z minimum,G92 Z-5 ; set Z to -5,G1 Z0 ; move Z to 0,G161 Z F100 ; home Z slowly,M132 X Y Z A B ; recall home offsets,G1 X-145 Y-75 Z30 F9000 ; move to wait position off table,G130 X20 Y20 Z20 A20 B20 ; lower stepper Vrefs while heating,M126 S[fan_speed_pwm],M140 S[bed0_temperature] T0,M134 T0 ; stabilize bed temperature,M104 S[extruder0_temperature] T0,M133 T0 ; stabilize extruder temperature,G130 X127 Y127 Z40 A127 B127 ; default stepper Vrefs,G92 A0 ; zero extruder,G1 Z0.4 ; position nozzle,G1 E25 F300 ; purge nozzle,G1 X-140 Y-70 Z0.15 F1200 ; slow wipe,G1 X-135 Y-65 Z0.5 F1200 ; lift,G92 A0 ; zero extruder,M73 P1 ;@body (notify GPX body has started),; **** end of start.gcode ****
;   layerChangeGcode,
;   retractionGcode,
;   toolChangeGcode,
;   endingGcode,; **** Replicator 2 end.gcode ****,M73 P100 ; end build progress,G1 Z155 F1000 ; send Z axis to bottom of machine,M104 S0 T0 ; cool down extruder,M140 S0 T0 ; cool down HBP,M127 ; stop blower fan,G162 X Y F3000 ; home XY maximum,M18 ; disable stepper,M0 ; stop codes,M72 P1 ; play Ta-Da song,; **** end of end.gcode ****
;   exportFileFormat,gcode
;   celebration,0
;   celebrationSong,Random Song
;   postProcessing,
;   defaultSpeed,4800
;   outlineUnderspeed,0.5
;   solidInfillUnderspeed,1
;   supportUnderspeed,1
;   rapidXYspeed,9000
;   rapidZspeed,1200
;   minBridgingArea,50
;   bridgingExtraInflation,0
;   bridgingExtrusionMultiplier,1
;   bridgingSpeedMultiplier,0.8
;   useFixedBridgingAngle,0
;   fixedBridgingAngle,0
;   applyBridgingToPerimeters,0
;   filamentDiameters,1.75|1.75|1.75|1.75|1.75|1.75
;   filamentPricesPerKg,46|46|46|46|46|46
;   filamentDensities,1.25|1.25|1.25|1.25|1.25|1.25
;   useMinPrintHeight,0
;   minPrintHeight,0
;   useMaxPrintHeight,0
;   maxPrintHeight,4.84
;   useDiaphragm,0
;   diaphragmLayerInterval,20
;   robustSlicing,1
;   mergeAllIntoSolid,0
;   onlyRetractWhenCrossingOutline,0
;   retractBetweenLayers,0
;   useRetractionMinTravel,1
;   retractionMinTravel,7
;   retractWhileWiping,1
;   onlyWipeOutlines,1
;   avoidCrossingOutline,0
;   maxMovementDetourFactor,3
;   toolChangeRetractionDistance,12
;   toolChangeExtraRestartDistance,-0.5
;   toolChangeRetractionSpeed,600
;   externalThinWallType,0
;   internalThinWallType,0
;   thinWallAllowedOverlapPercentage,10
;   singleExtrusionMinLength,1
;   singleExtrusionMinPrintingWidthPercentage,50
;   singleExtrusionMaxPrintingWidthPercentage,200
;   singleExtrusionEndpointExtension,0.2
;   horizontalSizeCompensation,0
G90
M83
; **** Replicator 2 start.gcode ****
M73 P0 ; enable build progress
G162 X Y F3000 ; home XY maximum
G161 Z F1200 ; home Z minimum
G92 Z-5 ; set Z to -5
G1 Z0 ; move Z to 0
G161 Z F100 ; home Z slowly
M132 X Y Z A B ; recall home offsets
G1 X-145 Y-75 Z30 F9000 ; move to wait position off table
G130 X20 Y20 Z20 A20 B20 ; lower stepper Vrefs while heating
M127
M140 S60 T0
M134 T0 ; stabilize bed temperature
M104 S230 T0
M133 T0 ; stabilize extruder temperature
G130 X127 Y127 Z40 A127 B127 ; default stepper Vrefs
G92 A0 ; zero extruder
G1 Z0.4 ; position nozzle
G1 E25 F300 ; purge nozzle
G1 X-140 Y-70 Z0.15 F1200 ; slow wipe
G1 X-135 Y-65 Z0.5 F1200 ; lift
G92 A0 ; zero extruder
M73 P1 ;@body (notify GPX body has started)
; **** end of start.gcode ****
; process Process1
; layer 1, Z = 0.200
M135 T0
G1 E-1.9000 F1200
; feature inner perimeter
; tool H0.200 W0.460
G1 Z0.500 F1200
G1 X-22.038 Y22.965 F9000
G1 Z0.200 F1200
G1 E1.9000 F1200
G1 X-24.311 Y23.302 E0.0879 F1800
G1 X-26.606 Y23.415 E0.0879
G1 X-28.901 Y23.302 E0.0879
G1 X-31.174 Y22.965 E0.0879
G1 X-33.403 Y22.407 E0.0879
G1 X-35.567 Y21.633 E0.0879
G1 X-37.644 Y20.650 E0.0879
G1 X-39.615 Y19.469 E0.0879
G1 X-41.460 Y18.100 E0.0879
G1 X-43.163 Y16.557 E0.0879
G1 X-44.706 Y14.854 E0.0879
G1 X-46.075 Y13.009 E0.0879
G1 X-47.256 Y11.038 E0.0879
G1 X-48.239 Y8.961 E0.0879
G1 X-49.013 Y6.797 E0.0879
G1 X-49.571 Y4.568 E0.0879
G1 X-49.908 Y2.295 E0.0879
G1 X-50.021 Y0.000 E0.0879
G1 X-49.908 Y-2.295 E0.0879
G1 X-49.571 Y-4.568 E0.0879
G1 X-49.013 Y-6.797 E0.0879
G1 X-48.239 Y-8.961 E0.0879
G1 X-47.256 Y-11.038 E0.0879
G1 X-46.075 Y-13.009 E0.0879
G1 X-44.732 Y-14.819 E0.0862
G1 X-43.163 Y-16.557 E0.0896
G1 X-41.460 Y-18.100 E0.0879
G1 X-39.615 Y-19.469 E0.0879
G1 X-37.644 Y-20.650 E0.0879
G1 X-35.567 Y-21.633 E0.0879
G1 X-33.403 Y-22.407 E0.0879
G1 X-31.174 Y-22.965 E0.0879
G1 X-28.901 Y-23.302 E0.0879
G1 X-26.606 Y-23.415 E0.0879
G1 X-24.311 Y-23.302 E0.0879
G1 X-22.038 Y-22.965 E0.0879
G1 X-19.809 Y-22.407 E0.0879
G1 X-17.645 Y-21.633 E0.0879
G1 X-15.568 Y-20.650 E0.0879
G1 X-13.597 Y-19.469 E0.0879
G1 X-11.752 Y-18.100 E0.0879
G1 X-10.049 Y-16.557 E0.0879
G1 X-8.506 Y-14.854 E0.0879
G1 X-7.137 Y-13.009 E0.0879
G1 X-5.956 Y-11.038 E0.0879
G1 X-4.973 Y-8.961 E0.0879
G1 X-4.199 Y-6.797 E0.0879
G1 X-3.641 Y-4.568 E0.0879
G1 X-3.304 Y-2.295 E0.0879
G1 X-3.191 Y0.000 E0.0879
G1 X-3.304 Y2.295 E0.0879
G1 X-3.641 Y4.568 E0.0879
G1 X-4.199 Y6.797 E0.0879
G1 X-4.973 Y8.961 E0.0879
G1 X-5.956 Y11.038 E0.0879
G1 X-7.137 Y13.009 E0.0879
G1 X-8.506 Y14.854 E0.0879
G1 X-10.049 Y16.557 E0.0879
G1 X-11.752 Y18.100 E0.0879
G1 X-13.597 Y19.469 E0.0879
G1 X-15.568 Y20.650 E0.0879
G1 X-17.645 Y21.633 E0.0879
G1 X-19.809 Y22.407 E0.0879
G1 X-22.038 Y22.965 E0.0879
; feature outer perimeter
G1 X-21.948 Y23.417 F9000
G1 X-24.266 Y23.761 E0.0896 F1200
G1 X-26.606 Y23.876 E0.0896
G1 X-28.946 Y23.761 E0.0896
G1 X-31.264 Y23.417 E0.0896
G1 X-33.537 Y22.848 E0.0896
G1 X-35.743 Y22.058 E0.0896
G1 X-37.861 Y21.056 E0.0896
G1 X-39.871 Y19.852 E0.0896
G1 X-41.753 Y18.456 E0.0896
G1 X-43.489 Y16.883 E0.0896
G1 X-45.062 Y15.147 E0.0896
G1 X-46.458 Y13.265 E0.0896
G1 X-47.663 Y11.255 E0.0896
G1 X-48.664 Y9.137 E0.0896
G1 X-49.454 Y6.931 E0.0896
G1 X-50.023 Y4.658 E0.0896
G1 X-50.367 Y2.340 E0.0896
G1 X-50.482 Y0.000 E0.0896
G1 X-50.367 Y-2.340 E0.0896
G1 X-50.023 Y-4.658 E0.0896
G1 X-49.454 Y-6.931 E0.0896
G1 X-48.664 Y-9.137 E0.0896
G1 X-47.663 Y-11.255 E0.0896
G1 X-46.458 Y-13.265 E0.0896
G1 X-45.089 Y-15.111 E0.0879
G1 X-43.489 Y-16.883 E0.0913
G1 X-41.753 Y-18.456 E0.0896
G1 X-39.871 Y-19.852 E0.0896
G1 X-37.861 Y-21.056 E0.0896
G1 X-35.743 Y-22.058 E0.0896
G1 X-33.537 Y-22.848 E0.0896
G1 X-31.264 Y-23.417 E0.0896
G1 X-28.946 Y-23.761 E0.0896
G1 X-26.606 Y-23.876 E0.0896
G1 X-24.266 Y-23.761 E0.0896
G1 X-21.948 Y-23.417 E0.0896
G1 X-19.675 Y-22.848 E0.0896
G1 X-17.469 Y-22.058 E0.0896
G1 X-15.351 Y-21.056 E0.0896
G1 X-13.341 Y-19.852 E0.0896
G1 X-11.459 Y-18.456 E0.0896
G1 X-9.723 Y-16.883 E0.0896
G1 X-8.150 Y-15.147 E0.0896
G1 X-6.754 Y-13.265 E0.0896
G1 X-5.549 Y-11.255 E0.0896
G1 X-4.548 Y-9.137 E0.0896
G1 X-3.758 Y-6.931 E0.0896
G1 X-3.189 Y-4.658 E0.0896
G1 X-2.845 Y-2.340 E0.0896
G1 X-2.730 Y0.000 E0.0896
G1 X-2.845 Y2.340 E0.0896
G1 X-3.189 Y4.658 E0.0896
G1 X-3.758 Y6.931 E0.0896
G1 X-4.548 Y9.137 E0.0896
G1 X-5.549 Y11.255 E0.0896
G1 X-6.754 Y13.265 E0.0896
G1 X-8.150 Y15.147 E0.0896
G1 X-9.723 Y16.883 E0.0896
G1 X-11.459 Y18.456 E0.0896
G1 X-13.341 Y19.852 E0.0896
G1 X-15.351 Y21.056 E0.0896
G1 X-17.469 Y22.058 E0.0896
G1 X-19.675 Y22.848 E0.0896
G1 X-21.948 Y23.417 E0.0896
; feature inner perimeter
G1 X-23.127 Y17.489 F9000
G1 X-21.430 Y17.063 E0.0669 F1800
G1 X-19.782 Y16.474 E0.0669
G1 X-18.200 Y15.726 E0.0669
G1 X-16.700 Y14.826 E0.0669
G1 X-15.294 Y13.784 E0.0669
G1 X-13.997 Y12.609 E0.0669
G1 X-12.822 Y11.312 E0.0669
G1 X-11.780 Y9.906 E0.0669
G1 X-10.880 Y8.406 E0.0669
G1 X-10.132 Y6.824 E0.0669
G1 X-9.543 Y5.176 E0.0669
G1 X-9.117 Y3.479 E0.0669
G1 X-8.861 Y1.748 E0.0669
G1 X-8.775 Y0.000 E0.0669
G1 X-8.861 Y-1.748 E0.0669
G1 X-9.117 Y-3.479 E0.0669
G1 X-9.543 Y-5.176 E0.0669
G1 X-10.132 Y-6.824 E0.0669
G1 X-10.880 Y-8.406 E0.0669
G1 X-11.780 Y-9.906 E0.0669
G1 X-12.822 Y-11.312 E0.0669
G1 X-13.997 Y-12.609 E0.0669
G1 X-15.294 Y-13.784 E0.0669
G1 X-16.699 Y-14.826 E0.0669
G1 X-18.200 Y-15.726 E0.0669
G1 X-19.782 Y-16.474 E0.0669
G1 X-21.430 Y-17.063 E0.0669
G1 X-23.127 Y-17.489 E0.0669
G1 X-24.858 Y-17.745 E0.0669
G1 X-26.606 Y-17.831 E0.0669
G1 X-28.354 Y-17.745 E0.0669
G1 X-30.085 Y-17.489 E0.0669
G1 X-31.782 Y-17.063 E0.0669
G1 X-33.430 Y-16.474 E0.0669
G1 X-35.012 Y-15.726 E0.0669
G1 X-36.513 Y-14.826 E0.0669
G1 X-37.918 Y-13.784 E0.0669
G1 X-39.215 Y-12.609 E0.0669
G1 X-40.390 Y-11.312 E0.0669
G1 X-41.432 Y-9.906 E0.0669
G1 X-42.332 Y-8.406 E0.0669
G1 X-43.080 Y-6.824 E0.0669
G1 X-43.669 Y-5.176 E0.0669
G1 X-44.095 Y-3.479 E0.0669
G1 X-44.351 Y-1.748 E0.0669
G1 X-44.437 Y0.000 E0.0669
G1 X-44.351 Y1.748 E0.0669
G1 X-44.095 Y3.479 E0.0669
G1 X-43.669 Y5.176 E0.0669
G1 X-43.080 Y6.824 E0.0669
G1 X-42.332 Y8.406 E0.0669
G1 X-41.432 Y9.906 E0.0669
G1 X-40.390 Y11.312 E0.0669
G1 X-39.215 Y12.609 E0.0669
G1 X-37.918 Y13.784 E0.0669
G1 X-36.512 Y14.826 E0.0669
G1 X-35.012 Y15.726 E0.0669
G1 X-33.430 Y16.474 E0.0669
G1 X-31.782 Y17.063 E0.0669
G1 X-30.085 Y17.489 E0.0669
G1 X-28.354 Y17.745 E0.0669
G1 X-26.606 Y17.831 E0.0669
G1 X-24.858 Y17.745 E0.0669
G1 X-23.127 Y17.489 E0.0669
; feature outer perimeter
G1 X-23.217 Y17.037 F9000
G1 X-21.564 Y16.623 E0.0652 F1200
G1 X-19.959 Y16.048 E0.0652
G1 X-18.418 Y15.320 E0.0652
G1 X-16.955 Y14.443 E0.0652
G1 X-15.586 Y13.428 E0.0652
G1 X-14.323 Y12.283 E0.0652
G1 X-13.178 Y11.020 E0.0652
G1 X-12.163 Y9.651 E0.0652
G1 X-11.286 Y8.188 E0.0652
G1 X-10.558 Y6.647 E0.0652
G1 X-9.983 Y5.042 E0.0652
G1 X-9.569 Y3.389 E0.0652
G1 X-9.319 Y1.703 E0.0652
G1 X-9.235 Y0.000 E0.0652
G1 X-9.319 Y-1.703 E0.0652
G1 X-9.569 Y-3.389 E0.0652
G1 X-9.983 Y-5.042 E0.0652
G1 X-10.558 Y-6.647 E0.0652
G1 X-11.286 Y-8.188 E0.0652
G1 X-12.163 Y-9.651 E0.0652
G1 X-13.178 Y-11.020 E0.0652
G1 X-14.323 Y-12.283 E0.0652
G1 X-15.586 Y-13.428 E0.0652
G1 X-16.955 Y-14.443 E0.0652
G1 X-18.418 Y-15.319 E0.0652
G1 X-19.959 Y-16.048 E0.0652
G1 X-21.564 Y-16.623 E0.0652
G1 X-23.217 Y-17.037 E0.0652
G1 X-24.903 Y-17.287 E0.0652
G1 X-26.606 Y-17.371 E0.0652
G1 X-28.309 Y-17.287 E0.0652
G1 X-29.995 Y-17.037 E0.0652
G1 X-31.648 Y-16.623 E0.0652
G1 X-33.254 Y-16.048 E0.0652
G1 X-34.794 Y-15.319 E0.0652
G1 X-36.257 Y-14.443 E0.0652
G1 X-37.626 Y-13.428 E0.0652
G1 X-38.889 Y-12.283 E0.0652
G1 X-40.034 Y-11.020 E0.0652
G1 X-41.049 Y-9.651 E0.0652
G1 X-41.926 Y-8.188 E0.0652
G1 X-42.654 Y-6.647 E0.0652
G1 X-43.229 Y-5.042 E0.0652
G1 X-43.643 Y-3.389 E0.0652
G1 X-43.893 Y-1.703 E0.0652
G1 X-43.977 Y0.000 E0.0652
G1 X-43.893 Y1.703 E0.0652
G1 X-43.643 Y3.389 E0.0652
G1 X-43.229 Y5.042 E0.0652
G1 X-42.654 Y6.647 E0.0652
G1 X-41.926 Y8.188 E0.0652
G1 X-41.049 Y9.651 E0.0652
G1 X-40.034 Y11.020 E0.0652
G1 X-38.889 Y12.283 E0.0652
G1 X-37.626 Y13.428 E0.0652
G1 X-36.257 Y14.443 E0.0652
G1 X-34.794 Y15.320 E0.0652
G1 X-33.253 Y16.048 E0.0652
G1 X-31.648 Y16.623 E0.0652
G1 X-29.995 Y17.037 E0.0652
G1 X-28.309 Y17.287 E0.0652
G1 X-26.606 Y17.371 E0.0652
G1 X-24.903 Y17.287 E0.0652
G1 X-23.217 Y17.037 E0.0652
G1 E-1.9000 F1200
; feature solid layer
G1 Z0.700 F1200
G1 X-37.577 Y14.466 F9000
G1 Z0.200 F1200
G1 E1.9000 F1200
G1 X-29.122 Y22.921 E0.4573 F2400
G1 X-28.867 Y22.959 E0.0099
G1 X-28.411 Y22.981 E0.0175
G1 X-35.643 Y15.749 E0.3912
G1 X-35.174 Y16.030 E0.0209
G1 X-34.296 Y16.446 E0.0372
G1 X-27.727 Y23.015 E0.3553
G1 X-27.043 Y23.048 E0.0262
G1 X-33.152 Y16.940 E0.3304
G1 X-32.139 Y17.302 E0.0412
G1 X-26.382 Y23.059 E0.3114
G1 X-25.762 Y23.028 E0.0237
G1 X-31.234 Y17.556 E0.2960
G1 X-30.366 Y17.774 E0.0342
G1 X-25.142 Y22.998 E0.2826
G1 X-24.522 Y22.967 E0.0237
G1 X-29.577 Y17.913 E0.2734
G1 X-28.813 Y18.026 E0.0295
G1 X-23.940 Y22.899 E0.2636
G1 X-23.374 Y22.815 E0.0219
G1 X-28.084 Y18.104 E0.2548
G1 X-27.400 Y18.138 E0.0262
G1 X-22.807 Y22.731 E0.2484
G1 X-22.241 Y22.647 E0.0219
G1 X-26.716 Y18.171 E0.2421
G1 X-26.606 Y18.177 E0.0042
G1 X-26.086 Y18.151 E0.0199
G1 X-21.709 Y22.527 E0.2367
G1 X-21.189 Y22.397 E0.0205
G1 X-25.465 Y18.121 E0.2313
G1 X-24.845 Y18.090 E0.0237
G1 X-20.669 Y22.267 E0.2259
G1 X-20.149 Y22.136 E0.0205
G1 X-24.277 Y18.008 E0.2233
G1 X-23.711 Y17.924 E0.0219
G1 X-19.651 Y21.984 E0.2196
G1 X-19.171 Y21.812 E0.0195
