; G-Code generated by Simplify3D(R) Version 4.1.2
; Apr 2, 2020 at 4:24:17 PM
; Settings Summary
;   processName,Process1
;   applyToModels,CanStandoff,CanStandoff(2),CanStandoff(3),CanStandoff(2)(2)
;   profileName,MakerBot Replicator 2 HBP (modified)
;   profileVersion,2020-03-12 10:48:50
;   baseProfile,MakerBot Replicator 2(2)
;   printMaterial,PLA
;   printQuality,Medium
;   printExtruders,
;   extruderName,Primary Extruder
;   extruderToolheadNumber,0
;   extruderDiameter,0.4
;   extruderAutoWidth,0
;   extruderWidth,0.4
;   extrusionMultiplier,1
;   extruderUseRetract,1
;   extruderRetractionDistance,1.9
;   extruderExtraRestartDistance,0
;   extruderRetractionZLift,0.5
;   extruderRetractionSpeed,1200
;   extruderUseCoasting,0
;   extruderCoastingDistance,0.2
;   extruderUseWipe,0
;   extruderWipeDistance,5
;   primaryExtruder,0
;   layerHeight,0.2
;   topSolidLayers,3
;   bottomSolidLayers,3
;   perimeterOutlines,2
;   printPerimetersInsideOut,1
;   startPointOption,3
;   startPointOriginX,0
;   startPointOriginY,150
;   sequentialIslands,0
;   spiralVaseMode,0
;   firstLayerHeightPercentage,100
;   firstLayerWidthPercentage,115
;   firstLayerUnderspeed,0.5
;   useRaft,0
;   raftExtruder,0
;   raftTopLayers,2
;   raftBaseLayers,1
;   raftOffset,1
;   raftSeparationDistance,0.14
;   raftTopInfill,90
;   aboveRaftSpeedMultiplier,0.3
;   useSkirt,0
;   skirtExtruder,0
;   skirtLayers,1
;   skirtOutlines,5
;   skirtOffset,0
;   usePrimePillar,0
;   primePillarExtruder,999
;   primePillarWidth,12
;   primePillarLocation,7
;   primePillarSpeedMultiplier,1
;   useOozeShield,0
;   oozeShieldExtruder,999
;   oozeShieldOffset,2
;   oozeShieldOutlines,1
;   oozeShieldSidewallShape,1
;   oozeShieldSidewallAngle,30
;   oozeShieldSpeedMultiplier,1
;   infillExtruder,0
;   internalInfillPattern,Rectilinear
;   externalInfillPattern,Rectilinear
;   infillPercentage,15
;   outlineOverlapPercentage,25
;   infillExtrusionWidthPercentage,100
;   minInfillLength,5
;   infillLayerInterval,1
;   internalInfillAngles,45,-45
;   overlapInternalInfillAngles,0
;   externalInfillAngles,45,-45
;   generateSupport,0
;   supportExtruder,0
;   supportInfillPercentage,30
;   supportExtraInflation,0.5
;   supportBaseLayers,0
;   denseSupportExtruder,0
;   denseSupportLayers,2
;   denseSupportInfillPercentage,90
;   supportLayerInterval,1
;   supportHorizontalPartOffset,0.3
;   supportUpperSeparationLayers,1
;   supportLowerSeparationLayers,1
;   supportType,1
;   supportGridSpacing,2
;   maxOverhangAngle,45
;   supportAngles,45,-45
;   temperatureName,Primary Extruder,Heated Build Platform
;   temperatureNumber,0,0
;   temperatureSetpointCount,1,1
;   temperatureSetpointLayers,1,1
;   temperatureSetpointTemperatures,230,60
;   temperatureStabilizeAtStartup,1,1
;   temperatureHeatedBed,0,1
;   fanLayers,1,2
;   fanSpeeds,0,100
;   blipFanToFullPower,1
;   adjustSpeedForCooling,1
;   minSpeedLayerTime,15
;   minCoolingSpeedSlowdown,20
;   increaseFanForCooling,1
;   minFanLayerTime,45
;   maxCoolingFanSpeed,100
;   increaseFanForBridging,1
;   bridgingFanSpeed,100
;   use5D,1
;   relativeEdistances,1
;   allowEaxisZeroing,0
;   independentExtruderAxes,1
;   includeM10123,0
;   stickySupport,1
;   applyToolheadOffsets,0
;   gcodeXoffset,0
;   gcodeYoffset,0
;   gcodeZoffset,0
;   overrideMachineDefinition,1
;   machineTypeOverride,0
;   strokeXoverride,280
;   strokeYoverride,150
;   strokeZoverride,150
;   originOffsetXoverride,140
;   originOffsetYoverride,75
;   originOffsetZoverride,0
;   homeXdirOverride,1
;   homeYdirOverride,1
;   homeZdirOverride,-1
;   flipXoverride,1
;   flipYoverride,-1
;   flipZoverride,1
;   toolheadOffsets,0,0|0,0|0,0|0,0|0,0|0,0
;   overrideFirmwareConfiguration,1
;   firmwareTypeOverride,MakerBot/Sailfish Firmware
;   GPXconfigOverride,r2h
;   baudRateOverride,115200
;   overridePrinterModels,1
;   printerModelsOverride,MakerBot_Replicator2.stl
;   startingGcode,; **** Replicator 2 start.gcode ****,M73 P0 ; enable build progress,G162 X Y F3000 ; home XY maximum,G161 Z F1200 ; home Z minimum,G92 Z-5 ; set Z to -5,G1 Z0 ; move Z to 0,G161 Z F100 ; home Z slowly,M132 X Y Z A B ; recall home offsets,G1 X-145 Y-75 Z30 F9000 ; move to wait position off table,G130 X20 Y20 Z20 A20 B20 ; lower stepper Vrefs while heating,M126 S[fan_speed_pwm],M140 S[bed0_temperature] T0,M134 T0 ; stabilize bed temperature,M104 S[extruder0_temperature] T0,M133 T0 ; stabilize extruder temperature,G130 X127 Y127 Z40 A127 B127 ; default stepper Vrefs,G92 A0 ; zero extruder,G1 Z0.4 ; position nozzle,G1 E25 F300 ; purge nozzle,G1 X-140 Y-70 Z0.15 F1200 ; slow wipe,G1 X-135 Y-65 Z0.5 F1200 ; lift,G92 A0 ; zero extruder,M73 P1 ;@body (notify GPX body has started),; **** end of start.gcode ****
;   layerChangeGcode,
;   retractionGcode,
;   toolChangeGcode,
;   endingGcode,; **** Replicator 2 end.gcode ****,M73 P100 ; end build progress,G1 Z155 F1000 ; send Z axis to bottom of machine,M104 S0 T0 ; cool down extruder,M140 S0 T0 ; cool down HBP,M127 ; stop blower fan,G162 X Y F3000 ; home XY maximum,M18 ; disable stepper,M0 ; stop codes,M72 P1 ; play Ta-Da song,; **** end of end.gcode ****
;   exportFileFormat,gcode
;   celebration,0
;   celebrationSong,Random Song
;   postProcessing,
;   defaultSpeed,4800
;   outlineUnderspeed,0.5
;   solidInfillUnderspeed,1
;   supportUnderspeed,1
;   rapidXYspeed,9000
;   rapidZspeed,1200
;   minBridgingArea,50
;   bridgingExtraInflation,0
;   bridgingExtrusionMultiplier,1
;   bridgingSpeedMultiplier,0.8
;   useFixedBridgingAngle,0
;   fixedBridgingAngle,0
;   applyBridgingToPerimeters,0
;   filamentDiameters,1.75|1.75|1.75|1.75|1.75|1.75
;   filamentPricesPerKg,46|46|46|46|46|46
;   filamentDensities,1.25|1.25|1.25|1.25|1.25|1.25
;   useMinPrintHeight,0
;   minPrintHeight,0
;   useMaxPrintHeight,0
;   maxPrintHeight,4.84
;   useDiaphragm,0
;   diaphragmLayerInterval,20
;   robustSlicing,1
;   mergeAllIntoSolid,0
;   onlyRetractWhenCrossingOutline,0
;   retractBetweenLayers,0
;   useRetractionMinTravel,1
;   retractionMinTravel,7
;   retractWhileWiping,1
;   onlyWipeOutlines,1
;   avoidCrossingOutline,0
;   maxMovementDetourFactor,3
;   toolChangeRetractionDistance,12
;   toolChangeExtraRestartDistance,-0.5
;   toolChangeRetractionSpeed,600
;   externalThinWallType,0
;   internalThinWallType,0
;   thinWallAllowedOverlapPercentage,10
;   singleExtrusionMinLength,1
;   singleExtrusionMinPrintingWidthPercentage,50
;   singleExtrusionMaxPrintingWidthPercentage,200
;   singleExtrusionEndpointExtension,0.2
;   horizontalSizeCompensation,0
G90
M83
; **** Replicator 2 start.gcode ****
M73 P0 ; enable build progress
G162 X Y F3000 ; home XY maximum
G161 Z F1200 ; home Z minimum
G92 Z-5 ; set Z to -5
G1 Z0 ; move Z to 0
G161 Z F100 ; home Z slowly
M132 X Y Z A B ; recall home offsets
G1 X-145 Y-75 Z30 F9000 ; move to wait position off table
G130 X20 Y20 Z20 A20 B20 ; lower stepper Vrefs while heating
M127
M140 S60 T0
M134 T0 ; stabilize bed temperature
M104 S230 T0
M133 T0 ; stabilize extruder temperature
G130 X127 Y127 Z40 A127 B127 ; default stepper Vrefs
G92 A0 ; zero extruder
G1 Z0.4 ; position nozzle
G1 E25 F300 ; purge nozzle
G1 X-140 Y-70 Z0.15 F1200 ; slow wipe
G1 X-135 Y-65 Z0.5 F1200 ; lift
G92 A0 ; zero extruder
M73 P1 ;@body (notify GPX body has started)
; **** end of start.gcode ****
; process Process1
; layer 1, Z = 0.200
M135 T0
G1 E-1.9000 F1200
; feature inner perimeter
; tool H0.200 W0.460
G1 Z0.500 F1200
G1 X-0.000 Y-3.191 F9000
G1 Z0.200 F1200
G1 E1.9000 F1200
G1 X-2.295 Y-3.304 E0.0879 F1800
G1 X-4.568 Y-3.641 E0.0879
G1 X-6.797 Y-4.199 E0.0879
G1 X-8.961 Y-4.973 E0.0879
G1 X-11.038 Y-5.956 E0.0879
G1 X-13.009 Y-7.137 E0.0879
G1 X-14.854 Y-8.506 E0.0879
G1 X-16.557 Y-10.049 E0.0879
G1 X-18.100 Y-11.752 E0.0879
G1 X-19.469 Y-13.597 E0.0879
G1 X-20.650 Y-15.568 E0.0879
G1 X-21.633 Y-17.645 E0.0879
G1 X-22.407 Y-19.809 E0.0879
G1 X-22.965 Y-22.038 E0.0879
G1 X-23.302 Y-24.311 E0.0879
G1 X-23.415 Y-26.606 E0.0879
G1 X-23.302 Y-28.901 E0.0879
G1 X-22.965 Y-31.174 E0.0879
G1 X-22.407 Y-33.403 E0.0879
G1 X-21.633 Y-35.566 E0.0879
G1 X-20.650 Y-37.644 E0.0879
G1 X-19.469 Y-39.615 E0.0879
G1 X-18.127 Y-41.425 E0.0862
G1 X-16.557 Y-43.163 E0.0896
G1 X-14.854 Y-44.706 E0.0879
G1 X-13.009 Y-46.075 E0.0879
G1 X-11.038 Y-47.256 E0.0879
G1 X-8.961 Y-48.239 E0.0879
G1 X-6.797 Y-49.013 E0.0879
G1 X-4.568 Y-49.571 E0.0879
G1 X-2.295 Y-49.908 E0.0879
G1 X-0.000 Y-50.021 E0.0879
G1 X2.295 Y-49.908 E0.0879
G1 X4.568 Y-49.571 E0.0879
G1 X6.797 Y-49.013 E0.0879
G1 X8.961 Y-48.239 E0.0879
G1 X11.038 Y-47.256 E0.0879
G1 X13.009 Y-46.075 E0.0879
G1 X14.854 Y-44.706 E0.0879
G1 X16.557 Y-43.163 E0.0879
G1 X18.100 Y-41.460 E0.0879
G1 X19.469 Y-39.615 E0.0879
G1 X20.650 Y-37.644 E0.0879
G1 X21.633 Y-35.567 E0.0879
G1 X22.407 Y-33.403 E0.0879
G1 X22.965 Y-31.174 E0.0879
G1 X23.302 Y-28.901 E0.0879
G1 X23.415 Y-26.606 E0.0879
G1 X23.302 Y-24.311 E0.0879
G1 X22.965 Y-22.038 E0.0879
G1 X22.407 Y-19.809 E0.0879
G1 X21.633 Y-17.645 E0.0879
G1 X20.650 Y-15.568 E0.0879
G1 X19.469 Y-13.597 E0.0879
G1 X18.100 Y-11.752 E0.0879
G1 X16.557 Y-10.049 E0.0879
G1 X14.854 Y-8.506 E0.0879
G1 X13.009 Y-7.137 E0.0879
G1 X11.038 Y-5.956 E0.0879
G1 X8.961 Y-4.973 E0.0879
G1 X6.797 Y-4.199 E0.0879
G1 X4.568 Y-3.641 E0.0879
G1 X2.295 Y-3.304 E0.0879
G1 X-0.000 Y-3.191 E0.0879
; feature outer perimeter
G1 X-0.000 Y-2.730 F9000
G1 X-2.340 Y-2.845 E0.0896 F1200
G1 X-4.658 Y-3.189 E0.0896
G1 X-6.931 Y-3.758 E0.0896
G1 X-9.137 Y-4.548 E0.0896
G1 X-11.255 Y-5.550 E0.0896
G1 X-13.265 Y-6.754 E0.0896
G1 X-15.147 Y-8.150 E0.0896
G1 X-16.883 Y-9.723 E0.0896
G1 X-18.456 Y-11.459 E0.0896
G1 X-19.852 Y-13.341 E0.0896
G1 X-21.057 Y-15.351 E0.0896
G1 X-22.058 Y-17.469 E0.0896
G1 X-22.848 Y-19.675 E0.0896
G1 X-23.417 Y-21.948 E0.0896
G1 X-23.761 Y-24.266 E0.0896
G1 X-23.876 Y-26.606 E0.0896
G1 X-23.761 Y-28.946 E0.0896
G1 X-23.417 Y-31.264 E0.0896
G1 X-22.848 Y-33.537 E0.0896
G1 X-22.058 Y-35.743 E0.0896
G1 X-21.057 Y-37.861 E0.0896
G1 X-19.852 Y-39.871 E0.0896
G1 X-18.483 Y-41.717 E0.0879
G1 X-16.883 Y-43.489 E0.0913
G1 X-15.147 Y-45.062 E0.0896
G1 X-13.265 Y-46.458 E0.0896
G1 X-11.255 Y-47.662 E0.0896
G1 X-9.137 Y-48.664 E0.0896
G1 X-6.931 Y-49.454 E0.0896
G1 X-4.658 Y-50.023 E0.0896
G1 X-2.340 Y-50.367 E0.0896
G1 X-0.000 Y-50.482 E0.0896
G1 X2.340 Y-50.367 E0.0896
G1 X4.658 Y-50.023 E0.0896
G1 X6.931 Y-49.454 E0.0896
G1 X9.137 Y-48.664 E0.0896
G1 X11.255 Y-47.662 E0.0896
G1 X13.265 Y-46.458 E0.0896
G1 X15.147 Y-45.062 E0.0896
G1 X16.883 Y-43.489 E0.0896
G1 X18.456 Y-41.753 E0.0896
G1 X19.852 Y-39.871 E0.0896
G1 X21.056 Y-37.861 E0.0896
G1 X22.058 Y-35.743 E0.0896
G1 X22.848 Y-33.537 E0.0896
G1 X23.417 Y-31.264 E0.0896
G1 X23.761 Y-28.946 E0.0896
G1 X23.876 Y-26.606 E0.0896
G1 X23.761 Y-24.266 E0.0896
G1 X23.417 Y-21.948 E0.0896
G1 X22.848 Y-19.675 E0.0896
G1 X22.058 Y-17.469 E0.0896
G1 X21.056 Y-15.351 E0.0896
G1 X19.852 Y-13.341 E0.0896
G1 X18.456 Y-11.459 E0.0896
G1 X16.883 Y-9.723 E0.0896
G1 X15.147 Y-8.150 E0.0896
G1 X13.265 Y-6.754 E0.0896
G1 X11.255 Y-5.550 E0.0896
G1 X9.137 Y-4.548 E0.0896
G1 X6.931 Y-3.758 E0.0896
G1 X4.658 Y-3.189 E0.0896
G1 X2.340 Y-2.845 E0.0896
G1 X-0.000 Y-2.730 E0.0896
; feature inner perimeter
G1 X-0.000 Y-8.775 F9000
G1 X1.748 Y-8.861 E0.0669 F1800
G1 X3.479 Y-9.117 E0.0669
G1 X5.176 Y-9.543 E0.0669
G1 X6.824 Y-10.132 E0.0669
G1 X8.406 Y-10.880 E0.0669
G1 X9.906 Y-11.780 E0.0669
G1 X11.312 Y-12.822 E0.0669
G1 X12.609 Y-13.997 E0.0669
G1 X13.784 Y-15.294 E0.0669
G1 X14.826 Y-16.700 E0.0669
G1 X15.726 Y-18.200 E0.0669
G1 X16.474 Y-19.782 E0.0669
G1 X17.063 Y-21.430 E0.0669
G1 X17.489 Y-23.127 E0.0669
G1 X17.745 Y-24.858 E0.0669
G1 X17.831 Y-26.606 E0.0669
G1 X17.745 Y-28.354 E0.0669
G1 X17.489 Y-30.085 E0.0669
G1 X17.063 Y-31.782 E0.0669
G1 X16.474 Y-33.430 E0.0669
G1 X15.726 Y-35.012 E0.0669
G1 X14.826 Y-36.512 E0.0669
G1 X13.784 Y-37.918 E0.0669
G1 X12.609 Y-39.215 E0.0669
G1 X11.312 Y-40.390 E0.0669
G1 X9.906 Y-41.432 E0.0669
G1 X8.406 Y-42.332 E0.0669
G1 X6.824 Y-43.080 E0.0669
G1 X5.176 Y-43.669 E0.0669
G1 X3.479 Y-44.095 E0.0669
G1 X1.748 Y-44.351 E0.0669
G1 X-0.000 Y-44.437 E0.0669
G1 X-1.748 Y-44.351 E0.0669
G1 X-3.479 Y-44.095 E0.0669
G1 X-5.176 Y-43.669 E0.0669
G1 X-6.824 Y-43.080 E0.0669
G1 X-8.406 Y-42.332 E0.0669
G1 X-9.907 Y-41.432 E0.0669
G1 X-11.312 Y-40.390 E0.0669
G1 X-12.609 Y-39.215 E0.0669
G1 X-13.784 Y-37.918 E0.0669
G1 X-14.826 Y-36.512 E0.0669
G1 X-15.726 Y-35.012 E0.0669
G1 X-16.474 Y-33.430 E0.0669
G1 X-17.063 Y-31.782 E0.0669
G1 X-17.489 Y-30.085 E0.0669
G1 X-17.745 Y-28.354 E0.0669
G1 X-17.831 Y-26.606 E0.0669
G1 X-17.745 Y-24.858 E0.0669
G1 X-17.489 Y-23.127 E0.0669
G1 X-17.063 Y-21.430 E0.0669
G1 X-16.474 Y-19.782 E0.0669
G1 X-15.726 Y-18.200 E0.0669
G1 X-14.826 Y-16.700 E0.0669
G1 X-13.784 Y-15.294 E0.0669
G1 X-12.609 Y-13.997 E0.0669
G1 X-11.312 Y-12.822 E0.0669
G1 X-9.907 Y-11.780 E0.0669
G1 X-8.406 Y-10.880 E0.0669
G1 X-6.824 Y-10.132 E0.0669
G1 X-5.176 Y-9.543 E0.0669
G1 X-3.479 Y-9.117 E0.0669
G1 X-1.748 Y-8.861 E0.0669
G1 X-0.000 Y-8.775 E0.0669
; feature outer perimeter
G1 X-0.000 Y-9.235 F9000
G1 X1.703 Y-9.319 E0.0652 F1200
G1 X3.389 Y-9.569 E0.0652
G1 X5.042 Y-9.983 E0.0652
G1 X6.647 Y-10.558 E0.0652
G1 X8.188 Y-11.286 E0.0652
G1 X9.651 Y-12.163 E0.0652
G1 X11.020 Y-13.178 E0.0652
G1 X12.283 Y-14.323 E0.0652
G1 X13.428 Y-15.586 E0.0652
G1 X14.443 Y-16.955 E0.0652
G1 X15.320 Y-18.418 E0.0652
G1 X16.048 Y-19.959 E0.0652
G1 X16.623 Y-21.564 E0.0652
G1 X17.037 Y-23.217 E0.0652
G1 X17.287 Y-24.903 E0.0652
G1 X17.371 Y-26.606 E0.0652
G1 X17.287 Y-28.309 E0.0652
G1 X17.037 Y-29.995 E0.0652
G1 X16.623 Y-31.648 E0.0652
G1 X16.048 Y-33.253 E0.0652
G1 X15.320 Y-34.794 E0.0652
G1 X14.443 Y-36.257 E0.0652
G1 X13.428 Y-37.626 E0.0652
G1 X12.283 Y-38.889 E0.0652
G1 X11.020 Y-40.034 E0.0652
G1 X9.651 Y-41.049 E0.0652
G1 X8.188 Y-41.925 E0.0652
G1 X6.647 Y-42.654 E0.0652
G1 X5.042 Y-43.229 E0.0652
G1 X3.389 Y-43.643 E0.0652
G1 X1.703 Y-43.893 E0.0652
G1 X-0.000 Y-43.977 E0.0652
G1 X-1.703 Y-43.893 E0.0652
G1 X-3.389 Y-43.643 E0.0652
G1 X-5.042 Y-43.229 E0.0652
G1 X-6.648 Y-42.654 E0.0652
G1 X-8.189 Y-41.925 E0.0652
G1 X-9.651 Y-41.049 E0.0652
G1 X-11.020 Y-40.034 E0.0652
G1 X-12.283 Y-38.889 E0.0652
G1 X-13.428 Y-37.626 E0.0652
G1 X-14.443 Y-36.257 E0.0652
G1 X-15.320 Y-34.794 E0.0652
G1 X-16.048 Y-33.253 E0.0652
G1 X-16.623 Y-31.648 E0.0652
G1 X-17.037 Y-29.995 E0.0652
G1 X-17.287 Y-28.309 E0.0652
G1 X-17.371 Y-26.606 E0.0652
G1 X-17.287 Y-24.903 E0.0652
G1 X-17.037 Y-23.217 E0.0652
G1 X-16.623 Y-21.564 E0.0652
G1 X-16.048 Y-19.959 E0.0652
G1 X-15.320 Y-18.418 E0.0652
G1 X-14.443 Y-16.955 E0.0652
G1 X-13.428 Y-15.586 E0.0652
G1 X-12.283 Y-14.323 E0.0652
G1 X-11.020 Y-13.178 E0.0652
G1 X-9.651 Y-12.163 E0.0652
G1 X-8.188 Y-11.286 E0.0652
G1 X-6.647 Y-10.558 E0.0652
G1 X-5.042 Y-9.983 E0.0652
G1 X-3.389 Y-9.569 E0.0652
G1 X-1.703 Y-9.319 E0.0652
G1 X-0.000 Y-9.235 E0.0652
G1 E-1.9000 F1200
; feature solid layer
G1 Z0.700 F1200
G1 X-10.459 Y-11.760 F9000
G1 Z0.200 F1200
G1 E1.9000 F1200
G1 X-2.361 Y-3.662 E0.4381 F2400
G1 X-2.261 Y-3.647 E0.0039
G1 X-1.666 Y-3.618 E0.0228
G1 X-8.707 Y-10.659 E0.3809
G1 X-8.568 Y-10.576 E0.0062
G1 X-7.440 Y-10.042 E0.0478
G1 X-0.982 Y-3.584 E0.3493
G1 X-0.298 Y-3.551 E0.0262
G1 X-6.340 Y-9.593 E0.3268
G1 X-5.327 Y-9.230 E0.0412
G1 X0.350 Y-3.553 E0.3071
G1 X0.970 Y-3.584 E0.0237
G1 X-4.452 Y-9.006 E0.2933
G1 X-3.584 Y-8.788 E0.0342
G1 X1.590 Y-3.614 E0.2799
G1 X2.210 Y-3.645 E0.0237
G1 X-2.815 Y-8.670 E0.2718
G1 X-2.052 Y-8.557 E0.0295
G1 X2.781 Y-3.724 E0.2614
G1 X3.347 Y-3.808 E0.0219
G1 X-1.339 Y-8.495 E0.2535
G1 X-0.655 Y-8.462 E0.0262
G1 X3.914 Y-3.893 E0.2472
G1 X4.480 Y-3.977 E0.0219
G1 X0.026 Y-8.431 E0.2409
G1 X0.646 Y-8.461 E0.0237
G1 X5.002 Y-4.105 E0.2356
G1 X5.523 Y-4.236 E0.0205
G1 X1.266 Y-8.492 E0.2302
G1 X1.782 Y-8.517 E0.0197
G1 X1.877 Y-8.531 E0.0037
G1 X6.043 Y-4.366 E0.2253
G1 X6.563 Y-4.496 E0.0205
G1 X2.444 Y-8.615 E0.2228
G1 X3.010 Y-8.699 E0.0219
G1 X7.053 Y-4.657 E0.2187
G1 X7.532 Y-4.828 E0.0195
G1 X3.574 Y-8.786 E0.2141
