; G-Code generated by Simplify3D(R) Version 4.1.2
; Apr 2, 2020 at 4:25:25 PM
; Settings Summary
;   processName,Process1
;   applyToModels,DragBaseV2R4,DragLightSupport,DragBaseV2R4(2),DragLightSupport(2),DragBaseV2R4(3),DragLightSupport(3),DragBaseV2R4(2)(2),DragLightSupport(2)(2)
;   profileName,MakerBot Replicator 2 HBP (modified)
;   profileVersion,2020-03-12 10:48:50
;   baseProfile,MakerBot Replicator 2(2)
;   printMaterial,PLA
;   printQuality,Medium
;   printExtruders,
;   extruderName,Primary Extruder
;   extruderToolheadNumber,0
;   extruderDiameter,0.4
;   extruderAutoWidth,0
;   extruderWidth,0.4
;   extrusionMultiplier,1
;   extruderUseRetract,1
;   extruderRetractionDistance,1.9
;   extruderExtraRestartDistance,0
;   extruderRetractionZLift,0.5
;   extruderRetractionSpeed,1200
;   extruderUseCoasting,0
;   extruderCoastingDistance,0.2
;   extruderUseWipe,0
;   extruderWipeDistance,5
;   primaryExtruder,0
;   layerHeight,0.2
;   topSolidLayers,3
;   bottomSolidLayers,3
;   perimeterOutlines,2
;   printPerimetersInsideOut,1
;   startPointOption,3
;   startPointOriginX,0
;   startPointOriginY,150
;   sequentialIslands,0
;   spiralVaseMode,0
;   firstLayerHeightPercentage,100
;   firstLayerWidthPercentage,115
;   firstLayerUnderspeed,0.5
;   useRaft,0
;   raftExtruder,0
;   raftTopLayers,2
;   raftBaseLayers,1
;   raftOffset,1
;   raftSeparationDistance,0.14
;   raftTopInfill,90
;   aboveRaftSpeedMultiplier,0.3
;   useSkirt,0
;   skirtExtruder,0
;   skirtLayers,1
;   skirtOutlines,5
;   skirtOffset,0
;   usePrimePillar,0
;   primePillarExtruder,999
;   primePillarWidth,12
;   primePillarLocation,7
;   primePillarSpeedMultiplier,1
;   useOozeShield,0
;   oozeShieldExtruder,999
;   oozeShieldOffset,2
;   oozeShieldOutlines,1
;   oozeShieldSidewallShape,1
;   oozeShieldSidewallAngle,30
;   oozeShieldSpeedMultiplier,1
;   infillExtruder,0
;   internalInfillPattern,Rectilinear
;   externalInfillPattern,Rectilinear
;   infillPercentage,15
;   outlineOverlapPercentage,25
;   infillExtrusionWidthPercentage,100
;   minInfillLength,5
;   infillLayerInterval,1
;   internalInfillAngles,45,-45
;   overlapInternalInfillAngles,0
;   externalInfillAngles,45,-45
;   generateSupport,0
;   supportExtruder,0
;   supportInfillPercentage,30
;   supportExtraInflation,0.5
;   supportBaseLayers,0
;   denseSupportExtruder,0
;   denseSupportLayers,2
;   denseSupportInfillPercentage,90
;   supportLayerInterval,1
;   supportHorizontalPartOffset,0.3
;   supportUpperSeparationLayers,1
;   supportLowerSeparationLayers,1
;   supportType,1
;   supportGridSpacing,2
;   maxOverhangAngle,45
;   supportAngles,45,-45
;   temperatureName,Primary Extruder,Heated Build Platform
;   temperatureNumber,0,0
;   temperatureSetpointCount,1,1
;   temperatureSetpointLayers,1,1
;   temperatureSetpointTemperatures,230,60
;   temperatureStabilizeAtStartup,1,1
;   temperatureHeatedBed,0,1
;   fanLayers,1,2
;   fanSpeeds,0,100
;   blipFanToFullPower,1
;   adjustSpeedForCooling,1
;   minSpeedLayerTime,15
;   minCoolingSpeedSlowdown,20
;   increaseFanForCooling,1
;   minFanLayerTime,45
;   maxCoolingFanSpeed,100
;   increaseFanForBridging,1
;   bridgingFanSpeed,100
;   use5D,1
;   relativeEdistances,1
;   allowEaxisZeroing,0
;   independentExtruderAxes,1
;   includeM10123,0
;   stickySupport,1
;   applyToolheadOffsets,0
;   gcodeXoffset,0
;   gcodeYoffset,0
;   gcodeZoffset,0
;   overrideMachineDefinition,1
;   machineTypeOverride,0
;   strokeXoverride,280
;   strokeYoverride,150
;   strokeZoverride,150
;   originOffsetXoverride,140
;   originOffsetYoverride,75
;   originOffsetZoverride,0
;   homeXdirOverride,1
;   homeYdirOverride,1
;   homeZdirOverride,-1
;   flipXoverride,1
;   flipYoverride,-1
;   flipZoverride,1
;   toolheadOffsets,0,0|0,0|0,0|0,0|0,0|0,0
;   overrideFirmwareConfiguration,1
;   firmwareTypeOverride,MakerBot/Sailfish Firmware
;   GPXconfigOverride,r2h
;   baudRateOverride,115200
;   overridePrinterModels,1
;   printerModelsOverride,MakerBot_Replicator2.stl
;   startingGcode,; **** Replicator 2 start.gcode ****,M73 P0 ; enable build progress,G162 X Y F3000 ; home XY maximum,G161 Z F1200 ; home Z minimum,G92 Z-5 ; set Z to -5,G1 Z0 ; move Z to 0,G161 Z F100 ; home Z slowly,M132 X Y Z A B ; recall home offsets,G1 X-145 Y-75 Z30 F9000 ; move to wait position off table,G130 X20 Y20 Z20 A20 B20 ; lower stepper Vrefs while heating,M126 S[fan_speed_pwm],M140 S[bed0_temperature] T0,M134 T0 ; stabilize bed temperature,M104 S[extruder0_temperature] T0,M133 T0 ; stabilize extruder temperature,G130 X127 Y127 Z40 A127 B127 ; default stepper Vrefs,G92 A0 ; zero extruder,G1 Z0.4 ; position nozzle,G1 E25 F300 ; purge nozzle,G1 X-140 Y-70 Z0.15 F1200 ; slow wipe,G1 X-135 Y-65 Z0.5 F1200 ; lift,G92 A0 ; zero extruder,M73 P1 ;@body (notify GPX body has started),; **** end of start.gcode ****
;   layerChangeGcode,
;   retractionGcode,
;   toolChangeGcode,
;   endingGcode,; **** Replicator 2 end.gcode ****,M73 P100 ; end build progress,G1 Z155 F1000 ; send Z axis to bottom of machine,M104 S0 T0 ; cool down extruder,M140 S0 T0 ; cool down HBP,M127 ; stop blower fan,G162 X Y F3000 ; home XY maximum,M18 ; disable stepper,M0 ; stop codes,M72 P1 ; play Ta-Da song,; **** end of end.gcode ****
;   exportFileFormat,gcode
;   celebration,0
;   celebrationSong,Random Song
;   postProcessing,
;   defaultSpeed,4800
;   outlineUnderspeed,0.5
;   solidInfillUnderspeed,1
;   supportUnderspeed,1
;   rapidXYspeed,9000
;   rapidZspeed,1200
;   minBridgingArea,50
;   bridgingExtraInflation,0
;   bridgingExtrusionMultiplier,1
;   bridgingSpeedMultiplier,0.8
;   useFixedBridgingAngle,0
;   fixedBridgingAngle,0
;   applyBridgingToPerimeters,0
;   filamentDiameters,1.75|1.75|1.75|1.75|1.75|1.75
;   filamentPricesPerKg,46|46|46|46|46|46
;   filamentDensities,1.25|1.25|1.25|1.25|1.25|1.25
;   useMinPrintHeight,0
;   minPrintHeight,0
;   useMaxPrintHeight,0
;   maxPrintHeight,4.84
;   useDiaphragm,0
;   diaphragmLayerInterval,20
;   robustSlicing,1
;   mergeAllIntoSolid,0
;   onlyRetractWhenCrossingOutline,0
;   retractBetweenLayers,0
;   useRetractionMinTravel,1
;   retractionMinTravel,7
;   retractWhileWiping,1
;   onlyWipeOutlines,1
;   avoidCrossingOutline,0
;   maxMovementDetourFactor,3
;   toolChangeRetractionDistance,12
;   toolChangeExtraRestartDistance,-0.5
;   toolChangeRetractionSpeed,600
;   externalThinWallType,0
;   internalThinWallType,0
;   thinWallAllowedOverlapPercentage,10
;   singleExtrusionMinLength,1
;   singleExtrusionMinPrintingWidthPercentage,50
;   singleExtrusionMaxPrintingWidthPercentage,200
;   singleExtrusionEndpointExtension,0.2
;   horizontalSizeCompensation,0
G90
M83
; **** Replicator 2 start.gcode ****
M73 P0 ; enable build progress
G162 X Y F3000 ; home XY maximum
G161 Z F1200 ; home Z minimum
G92 Z-5 ; set Z to -5
G1 Z0 ; move Z to 0
G161 Z F100 ; home Z slowly
M132 X Y Z A B ; recall home offsets
G1 X-145 Y-75 Z30 F9000 ; move to wait position off table
G130 X20 Y20 Z20 A20 B20 ; lower stepper Vrefs while heating
M127
M140 S60 T0
M134 T0 ; stabilize bed temperature
M104 S230 T0
M133 T0 ; stabilize extruder temperature
G130 X127 Y127 Z40 A127 B127 ; default stepper Vrefs
G92 A0 ; zero extruder
G1 Z0.4 ; position nozzle
G1 E25 F300 ; purge nozzle
G1 X-140 Y-70 Z0.15 F1200 ; slow wipe
G1 X-135 Y-65 Z0.5 F1200 ; lift
G92 A0 ; zero extruder
M73 P1 ;@body (notify GPX body has started)
; **** end of start.gcode ****
; process Process1
; layer 1, Z = 0.200
M135 T0
G1 E-1.9000 F1200
; feature inner perimeter
; tool H0.200 W0.460
G1 Z0.500 F1200
G1 X-3.817 Y9.039 F9000
G1 Z0.200 F1200
G1 E1.9000 F1200
G1 X-42.503 Y9.039 E1.4797 F1800
G1 X-42.502 Y-15.419 E0.9355
G1 X-53.403 Y-15.419 E0.4170
G1 X-53.920 Y-15.511 E0.0201
G1 X-54.149 Y-15.663 E0.0105
G1 X-54.211 Y-15.818 E0.0064
G1 X-54.211 Y-56.554 E1.5581
G1 X-54.149 Y-56.710 E0.0064
G1 X-53.920 Y-56.862 E0.0105
G1 X-53.403 Y-56.954 E0.0201
G1 X-27.981 Y-56.954 E0.9724
G1 X-27.465 Y-56.862 E0.0201
G1 X-27.236 Y-56.710 E0.0105
G1 X-27.173 Y-56.554 E0.0064
G1 X-27.174 Y-15.818 E1.5581
G1 X-27.236 Y-15.663 E0.0064
G1 X-27.465 Y-15.511 E0.0105
G1 X-27.982 Y-15.419 E0.0201
G1 X-38.882 Y-15.419 E0.4170
G1 X-38.883 Y7.417 E0.8734
G1 X-3.817 Y7.417 E1.3412
G1 X-3.817 Y9.039 E0.0620
; feature outer perimeter
G1 X-3.357 Y9.499 F9000
G1 X-42.963 Y9.499 E1.5149 F1200
G1 X-42.962 Y-14.959 E0.9355
G1 X-53.444 Y-14.959 E0.4009
G1 X-54.095 Y-15.075 E0.0253
G1 X-54.522 Y-15.359 E0.0196
G1 X-54.671 Y-15.729 E0.0153
G1 X-54.671 Y-56.643 E1.5649
G1 X-54.522 Y-57.014 E0.0153
G1 X-54.095 Y-57.298 E0.0196
G1 X-53.444 Y-57.414 E0.0253
G1 X-27.941 Y-57.414 E0.9755
G1 X-27.290 Y-57.298 E0.0253
G1 X-26.863 Y-57.014 E0.0196
G1 X-26.713 Y-56.643 E0.0153
G1 X-26.714 Y-15.729 E1.5649
G1 X-26.863 Y-15.359 E0.0153
G1 X-27.290 Y-15.075 E0.0196
G1 X-27.941 Y-14.959 E0.0253
G1 X-38.422 Y-14.959 E0.4009
G1 X-38.423 Y6.957 E0.8382
G1 X-3.357 Y6.957 E1.3412
G1 X-3.357 Y9.499 E0.0972
G1 E-1.9000 F1200
; feature inner perimeter
G1 Z0.700 F1200
G1 X-30.396 Y-16.402 F9000
G1 Z0.200 F1200
G1 E1.9000 F1200
G1 X-29.992 Y-16.894 E0.0244 F1800
G1 X-29.692 Y-17.456 E0.0244
G1 X-29.507 Y-18.065 E0.0244
G1 X-29.445 Y-18.699 E0.0244
G1 X-29.507 Y-19.332 E0.0244
G1 X-29.692 Y-19.942 E0.0244
G1 X-29.992 Y-20.503 E0.0244
G1 X-30.396 Y-20.995 E0.0244
G1 X-30.888 Y-21.399 E0.0244
G1 X-31.425 Y-21.686 E0.0233
G1 X-32.056 Y-21.884 E0.0253
G1 X-32.692 Y-21.947 E0.0245
G1 X-33.326 Y-21.884 E0.0244
G1 X-33.935 Y-21.699 E0.0244
G1 X-34.497 Y-21.399 E0.0244
G1 X-34.989 Y-20.995 E0.0244
G1 X-35.393 Y-20.503 E0.0244
G1 X-35.693 Y-19.942 E0.0244
G1 X-35.878 Y-19.332 E0.0244
G1 X-35.940 Y-18.699 E0.0244
G1 X-35.878 Y-18.065 E0.0244
G1 X-35.693 Y-17.456 E0.0244
G1 X-35.393 Y-16.894 E0.0244
G1 X-34.989 Y-16.402 E0.0244
G1 X-34.497 Y-15.998 E0.0244
G1 X-33.935 Y-15.698 E0.0244
G1 X-33.326 Y-15.513 E0.0244
G1 X-32.692 Y-15.451 E0.0244
G1 X-32.059 Y-15.513 E0.0244
G1 X-31.450 Y-15.698 E0.0244
G1 X-30.888 Y-15.998 E0.0244
G1 X-30.396 Y-16.402 E0.0244
; feature outer perimeter
G1 X-30.723 Y-16.729 F9000
G1 X-30.376 Y-17.151 E0.0209 F1200
G1 X-30.119 Y-17.633 E0.0209
G1 X-29.960 Y-18.155 E0.0209
G1 X-29.907 Y-18.699 E0.0209
G1 X-29.960 Y-19.242 E0.0209
G1 X-30.119 Y-19.765 E0.0209
G1 X-30.376 Y-20.246 E0.0209
G1 X-30.723 Y-20.668 E0.0209
G1 X-31.145 Y-21.015 E0.0209
G1 X-31.604 Y-21.260 E0.0199
G1 X-32.148 Y-21.431 E0.0218
G1 X-32.692 Y-21.484 E0.0209
G1 X-33.236 Y-21.431 E0.0209
G1 X-33.758 Y-21.272 E0.0209
G1 X-34.240 Y-21.015 E0.0209
G1 X-34.662 Y-20.668 E0.0209
G1 X-35.009 Y-20.246 E0.0209
G1 X-35.266 Y-19.765 E0.0209
G1 X-35.425 Y-19.242 E0.0209
G1 X-35.478 Y-18.699 E0.0209
G1 X-35.425 Y-18.155 E0.0209
G1 X-35.266 Y-17.633 E0.0209
G1 X-35.009 Y-17.151 E0.0209
G1 X-34.662 Y-16.729 E0.0209
G1 X-34.240 Y-16.383 E0.0209
G1 X-33.758 Y-16.125 E0.0209
G1 X-33.236 Y-15.967 E0.0209
G1 X-32.692 Y-15.913 E0.0209
G1 X-32.149 Y-15.967 E0.0209
G1 X-31.626 Y-16.125 E0.0209
G1 X-31.145 Y-16.383 E0.0209
G1 X-30.723 Y-16.729 E0.0209
G1 E-1.9000 F1200
; feature inner perimeter
G1 Z0.700 F1200
G1 X-32.059 Y-24.028 F9000
G1 Z0.200 F1200
G1 E1.9000 F1200
G1 X-31.450 Y-24.213 E0.0244 F1800
G1 X-30.888 Y-24.513 E0.0244
G1 X-30.396 Y-24.917 E0.0244
G1 X-29.992 Y-25.409 E0.0244
G1 X-29.692 Y-25.971 E0.0244
G1 X-29.507 Y-26.580 E0.0244
G1 X-29.445 Y-27.214 E0.0244
G1 X-29.507 Y-27.847 E0.0244
G1 X-29.692 Y-28.457 E0.0244
G1 X-29.992 Y-29.018 E0.0244
G1 X-30.396 Y-29.510 E0.0244
G1 X-30.888 Y-29.914 E0.0244
G1 X-31.425 Y-30.201 E0.0233
G1 X-32.056 Y-30.399 E0.0253
G1 X-32.692 Y-30.462 E0.0245
G1 X-33.326 Y-30.399 E0.0244
G1 X-33.935 Y-30.214 E0.0244
G1 X-34.497 Y-29.914 E0.0244
G1 X-34.989 Y-29.510 E0.0244
G1 X-35.393 Y-29.018 E0.0244
G1 X-35.693 Y-28.457 E0.0244
G1 X-35.878 Y-27.847 E0.0244
G1 X-35.940 Y-27.214 E0.0244
G1 X-35.878 Y-26.580 E0.0244
G1 X-35.693 Y-25.971 E0.0244
G1 X-35.393 Y-25.409 E0.0244
G1 X-34.989 Y-24.917 E0.0244
G1 X-34.497 Y-24.513 E0.0244
G1 X-33.935 Y-24.213 E0.0244
G1 X-33.326 Y-24.028 E0.0244
G1 X-32.692 Y-23.966 E0.0244
G1 X-32.059 Y-24.028 E0.0244
; feature outer perimeter
G1 X-32.149 Y-24.482 F9000
G1 X-31.626 Y-24.640 E0.0209 F1200
G1 X-31.145 Y-24.898 E0.0209
G1 X-30.723 Y-25.244 E0.0209
G1 X-30.376 Y-25.666 E0.0209
G1 X-30.119 Y-26.148 E0.0209
G1 X-29.960 Y-26.670 E0.0209
G1 X-29.907 Y-27.214 E0.0209
G1 X-29.960 Y-27.757 E0.0209
G1 X-30.119 Y-28.280 E0.0209
G1 X-30.376 Y-28.761 E0.0209
G1 X-30.723 Y-29.183 E0.0209
G1 X-31.145 Y-29.530 E0.0209
G1 X-31.604 Y-29.775 E0.0199
G1 X-32.148 Y-29.946 E0.0218
G1 X-32.692 Y-29.999 E0.0209
G1 X-33.236 Y-29.946 E0.0209
G1 X-33.758 Y-29.787 E0.0209
G1 X-34.240 Y-29.530 E0.0209
G1 X-34.662 Y-29.183 E0.0209
G1 X-35.009 Y-28.761 E0.0209
G1 X-35.266 Y-28.280 E0.0209
G1 X-35.425 Y-27.757 E0.0209
G1 X-35.478 Y-27.214 E0.0209
G1 X-35.425 Y-26.670 E0.0209
G1 X-35.266 Y-26.148 E0.0209
G1 X-35.009 Y-25.666 E0.0209
G1 X-34.662 Y-25.244 E0.0209
G1 X-34.240 Y-24.898 E0.0209
G1 X-33.758 Y-24.640 E0.0209
G1 X-33.236 Y-24.482 E0.0209
G1 X-32.692 Y-24.428 E0.0209
G1 X-32.149 Y-24.482 E0.0209
G1 E-1.9000 F1200
; feature inner perimeter
G1 Z0.700 F1200
G1 X-32.692 Y-32.481 F9000
G1 Z0.200 F1200
G1 E1.9000 F1200
G1 X-32.059 Y-32.543 E0.0244 F1800
G1 X-31.450 Y-32.728 E0.0244
G1 X-30.888 Y-33.028 E0.0244
G1 X-30.396 Y-33.432 E0.0244
G1 X-29.992 Y-33.924 E0.0244
G1 X-29.692 Y-34.486 E0.0244
G1 X-29.515 Y-35.068 E0.0233
G1 X-29.444 Y-35.725 E0.0253
G1 X-29.507 Y-36.362 E0.0245
G1 X-29.692 Y-36.972 E0.0244
G1 X-29.992 Y-37.533 E0.0244
G1 X-30.396 Y-38.025 E0.0244
G1 X-30.888 Y-38.429 E0.0244
G1 X-31.450 Y-38.729 E0.0244
G1 X-32.059 Y-38.914 E0.0244
G1 X-32.692 Y-38.976 E0.0244
G1 X-33.326 Y-38.914 E0.0244
G1 X-33.935 Y-38.729 E0.0244
G1 X-34.497 Y-38.429 E0.0244
G1 X-34.989 Y-38.025 E0.0244
G1 X-35.393 Y-37.533 E0.0244
G1 X-35.693 Y-36.972 E0.0244
G1 X-35.878 Y-36.362 E0.0244
G1 X-35.940 Y-35.729 E0.0244
G1 X-35.878 Y-35.095 E0.0244
G1 X-35.693 Y-34.486 E0.0244
G1 X-35.393 Y-33.924 E0.0244
G1 X-34.989 Y-33.432 E0.0244
G1 X-34.497 Y-33.028 E0.0244
G1 X-33.935 Y-32.728 E0.0244
G1 X-33.326 Y-32.543 E0.0244
G1 X-32.692 Y-32.481 E0.0244
; feature outer perimeter
G1 X-32.692 Y-32.943 F9000
G1 X-32.149 Y-32.997 E0.0209 F1200
G1 X-31.626 Y-33.155 E0.0209
G1 X-31.145 Y-33.413 E0.0209
G1 X-30.723 Y-33.759 E0.0209
G1 X-30.376 Y-34.181 E0.0209
G1 X-30.119 Y-34.663 E0.0209
G1 X-29.968 Y-35.161 E0.0199
G1 X-29.907 Y-35.728 E0.0218
G1 X-29.960 Y-36.272 E0.0209
G1 X-30.119 Y-36.795 E0.0209
G1 X-30.376 Y-37.276 E0.0209
G1 X-30.723 Y-37.698 E0.0209
G1 X-31.145 Y-38.045 E0.0209
G1 X-31.626 Y-38.302 E0.0209
G1 X-32.149 Y-38.461 E0.0209
G1 X-32.692 Y-38.514 E0.0209
G1 X-33.236 Y-38.461 E0.0209
G1 X-33.758 Y-38.302 E0.0209
G1 X-34.240 Y-38.045 E0.0209
G1 X-34.662 Y-37.698 E0.0209
G1 X-35.009 Y-37.276 E0.0209
G1 X-35.266 Y-36.795 E0.0209
G1 X-35.425 Y-36.272 E0.0209
G1 X-35.478 Y-35.729 E0.0209
G1 X-35.425 Y-35.185 E0.0209
G1 X-35.266 Y-34.663 E0.0209
G1 X-35.009 Y-34.181 E0.0209
G1 X-34.662 Y-33.759 E0.0209
G1 X-34.240 Y-33.413 E0.0209
G1 X-33.758 Y-33.155 E0.0209
G1 X-33.236 Y-32.997 E0.0209
G1 X-32.692 Y-32.943 E0.0209
G1 E-1.9000 F1200
; feature inner perimeter
G1 Z0.700 F1200
G1 X-32.692 Y-40.996 F9000
G1 Z0.200 F1200
G1 E1.9000 F1200
G1 X-32.059 Y-41.058 E0.0244 F1800
G1 X-31.450 Y-41.243 E0.0244
G1 X-30.888 Y-41.543 E0.0244
G1 X-30.396 Y-41.947 E0.0244
G1 X-29.992 Y-42.439 E0.0244
G1 X-29.692 Y-43.001 E0.0244
G1 X-29.507 Y-43.610 E0.0244
G1 X-29.445 Y-44.244 E0.0244
G1 X-29.507 Y-44.877 E0.0244
G1 X-29.684 Y-45.460 E0.0233
G1 X-29.990 Y-46.046 E0.0253
G1 X-30.396 Y-46.540 E0.0245
G1 X-30.888 Y-46.944 E0.0244
G1 X-31.450 Y-47.244 E0.0244
G1 X-32.059 Y-47.429 E0.0244
G1 X-32.692 Y-47.491 E0.0244
G1 X-33.326 Y-47.429 E0.0244
G1 X-33.935 Y-47.244 E0.0244
G1 X-34.497 Y-46.944 E0.0244
G1 X-34.989 Y-46.540 E0.0244
G1 X-35.393 Y-46.048 E0.0244
G1 X-35.693 Y-45.486 E0.0244
G1 X-35.878 Y-44.877 E0.0244
G1 X-35.940 Y-44.244 E0.0244
G1 X-35.878 Y-43.610 E0.0244
G1 X-35.693 Y-43.001 E0.0244
G1 X-35.393 Y-42.439 E0.0244
G1 X-34.989 Y-41.947 E0.0244
