; G-Code generated by Simplify3D(R) Version 4.1.2
; Apr 2, 2020 at 4:25:08 PM
; Settings Summary
;   processName,Process1
;   applyToModels,DragBaseV2R4,DragLightSupport,DragBaseV2R4(2),DragLightSupport(2)
;   profileName,MakerBot Replicator 2 HBP (modified)
;   profileVersion,2020-03-12 10:48:50
;   baseProfile,MakerBot Replicator 2(2)
;   printMaterial,PLA
;   printQuality,Medium
;   printExtruders,
;   extruderName,Primary Extruder
;   extruderToolheadNumber,0
;   extruderDiameter,0.4
;   extruderAutoWidth,0
;   extruderWidth,0.4
;   extrusionMultiplier,1
;   extruderUseRetract,1
;   extruderRetractionDistance,1.9
;   extruderExtraRestartDistance,0
;   extruderRetractionZLift,0.5
;   extruderRetractionSpeed,1200
;   extruderUseCoasting,0
;   extruderCoastingDistance,0.2
;   extruderUseWipe,0
;   extruderWipeDistance,5
;   primaryExtruder,0
;   layerHeight,0.2
;   topSolidLayers,3
;   bottomSolidLayers,3
;   perimeterOutlines,2
;   printPerimetersInsideOut,1
;   startPointOption,3
;   startPointOriginX,0
;   startPointOriginY,150
;   sequentialIslands,0
;   spiralVaseMode,0
;   firstLayerHeightPercentage,100
;   firstLayerWidthPercentage,115
;   firstLayerUnderspeed,0.5
;   useRaft,0
;   raftExtruder,0
;   raftTopLayers,2
;   raftBaseLayers,1
;   raftOffset,1
;   raftSeparationDistance,0.14
;   raftTopInfill,90
;   aboveRaftSpeedMultiplier,0.3
;   useSkirt,0
;   skirtExtruder,0
;   skirtLayers,1
;   skirtOutlines,5
;   skirtOffset,0
;   usePrimePillar,0
;   primePillarExtruder,999
;   primePillarWidth,12
;   primePillarLocation,7
;   primePillarSpeedMultiplier,1
;   useOozeShield,0
;   oozeShieldExtruder,999
;   oozeShieldOffset,2
;   oozeShieldOutlines,1
;   oozeShieldSidewallShape,1
;   oozeShieldSidewallAngle,30
;   oozeShieldSpeedMultiplier,1
;   infillExtruder,0
;   internalInfillPattern,Rectilinear
;   externalInfillPattern,Rectilinear
;   infillPercentage,15
;   outlineOverlapPercentage,25
;   infillExtrusionWidthPercentage,100
;   minInfillLength,5
;   infillLayerInterval,1
;   internalInfillAngles,45,-45
;   overlapInternalInfillAngles,0
;   externalInfillAngles,45,-45
;   generateSupport,0
;   supportExtruder,0
;   supportInfillPercentage,30
;   supportExtraInflation,0.5
;   supportBaseLayers,0
;   denseSupportExtruder,0
;   denseSupportLayers,2
;   denseSupportInfillPercentage,90
;   supportLayerInterval,1
;   supportHorizontalPartOffset,0.3
;   supportUpperSeparationLayers,1
;   supportLowerSeparationLayers,1
;   supportType,1
;   supportGridSpacing,2
;   maxOverhangAngle,45
;   supportAngles,45,-45
;   temperatureName,Primary Extruder,Heated Build Platform
;   temperatureNumber,0,0
;   temperatureSetpointCount,1,1
;   temperatureSetpointLayers,1,1
;   temperatureSetpointTemperatures,230,60
;   temperatureStabilizeAtStartup,1,1
;   temperatureHeatedBed,0,1
;   fanLayers,1,2
;   fanSpeeds,0,100
;   blipFanToFullPower,1
;   adjustSpeedForCooling,1
;   minSpeedLayerTime,15
;   minCoolingSpeedSlowdown,20
;   increaseFanForCooling,1
;   minFanLayerTime,45
;   maxCoolingFanSpeed,100
;   increaseFanForBridging,1
;   bridgingFanSpeed,100
;   use5D,1
;   relativeEdistances,1
;   allowEaxisZeroing,0
;   independentExtruderAxes,1
;   includeM10123,0
;   stickySupport,1
;   applyToolheadOffsets,0
;   gcodeXoffset,0
;   gcodeYoffset,0
;   gcodeZoffset,0
;   overrideMachineDefinition,1
;   machineTypeOverride,0
;   strokeXoverride,280
;   strokeYoverride,150
;   strokeZoverride,150
;   originOffsetXoverride,140
;   originOffsetYoverride,75
;   originOffsetZoverride,0
;   homeXdirOverride,1
;   homeYdirOverride,1
;   homeZdirOverride,-1
;   flipXoverride,1
;   flipYoverride,-1
;   flipZoverride,1
;   toolheadOffsets,0,0|0,0|0,0|0,0|0,0|0,0
;   overrideFirmwareConfiguration,1
;   firmwareTypeOverride,MakerBot/Sailfish Firmware
;   GPXconfigOverride,r2h
;   baudRateOverride,115200
;   overridePrinterModels,1
;   printerModelsOverride,MakerBot_Replicator2.stl
;   startingGcode,; **** Replicator 2 start.gcode ****,M73 P0 ; enable build progress,G162 X Y F3000 ; home XY maximum,G161 Z F1200 ; home Z minimum,G92 Z-5 ; set Z to -5,G1 Z0 ; move Z to 0,G161 Z F100 ; home Z slowly,M132 X Y Z A B ; recall home offsets,G1 X-145 Y-75 Z30 F9000 ; move to wait position off table,G130 X20 Y20 Z20 A20 B20 ; lower stepper Vrefs while heating,M126 S[fan_speed_pwm],M140 S[bed0_temperature] T0,M134 T0 ; stabilize bed temperature,M104 S[extruder0_temperature] T0,M133 T0 ; stabilize extruder temperature,G130 X127 Y127 Z40 A127 B127 ; default stepper Vrefs,G92 A0 ; zero extruder,G1 Z0.4 ; position nozzle,G1 E25 F300 ; purge nozzle,G1 X-140 Y-70 Z0.15 F1200 ; slow wipe,G1 X-135 Y-65 Z0.5 F1200 ; lift,G92 A0 ; zero extruder,M73 P1 ;@body (notify GPX body has started),; **** end of start.gcode ****
;   layerChangeGcode,
;   retractionGcode,
;   toolChangeGcode,
;   endingGcode,; **** Replicator 2 end.gcode ****,M73 P100 ; end build progress,G1 Z155 F1000 ; send Z axis to bottom of machine,M104 S0 T0 ; cool down extruder,M140 S0 T0 ; cool down HBP,M127 ; stop blower fan,G162 X Y F3000 ; home XY maximum,M18 ; disable stepper,M0 ; stop codes,M72 P1 ; play Ta-Da song,; **** end of end.gcode ****
;   exportFileFormat,gcode
;   celebration,0
;   celebrationSong,Random Song
;   postProcessing,
;   defaultSpeed,4800
;   outlineUnderspeed,0.5
;   solidInfillUnderspeed,1
;   supportUnderspeed,1
;   rapidXYspeed,9000
;   rapidZspeed,1200
;   minBridgingArea,50
;   bridgingExtraInflation,0
;   bridgingExtrusionMultiplier,1
;   bridgingSpeedMultiplier,0.8
;   useFixedBridgingAngle,0
;   fixedBridgingAngle,0
;   applyBridgingToPerimeters,0
;   filamentDiameters,1.75|1.75|1.75|1.75|1.75|1.75
;   filamentPricesPerKg,46|46|46|46|46|46
;   filamentDensities,1.25|1.25|1.25|1.25|1.25|1.25
;   useMinPrintHeight,0
;   minPrintHeight,0
;   useMaxPrintHeight,0
;   maxPrintHeight,4.84
;   useDiaphragm,0
;   diaphragmLayerInterval,20
;   robustSlicing,1
;   mergeAllIntoSolid,0
;   onlyRetractWhenCrossingOutline,0
;   retractBetweenLayers,0
;   useRetractionMinTravel,1
;   retractionMinTravel,7
;   retractWhileWiping,1
;   onlyWipeOutlines,1
;   avoidCrossingOutline,0
;   maxMovementDetourFactor,3
;   toolChangeRetractionDistance,12
;   toolChangeExtraRestartDistance,-0.5
;   toolChangeRetractionSpeed,600
;   externalThinWallType,0
;   internalThinWallType,0
;   thinWallAllowedOverlapPercentage,10
;   singleExtrusionMinLength,1
;   singleExtrusionMinPrintingWidthPercentage,50
;   singleExtrusionMaxPrintingWidthPercentage,200
;   singleExtrusionEndpointExtension,0.2
;   horizontalSizeCompensation,0
G90
M83
; **** Replicator 2 start.gcode ****
M73 P0 ; enable build progress
G162 X Y F3000 ; home XY maximum
G161 Z F1200 ; home Z minimum
G92 Z-5 ; set Z to -5
G1 Z0 ; move Z to 0
G161 Z F100 ; home Z slowly
M132 X Y Z A B ; recall home offsets
G1 X-145 Y-75 Z30 F9000 ; move to wait position off table
G130 X20 Y20 Z20 A20 B20 ; lower stepper Vrefs while heating
M127
M140 S60 T0
M134 T0 ; stabilize bed temperature
M104 S230 T0
M133 T0 ; stabilize extruder temperature
G130 X127 Y127 Z40 A127 B127 ; default stepper Vrefs
G92 A0 ; zero extruder
G1 Z0.4 ; position nozzle
G1 E25 F300 ; purge nozzle
G1 X-140 Y-70 Z0.15 F1200 ; slow wipe
G1 X-135 Y-65 Z0.5 F1200 ; lift
G92 A0 ; zero extruder
M73 P1 ;@body (notify GPX body has started)
; **** end of start.gcode ****
; process Process1
; layer 1, Z = 0.200
M135 T0
G1 E-1.9000 F1200
; feature inner perimeter
; tool H0.200 W0.460
G1 Z0.500 F1200
G1 X-18.519 Y32.996 F9000
G1 Z0.200 F1200
G1 E1.9000 F1200
G1 X-18.519 Y8.539 E0.9355 F1800
G1 X-29.420 Y8.539 E0.4169
G1 X-29.937 Y8.447 E0.0201
G1 X-30.165 Y8.295 E0.0105
G1 X-30.228 Y8.139 E0.0064
G1 X-30.228 Y-32.596 E1.5581
G1 X-30.165 Y-32.752 E0.0064
G1 X-29.937 Y-32.904 E0.0105
G1 X-29.420 Y-32.996 E0.0201
G1 X-3.998 Y-32.996 E0.9724
G1 X-3.481 Y-32.904 E0.0201
G1 X-3.253 Y-32.752 E0.0105
G1 X-3.190 Y-32.596 E0.0064
G1 X-3.190 Y8.139 E1.5581
G1 X-3.253 Y8.295 E0.0064
G1 X-3.481 Y8.447 E0.0105
G1 X-3.998 Y8.539 E0.0201
G1 X-14.899 Y8.539 E0.4170
G1 X-14.899 Y31.374 E0.8734
G1 X20.167 Y31.374 E1.3412
G1 X20.167 Y32.996 E0.0620
G1 X-18.519 Y32.996 E1.4797
; feature outer perimeter
G1 X-18.979 Y33.456 F9000
G1 X-18.979 Y8.999 E0.9355 F1200
G1 X-29.460 Y8.999 E0.4009
G1 X-30.112 Y8.883 E0.0253
G1 X-30.539 Y8.599 E0.0196
G1 X-30.688 Y8.228 E0.0153
G1 X-30.688 Y-32.686 E1.5649
G1 X-30.539 Y-33.056 E0.0153
G1 X-30.112 Y-33.340 E0.0196
G1 X-29.460 Y-33.456 E0.0253
G1 X-3.957 Y-33.456 E0.9755
G1 X-3.306 Y-33.340 E0.0253
G1 X-2.879 Y-33.056 E0.0196
G1 X-2.730 Y-32.686 E0.0153
G1 X-2.730 Y8.228 E1.5649
G1 X-2.879 Y8.599 E0.0153
G1 X-3.306 Y8.883 E0.0196
G1 X-3.957 Y8.999 E0.0253
G1 X-14.439 Y8.999 E0.4009
G1 X-14.439 Y30.914 E0.8382
G1 X20.627 Y30.914 E1.3412
G1 X20.627 Y33.456 E0.0972
G1 X-18.979 Y33.456 E1.5149
G1 E-1.9000 F1200
; feature inner perimeter
G1 Z0.700 F1200
G1 X-24.075 Y8.444 F9000
G1 Z0.200 F1200
G1 E1.9000 F1200
G1 X-23.466 Y8.259 E0.0244 F1800
G1 X-22.905 Y7.959 E0.0244
G1 X-22.412 Y7.555 E0.0244
G1 X-22.008 Y7.063 E0.0244
G1 X-21.708 Y6.502 E0.0244
G1 X-21.523 Y5.892 E0.0244
G1 X-21.461 Y5.259 E0.0244
G1 X-21.523 Y4.625 E0.0244
G1 X-21.708 Y4.016 E0.0244
G1 X-22.008 Y3.454 E0.0244
G1 X-22.412 Y2.962 E0.0244
G1 X-22.905 Y2.558 E0.0244
G1 X-23.466 Y2.258 E0.0244
G1 X-24.075 Y2.073 E0.0244
G1 X-24.709 Y2.011 E0.0244
G1 X-25.315 Y2.071 E0.0233
G1 X-25.949 Y2.257 E0.0253
G1 X-26.513 Y2.558 E0.0245
G1 X-27.005 Y2.962 E0.0244
G1 X-27.409 Y3.454 E0.0244
G1 X-27.710 Y4.016 E0.0244
G1 X-27.894 Y4.625 E0.0244
G1 X-27.957 Y5.259 E0.0244
G1 X-27.894 Y5.892 E0.0244
G1 X-27.710 Y6.502 E0.0244
G1 X-27.409 Y7.063 E0.0244
G1 X-27.005 Y7.555 E0.0244
G1 X-26.513 Y7.959 E0.0244
G1 X-25.952 Y8.259 E0.0244
G1 X-25.343 Y8.444 E0.0244
G1 X-24.709 Y8.507 E0.0244
G1 X-24.075 Y8.444 E0.0244
; feature outer perimeter
G1 X-24.165 Y7.991 F9000
G1 X-23.643 Y7.832 E0.0209 F1200
G1 X-23.161 Y7.575 E0.0209
G1 X-22.739 Y7.229 E0.0209
G1 X-22.393 Y6.806 E0.0209
G1 X-22.135 Y6.325 E0.0209
G1 X-21.977 Y5.802 E0.0209
G1 X-21.923 Y5.259 E0.0209
G1 X-21.977 Y4.715 E0.0209
G1 X-22.135 Y4.193 E0.0209
G1 X-22.393 Y3.711 E0.0209
G1 X-22.739 Y3.289 E0.0209
G1 X-23.161 Y2.943 E0.0209
G1 X-23.643 Y2.685 E0.0209
G1 X-24.165 Y2.527 E0.0209
G1 X-24.709 Y2.473 E0.0209
G1 X-25.227 Y2.524 E0.0199
G1 X-25.774 Y2.685 E0.0218
G1 X-26.257 Y2.943 E0.0209
G1 X-26.679 Y3.289 E0.0209
G1 X-27.025 Y3.711 E0.0209
G1 X-27.282 Y4.193 E0.0209
G1 X-27.441 Y4.715 E0.0209
G1 X-27.495 Y5.259 E0.0209
G1 X-27.441 Y5.802 E0.0209
G1 X-27.282 Y6.325 E0.0209
G1 X-27.025 Y6.806 E0.0209
G1 X-26.679 Y7.229 E0.0209
G1 X-26.257 Y7.575 E0.0209
G1 X-25.775 Y7.832 E0.0209
G1 X-25.252 Y7.991 E0.0209
G1 X-24.709 Y8.044 E0.0209
G1 X-24.165 Y7.991 E0.0209
G1 E-1.9000 F1200
; feature inner perimeter
G1 Z0.700 F1200
G1 X-24.709 Y-0.008 F9000
G1 Z0.200 F1200
G1 E1.9000 F1200
G1 X-24.075 Y-0.071 E0.0244 F1800
G1 X-23.466 Y-0.256 E0.0244
G1 X-22.905 Y-0.556 E0.0244
G1 X-22.412 Y-0.960 E0.0244
G1 X-22.008 Y-1.452 E0.0244
G1 X-21.708 Y-2.013 E0.0244
G1 X-21.523 Y-2.623 E0.0244
G1 X-21.461 Y-3.256 E0.0244
G1 X-21.521 Y-3.862 E0.0233
G1 X-21.707 Y-4.496 E0.0253
G1 X-22.008 Y-5.061 E0.0245
G1 X-22.412 Y-5.553 E0.0244
G1 X-22.904 Y-5.957 E0.0244
G1 X-23.466 Y-6.257 E0.0244
G1 X-24.075 Y-6.442 E0.0244
G1 X-24.709 Y-6.504 E0.0244
G1 X-25.343 Y-6.442 E0.0244
G1 X-25.952 Y-6.257 E0.0244
G1 X-26.513 Y-5.957 E0.0244
G1 X-27.005 Y-5.553 E0.0244
G1 X-27.409 Y-5.061 E0.0244
G1 X-27.709 Y-4.499 E0.0244
G1 X-27.894 Y-3.890 E0.0244
G1 X-27.957 Y-3.256 E0.0244
G1 X-27.894 Y-2.623 E0.0244
G1 X-27.709 Y-2.013 E0.0244
G1 X-27.409 Y-1.452 E0.0244
G1 X-27.005 Y-0.960 E0.0244
G1 X-26.513 Y-0.556 E0.0244
G1 X-25.952 Y-0.256 E0.0244
G1 X-25.343 Y-0.071 E0.0244
G1 X-24.709 Y-0.008 E0.0244
; feature outer perimeter
G1 X-24.709 Y-0.471 F9000
G1 X-24.165 Y-0.524 E0.0209 F1200
G1 X-23.643 Y-0.683 E0.0209
G1 X-23.161 Y-0.940 E0.0209
G1 X-22.739 Y-1.286 E0.0209
G1 X-22.393 Y-1.709 E0.0209
G1 X-22.135 Y-2.190 E0.0209
G1 X-21.977 Y-2.713 E0.0209
G1 X-21.923 Y-3.256 E0.0209
G1 X-21.974 Y-3.774 E0.0199
G1 X-22.135 Y-4.321 E0.0218
G1 X-22.393 Y-4.804 E0.0209
G1 X-22.739 Y-5.226 E0.0209
G1 X-23.161 Y-5.572 E0.0209
G1 X-23.643 Y-5.830 E0.0209
G1 X-24.165 Y-5.988 E0.0209
G1 X-24.709 Y-6.042 E0.0209
G1 X-25.252 Y-5.988 E0.0209
G1 X-25.775 Y-5.830 E0.0209
G1 X-26.256 Y-5.572 E0.0209
G1 X-26.679 Y-5.226 E0.0209
G1 X-27.025 Y-4.804 E0.0209
G1 X-27.282 Y-4.322 E0.0209
G1 X-27.441 Y-3.800 E0.0209
G1 X-27.494 Y-3.256 E0.0209
G1 X-27.441 Y-2.713 E0.0209
G1 X-27.282 Y-2.190 E0.0209
G1 X-27.025 Y-1.709 E0.0209
G1 X-26.679 Y-1.286 E0.0209
G1 X-26.256 Y-0.940 E0.0209
G1 X-25.775 Y-0.683 E0.0209
G1 X-25.252 Y-0.524 E0.0209
G1 X-24.709 Y-0.471 E0.0209
G1 E-1.9000 F1200
; feature inner perimeter
G1 Z0.700 F1200
G1 X-24.709 Y-8.523 F9000
G1 Z0.200 F1200
G1 E1.9000 F1200
G1 X-24.075 Y-8.586 E0.0244 F1800
G1 X-23.466 Y-8.771 E0.0244
G1 X-22.904 Y-9.071 E0.0244
G1 X-22.412 Y-9.475 E0.0244
G1 X-22.008 Y-9.967 E0.0244
G1 X-21.708 Y-10.528 E0.0244
G1 X-21.523 Y-11.137 E0.0244
G1 X-21.461 Y-11.771 E0.0244
G1 X-21.523 Y-12.405 E0.0244
G1 X-21.708 Y-13.014 E0.0244
G1 X-22.008 Y-13.576 E0.0244
G1 X-22.412 Y-14.068 E0.0244
G1 X-22.904 Y-14.472 E0.0244
G1 X-23.466 Y-14.772 E0.0244
G1 X-24.049 Y-14.948 E0.0233
G1 X-24.706 Y-15.019 E0.0253
G1 X-25.343 Y-14.957 E0.0245
G1 X-25.952 Y-14.772 E0.0244
G1 X-26.513 Y-14.472 E0.0244
G1 X-27.005 Y-14.068 E0.0244
G1 X-27.409 Y-13.576 E0.0244
G1 X-27.709 Y-13.014 E0.0244
G1 X-27.894 Y-12.405 E0.0244
G1 X-27.957 Y-11.771 E0.0244
G1 X-27.894 Y-11.137 E0.0244
G1 X-27.709 Y-10.528 E0.0244
G1 X-27.409 Y-9.967 E0.0244
G1 X-27.005 Y-9.475 E0.0244
G1 X-26.513 Y-9.071 E0.0244
G1 X-25.952 Y-8.771 E0.0244
G1 X-25.343 Y-8.586 E0.0244
G1 X-24.709 Y-8.523 E0.0244
; feature outer perimeter
G1 X-24.709 Y-8.986 F9000
G1 X-24.165 Y-9.039 E0.0209 F1200
G1 X-23.643 Y-9.198 E0.0209
G1 X-23.161 Y-9.455 E0.0209
G1 X-22.739 Y-9.801 E0.0209
G1 X-22.393 Y-10.224 E0.0209
G1 X-22.135 Y-10.705 E0.0209
G1 X-21.977 Y-11.228 E0.0209
G1 X-21.923 Y-11.771 E0.0209
G1 X-21.977 Y-12.315 E0.0209
G1 X-22.135 Y-12.837 E0.0209
G1 X-22.393 Y-13.319 E0.0209
G1 X-22.739 Y-13.741 E0.0209
G1 X-23.161 Y-14.087 E0.0209
G1 X-23.643 Y-14.345 E0.0209
G1 X-24.141 Y-14.496 E0.0199
G1 X-24.708 Y-14.557 E0.0218
G1 X-25.252 Y-14.503 E0.0209
G1 X-25.775 Y-14.345 E0.0209
G1 X-26.256 Y-14.087 E0.0209
G1 X-26.679 Y-13.741 E0.0209
G1 X-27.025 Y-13.319 E0.0209
G1 X-27.282 Y-12.837 E0.0209
G1 X-27.441 Y-12.315 E0.0209
G1 X-27.494 Y-11.771 E0.0209
G1 X-27.441 Y-11.228 E0.0209
G1 X-27.282 Y-10.705 E0.0209
G1 X-27.025 Y-10.224 E0.0209
G1 X-26.679 Y-9.801 E0.0209
G1 X-26.256 Y-9.455 E0.0209
G1 X-25.775 Y-9.198 E0.0209
G1 X-25.252 Y-9.039 E0.0209
G1 X-24.709 Y-8.986 E0.0209
G1 E-1.9000 F1200
; feature inner perimeter
G1 Z0.700 F1200
G1 X-24.709 Y-17.038 F9000
G1 Z0.200 F1200
G1 E1.9000 F1200
G1 X-24.075 Y-17.101 E0.0244 F1800
G1 X-23.466 Y-17.285 E0.0244
G1 X-22.904 Y-17.586 E0.0244
G1 X-22.412 Y-17.990 E0.0244
G1 X-22.008 Y-18.482 E0.0244
G1 X-21.708 Y-19.043 E0.0244
G1 X-21.523 Y-19.652 E0.0244
G1 X-21.461 Y-20.286 E0.0244
G1 X-21.523 Y-20.920 E0.0244
G1 X-21.708 Y-21.529 E0.0244
G1 X-22.008 Y-22.090 E0.0244
G1 X-22.395 Y-22.561 E0.0233
G1 X-22.902 Y-22.985 E0.0253
G1 X-23.466 Y-23.287 E0.0245
G1 X-24.075 Y-23.471 E0.0244
G1 X-24.709 Y-23.534 E0.0244
G1 X-25.342 Y-23.471 E0.0244
G1 X-25.952 Y-23.287 E0.0244
G1 X-26.513 Y-22.987 E0.0244
G1 X-27.005 Y-22.583 E0.0244
G1 X-27.409 Y-22.090 E0.0244
G1 X-27.709 Y-21.529 E0.0244
G1 X-27.894 Y-20.920 E0.0244
G1 X-27.957 Y-20.286 E0.0244
G1 X-27.894 Y-19.652 E0.0244
G1 X-27.709 Y-19.043 E0.0244
G1 X-27.409 Y-18.482 E0.0244
G1 X-27.005 Y-17.990 E0.0244
G1 X-26.513 Y-17.586 E0.0244
G1 X-25.952 Y-17.285 E0.0244
G1 X-25.342 Y-17.101 E0.0244
G1 X-24.709 Y-17.038 E0.0244
; feature outer perimeter
G1 X-24.709 Y-17.500 F9000
G1 X-24.165 Y-17.554 E0.0209 F1200
G1 X-23.643 Y-17.713 E0.0209
G1 X-23.161 Y-17.970 E0.0209
G1 X-22.739 Y-18.316 E0.0209
G1 X-22.393 Y-18.738 E0.0209
G1 X-22.135 Y-19.220 E0.0209
