; G-Code generated by Simplify3D(R) Version 4.1.2
; Apr 2, 2020 at 4:29:31 PM
; Settings Summary
;   processName,Process1
;   applyToModels,pipeV1R10P-A,pipeV1R10P-A(2)
;   profileName,MakerBot Replicator 2 HBP (modified)
;   profileVersion,2020-03-12 10:48:50
;   baseProfile,MakerBot Replicator 2(2)
;   printMaterial,PLA
;   printQuality,Medium
;   printExtruders,
;   extruderName,Primary Extruder
;   extruderToolheadNumber,0
;   extruderDiameter,0.4
;   extruderAutoWidth,0
;   extruderWidth,0.4
;   extrusionMultiplier,1
;   extruderUseRetract,1
;   extruderRetractionDistance,1.9
;   extruderExtraRestartDistance,0
;   extruderRetractionZLift,0.5
;   extruderRetractionSpeed,1200
;   extruderUseCoasting,0
;   extruderCoastingDistance,0.2
;   extruderUseWipe,0
;   extruderWipeDistance,5
;   primaryExtruder,0
;   layerHeight,0.2
;   topSolidLayers,3
;   bottomSolidLayers,3
;   perimeterOutlines,2
;   printPerimetersInsideOut,1
;   startPointOption,3
;   startPointOriginX,0
;   startPointOriginY,150
;   sequentialIslands,0
;   spiralVaseMode,0
;   firstLayerHeightPercentage,100
;   firstLayerWidthPercentage,115
;   firstLayerUnderspeed,0.5
;   useRaft,0
;   raftExtruder,0
;   raftTopLayers,2
;   raftBaseLayers,1
;   raftOffset,1
;   raftSeparationDistance,0.14
;   raftTopInfill,90
;   aboveRaftSpeedMultiplier,0.3
;   useSkirt,0
;   skirtExtruder,0
;   skirtLayers,1
;   skirtOutlines,5
;   skirtOffset,0
;   usePrimePillar,0
;   primePillarExtruder,999
;   primePillarWidth,12
;   primePillarLocation,7
;   primePillarSpeedMultiplier,1
;   useOozeShield,0
;   oozeShieldExtruder,999
;   oozeShieldOffset,2
;   oozeShieldOutlines,1
;   oozeShieldSidewallShape,1
;   oozeShieldSidewallAngle,30
;   oozeShieldSpeedMultiplier,1
;   infillExtruder,0
;   internalInfillPattern,Rectilinear
;   externalInfillPattern,Rectilinear
;   infillPercentage,15
;   outlineOverlapPercentage,25
;   infillExtrusionWidthPercentage,100
;   minInfillLength,5
;   infillLayerInterval,1
;   internalInfillAngles,45,-45
;   overlapInternalInfillAngles,0
;   externalInfillAngles,45,-45
;   generateSupport,1
;   supportExtruder,0
;   supportInfillPercentage,30
;   supportExtraInflation,0.5
;   supportBaseLayers,0
;   denseSupportExtruder,0
;   denseSupportLayers,2
;   denseSupportInfillPercentage,90
;   supportLayerInterval,1
;   supportHorizontalPartOffset,0.3
;   supportUpperSeparationLayers,1
;   supportLowerSeparationLayers,1
;   supportType,1
;   supportGridSpacing,2
;   maxOverhangAngle,45
;   supportAngles,45,-45
;   temperatureName,Primary Extruder,Heated Build Platform
;   temperatureNumber,0,0
;   temperatureSetpointCount,1,1
;   temperatureSetpointLayers,1,1
;   temperatureSetpointTemperatures,230,60
;   temperatureStabilizeAtStartup,1,1
;   temperatureHeatedBed,0,1
;   fanLayers,1,2
;   fanSpeeds,0,100
;   blipFanToFullPower,1
;   adjustSpeedForCooling,1
;   minSpeedLayerTime,15
;   minCoolingSpeedSlowdown,20
;   increaseFanForCooling,1
;   minFanLayerTime,45
;   maxCoolingFanSpeed,100
;   increaseFanForBridging,1
;   bridgingFanSpeed,100
;   use5D,1
;   relativeEdistances,1
;   allowEaxisZeroing,0
;   independentExtruderAxes,1
;   includeM10123,0
;   stickySupport,1
;   applyToolheadOffsets,0
;   gcodeXoffset,0
;   gcodeYoffset,0
;   gcodeZoffset,0
;   overrideMachineDefinition,1
;   machineTypeOverride,0
;   strokeXoverride,280
;   strokeYoverride,150
;   strokeZoverride,150
;   originOffsetXoverride,140
;   originOffsetYoverride,75
;   originOffsetZoverride,0
;   homeXdirOverride,1
;   homeYdirOverride,1
;   homeZdirOverride,-1
;   flipXoverride,1
;   flipYoverride,-1
;   flipZoverride,1
;   toolheadOffsets,0,0|0,0|0,0|0,0|0,0|0,0
;   overrideFirmwareConfiguration,1
;   firmwareTypeOverride,MakerBot/Sailfish Firmware
;   GPXconfigOverride,r2h
;   baudRateOverride,115200
;   overridePrinterModels,1
;   printerModelsOverride,MakerBot_Replicator2.stl
;   startingGcode,; **** Replicator 2 start.gcode ****,M73 P0 ; enable build progress,G162 X Y F3000 ; home XY maximum,G161 Z F1200 ; home Z minimum,G92 Z-5 ; set Z to -5,G1 Z0 ; move Z to 0,G161 Z F100 ; home Z slowly,M132 X Y Z A B ; recall home offsets,G1 X-145 Y-75 Z30 F9000 ; move to wait position off table,G130 X20 Y20 Z20 A20 B20 ; lower stepper Vrefs while heating,M126 S[fan_speed_pwm],M140 S[bed0_temperature] T0,M134 T0 ; stabilize bed temperature,M104 S[extruder0_temperature] T0,M133 T0 ; stabilize extruder temperature,G130 X127 Y127 Z40 A127 B127 ; default stepper Vrefs,G92 A0 ; zero extruder,G1 Z0.4 ; position nozzle,G1 E25 F300 ; purge nozzle,G1 X-140 Y-70 Z0.15 F1200 ; slow wipe,G1 X-135 Y-65 Z0.5 F1200 ; lift,G92 A0 ; zero extruder,M73 P1 ;@body (notify GPX body has started),; **** end of start.gcode ****
;   layerChangeGcode,
;   retractionGcode,
;   toolChangeGcode,
;   endingGcode,; **** Replicator 2 end.gcode ****,M73 P100 ; end build progress,G1 Z155 F1000 ; send Z axis to bottom of machine,M104 S0 T0 ; cool down extruder,M140 S0 T0 ; cool down HBP,M127 ; stop blower fan,G162 X Y F3000 ; home XY maximum,M18 ; disable stepper,M0 ; stop codes,M72 P1 ; play Ta-Da song,; **** end of end.gcode ****
;   exportFileFormat,gcode
;   celebration,0
;   celebrationSong,Random Song
;   postProcessing,
;   defaultSpeed,4800
;   outlineUnderspeed,0.5
;   solidInfillUnderspeed,1
;   supportUnderspeed,1
;   rapidXYspeed,9000
;   rapidZspeed,1200
;   minBridgingArea,50
;   bridgingExtraInflation,0
;   bridgingExtrusionMultiplier,1
;   bridgingSpeedMultiplier,0.8
;   useFixedBridgingAngle,0
;   fixedBridgingAngle,0
;   applyBridgingToPerimeters,0
;   filamentDiameters,1.75|1.75|1.75|1.75|1.75|1.75
;   filamentPricesPerKg,46|46|46|46|46|46
;   filamentDensities,1.25|1.25|1.25|1.25|1.25|1.25
;   useMinPrintHeight,0
;   minPrintHeight,0
;   useMaxPrintHeight,0
;   maxPrintHeight,4.84
;   useDiaphragm,0
;   diaphragmLayerInterval,20
;   robustSlicing,1
;   mergeAllIntoSolid,0
;   onlyRetractWhenCrossingOutline,0
;   retractBetweenLayers,0
;   useRetractionMinTravel,1
;   retractionMinTravel,7
;   retractWhileWiping,1
;   onlyWipeOutlines,1
;   avoidCrossingOutline,0
;   maxMovementDetourFactor,3
;   toolChangeRetractionDistance,12
;   toolChangeExtraRestartDistance,-0.5
;   toolChangeRetractionSpeed,600
;   externalThinWallType,0
;   internalThinWallType,0
;   thinWallAllowedOverlapPercentage,10
;   singleExtrusionMinLength,1
;   singleExtrusionMinPrintingWidthPercentage,50
;   singleExtrusionMaxPrintingWidthPercentage,200
;   singleExtrusionEndpointExtension,0.2
;   horizontalSizeCompensation,0
G90
M83
; **** Replicator 2 start.gcode ****
M73 P0 ; enable build progress
G162 X Y F3000 ; home XY maximum
G161 Z F1200 ; home Z minimum
G92 Z-5 ; set Z to -5
G1 Z0 ; move Z to 0
G161 Z F100 ; home Z slowly
M132 X Y Z A B ; recall home offsets
G1 X-145 Y-75 Z30 F9000 ; move to wait position off table
G130 X20 Y20 Z20 A20 B20 ; lower stepper Vrefs while heating
M127
M140 S60 T0
M134 T0 ; stabilize bed temperature
M104 S230 T0
M133 T0 ; stabilize extruder temperature
G130 X127 Y127 Z40 A127 B127 ; default stepper Vrefs
G92 A0 ; zero extruder
G1 Z0.4 ; position nozzle
G1 E25 F300 ; purge nozzle
G1 X-140 Y-70 Z0.15 F1200 ; slow wipe
G1 X-135 Y-65 Z0.5 F1200 ; lift
G92 A0 ; zero extruder
M73 P1 ;@body (notify GPX body has started)
; **** end of start.gcode ****
; process Process1
; layer 1, Z = 0.200
M135 T0
G1 E-1.9000 F1200
; feature inner perimeter
; tool H0.200 W0.460
G1 Z0.500 F1200
G1 X-16.598 Y54.042 F9000
G1 Z0.200 F1200
G1 E1.9000 F1200
G1 X-18.793 Y54.313 E0.0846 F1800
G1 X-21.000 Y54.476 E0.0846
G1 X-23.212 Y54.530 E0.0846
G1 X-25.424 Y54.476 E0.0846
G1 X-27.631 Y54.313 E0.0846
G1 X-29.827 Y54.042 E0.0846
G1 X-32.007 Y53.664 E0.0846
G1 X-34.166 Y53.179 E0.0846
G1 X-36.299 Y52.589 E0.0846
G1 X-38.400 Y51.895 E0.0846
G1 X-40.464 Y51.099 E0.0846
G1 X-42.487 Y50.202 E0.0846
G1 X-44.463 Y49.207 E0.0846
G1 X-46.389 Y48.116 E0.0846
G1 X-48.258 Y46.932 E0.0846
G1 X-50.067 Y45.658 E0.0846
G1 X-51.812 Y44.297 E0.0846
G1 X-53.487 Y42.852 E0.0846
G1 X-55.090 Y41.326 E0.0846
G1 X-56.615 Y39.723 E0.0846
G1 X-58.061 Y38.048 E0.0846
G1 X-59.422 Y36.303 E0.0846
G1 X-60.696 Y34.495 E0.0846
G1 X-61.880 Y32.625 E0.0846
G1 X-62.971 Y30.700 E0.0846
G1 X-63.966 Y28.723 E0.0846
G1 X-64.862 Y26.701 E0.0846
G1 X-65.659 Y24.636 E0.0846
G1 X-66.353 Y22.535 E0.0846
G1 X-66.943 Y20.402 E0.0846
G1 X-67.428 Y18.243 E0.0846
G1 X-67.806 Y16.063 E0.0846
G1 X-68.077 Y13.867 E0.0846
G1 X-68.240 Y11.660 E0.0846
G1 X-68.294 Y9.448 E0.0846
G1 X-68.240 Y7.237 E0.0846
G1 X-68.077 Y5.030 E0.0846
G1 X-67.806 Y2.834 E0.0846
G1 X-67.428 Y0.653 E0.0846
G1 X-66.943 Y-1.505 E0.0846
G1 X-66.353 Y-3.638 E0.0846
G1 X-65.659 Y-5.739 E0.0846
G1 X-64.862 Y-7.803 E0.0846
G1 X-63.966 Y-9.826 E0.0846
G1 X-62.971 Y-11.803 E0.0847
G1 X-61.880 Y-13.728 E0.0846
G1 X-60.696 Y-15.598 E0.0846
G1 X-59.422 Y-17.406 E0.0846
G1 X-58.061 Y-19.151 E0.0846
G1 X-56.616 Y-20.826 E0.0846
G1 X-55.090 Y-22.429 E0.0846
G1 X-53.487 Y-23.954 E0.0846
G1 X-51.810 Y-25.400 E0.0847
G1 X-50.060 Y-26.763 E0.0848
G1 X-48.241 Y-28.040 E0.0850
G1 X-46.349 Y-29.232 E0.0855
G1 X-44.398 Y-30.362 E0.0862
G1 X-42.406 Y-31.451 E0.0869
G1 X-41.402 Y-31.984 E0.0435
G1 X-41.402 Y-20.432 E0.4419
G1 X-41.935 Y-20.129 E0.0234
G1 X-42.539 Y-19.731 E0.0277
G1 X-43.302 Y-19.179 E0.0360
G1 X-44.287 Y-18.417 E0.0476
G1 X-45.425 Y-17.480 E0.0564
G1 X-46.649 Y-16.406 E0.0623
G1 X-47.889 Y-15.229 E0.0654
G1 X-49.071 Y-13.989 E0.0655
G1 X-50.190 Y-12.692 E0.0655
G1 X-51.244 Y-11.342 E0.0655
G1 X-52.231 Y-9.941 E0.0655
G1 X-53.147 Y-8.494 E0.0655
G1 X-53.992 Y-7.003 E0.0655
G1 X-54.762 Y-5.473 E0.0655
G1 X-55.456 Y-3.907 E0.0655
G1 X-56.072 Y-2.309 E0.0655
G1 X-56.610 Y-0.682 E0.0655
G1 X-57.067 Y0.968 E0.0655
G1 X-57.442 Y2.640 E0.0655
G1 X-57.735 Y4.328 E0.0655
G1 X-57.944 Y6.028 E0.0655
G1 X-58.071 Y7.736 E0.0655
G1 X-58.113 Y9.449 E0.0655
G1 X-58.071 Y11.161 E0.0655
G1 X-57.944 Y12.869 E0.0655
G1 X-57.735 Y14.569 E0.0655
G1 X-57.442 Y16.257 E0.0655
G1 X-57.067 Y17.929 E0.0655
G1 X-56.610 Y19.579 E0.0655
G1 X-56.072 Y21.206 E0.0655
G1 X-55.456 Y22.804 E0.0655
G1 X-54.762 Y24.370 E0.0655
G1 X-53.992 Y25.900 E0.0655
G1 X-53.147 Y27.391 E0.0655
G1 X-52.231 Y28.838 E0.0655
G1 X-51.244 Y30.239 E0.0655
G1 X-50.191 Y31.589 E0.0655
G1 X-49.072 Y32.886 E0.0655
G1 X-47.891 Y34.127 E0.0655
G1 X-46.650 Y35.308 E0.0655
G1 X-45.353 Y36.427 E0.0655
G1 X-44.002 Y37.481 E0.0655
G1 X-42.602 Y38.467 E0.0655
G1 X-41.155 Y39.383 E0.0655
G1 X-39.664 Y40.228 E0.0655
G1 X-38.134 Y40.998 E0.0655
G1 X-36.568 Y41.692 E0.0655
G1 X-34.970 Y42.309 E0.0655
G1 X-33.343 Y42.846 E0.0655
G1 X-31.692 Y43.303 E0.0655
G1 X-30.021 Y43.678 E0.0655
G1 X-28.333 Y43.971 E0.0655
G1 X-26.633 Y44.181 E0.0655
G1 X-24.925 Y44.307 E0.0655
G1 X-23.212 Y44.349 E0.0655
G1 X-21.500 Y44.307 E0.0655
G1 X-19.792 Y44.181 E0.0655
G1 X-18.091 Y43.971 E0.0655
G1 X-16.404 Y43.678 E0.0655
G1 X-14.732 Y43.303 E0.0655
G1 X-13.081 Y42.846 E0.0655
G1 X-11.455 Y42.309 E0.0655
G1 X-9.857 Y41.692 E0.0655
G1 X-8.291 Y40.998 E0.0655
G1 X-6.761 Y40.228 E0.0655
G1 X-5.270 Y39.383 E0.0655
G1 X-3.823 Y38.467 E0.0655
G1 X-2.422 Y37.481 E0.0655
G1 X-1.072 Y36.427 E0.0655
G1 X0.225 Y35.308 E0.0655
G1 X1.466 Y34.127 E0.0655
G1 X2.647 Y32.886 E0.0655
G1 X3.766 Y31.589 E0.0655
G1 X4.820 Y30.238 E0.0655
G1 X5.806 Y28.838 E0.0655
G1 X6.723 Y27.391 E0.0655
G1 X7.567 Y25.900 E0.0655
G1 X8.337 Y24.370 E0.0655
G1 X9.031 Y22.804 E0.0655
G1 X9.648 Y21.206 E0.0655
G1 X10.185 Y19.579 E0.0655
G1 X10.642 Y17.929 E0.0655
G1 X11.017 Y16.257 E0.0655
G1 X11.310 Y14.569 E0.0655
G1 X11.520 Y12.869 E0.0655
G1 X11.646 Y11.161 E0.0655
G1 X11.688 Y9.448 E0.0655
G1 X11.646 Y7.736 E0.0655
G1 X11.520 Y6.028 E0.0655
G1 X11.310 Y4.328 E0.0655
G1 X11.017 Y2.640 E0.0655
G1 X10.642 Y0.968 E0.0655
G1 X10.185 Y-0.682 E0.0655
G1 X9.648 Y-2.309 E0.0655
G1 X9.031 Y-3.907 E0.0655
G1 X8.337 Y-5.473 E0.0655
G1 X7.567 Y-7.003 E0.0655
G1 X6.722 Y-8.494 E0.0655
G1 X5.806 Y-9.941 E0.0655
G1 X4.820 Y-11.342 E0.0655
G1 X3.766 Y-12.692 E0.0655
G1 X2.646 Y-13.989 E0.0655
G1 X1.464 Y-15.228 E0.0655
G1 X0.225 Y-16.405 E0.0654
G1 X-0.998 Y-17.480 E0.0623
G1 X-2.136 Y-18.418 E0.0564
G1 X-3.119 Y-19.182 E0.0476
G1 X-3.880 Y-19.738 E0.0361
G1 X-4.482 Y-20.141 E0.0277
G1 X-5.022 Y-20.457 E0.0239
G1 X-5.022 Y-31.984 E0.4409
G1 X-4.019 Y-31.451 E0.0435
G1 X-2.027 Y-30.362 E0.0869
G1 X-0.076 Y-29.232 E0.0862
G1 X1.816 Y-28.040 E0.0855
G1 X3.635 Y-26.763 E0.0850
G1 X5.385 Y-25.400 E0.0848
G1 X7.063 Y-23.954 E0.0847
G1 X8.665 Y-22.429 E0.0846
G1 X10.191 Y-20.826 E0.0846
G1 X11.636 Y-19.151 E0.0846
G1 X12.997 Y-17.406 E0.0846
G1 X14.272 Y-15.598 E0.0846
G1 X15.455 Y-13.728 E0.0846
G1 X16.546 Y-11.803 E0.0846
G1 X17.541 Y-9.826 E0.0846
G1 X18.438 Y-7.804 E0.0846
G1 X19.234 Y-5.739 E0.0846
G1 X19.928 Y-3.638 E0.0846
G1 X20.518 Y-1.505 E0.0846
G1 X21.003 Y0.653 E0.0846
G1 X21.381 Y2.834 E0.0846
G1 X21.652 Y5.030 E0.0846
G1 X21.815 Y7.237 E0.0846
G1 X21.869 Y9.448 E0.0846
G1 X21.815 Y11.660 E0.0846
G1 X21.652 Y13.867 E0.0846
G1 X21.381 Y16.063 E0.0846
G1 X21.003 Y18.243 E0.0846
G1 X20.518 Y20.402 E0.0846
G1 X19.928 Y22.535 E0.0846
G1 X19.234 Y24.636 E0.0846
G1 X18.438 Y26.700 E0.0846
G1 X17.541 Y28.723 E0.0846
G1 X16.546 Y30.700 E0.0847
G1 X15.455 Y32.625 E0.0846
G1 X14.272 Y34.494 E0.0846
G1 X12.997 Y36.304 E0.0846
G1 X11.636 Y38.048 E0.0846
G1 X10.191 Y39.723 E0.0846
G1 X8.665 Y41.326 E0.0846
G1 X7.063 Y42.852 E0.0846
G1 X5.387 Y44.297 E0.0846
G1 X3.643 Y45.658 E0.0846
G1 X1.834 Y46.932 E0.0846
G1 X-0.036 Y48.116 E0.0846
G1 X-1.961 Y49.207 E0.0846
G1 X-3.938 Y50.202 E0.0846
G1 X-5.960 Y51.099 E0.0846
G1 X-8.025 Y51.895 E0.0846
G1 X-10.126 Y52.589 E0.0846
G1 X-12.259 Y53.179 E0.0846
G1 X-14.417 Y53.664 E0.0846
G1 X-16.598 Y54.042 E0.0846
; feature outer perimeter
G1 X-16.530 Y54.497 F9000
G1 X-18.748 Y54.771 E0.0855 F1200
G1 X-20.978 Y54.935 E0.0855
G1 X-23.212 Y54.990 E0.0855
G1 X-25.447 Y54.935 E0.0855
G1 X-27.676 Y54.771 E0.0855
G1 X-29.895 Y54.497 E0.0855
G1 X-32.097 Y54.115 E0.0855
G1 X-34.278 Y53.625 E0.0855
G1 X-36.432 Y53.029 E0.0855
G1 X-38.555 Y52.328 E0.0855
G1 X-40.640 Y51.524 E0.0855
G1 X-42.684 Y50.618 E0.0855
G1 X-44.680 Y49.613 E0.0855
G1 X-46.626 Y48.511 E0.0855
G1 X-48.514 Y47.315 E0.0855
G1 X-50.341 Y46.028 E0.0855
G1 X-52.104 Y44.653 E0.0855
G1 X-53.796 Y43.193 E0.0855
G1 X-55.415 Y41.651 E0.0855
G1 X-56.956 Y40.032 E0.0855
G1 X-58.417 Y38.340 E0.0855
G1 X-59.792 Y36.578 E0.0855
G1 X-61.079 Y34.750 E0.0855
G1 X-62.275 Y32.862 E0.0855
G1 X-63.376 Y30.917 E0.0855
G1 X-64.382 Y28.920 E0.0855
G1 X-65.287 Y26.877 E0.0855
G1 X-66.092 Y24.791 E0.0855
G1 X-66.793 Y22.669 E0.0855
G1 X-67.389 Y20.514 E0.0855
G1 X-67.879 Y18.333 E0.0855
G1 X-68.261 Y16.131 E0.0855
G1 X-68.535 Y13.912 E0.0855
G1 X-68.699 Y11.683 E0.0855
G1 X-68.754 Y9.448 E0.0855
G1 X-68.699 Y7.214 E0.0855
G1 X-68.535 Y4.985 E0.0855
G1 X-68.261 Y2.766 E0.0855
G1 X-67.879 Y0.564 E0.0855
G1 X-67.389 Y-1.617 E0.0855
G1 X-66.793 Y-3.772 E0.0855
G1 X-66.092 Y-5.894 E0.0855
G1 X-65.288 Y-7.980 E0.0855
G1 X-64.382 Y-10.023 E0.0855
G1 X-63.376 Y-12.020 E0.0855
G1 X-62.275 Y-13.964 E0.0855
G1 X-61.079 Y-15.853 E0.0855
G1 X-59.792 Y-17.681 E0.0855
G1 X-58.417 Y-19.443 E0.0855
G1 X-56.956 Y-21.135 E0.0855
G1 X-55.415 Y-22.754 E0.0855
G1 X-53.796 Y-24.296 E0.0855
G1 X-52.102 Y-25.756 E0.0856
G1 X-50.334 Y-27.133 E0.0857
G1 X-48.495 Y-28.424 E0.0859
G1 X-46.587 Y-29.626 E0.0863
G1 X-44.624 Y-30.763 E0.0868
G1 X-42.625 Y-31.856 E0.0871
G1 X-40.942 Y-32.749 E0.0729
G1 X-40.942 Y-20.164 E0.4814
G1 X-41.695 Y-19.737 E0.0331
G1 X-42.278 Y-19.352 E0.0267
G1 X-43.027 Y-18.810 E0.0353
G1 X-44.000 Y-18.057 E0.0471
G1 X-45.127 Y-17.130 E0.0558
G1 X-46.339 Y-16.066 E0.0617
G1 X-47.564 Y-14.903 E0.0646
G1 X-48.730 Y-13.679 E0.0647
G1 X-49.835 Y-12.400 E0.0647
G1 X-50.875 Y-11.067 E0.0647
G1 X-51.848 Y-9.685 E0.0647
G1 X-52.753 Y-8.257 E0.0647
G1 X-53.586 Y-6.786 E0.0647
G1 X-54.346 Y-5.276 E0.0647
G1 X-55.031 Y-3.731 E0.0647
G1 X-55.639 Y-2.154 E0.0647
G1 X-56.169 Y-0.549 E0.0647
G1 X-56.620 Y1.080 E0.0647
G1 X-56.991 Y2.730 E0.0647
G1 X-57.280 Y4.395 E0.0647
