; G-Code generated by Simplify3D(R) Version 4.1.2
; Apr 2, 2020 at 4:29:52 PM
; Settings Summary
;   processName,Process1
;   applyToModels,pipeV1R10P-A,pipeV1R10P-A(2),pipeV1R10P-A(3),pipeV1R10P-A(2)(2)
;   profileName,MakerBot Replicator 2 HBP (modified)
;   profileVersion,2020-03-12 10:48:50
;   baseProfile,MakerBot Replicator 2(2)
;   printMaterial,PLA
;   printQuality,Medium
;   printExtruders,
;   extruderName,Primary Extruder
;   extruderToolheadNumber,0
;   extruderDiameter,0.4
;   extruderAutoWidth,0
;   extruderWidth,0.4
;   extrusionMultiplier,1
;   extruderUseRetract,1
;   extruderRetractionDistance,1.9
;   extruderExtraRestartDistance,0
;   extruderRetractionZLift,0.5
;   extruderRetractionSpeed,1200
;   extruderUseCoasting,0
;   extruderCoastingDistance,0.2
;   extruderUseWipe,0
;   extruderWipeDistance,5
;   primaryExtruder,0
;   layerHeight,0.2
;   topSolidLayers,3
;   bottomSolidLayers,3
;   perimeterOutlines,2
;   printPerimetersInsideOut,1
;   startPointOption,3
;   startPointOriginX,0
;   startPointOriginY,150
;   sequentialIslands,0
;   spiralVaseMode,0
;   firstLayerHeightPercentage,100
;   firstLayerWidthPercentage,115
;   firstLayerUnderspeed,0.5
;   useRaft,0
;   raftExtruder,0
;   raftTopLayers,2
;   raftBaseLayers,1
;   raftOffset,1
;   raftSeparationDistance,0.14
;   raftTopInfill,90
;   aboveRaftSpeedMultiplier,0.3
;   useSkirt,0
;   skirtExtruder,0
;   skirtLayers,1
;   skirtOutlines,5
;   skirtOffset,0
;   usePrimePillar,0
;   primePillarExtruder,999
;   primePillarWidth,12
;   primePillarLocation,7
;   primePillarSpeedMultiplier,1
;   useOozeShield,0
;   oozeShieldExtruder,999
;   oozeShieldOffset,2
;   oozeShieldOutlines,1
;   oozeShieldSidewallShape,1
;   oozeShieldSidewallAngle,30
;   oozeShieldSpeedMultiplier,1
;   infillExtruder,0
;   internalInfillPattern,Rectilinear
;   externalInfillPattern,Rectilinear
;   infillPercentage,15
;   outlineOverlapPercentage,25
;   infillExtrusionWidthPercentage,100
;   minInfillLength,5
;   infillLayerInterval,1
;   internalInfillAngles,45,-45
;   overlapInternalInfillAngles,0
;   externalInfillAngles,45,-45
;   generateSupport,1
;   supportExtruder,0
;   supportInfillPercentage,30
;   supportExtraInflation,0.5
;   supportBaseLayers,0
;   denseSupportExtruder,0
;   denseSupportLayers,2
;   denseSupportInfillPercentage,90
;   supportLayerInterval,1
;   supportHorizontalPartOffset,0.3
;   supportUpperSeparationLayers,1
;   supportLowerSeparationLayers,1
;   supportType,1
;   supportGridSpacing,2
;   maxOverhangAngle,45
;   supportAngles,45,-45
;   temperatureName,Primary Extruder,Heated Build Platform
;   temperatureNumber,0,0
;   temperatureSetpointCount,1,1
;   temperatureSetpointLayers,1,1
;   temperatureSetpointTemperatures,230,60
;   temperatureStabilizeAtStartup,1,1
;   temperatureHeatedBed,0,1
;   fanLayers,1,2
;   fanSpeeds,0,100
;   blipFanToFullPower,1
;   adjustSpeedForCooling,1
;   minSpeedLayerTime,15
;   minCoolingSpeedSlowdown,20
;   increaseFanForCooling,1
;   minFanLayerTime,45
;   maxCoolingFanSpeed,100
;   increaseFanForBridging,1
;   bridgingFanSpeed,100
;   use5D,1
;   relativeEdistances,1
;   allowEaxisZeroing,0
;   independentExtruderAxes,1
;   includeM10123,0
;   stickySupport,1
;   applyToolheadOffsets,0
;   gcodeXoffset,0
;   gcodeYoffset,0
;   gcodeZoffset,0
;   overrideMachineDefinition,1
;   machineTypeOverride,0
;   strokeXoverride,280
;   strokeYoverride,150
;   strokeZoverride,150
;   originOffsetXoverride,140
;   originOffsetYoverride,75
;   originOffsetZoverride,0
;   homeXdirOverride,1
;   homeYdirOverride,1
;   homeZdirOverride,-1
;   flipXoverride,1
;   flipYoverride,-1
;   flipZoverride,1
;   toolheadOffsets,0,0|0,0|0,0|0,0|0,0|0,0
;   overrideFirmwareConfiguration,1
;   firmwareTypeOverride,MakerBot/Sailfish Firmware
;   GPXconfigOverride,r2h
;   baudRateOverride,115200
;   overridePrinterModels,1
;   printerModelsOverride,MakerBot_Replicator2.stl
;   startingGcode,; **** Replicator 2 start.gcode ****,M73 P0 ; enable build progress,G162 X Y F3000 ; home XY maximum,G161 Z F1200 ; home Z minimum,G92 Z-5 ; set Z to -5,G1 Z0 ; move Z to 0,G161 Z F100 ; home Z slowly,M132 X Y Z A B ; recall home offsets,G1 X-145 Y-75 Z30 F9000 ; move to wait position off table,G130 X20 Y20 Z20 A20 B20 ; lower stepper Vrefs while heating,M126 S[fan_speed_pwm],M140 S[bed0_temperature] T0,M134 T0 ; stabilize bed temperature,M104 S[extruder0_temperature] T0,M133 T0 ; stabilize extruder temperature,G130 X127 Y127 Z40 A127 B127 ; default stepper Vrefs,G92 A0 ; zero extruder,G1 Z0.4 ; position nozzle,G1 E25 F300 ; purge nozzle,G1 X-140 Y-70 Z0.15 F1200 ; slow wipe,G1 X-135 Y-65 Z0.5 F1200 ; lift,G92 A0 ; zero extruder,M73 P1 ;@body (notify GPX body has started),; **** end of start.gcode ****
;   layerChangeGcode,
;   retractionGcode,
;   toolChangeGcode,
;   endingGcode,; **** Replicator 2 end.gcode ****,M73 P100 ; end build progress,G1 Z155 F1000 ; send Z axis to bottom of machine,M104 S0 T0 ; cool down extruder,M140 S0 T0 ; cool down HBP,M127 ; stop blower fan,G162 X Y F3000 ; home XY maximum,M18 ; disable stepper,M0 ; stop codes,M72 P1 ; play Ta-Da song,; **** end of end.gcode ****
;   exportFileFormat,gcode
;   celebration,0
;   celebrationSong,Random Song
;   postProcessing,
;   defaultSpeed,4800
;   outlineUnderspeed,0.5
;   solidInfillUnderspeed,1
;   supportUnderspeed,1
;   rapidXYspeed,9000
;   rapidZspeed,1200
;   minBridgingArea,50
;   bridgingExtraInflation,0
;   bridgingExtrusionMultiplier,1
;   bridgingSpeedMultiplier,0.8
;   useFixedBridgingAngle,0
;   fixedBridgingAngle,0
;   applyBridgingToPerimeters,0
;   filamentDiameters,1.75|1.75|1.75|1.75|1.75|1.75
;   filamentPricesPerKg,46|46|46|46|46|46
;   filamentDensities,1.25|1.25|1.25|1.25|1.25|1.25
;   useMinPrintHeight,0
;   minPrintHeight,0
;   useMaxPrintHeight,0
;   maxPrintHeight,4.84
;   useDiaphragm,0
;   diaphragmLayerInterval,20
;   robustSlicing,1
;   mergeAllIntoSolid,0
;   onlyRetractWhenCrossingOutline,0
;   retractBetweenLayers,0
;   useRetractionMinTravel,1
;   retractionMinTravel,7
;   retractWhileWiping,1
;   onlyWipeOutlines,1
;   avoidCrossingOutline,0
;   maxMovementDetourFactor,3
;   toolChangeRetractionDistance,12
;   toolChangeExtraRestartDistance,-0.5
;   toolChangeRetractionSpeed,600
;   externalThinWallType,0
;   internalThinWallType,0
;   thinWallAllowedOverlapPercentage,10
;   singleExtrusionMinLength,1
;   singleExtrusionMinPrintingWidthPercentage,50
;   singleExtrusionMaxPrintingWidthPercentage,200
;   singleExtrusionEndpointExtension,0.2
;   horizontalSizeCompensation,0
G90
M83
; **** Replicator 2 start.gcode ****
M73 P0 ; enable build progress
G162 X Y F3000 ; home XY maximum
G161 Z F1200 ; home Z minimum
G92 Z-5 ; set Z to -5
G1 Z0 ; move Z to 0
G161 Z F100 ; home Z slowly
M132 X Y Z A B ; recall home offsets
G1 X-145 Y-75 Z30 F9000 ; move to wait position off table
G130 X20 Y20 Z20 A20 B20 ; lower stepper Vrefs while heating
M127
M140 S60 T0
M134 T0 ; stabilize bed temperature
M104 S230 T0
M133 T0 ; stabilize extruder temperature
G130 X127 Y127 Z40 A127 B127 ; default stepper Vrefs
G92 A0 ; zero extruder
G1 Z0.4 ; position nozzle
G1 E25 F300 ; purge nozzle
G1 X-140 Y-70 Z0.15 F1200 ; slow wipe
G1 X-135 Y-65 Z0.5 F1200 ; lift
G92 A0 ; zero extruder
M73 P1 ;@body (notify GPX body has started)
; **** end of start.gcode ****
; process Process1
; layer 1, Z = 0.200
M135 T0
G1 E-1.9000 F1200
; feature inner perimeter
; tool H0.200 W0.460
G1 Z0.500 F1200
G1 X-25.656 Y27.419 F9000
G1 Z0.200 F1200
G1 E1.9000 F1200
G1 X-26.660 Y27.952 E0.0435 F1800
G1 X-26.660 Y16.400 E0.4419
G1 X-26.127 Y16.097 E0.0234
G1 X-25.523 Y15.699 E0.0277
G1 X-24.760 Y15.147 E0.0360
G1 X-23.776 Y14.385 E0.0476
G1 X-22.637 Y13.448 E0.0564
G1 X-21.413 Y12.373 E0.0623
G1 X-20.174 Y11.196 E0.0654
G1 X-18.991 Y9.957 E0.0655
G1 X-17.872 Y8.660 E0.0655
G1 X-16.818 Y7.309 E0.0655
G1 X-15.831 Y5.909 E0.0655
G1 X-14.915 Y4.462 E0.0655
G1 X-14.071 Y2.971 E0.0655
G1 X-13.301 Y1.441 E0.0655
G1 X-12.606 Y-0.125 E0.0655
G1 X-11.990 Y-1.723 E0.0655
G1 X-11.453 Y-3.350 E0.0655
G1 X-10.996 Y-5.000 E0.0655
G1 X-10.620 Y-6.672 E0.0655
G1 X-10.327 Y-8.360 E0.0655
G1 X-10.118 Y-10.060 E0.0655
G1 X-9.992 Y-11.768 E0.0655
G1 X-9.950 Y-13.481 E0.0655
G1 X-9.992 Y-15.193 E0.0655
G1 X-10.118 Y-16.901 E0.0655
G1 X-10.327 Y-18.601 E0.0655
G1 X-10.620 Y-20.289 E0.0655
G1 X-10.996 Y-21.961 E0.0655
G1 X-11.453 Y-23.612 E0.0655
G1 X-11.990 Y-25.238 E0.0655
G1 X-12.606 Y-26.836 E0.0655
G1 X-13.301 Y-28.402 E0.0655
G1 X-14.071 Y-29.932 E0.0655
G1 X-14.915 Y-31.423 E0.0655
G1 X-15.831 Y-32.870 E0.0655
G1 X-16.818 Y-34.271 E0.0655
G1 X-17.872 Y-35.621 E0.0655
G1 X-18.991 Y-36.918 E0.0655
G1 X-20.172 Y-38.159 E0.0655
G1 X-21.412 Y-39.340 E0.0655
G1 X-22.710 Y-40.459 E0.0655
G1 X-24.060 Y-41.513 E0.0655
G1 X-25.460 Y-42.499 E0.0655
G1 X-26.908 Y-43.415 E0.0655
G1 X-28.398 Y-44.260 E0.0655
G1 X-29.928 Y-45.030 E0.0655
G1 X-31.494 Y-45.724 E0.0655
G1 X-33.092 Y-46.341 E0.0655
G1 X-34.719 Y-46.878 E0.0655
G1 X-36.370 Y-47.335 E0.0655
G1 X-38.041 Y-47.710 E0.0655
G1 X-39.729 Y-48.003 E0.0655
G1 X-41.429 Y-48.213 E0.0655
G1 X-43.137 Y-48.339 E0.0655
G1 X-44.850 Y-48.381 E0.0655
G1 X-46.562 Y-48.339 E0.0655
G1 X-48.271 Y-48.213 E0.0655
G1 X-49.971 Y-48.003 E0.0655
G1 X-51.659 Y-47.710 E0.0655
G1 X-53.330 Y-47.335 E0.0655
G1 X-54.981 Y-46.878 E0.0655
G1 X-56.607 Y-46.341 E0.0655
G1 X-58.206 Y-45.724 E0.0655
G1 X-59.772 Y-45.030 E0.0655
G1 X-61.302 Y-44.260 E0.0655
G1 X-62.792 Y-43.415 E0.0655
G1 X-64.239 Y-42.499 E0.0655
G1 X-65.640 Y-41.513 E0.0655
G1 X-66.990 Y-40.459 E0.0655
G1 X-68.287 Y-39.340 E0.0655
G1 X-69.528 Y-38.159 E0.0655
G1 X-70.709 Y-36.918 E0.0655
G1 X-71.828 Y-35.621 E0.0655
G1 X-72.882 Y-34.271 E0.0655
G1 X-73.868 Y-32.870 E0.0655
G1 X-74.785 Y-31.423 E0.0655
G1 X-75.629 Y-29.932 E0.0655
G1 X-76.399 Y-28.402 E0.0655
G1 X-77.094 Y-26.836 E0.0655
G1 X-77.710 Y-25.238 E0.0655
G1 X-78.247 Y-23.611 E0.0655
G1 X-78.704 Y-21.961 E0.0655
G1 X-79.080 Y-20.289 E0.0655
G1 X-79.372 Y-18.601 E0.0655
G1 X-79.582 Y-16.901 E0.0655
G1 X-79.708 Y-15.193 E0.0655
G1 X-79.750 Y-13.481 E0.0655
G1 X-79.708 Y-11.768 E0.0655
G1 X-79.582 Y-10.060 E0.0655
G1 X-79.372 Y-8.360 E0.0655
G1 X-79.080 Y-6.672 E0.0655
G1 X-78.704 Y-5.000 E0.0655
G1 X-78.247 Y-3.350 E0.0655
G1 X-77.710 Y-1.723 E0.0655
G1 X-77.094 Y-0.125 E0.0655
G1 X-76.399 Y1.441 E0.0655
G1 X-75.629 Y2.971 E0.0655
G1 X-74.785 Y4.462 E0.0655
G1 X-73.868 Y5.909 E0.0655
G1 X-72.882 Y7.309 E0.0655
G1 X-71.828 Y8.660 E0.0655
G1 X-70.709 Y9.956 E0.0655
G1 X-69.527 Y11.196 E0.0655
G1 X-68.287 Y12.373 E0.0654
G1 X-67.064 Y13.448 E0.0623
G1 X-65.927 Y14.386 E0.0564
G1 X-64.943 Y15.150 E0.0476
G1 X-64.182 Y15.705 E0.0361
G1 X-63.580 Y16.109 E0.0277
G1 X-63.040 Y16.425 E0.0239
G1 X-63.040 Y27.952 E0.4409
G1 X-64.043 Y27.419 E0.0435
G1 X-66.036 Y26.329 E0.0869
G1 X-67.986 Y25.200 E0.0862
G1 X-69.878 Y24.008 E0.0855
G1 X-71.698 Y22.731 E0.0850
G1 X-73.448 Y21.368 E0.0848
G1 X-75.125 Y19.922 E0.0847
G1 X-76.727 Y18.397 E0.0846
G1 X-78.253 Y16.794 E0.0846
G1 X-79.698 Y15.119 E0.0846
G1 X-81.060 Y13.374 E0.0846
G1 X-82.334 Y11.566 E0.0846
G1 X-83.517 Y9.696 E0.0846
G1 X-84.608 Y7.771 E0.0846
G1 X-85.603 Y5.794 E0.0846
G1 X-86.500 Y3.771 E0.0846
G1 X-87.296 Y1.707 E0.0846
G1 X-87.990 Y-0.394 E0.0846
G1 X-88.580 Y-2.527 E0.0846
G1 X-89.065 Y-4.686 E0.0846
G1 X-89.443 Y-6.866 E0.0846
G1 X-89.714 Y-9.062 E0.0846
G1 X-89.877 Y-11.269 E0.0846
G1 X-89.932 Y-13.481 E0.0846
G1 X-89.877 Y-15.692 E0.0846
G1 X-89.714 Y-17.899 E0.0846
G1 X-89.443 Y-20.095 E0.0846
G1 X-89.065 Y-22.275 E0.0846
G1 X-88.580 Y-24.434 E0.0846
G1 X-87.990 Y-26.567 E0.0846
G1 X-87.296 Y-28.668 E0.0846
G1 X-86.500 Y-30.733 E0.0846
G1 X-85.603 Y-32.755 E0.0846
G1 X-84.608 Y-34.732 E0.0846
G1 X-83.517 Y-36.657 E0.0846
G1 X-82.334 Y-38.527 E0.0846
G1 X-81.060 Y-40.335 E0.0846
G1 X-79.698 Y-42.080 E0.0846
G1 X-78.253 Y-43.755 E0.0846
G1 X-76.727 Y-45.358 E0.0846
G1 X-75.125 Y-46.884 E0.0846
G1 X-73.449 Y-48.329 E0.0846
G1 X-71.705 Y-49.690 E0.0846
G1 X-69.896 Y-50.964 E0.0846
G1 X-68.026 Y-52.148 E0.0846
G1 X-66.101 Y-53.239 E0.0846
G1 X-64.125 Y-54.234 E0.0846
G1 X-62.102 Y-55.131 E0.0846
G1 X-60.037 Y-55.927 E0.0846
G1 X-57.936 Y-56.621 E0.0846
G1 X-55.804 Y-57.211 E0.0846
G1 X-53.645 Y-57.696 E0.0846
G1 X-51.465 Y-58.074 E0.0846
G1 X-49.269 Y-58.345 E0.0846
G1 X-47.062 Y-58.508 E0.0846
G1 X-44.850 Y-58.562 E0.0846
G1 X-42.638 Y-58.508 E0.0846
G1 X-40.431 Y-58.345 E0.0846
G1 X-38.235 Y-58.074 E0.0846
G1 X-36.055 Y-57.696 E0.0846
G1 X-33.896 Y-57.211 E0.0846
G1 X-31.763 Y-56.621 E0.0846
G1 X-29.662 Y-55.927 E0.0846
G1 X-27.598 Y-55.131 E0.0846
G1 X-25.575 Y-54.234 E0.0846
G1 X-23.599 Y-53.239 E0.0846
G1 X-21.673 Y-52.148 E0.0846
G1 X-19.804 Y-50.965 E0.0846
G1 X-17.995 Y-49.690 E0.0846
G1 X-16.251 Y-48.329 E0.0846
G1 X-14.575 Y-46.884 E0.0846
G1 X-12.972 Y-45.358 E0.0846
G1 X-11.447 Y-43.755 E0.0846
G1 X-10.002 Y-42.080 E0.0846
G1 X-8.640 Y-40.336 E0.0846
G1 X-7.366 Y-38.527 E0.0846
G1 X-6.182 Y-36.657 E0.0846
G1 X-5.092 Y-34.732 E0.0846
G1 X-4.097 Y-32.755 E0.0846
G1 X-3.200 Y-30.733 E0.0846
G1 X-2.404 Y-28.668 E0.0846
G1 X-1.710 Y-26.567 E0.0846
G1 X-1.119 Y-24.435 E0.0846
G1 X-0.634 Y-22.275 E0.0846
G1 X-0.256 Y-20.095 E0.0846
G1 X0.014 Y-17.899 E0.0846
G1 X0.177 Y-15.693 E0.0846
G1 X0.232 Y-13.481 E0.0846
G1 X0.177 Y-11.269 E0.0846
G1 X0.014 Y-9.062 E0.0846
G1 X-0.256 Y-6.866 E0.0846
G1 X-0.634 Y-4.686 E0.0846
G1 X-1.119 Y-2.527 E0.0846
G1 X-1.710 Y-0.394 E0.0846
G1 X-2.404 Y1.707 E0.0846
G1 X-3.200 Y3.771 E0.0846
G1 X-4.097 Y5.794 E0.0846
G1 X-5.092 Y7.771 E0.0846
G1 X-6.182 Y9.696 E0.0846
G1 X-7.366 Y11.565 E0.0846
G1 X-8.640 Y13.374 E0.0846
G1 X-10.002 Y15.119 E0.0846
G1 X-11.447 Y16.794 E0.0846
G1 X-12.972 Y18.397 E0.0846
G1 X-14.575 Y19.922 E0.0846
G1 X-16.252 Y21.368 E0.0847
G1 X-18.002 Y22.731 E0.0848
G1 X-19.822 Y24.008 E0.0850
G1 X-21.714 Y25.200 E0.0855
G1 X-23.664 Y26.329 E0.0862
G1 X-25.656 Y27.419 E0.0869
; feature outer perimeter
G1 X-25.438 Y27.824 F9000
G1 X-27.120 Y28.717 E0.0729 F1200
G1 X-27.120 Y16.132 E0.4814
G1 X-26.367 Y15.705 E0.0331
G1 X-25.784 Y15.320 E0.0267
G1 X-25.036 Y14.778 E0.0353
G1 X-24.063 Y14.025 E0.0471
G1 X-22.935 Y13.098 E0.0558
G1 X-21.724 Y12.034 E0.0617
G1 X-20.499 Y10.871 E0.0646
G1 X-19.332 Y9.647 E0.0647
G1 X-18.228 Y8.368 E0.0647
G1 X-17.187 Y7.035 E0.0647
G1 X-16.214 Y5.653 E0.0647
G1 X-15.310 Y4.225 E0.0647
G1 X-14.477 Y2.754 E0.0647
G1 X-13.716 Y1.244 E0.0647
G1 X-13.031 Y-0.301 E0.0647
G1 X-12.423 Y-1.878 E0.0647
G1 X-11.893 Y-3.483 E0.0647
G1 X-11.442 Y-5.112 E0.0647
G1 X-11.071 Y-6.762 E0.0647
G1 X-10.783 Y-8.427 E0.0647
G1 X-10.576 Y-10.105 E0.0647
G1 X-10.451 Y-11.791 E0.0647
G1 X-10.410 Y-13.481 E0.0647
G1 X-10.451 Y-15.170 E0.0647
G1 X-10.576 Y-16.856 E0.0647
G1 X-10.783 Y-18.534 E0.0647
G1 X-11.072 Y-20.200 E0.0647
G1 X-11.442 Y-21.849 E0.0647
G1 X-11.893 Y-23.478 E0.0647
G1 X-12.423 Y-25.083 E0.0647
G1 X-13.031 Y-26.660 E0.0647
G1 X-13.716 Y-28.206 E0.0647
G1 X-14.477 Y-29.715 E0.0647
G1 X-15.310 Y-31.186 E0.0647
G1 X-16.214 Y-32.615 E0.0647
G1 X-17.187 Y-33.996 E0.0647
G1 X-18.227 Y-35.329 E0.0647
G1 X-19.332 Y-36.609 E0.0647
G1 X-20.497 Y-37.833 E0.0647
G1 X-21.721 Y-38.999 E0.0647
G1 X-23.001 Y-40.103 E0.0647
G1 X-24.334 Y-41.143 E0.0647
G1 X-25.716 Y-42.117 E0.0647
G1 X-27.144 Y-43.021 E0.0647
G1 X-28.615 Y-43.854 E0.0647
G1 X-30.125 Y-44.614 E0.0647
G1 X-31.670 Y-45.299 E0.0647
G1 X-33.247 Y-45.907 E0.0647
G1 X-34.853 Y-46.438 E0.0647
G1 X-36.482 Y-46.888 E0.0647
G1 X-38.131 Y-47.259 E0.0647
G1 X-39.797 Y-47.548 E0.0647
G1 X-41.474 Y-47.755 E0.0647
G1 X-43.160 Y-47.879 E0.0647
G1 X-44.850 Y-47.921 E0.0647
G1 X-46.540 Y-47.879 E0.0647
G1 X-48.226 Y-47.755 E0.0647
G1 X-49.903 Y-47.548 E0.0647
G1 X-51.569 Y-47.259 E0.0647
G1 X-53.218 Y-46.888 E0.0647
G1 X-54.847 Y-46.438 E0.0647
G1 X-56.452 Y-45.907 E0.0647
G1 X-58.030 Y-45.299 E0.0647
G1 X-59.575 Y-44.614 E0.0647
G1 X-61.085 Y-43.854 E0.0647
G1 X-62.556 Y-43.021 E0.0647
G1 X-63.984 Y-42.116 E0.0647
G1 X-65.366 Y-41.143 E0.0647
G1 X-66.698 Y-40.103 E0.0647
G1 X-67.978 Y-38.999 E0.0647
