; G-Code generated by Simplify3D(R) Version 4.1.2
; Apr 2, 2020 at 4:33:57 PM
; Settings Summary
;   processName,Process1
;   applyToModels,platformV1R2,platformV1R2(2),platformV1R2(3),platformV1R2(2)(2),platformV1R2(4),platformV1R2(2)(3),platformV1R2(3)(2),platformV1R2(2)(2)(2)
;   profileName,MakerBot Replicator 2 HBP (modified)
;   profileVersion,2020-03-12 10:48:50
;   baseProfile,MakerBot Replicator 2(2)
;   printMaterial,PLA
;   printQuality,Medium
;   printExtruders,
;   extruderName,Primary Extruder
;   extruderToolheadNumber,0
;   extruderDiameter,0.4
;   extruderAutoWidth,0
;   extruderWidth,0.4
;   extrusionMultiplier,1
;   extruderUseRetract,1
;   extruderRetractionDistance,1.9
;   extruderExtraRestartDistance,0
;   extruderRetractionZLift,0.5
;   extruderRetractionSpeed,1200
;   extruderUseCoasting,0
;   extruderCoastingDistance,0.2
;   extruderUseWipe,0
;   extruderWipeDistance,5
;   primaryExtruder,0
;   layerHeight,0.2
;   topSolidLayers,3
;   bottomSolidLayers,3
;   perimeterOutlines,2
;   printPerimetersInsideOut,1
;   startPointOption,3
;   startPointOriginX,0
;   startPointOriginY,150
;   sequentialIslands,0
;   spiralVaseMode,0
;   firstLayerHeightPercentage,100
;   firstLayerWidthPercentage,115
;   firstLayerUnderspeed,0.5
;   useRaft,0
;   raftExtruder,0
;   raftTopLayers,2
;   raftBaseLayers,1
;   raftOffset,1
;   raftSeparationDistance,0.14
;   raftTopInfill,90
;   aboveRaftSpeedMultiplier,0.3
;   useSkirt,0
;   skirtExtruder,0
;   skirtLayers,1
;   skirtOutlines,5
;   skirtOffset,0
;   usePrimePillar,0
;   primePillarExtruder,999
;   primePillarWidth,12
;   primePillarLocation,7
;   primePillarSpeedMultiplier,1
;   useOozeShield,0
;   oozeShieldExtruder,999
;   oozeShieldOffset,2
;   oozeShieldOutlines,1
;   oozeShieldSidewallShape,1
;   oozeShieldSidewallAngle,30
;   oozeShieldSpeedMultiplier,1
;   infillExtruder,0
;   internalInfillPattern,Rectilinear
;   externalInfillPattern,Rectilinear
;   infillPercentage,15
;   outlineOverlapPercentage,25
;   infillExtrusionWidthPercentage,100
;   minInfillLength,5
;   infillLayerInterval,1
;   internalInfillAngles,45,-45
;   overlapInternalInfillAngles,0
;   externalInfillAngles,45,-45
;   generateSupport,0
;   supportExtruder,0
;   supportInfillPercentage,30
;   supportExtraInflation,0.5
;   supportBaseLayers,0
;   denseSupportExtruder,0
;   denseSupportLayers,2
;   denseSupportInfillPercentage,90
;   supportLayerInterval,1
;   supportHorizontalPartOffset,0.3
;   supportUpperSeparationLayers,1
;   supportLowerSeparationLayers,1
;   supportType,1
;   supportGridSpacing,2
;   maxOverhangAngle,45
;   supportAngles,45,-45
;   temperatureName,Primary Extruder,Heated Build Platform
;   temperatureNumber,0,0
;   temperatureSetpointCount,1,1
;   temperatureSetpointLayers,1,1
;   temperatureSetpointTemperatures,230,60
;   temperatureStabilizeAtStartup,1,1
;   temperatureHeatedBed,0,1
;   fanLayers,1,2
;   fanSpeeds,0,100
;   blipFanToFullPower,1
;   adjustSpeedForCooling,1
;   minSpeedLayerTime,15
;   minCoolingSpeedSlowdown,20
;   increaseFanForCooling,1
;   minFanLayerTime,45
;   maxCoolingFanSpeed,100
;   increaseFanForBridging,1
;   bridgingFanSpeed,100
;   use5D,1
;   relativeEdistances,1
;   allowEaxisZeroing,0
;   independentExtruderAxes,1
;   includeM10123,0
;   stickySupport,1
;   applyToolheadOffsets,0
;   gcodeXoffset,0
;   gcodeYoffset,0
;   gcodeZoffset,0
;   overrideMachineDefinition,1
;   machineTypeOverride,0
;   strokeXoverride,280
;   strokeYoverride,150
;   strokeZoverride,150
;   originOffsetXoverride,140
;   originOffsetYoverride,75
;   originOffsetZoverride,0
;   homeXdirOverride,1
;   homeYdirOverride,1
;   homeZdirOverride,-1
;   flipXoverride,1
;   flipYoverride,-1
;   flipZoverride,1
;   toolheadOffsets,0,0|0,0|0,0|0,0|0,0|0,0
;   overrideFirmwareConfiguration,1
;   firmwareTypeOverride,MakerBot/Sailfish Firmware
;   GPXconfigOverride,r2h
;   baudRateOverride,115200
;   overridePrinterModels,1
;   printerModelsOverride,MakerBot_Replicator2.stl
;   startingGcode,; **** Replicator 2 start.gcode ****,M73 P0 ; enable build progress,G162 X Y F3000 ; home XY maximum,G161 Z F1200 ; home Z minimum,G92 Z-5 ; set Z to -5,G1 Z0 ; move Z to 0,G161 Z F100 ; home Z slowly,M132 X Y Z A B ; recall home offsets,G1 X-145 Y-75 Z30 F9000 ; move to wait position off table,G130 X20 Y20 Z20 A20 B20 ; lower stepper Vrefs while heating,M126 S[fan_speed_pwm],M140 S[bed0_temperature] T0,M134 T0 ; stabilize bed temperature,M104 S[extruder0_temperature] T0,M133 T0 ; stabilize extruder temperature,G130 X127 Y127 Z40 A127 B127 ; default stepper Vrefs,G92 A0 ; zero extruder,G1 Z0.4 ; position nozzle,G1 E25 F300 ; purge nozzle,G1 X-140 Y-70 Z0.15 F1200 ; slow wipe,G1 X-135 Y-65 Z0.5 F1200 ; lift,G92 A0 ; zero extruder,M73 P1 ;@body (notify GPX body has started),; **** end of start.gcode ****
;   layerChangeGcode,
;   retractionGcode,
;   toolChangeGcode,
;   endingGcode,; **** Replicator 2 end.gcode ****,M73 P100 ; end build progress,G1 Z155 F1000 ; send Z axis to bottom of machine,M104 S0 T0 ; cool down extruder,M140 S0 T0 ; cool down HBP,M127 ; stop blower fan,G162 X Y F3000 ; home XY maximum,M18 ; disable stepper,M0 ; stop codes,M72 P1 ; play Ta-Da song,; **** end of end.gcode ****
;   exportFileFormat,gcode
;   celebration,0
;   celebrationSong,Random Song
;   postProcessing,
;   defaultSpeed,4800
;   outlineUnderspeed,0.5
;   solidInfillUnderspeed,1
;   supportUnderspeed,1
;   rapidXYspeed,9000
;   rapidZspeed,1200
;   minBridgingArea,50
;   bridgingExtraInflation,0
;   bridgingExtrusionMultiplier,1
;   bridgingSpeedMultiplier,0.8
;   useFixedBridgingAngle,0
;   fixedBridgingAngle,0
;   applyBridgingToPerimeters,0
;   filamentDiameters,1.75|1.75|1.75|1.75|1.75|1.75
;   filamentPricesPerKg,46|46|46|46|46|46
;   filamentDensities,1.25|1.25|1.25|1.25|1.25|1.25
;   useMinPrintHeight,0
;   minPrintHeight,0
;   useMaxPrintHeight,0
;   maxPrintHeight,4.84
;   useDiaphragm,0
;   diaphragmLayerInterval,20
;   robustSlicing,1
;   mergeAllIntoSolid,0
;   onlyRetractWhenCrossingOutline,0
;   retractBetweenLayers,0
;   useRetractionMinTravel,1
;   retractionMinTravel,7
;   retractWhileWiping,1
;   onlyWipeOutlines,1
;   avoidCrossingOutline,0
;   maxMovementDetourFactor,3
;   toolChangeRetractionDistance,12
;   toolChangeExtraRestartDistance,-0.5
;   toolChangeRetractionSpeed,600
;   externalThinWallType,0
;   internalThinWallType,0
;   thinWallAllowedOverlapPercentage,10
;   singleExtrusionMinLength,1
;   singleExtrusionMinPrintingWidthPercentage,50
;   singleExtrusionMaxPrintingWidthPercentage,200
;   singleExtrusionEndpointExtension,0.2
;   horizontalSizeCompensation,0
G90
M83
; **** Replicator 2 start.gcode ****
M73 P0 ; enable build progress
G162 X Y F3000 ; home XY maximum
G161 Z F1200 ; home Z minimum
G92 Z-5 ; set Z to -5
G1 Z0 ; move Z to 0
G161 Z F100 ; home Z slowly
M132 X Y Z A B ; recall home offsets
G1 X-145 Y-75 Z30 F9000 ; move to wait position off table
G130 X20 Y20 Z20 A20 B20 ; lower stepper Vrefs while heating
M127
M140 S60 T0
M134 T0 ; stabilize bed temperature
M104 S230 T0
M133 T0 ; stabilize extruder temperature
G130 X127 Y127 Z40 A127 B127 ; default stepper Vrefs
G92 A0 ; zero extruder
G1 Z0.4 ; position nozzle
G1 E25 F300 ; purge nozzle
G1 X-140 Y-70 Z0.15 F1200 ; slow wipe
G1 X-135 Y-65 Z0.5 F1200 ; lift
G92 A0 ; zero extruder
M73 P1 ;@body (notify GPX body has started)
; **** end of start.gcode ****
; process Process1
; layer 1, Z = 0.200
M135 T0
G1 E-1.9000 F1200
; feature inner perimeter
; tool H0.200 W0.460
G1 Z0.500 F1200
G1 X-45.368 Y5.046 F9000
G1 Z0.200 F1200
G1 E1.9000 F1200
G1 X-46.494 Y4.948 E0.0432 F1800
G1 X-47.556 Y4.664 E0.0421
G1 X-48.552 Y4.199 E0.0421
G1 X-49.453 Y3.569 E0.0421
G1 X-50.231 Y2.792 E0.0421
G1 X-50.862 Y1.891 E0.0420
G1 X-51.327 Y0.895 E0.0421
G1 X-51.612 Y-0.167 E0.0421
G1 X-51.711 Y-1.292 E0.0432
G1 X-51.711 Y-3.232 E0.0742
G1 X-51.613 Y-4.357 E0.0432
G1 X-51.329 Y-5.419 E0.0421
G1 X-50.865 Y-6.416 E0.0421
G1 X-50.234 Y-7.317 E0.0421
G1 X-49.457 Y-8.094 E0.0421
G1 X-48.557 Y-8.725 E0.0421
G1 X-47.560 Y-9.190 E0.0421
G1 X-46.498 Y-9.475 E0.0421
G1 X-45.373 Y-9.574 E0.0432
G1 X93.798 Y-9.620 E5.3232
G1 X93.802 Y5.000 E0.5592
G1 X-45.368 Y5.046 E5.3232
; feature outer perimeter
G1 X-45.388 Y5.506 F9000
G1 X-46.574 Y5.403 E0.0455 F1200
G1 X-47.714 Y5.098 E0.0451
G1 X-48.783 Y4.599 E0.0451
G1 X-49.750 Y3.923 E0.0451
G1 X-50.585 Y3.089 E0.0451
G1 X-51.262 Y2.122 E0.0451
G1 X-51.761 Y1.053 E0.0451
G1 X-52.066 Y-0.086 E0.0451
G1 X-52.171 Y-1.272 E0.0455
G1 X-52.171 Y-3.252 E0.0757
G1 X-52.068 Y-4.437 E0.0455
G1 X-51.763 Y-5.577 E0.0451
G1 X-51.264 Y-6.647 E0.0451
G1 X-50.588 Y-7.613 E0.0451
G1 X-49.754 Y-8.448 E0.0451
G1 X-48.788 Y-9.125 E0.0451
G1 X-47.718 Y-9.624 E0.0451
G1 X-46.579 Y-9.930 E0.0451
G1 X-45.393 Y-10.034 E0.0455
G1 X94.257 Y-10.080 E5.3415
G1 X94.262 Y5.460 E0.5944
G1 X-45.388 Y5.506 E5.3415
G1 E-1.9000 F1200
; feature inner perimeter
G1 Z0.700 F1200
G1 X-34.253 Y-1.300 F9000
G1 Z0.200 F1200
G1 E1.9000 F1200
G1 X-34.056 Y-0.993 E0.0139 F1800
G1 X-33.810 Y-0.725 E0.0139
G1 X-33.520 Y-0.504 E0.0139
G1 X-33.197 Y-0.336 E0.0139
G1 X-32.850 Y-0.227 E0.0139
G1 X-32.488 Y-0.180 E0.0139
G1 X-32.124 Y-0.197 E0.0139
G1 X-31.769 Y-0.276 E0.0139
G1 X-31.423 Y-0.420 E0.0143
G1 X-31.083 Y-0.652 E0.0158
G1 X-30.858 Y-0.859 E0.0117
G1 X-30.636 Y-1.149 E0.0139
G1 X-30.469 Y-1.472 E0.0139
G1 X-30.360 Y-1.820 E0.0139
G1 X-30.313 Y-2.181 E0.0139
G1 X-30.330 Y-2.545 E0.0139
G1 X-30.409 Y-2.900 E0.0139
G1 X-30.549 Y-3.236 E0.0139
G1 X-30.745 Y-3.543 E0.0139
G1 X-30.992 Y-3.811 E0.0139
G1 X-31.281 Y-4.033 E0.0139
G1 X-31.614 Y-4.205 E0.0143
G1 X-32.010 Y-4.317 E0.0158
G1 X-32.313 Y-4.356 E0.0117
G1 X-32.677 Y-4.340 E0.0139
G1 X-33.033 Y-4.260 E0.0139
G1 X-33.369 Y-4.120 E0.0139
G1 X-33.676 Y-3.924 E0.0139
G1 X-33.944 Y-3.677 E0.0139
G1 X-34.165 Y-3.388 E0.0139
G1 X-34.333 Y-3.065 E0.0139
G1 X-34.442 Y-2.717 E0.0139
G1 X-34.489 Y-2.356 E0.0139
G1 X-34.472 Y-1.992 E0.0139
G1 X-34.393 Y-1.636 E0.0139
G1 X-34.253 Y-1.300 E0.0139
; feature outer perimeter
G1 X-33.843 Y-1.514 F9000
G1 X-33.691 Y-1.275 E0.0109 F1200
G1 X-33.498 Y-1.066 E0.0109
G1 X-33.273 Y-0.894 E0.0109
G1 X-33.021 Y-0.763 E0.0109
G1 X-32.750 Y-0.678 E0.0109
G1 X-32.469 Y-0.642 E0.0109
G1 X-32.186 Y-0.655 E0.0109
G1 X-31.909 Y-0.717 E0.0109
G1 X-31.644 Y-0.827 E0.0110
G1 X-31.369 Y-1.014 E0.0127
G1 X-31.199 Y-1.171 E0.0089
G1 X-31.026 Y-1.396 E0.0109
G1 X-30.896 Y-1.648 E0.0109
G1 X-30.811 Y-1.919 E0.0109
G1 X-30.774 Y-2.200 E0.0109
G1 X-30.787 Y-2.484 E0.0109
G1 X-30.849 Y-2.761 E0.0109
G1 X-30.958 Y-3.022 E0.0109
G1 X-31.111 Y-3.262 E0.0109
G1 X-31.303 Y-3.470 E0.0109
G1 X-31.529 Y-3.643 E0.0109
G1 X-31.784 Y-3.775 E0.0110
G1 X-32.103 Y-3.865 E0.0127
G1 X-32.333 Y-3.895 E0.0089
G1 X-32.616 Y-3.882 E0.0109
G1 X-32.893 Y-3.820 E0.0109
G1 X-33.155 Y-3.711 E0.0109
G1 X-33.394 Y-3.558 E0.0109
G1 X-33.603 Y-3.366 E0.0109
G1 X-33.775 Y-3.141 E0.0109
G1 X-33.906 Y-2.889 E0.0109
G1 X-33.991 Y-2.618 E0.0109
G1 X-34.027 Y-2.336 E0.0109
G1 X-34.014 Y-2.053 E0.0109
G1 X-33.953 Y-1.776 E0.0109
G1 X-33.843 Y-1.514 E0.0109
G1 E-1.9000 F1200
; feature inner perimeter
G1 Z0.700 F1200
G1 X67.404 Y-2.389 F9000
G1 Z0.200 F1200
G1 E1.9000 F1200
G1 X67.421 Y-2.025 E0.0139 F1800
G1 X67.500 Y-1.670 E0.0139
G1 X67.640 Y-1.334 E0.0139
G1 X67.836 Y-1.028 E0.0139
G1 X68.082 Y-0.760 E0.0139
G1 X68.371 Y-0.539 E0.0139
G1 X68.694 Y-0.371 E0.0139
G1 X69.042 Y-0.263 E0.0139
G1 X69.403 Y-0.216 E0.0139
G1 X69.766 Y-0.232 E0.0139
G1 X70.131 Y-0.314 E0.0143
G1 X70.506 Y-0.483 E0.0158
G1 X70.764 Y-0.648 E0.0117
G1 X71.032 Y-0.894 E0.0139
G1 X71.253 Y-1.183 E0.0139
G1 X71.420 Y-1.506 E0.0139
G1 X71.529 Y-1.853 E0.0139
G1 X71.576 Y-2.214 E0.0139
G1 X71.559 Y-2.588 E0.0143
G1 X71.457 Y-2.987 E0.0158
G1 X71.340 Y-3.269 E0.0117
G1 X71.144 Y-3.575 E0.0139
G1 X70.898 Y-3.843 E0.0139
G1 X70.609 Y-4.064 E0.0139
G1 X70.285 Y-4.232 E0.0139
G1 X69.938 Y-4.340 E0.0139
G1 X69.577 Y-4.387 E0.0139
G1 X69.214 Y-4.371 E0.0139
G1 X68.859 Y-4.291 E0.0139
G1 X68.523 Y-4.152 E0.0139
G1 X68.208 Y-3.950 E0.0143
G1 X67.913 Y-3.663 E0.0158
G1 X67.727 Y-3.420 E0.0117
G1 X67.560 Y-3.097 E0.0139
G1 X67.451 Y-2.750 E0.0139
G1 X67.404 Y-2.389 E0.0139
; feature outer perimeter
G1 X67.865 Y-2.370 F9000
G1 X67.878 Y-2.087 E0.0108 F1200
G1 X67.940 Y-1.810 E0.0108
G1 X68.049 Y-1.548 E0.0108
G1 X68.202 Y-1.310 E0.0108
G1 X68.394 Y-1.101 E0.0108
G1 X68.619 Y-0.929 E0.0108
G1 X68.870 Y-0.798 E0.0108
G1 X69.141 Y-0.714 E0.0108
G1 X69.422 Y-0.677 E0.0108
G1 X69.705 Y-0.690 E0.0108
G1 X69.985 Y-0.753 E0.0110
G1 X70.287 Y-0.889 E0.0127
G1 X70.482 Y-1.013 E0.0089
G1 X70.691 Y-1.205 E0.0108
G1 X70.863 Y-1.430 E0.0108
G1 X70.993 Y-1.682 E0.0108
G1 X71.078 Y-1.952 E0.0108
G1 X71.114 Y-2.233 E0.0108
G1 X71.101 Y-2.520 E0.0110
G1 X71.020 Y-2.841 E0.0127
G1 X70.931 Y-3.055 E0.0089
G1 X70.778 Y-3.294 E0.0108
G1 X70.586 Y-3.502 E0.0108
G1 X70.361 Y-3.674 E0.0108
G1 X70.110 Y-3.805 E0.0108
G1 X69.839 Y-3.890 E0.0108
G1 X69.558 Y-3.926 E0.0108
G1 X69.275 Y-3.913 E0.0108
G1 X68.998 Y-3.851 E0.0108
G1 X68.737 Y-3.742 E0.0108
G1 X68.495 Y-3.588 E0.0110
G1 X68.258 Y-3.357 E0.0127
G1 X68.117 Y-3.173 E0.0089
G1 X67.987 Y-2.921 E0.0108
G1 X67.902 Y-2.651 E0.0108
G1 X67.865 Y-2.370 E0.0108
; feature solid layer
G1 X69.042 Y0.085 F9000
G1 X73.619 Y4.662 E0.2476 F2400
G1 X74.269 Y4.662 E0.0249
G1 X69.723 Y0.115 E0.2459
G1 X69.812 Y0.111 E0.0034
G1 X70.241 Y0.015 E0.0168
G1 X70.263 Y0.005 E0.0009
G1 X74.920 Y4.662 E0.2519
G1 X75.570 Y4.661 E0.0249
G1 X70.707 Y-0.202 E0.2631
G1 X70.975 Y-0.373 E0.0122
G1 X71.085 Y-0.474 E0.0057
G1 X76.220 Y4.661 E0.2778
G1 X76.871 Y4.661 E0.0249
G1 X71.401 Y-0.809 E0.2959
G1 X71.545 Y-0.997 E0.0091
G1 X71.654 Y-1.207 E0.0090
G1 X77.521 Y4.661 E0.3174
G1 X78.171 Y4.661 E0.0249
G1 X71.835 Y-1.676 E0.3428
G1 X71.867 Y-1.779 E0.0041
G1 X71.922 Y-2.200 E0.0162
G1 X71.920 Y-2.242 E0.0016
G1 X78.822 Y4.660 E0.3733
G1 X79.472 Y4.660 E0.0249
G1 X71.809 Y-3.003 E0.4145
G1 E-1.9000 F1200
G1 Z0.700 F1200
G1 X92.860 Y-9.274 F9000
G1 Z0.200 F1200
G1 E1.9000 F1200
G1 X93.453 Y-8.682 E0.0321 F2400
G1 X93.453 Y-8.031 E0.0249
G1 X92.210 Y-9.274 E0.0672
G1 X91.560 Y-9.274 E0.0249
G1 X93.453 Y-7.380 E0.1024
G1 X93.453 Y-6.729 E0.0249
G1 X90.909 Y-9.274 E0.1376
G1 X90.259 Y-9.273 E0.0249
G1 X93.454 Y-6.079 E0.1728
G1 X93.454 Y-5.428 E0.0249
G1 X89.609 Y-9.273 E0.2080
G1 X88.958 Y-9.273 E0.0249
G1 X93.454 Y-4.777 E0.2432
G1 X93.454 Y-4.126 E0.0249
G1 X88.308 Y-9.273 E0.2784
G1 X87.658 Y-9.272 E0.0249
G1 X93.455 Y-3.476 E0.3136
G1 X93.455 Y-2.825 E0.0249
G1 X87.007 Y-9.272 E0.3488
G1 X86.357 Y-9.272 E0.0249
G1 X93.455 Y-2.174 E0.3839
G1 X93.455 Y-1.523 E0.0249
G1 X85.707 Y-9.272 E0.4191
G1 X85.056 Y-9.272 E0.0249
G1 X93.455 Y-0.873 E0.4543
G1 X93.456 Y-0.222 E0.0249
G1 X84.406 Y-9.271 E0.4895
G1 X83.756 Y-9.271 E0.0249
G1 X93.456 Y0.429 E0.5247
G1 X93.456 Y1.080 E0.0249
G1 X83.105 Y-9.271 E0.5599
G1 X82.455 Y-9.271 E0.0249
G1 X93.456 Y1.730 E0.5951
G1 X93.456 Y2.381 E0.0249
G1 X81.805 Y-9.271 E0.6303
G1 X81.154 Y-9.270 E0.0249
G1 X93.457 Y3.032 E0.6655
G1 X93.457 Y3.683 E0.0249
G1 X80.504 Y-9.270 E0.7006
G1 X79.854 Y-9.270 E0.0249
G1 X93.457 Y4.333 E0.7358
G1 X93.457 Y4.656 E0.0123
G1 X93.129 Y4.656 E0.0126
G1 X79.203 Y-9.270 E0.7533
G1 X78.553 Y-9.270 E0.0249
G1 X92.479 Y4.656 E0.7533
G1 X91.828 Y4.656 E0.0249
G1 X77.903 Y-9.269 E0.7533
G1 X77.253 Y-9.269 E0.0249
G1 X91.178 Y4.656 E0.7533
G1 X90.528 Y4.657 E0.0249
G1 X76.602 Y-9.269 E0.7533
G1 X75.952 Y-9.269 E0.0249
G1 X89.877 Y4.657 E0.7533
G1 X89.227 Y4.657 E0.0249
G1 X75.302 Y-9.268 E0.7533
G1 X74.651 Y-9.268 E0.0249
G1 X88.577 Y4.657 E0.7533
G1 X87.926 Y4.657 E0.0249
G1 X74.001 Y-9.268 E0.7533
G1 X73.351 Y-9.268 E0.0249
G1 X87.276 Y4.658 E0.7533
G1 X86.626 Y4.658 E0.0249
G1 X72.700 Y-9.268 E0.7533
G1 X72.050 Y-9.267 E0.0249
G1 X85.975 Y4.658 E0.7533
G1 X85.325 Y4.658 E0.0249
G1 X71.400 Y-9.267 E0.7533
G1 X70.749 Y-9.267 E0.0249
G1 X84.675 Y4.658 E0.7533
G1 X84.024 Y4.659 E0.0249
G1 X70.099 Y-9.267 E0.7533
G1 X69.449 Y-9.267 E0.0249
G1 X83.374 Y4.659 E0.7533
