; G-Code generated by Simplify3D(R) Version 4.1.2
; Apr 2, 2020 at 4:35:24 PM
; Settings Summary
;   processName,Process1
;   applyToModels,lampV1R1,lampV1R1(2),lampV1R1(3),lampV1R1(2)(2)
;   profileName,MakerBot Replicator 2 HBP (modified)
;   profileVersion,2020-03-12 10:48:50
;   baseProfile,MakerBot Replicator 2(2)
;   printMaterial,PLA
;   printQuality,Medium
;   printExtruders,
;   extruderName,Primary Extruder
;   extruderToolheadNumber,0
;   extruderDiameter,0.4
;   extruderAutoWidth,0
;   extruderWidth,0.4
;   extrusionMultiplier,1
;   extruderUseRetract,1
;   extruderRetractionDistance,1.9
;   extruderExtraRestartDistance,0
;   extruderRetractionZLift,0.5
;   extruderRetractionSpeed,1200
;   extruderUseCoasting,0
;   extruderCoastingDistance,0.2
;   extruderUseWipe,0
;   extruderWipeDistance,5
;   primaryExtruder,0
;   layerHeight,0.2
;   topSolidLayers,3
;   bottomSolidLayers,3
;   perimeterOutlines,2
;   printPerimetersInsideOut,1
;   startPointOption,3
;   startPointOriginX,0
;   startPointOriginY,150
;   sequentialIslands,0
;   spiralVaseMode,0
;   firstLayerHeightPercentage,100
;   firstLayerWidthPercentage,115
;   firstLayerUnderspeed,0.5
;   useRaft,0
;   raftExtruder,0
;   raftTopLayers,2
;   raftBaseLayers,1
;   raftOffset,1
;   raftSeparationDistance,0.14
;   raftTopInfill,90
;   aboveRaftSpeedMultiplier,0.3
;   useSkirt,1
;   skirtExtruder,0
;   skirtLayers,1
;   skirtOutlines,10
;   skirtOffset,0
;   usePrimePillar,0
;   primePillarExtruder,999
;   primePillarWidth,12
;   primePillarLocation,7
;   primePillarSpeedMultiplier,1
;   useOozeShield,0
;   oozeShieldExtruder,999
;   oozeShieldOffset,2
;   oozeShieldOutlines,1
;   oozeShieldSidewallShape,1
;   oozeShieldSidewallAngle,30
;   oozeShieldSpeedMultiplier,1
;   infillExtruder,0
;   internalInfillPattern,Rectilinear
;   externalInfillPattern,Rectilinear
;   infillPercentage,15
;   outlineOverlapPercentage,25
;   infillExtrusionWidthPercentage,100
;   minInfillLength,5
;   infillLayerInterval,1
;   internalInfillAngles,45,-45
;   overlapInternalInfillAngles,0
;   externalInfillAngles,45,-45
;   generateSupport,0
;   supportExtruder,0
;   supportInfillPercentage,30
;   supportExtraInflation,0.5
;   supportBaseLayers,0
;   denseSupportExtruder,0
;   denseSupportLayers,2
;   denseSupportInfillPercentage,90
;   supportLayerInterval,1
;   supportHorizontalPartOffset,0.3
;   supportUpperSeparationLayers,1
;   supportLowerSeparationLayers,1
;   supportType,1
;   supportGridSpacing,2
;   maxOverhangAngle,45
;   supportAngles,45,-45
;   temperatureName,Primary Extruder,Heated Build Platform
;   temperatureNumber,0,0
;   temperatureSetpointCount,1,1
;   temperatureSetpointLayers,1,1
;   temperatureSetpointTemperatures,230,60
;   temperatureStabilizeAtStartup,1,1
;   temperatureHeatedBed,0,1
;   fanLayers,1,2
;   fanSpeeds,0,100
;   blipFanToFullPower,1
;   adjustSpeedForCooling,1
;   minSpeedLayerTime,15
;   minCoolingSpeedSlowdown,20
;   increaseFanForCooling,1
;   minFanLayerTime,45
;   maxCoolingFanSpeed,100
;   increaseFanForBridging,1
;   bridgingFanSpeed,100
;   use5D,1
;   relativeEdistances,1
;   allowEaxisZeroing,0
;   independentExtruderAxes,1
;   includeM10123,0
;   stickySupport,1
;   applyToolheadOffsets,0
;   gcodeXoffset,0
;   gcodeYoffset,0
;   gcodeZoffset,0
;   overrideMachineDefinition,1
;   machineTypeOverride,0
;   strokeXoverride,280
;   strokeYoverride,150
;   strokeZoverride,150
;   originOffsetXoverride,140
;   originOffsetYoverride,75
;   originOffsetZoverride,0
;   homeXdirOverride,1
;   homeYdirOverride,1
;   homeZdirOverride,-1
;   flipXoverride,1
;   flipYoverride,-1
;   flipZoverride,1
;   toolheadOffsets,0,0|0,0|0,0|0,0|0,0|0,0
;   overrideFirmwareConfiguration,1
;   firmwareTypeOverride,MakerBot/Sailfish Firmware
;   GPXconfigOverride,r2h
;   baudRateOverride,115200
;   overridePrinterModels,1
;   printerModelsOverride,MakerBot_Replicator2.stl
;   startingGcode,; **** Replicator 2 start.gcode ****,M73 P0 ; enable build progress,G162 X Y F3000 ; home XY maximum,G161 Z F1200 ; home Z minimum,G92 Z-5 ; set Z to -5,G1 Z0 ; move Z to 0,G161 Z F100 ; home Z slowly,M132 X Y Z A B ; recall home offsets,G1 X-145 Y-75 Z30 F9000 ; move to wait position off table,G130 X20 Y20 Z20 A20 B20 ; lower stepper Vrefs while heating,M126 S[fan_speed_pwm],M140 S[bed0_temperature] T0,M134 T0 ; stabilize bed temperature,M104 S[extruder0_temperature] T0,M133 T0 ; stabilize extruder temperature,G130 X127 Y127 Z40 A127 B127 ; default stepper Vrefs,G92 A0 ; zero extruder,G1 Z0.4 ; position nozzle,G1 E25 F300 ; purge nozzle,G1 X-140 Y-70 Z0.15 F1200 ; slow wipe,G1 X-135 Y-65 Z0.5 F1200 ; lift,G92 A0 ; zero extruder,M73 P1 ;@body (notify GPX body has started),; **** end of start.gcode ****
;   layerChangeGcode,
;   retractionGcode,
;   toolChangeGcode,
;   endingGcode,; **** Replicator 2 end.gcode ****,M73 P100 ; end build progress,G1 Z155 F1000 ; send Z axis to bottom of machine,M104 S0 T0 ; cool down extruder,M140 S0 T0 ; cool down HBP,M127 ; stop blower fan,G162 X Y F3000 ; home XY maximum,M18 ; disable stepper,M0 ; stop codes,M72 P1 ; play Ta-Da song,; **** end of end.gcode ****
;   exportFileFormat,gcode
;   celebration,0
;   celebrationSong,Random Song
;   postProcessing,
;   defaultSpeed,4800
;   outlineUnderspeed,0.5
;   solidInfillUnderspeed,1
;   supportUnderspeed,1
;   rapidXYspeed,9000
;   rapidZspeed,1200
;   minBridgingArea,50
;   bridgingExtraInflation,0
;   bridgingExtrusionMultiplier,1
;   bridgingSpeedMultiplier,0.8
;   useFixedBridgingAngle,0
;   fixedBridgingAngle,0
;   applyBridgingToPerimeters,0
;   filamentDiameters,1.75|1.75|1.75|1.75|1.75|1.75
;   filamentPricesPerKg,46|46|46|46|46|46
;   filamentDensities,1.25|1.25|1.25|1.25|1.25|1.25
;   useMinPrintHeight,0
;   minPrintHeight,0
;   useMaxPrintHeight,0
;   maxPrintHeight,4.84
;   useDiaphragm,0
;   diaphragmLayerInterval,20
;   robustSlicing,1
;   mergeAllIntoSolid,0
;   onlyRetractWhenCrossingOutline,0
;   retractBetweenLayers,0
;   useRetractionMinTravel,1
;   retractionMinTravel,7
;   retractWhileWiping,1
;   onlyWipeOutlines,1
;   avoidCrossingOutline,0
;   maxMovementDetourFactor,3
;   toolChangeRetractionDistance,12
;   toolChangeExtraRestartDistance,-0.5
;   toolChangeRetractionSpeed,600
;   externalThinWallType,0
;   internalThinWallType,0
;   thinWallAllowedOverlapPercentage,10
;   singleExtrusionMinLength,1
;   singleExtrusionMinPrintingWidthPercentage,50
;   singleExtrusionMaxPrintingWidthPercentage,200
;   singleExtrusionEndpointExtension,0.2
;   horizontalSizeCompensation,0
G90
M83
; **** Replicator 2 start.gcode ****
M73 P0 ; enable build progress
G162 X Y F3000 ; home XY maximum
G161 Z F1200 ; home Z minimum
G92 Z-5 ; set Z to -5
G1 Z0 ; move Z to 0
G161 Z F100 ; home Z slowly
M132 X Y Z A B ; recall home offsets
G1 X-145 Y-75 Z30 F9000 ; move to wait position off table
G130 X20 Y20 Z20 A20 B20 ; lower stepper Vrefs while heating
M126 S170
M140 S60 T0
M134 T0 ; stabilize bed temperature
M104 S230 T0
M133 T0 ; stabilize extruder temperature
G130 X127 Y127 Z40 A127 B127 ; default stepper Vrefs
G92 A0 ; zero extruder
G1 Z0.4 ; position nozzle
G1 E25 F300 ; purge nozzle
G1 X-140 Y-70 Z0.15 F1200 ; slow wipe
G1 X-135 Y-65 Z0.5 F1200 ; lift
G92 A0 ; zero extruder
M73 P1 ;@body (notify GPX body has started)
; **** end of start.gcode ****
; process Process1
; layer 1, Z = 0.200
M135 T0
G1 E-1.9000 F1200
; feature skirt
; tool H0.200 W0.460
G1 Z0.500 F1200
G1 X0.107 Y-3.318 F9000
G1 Z0.200 F1200
G1 E1.9000 F1200
G1 X-0.115 Y-3.318 E0.0085 F1535
G1 X-0.755 Y-3.350 E0.0245
G1 X-0.975 Y-3.373 E0.0085
G1 X-1.609 Y-3.470 E0.0245
G1 X-1.826 Y-3.514 E0.0085
G1 X-2.445 Y-3.675 E0.0245
G1 X-2.657 Y-3.741 E0.0085
G1 X-3.259 Y-3.964 E0.0246
G1 X-3.463 Y-4.051 E0.0085
G1 X-4.035 Y-4.332 E0.0244
G1 X-4.229 Y-4.440 E0.0085
G1 X-4.775 Y-4.780 E0.0246
G1 X-4.957 Y-4.907 E0.0085
G1 X-5.463 Y-5.298 E0.0245
G1 X-5.631 Y-5.442 E0.0085
G1 X-6.096 Y-5.885 E0.0246
G1 X-6.249 Y-6.045 E0.0085
G1 X-6.666 Y-6.531 E0.0245
G1 X-6.801 Y-6.706 E0.0085
G1 X-7.169 Y-7.234 E0.0246
G1 X-7.286 Y-7.422 E0.0085
G1 X-7.596 Y-7.981 E0.0244
G1 X-7.694 Y-8.180 E0.0085
G1 X-7.946 Y-8.768 E0.0245
G1 X-8.023 Y-8.976 E0.0085
G1 X-8.215 Y-9.586 E0.0245
G1 X-8.271 Y-9.800 E0.0085
G1 X-8.400 Y-10.430 E0.0246
G1 X-8.433 Y-10.649 E0.0085
G1 X-8.498 Y-11.287 E0.0246
G1 X-8.510 Y-11.508 E0.0085
G1 X-8.510 Y-12.149 E0.0245
G1 X-8.498 Y-12.370 E0.0085
G1 X-8.433 Y-13.009 E0.0246
G1 X-8.400 Y-13.228 E0.0085
G1 X-8.270 Y-13.857 E0.0246
G1 X-8.215 Y-14.072 E0.0085
G1 X-8.023 Y-14.682 E0.0245
G1 X-7.946 Y-14.890 E0.0085
G1 X-7.694 Y-15.477 E0.0244
G1 X-7.597 Y-15.676 E0.0085
G1 X-7.285 Y-16.237 E0.0245
G1 X-7.168 Y-16.425 E0.0085
G1 X-6.802 Y-16.951 E0.0245
G1 X-6.666 Y-17.126 E0.0085
G1 X-6.249 Y-17.612 E0.0245
G1 X-6.096 Y-17.773 E0.0085
G1 X-5.631 Y-18.215 E0.0245
G1 X-5.463 Y-18.359 E0.0085
G1 X-4.956 Y-18.751 E0.0245
G1 X-4.775 Y-18.878 E0.0085
G1 X-4.231 Y-19.217 E0.0245
G1 X-4.037 Y-19.324 E0.0085
G1 X-3.463 Y-19.606 E0.0245
G1 X-3.259 Y-19.694 E0.0085
G1 X-2.656 Y-19.917 E0.0246
G1 X-2.444 Y-19.983 E0.0085
G1 X-1.825 Y-20.144 E0.0245
G1 X-1.608 Y-20.188 E0.0085
G1 X-0.975 Y-20.285 E0.0245
G1 X-0.754 Y-20.307 E0.0085
G1 X-0.115 Y-20.340 E0.0245
G1 X0.107 Y-20.340 E0.0085
G1 X0.746 Y-20.307 E0.0245
G1 X0.967 Y-20.285 E0.0085
G1 X1.600 Y-20.188 E0.0245
G1 X1.817 Y-20.144 E0.0085
G1 X2.437 Y-19.983 E0.0245
G1 X2.648 Y-19.917 E0.0085
G1 X3.250 Y-19.694 E0.0246
G1 X3.454 Y-19.607 E0.0085
G1 X4.029 Y-19.324 E0.0245
G1 X4.223 Y-19.217 E0.0085
G1 X4.767 Y-18.878 E0.0245
G1 X4.949 Y-18.751 E0.0085
G1 X5.455 Y-18.359 E0.0245
G1 X5.623 Y-18.215 E0.0085
G1 X6.089 Y-17.773 E0.0246
G1 X6.242 Y-17.612 E0.0085
G1 X6.658 Y-17.127 E0.0244
G1 X6.793 Y-16.952 E0.0085
G1 X7.160 Y-16.426 E0.0245
G1 X7.277 Y-16.238 E0.0085
G1 X7.588 Y-15.677 E0.0245
G1 X7.686 Y-15.478 E0.0085
G1 X7.939 Y-14.889 E0.0245
G1 X8.016 Y-14.681 E0.0085
G1 X8.208 Y-14.069 E0.0245
G1 X8.263 Y-13.855 E0.0085
G1 X8.392 Y-13.226 E0.0245
G1 X8.426 Y-13.007 E0.0085
G1 X8.491 Y-12.370 E0.0245
G1 X8.502 Y-12.149 E0.0085
G1 X8.502 Y-11.508 E0.0245
G1 X8.491 Y-11.287 E0.0085
G1 X8.426 Y-10.650 E0.0245
G1 X8.392 Y-10.431 E0.0085
G1 X8.263 Y-9.803 E0.0245
G1 X8.208 Y-9.589 E0.0085
G1 X8.016 Y-8.976 E0.0245
G1 X7.939 Y-8.769 E0.0085
G1 X7.686 Y-8.180 E0.0245
G1 X7.589 Y-7.981 E0.0085
G1 X7.277 Y-7.420 E0.0246
G1 X7.160 Y-7.232 E0.0085
G1 X6.794 Y-6.706 E0.0245
G1 X6.658 Y-6.531 E0.0085
G1 X6.242 Y-6.046 E0.0245
G1 X6.089 Y-5.885 E0.0085
G1 X5.623 Y-5.442 E0.0246
G1 X5.455 Y-5.298 E0.0085
G1 X4.950 Y-4.907 E0.0244
G1 X4.768 Y-4.781 E0.0085
G1 X4.221 Y-4.439 E0.0247
G1 X4.027 Y-4.332 E0.0085
G1 X3.455 Y-4.051 E0.0244
G1 X3.251 Y-3.964 E0.0085
G1 X2.650 Y-3.741 E0.0245
G1 X2.438 Y-3.675 E0.0085
G1 X1.818 Y-3.514 E0.0245
G1 X1.602 Y-3.470 E0.0085
G1 X0.967 Y-3.373 E0.0245
G1 X0.747 Y-3.350 E0.0085
G1 X0.107 Y-3.318 E0.0245
G1 X0.095 Y-3.778 F9000
G1 X-0.103 Y-3.778 E0.0076 F1535
G1 X-0.720 Y-3.809 E0.0236
G1 X-0.917 Y-3.829 E0.0076
G1 X-1.528 Y-3.923 E0.0236
G1 X-1.722 Y-3.963 E0.0076
G1 X-2.319 Y-4.117 E0.0236
G1 X-2.508 Y-4.176 E0.0076
G1 X-3.088 Y-4.391 E0.0237
G1 X-3.270 Y-4.470 E0.0076
G1 X-3.822 Y-4.740 E0.0235
G1 X-3.996 Y-4.836 E0.0076
G1 X-4.522 Y-5.164 E0.0237
G1 X-4.685 Y-5.277 E0.0076
G1 X-5.172 Y-5.655 E0.0236
G1 X-5.322 Y-5.784 E0.0076
G1 X-5.771 Y-6.210 E0.0237
G1 X-5.908 Y-6.354 E0.0076
G1 X-6.309 Y-6.822 E0.0236
G1 X-6.430 Y-6.978 E0.0076
G1 X-6.785 Y-7.487 E0.0237
G1 X-6.890 Y-7.656 E0.0076
G1 X-7.189 Y-8.194 E0.0236
G1 X-7.276 Y-8.372 E0.0076
G1 X-7.519 Y-8.939 E0.0236
G1 X-7.588 Y-9.125 E0.0076
G1 X-7.772 Y-9.713 E0.0236
G1 X-7.822 Y-9.905 E0.0076
G1 X-7.947 Y-10.511 E0.0237
G1 X-7.977 Y-10.707 E0.0076
G1 X-8.040 Y-11.322 E0.0237
G1 X-8.050 Y-11.520 E0.0076
G1 X-8.050 Y-12.138 E0.0236
G1 X-8.040 Y-12.336 E0.0076
G1 X-7.977 Y-12.951 E0.0237
G1 X-7.947 Y-13.147 E0.0076
G1 X-7.822 Y-13.753 E0.0237
G1 X-7.772 Y-13.945 E0.0076
G1 X-7.588 Y-14.533 E0.0236
G1 X-7.519 Y-14.719 E0.0076
G1 X-7.276 Y-15.285 E0.0236
G1 X-7.189 Y-15.463 E0.0076
G1 X-6.889 Y-16.003 E0.0236
G1 X-6.784 Y-16.171 E0.0076
G1 X-6.431 Y-16.679 E0.0236
G1 X-6.310 Y-16.835 E0.0076
G1 X-5.908 Y-17.304 E0.0236
G1 X-5.771 Y-17.447 E0.0076
G1 X-5.323 Y-17.874 E0.0237
G1 X-5.172 Y-18.003 E0.0076
G1 X-4.684 Y-18.380 E0.0236
G1 X-4.522 Y-18.494 E0.0076
G1 X-3.998 Y-18.820 E0.0236
G1 X-3.824 Y-18.916 E0.0076
G1 X-3.270 Y-19.188 E0.0236
G1 X-3.088 Y-19.266 E0.0076
G1 X-2.507 Y-19.482 E0.0237
G1 X-2.318 Y-19.541 E0.0076
G1 X-1.721 Y-19.695 E0.0236
G1 X-1.527 Y-19.735 E0.0076
G1 X-0.917 Y-19.829 E0.0236
G1 X-0.719 Y-19.849 E0.0076
G1 X-0.103 Y-19.880 E0.0236
G1 X0.095 Y-19.880 E0.0076
G1 X0.712 Y-19.849 E0.0236
G1 X0.909 Y-19.829 E0.0076
G1 X1.519 Y-19.735 E0.0236
G1 X1.713 Y-19.695 E0.0076
G1 X2.310 Y-19.541 E0.0236
G1 X2.499 Y-19.482 E0.0076
G1 X3.080 Y-19.267 E0.0237
G1 X3.262 Y-19.188 E0.0076
G1 X3.816 Y-18.917 E0.0236
G1 X3.989 Y-18.820 E0.0076
G1 X4.514 Y-18.493 E0.0236
G1 X4.677 Y-18.380 E0.0076
G1 X5.165 Y-18.003 E0.0236
G1 X5.315 Y-17.874 E0.0076
G1 X5.764 Y-17.447 E0.0237
G1 X5.900 Y-17.303 E0.0076
G1 X6.301 Y-16.836 E0.0235
G1 X6.422 Y-16.680 E0.0076
G1 X6.776 Y-16.172 E0.0236
G1 X6.881 Y-16.004 E0.0076
G1 X7.181 Y-15.464 E0.0237
G1 X7.268 Y-15.286 E0.0076
G1 X7.511 Y-14.718 E0.0236
G1 X7.580 Y-14.532 E0.0076
G1 X7.765 Y-13.943 E0.0236
G1 X7.815 Y-13.751 E0.0076
G1 X7.939 Y-13.145 E0.0236
G1 X7.969 Y-12.949 E0.0076
G1 X8.032 Y-12.335 E0.0236
G1 X8.042 Y-12.138 E0.0076
G1 X8.042 Y-11.520 E0.0236
G1 X8.032 Y-11.322 E0.0076
G1 X7.969 Y-10.708 E0.0236
G1 X7.939 Y-10.513 E0.0076
G1 X7.815 Y-9.907 E0.0236
G1 X7.765 Y-9.715 E0.0076
G1 X7.580 Y-9.125 E0.0237
G1 X7.511 Y-8.939 E0.0076
G1 X7.268 Y-8.372 E0.0236
G1 X7.181 Y-8.194 E0.0076
G1 X6.881 Y-7.653 E0.0237
G1 X6.776 Y-7.485 E0.0076
G1 X6.423 Y-6.978 E0.0236
G1 X6.301 Y-6.822 E0.0076
G1 X5.900 Y-6.354 E0.0236
G1 X5.764 Y-6.210 E0.0076
G1 X5.314 Y-5.783 E0.0237
G1 X5.164 Y-5.655 E0.0076
G1 X4.678 Y-5.278 E0.0235
G1 X4.515 Y-5.165 E0.0076
G1 X3.988 Y-4.836 E0.0238
G1 X3.814 Y-4.740 E0.0076
G1 X3.263 Y-4.470 E0.0235
G1 X3.081 Y-4.391 E0.0076
G1 X2.501 Y-4.177 E0.0236
G1 X2.312 Y-4.117 E0.0076
G1 X1.714 Y-3.963 E0.0236
G1 X1.520 Y-3.923 E0.0076
G1 X0.909 Y-3.829 E0.0236
G1 X0.712 Y-3.809 E0.0076
G1 X0.095 Y-3.778 E0.0236
G1 X0.084 Y-4.238 F9000
G1 X-0.091 Y-4.238 E0.0067 F1535
G1 X-0.685 Y-4.268 E0.0227
G1 X-0.859 Y-4.286 E0.0067
G1 X-1.447 Y-4.376 E0.0227
G1 X-1.618 Y-4.411 E0.0067
G1 X-2.192 Y-4.560 E0.0227
G1 X-2.359 Y-4.612 E0.0067
G1 X-2.918 Y-4.819 E0.0228
G1 X-3.078 Y-4.888 E0.0067
G1 X-3.610 Y-5.148 E0.0226
G1 X-3.763 Y-5.233 E0.0067
G1 X-4.269 Y-5.548 E0.0228
G1 X-4.412 Y-5.648 E0.0067
G1 X-4.881 Y-6.011 E0.0227
G1 X-5.014 Y-6.125 E0.0067
G1 X-5.446 Y-6.535 E0.0228
G1 X-5.566 Y-6.662 E0.0067
G1 X-5.953 Y-7.112 E0.0227
G1 X-6.060 Y-7.251 E0.0067
G1 X-6.401 Y-7.740 E0.0228
G1 X-6.493 Y-7.889 E0.0067
G1 X-6.781 Y-8.407 E0.0227
G1 X-6.858 Y-8.564 E0.0067
G1 X-7.092 Y-9.110 E0.0227
G1 X-7.153 Y-9.274 E0.0067
G1 X-7.330 Y-9.840 E0.0227
G1 X-7.374 Y-10.009 E0.0067
G1 X-7.494 Y-10.592 E0.0228
G1 X-7.521 Y-10.765 E0.0067
G1 X-7.581 Y-11.357 E0.0228
G1 X-7.590 Y-11.532 E0.0067
G1 X-7.590 Y-12.126 E0.0227
G1 X-7.581 Y-12.301 E0.0067
G1 X-7.521 Y-12.893 E0.0228
G1 X-7.494 Y-13.065 E0.0067
G1 X-7.374 Y-13.649 E0.0228
G1 X-7.330 Y-13.818 E0.0067
G1 X-7.153 Y-14.384 E0.0227
G1 X-7.092 Y-14.548 E0.0067
G1 X-6.858 Y-15.093 E0.0227
G1 X-6.781 Y-15.250 E0.0067
G1 X-6.492 Y-15.770 E0.0227
G1 X-6.400 Y-15.918 E0.0067
G1 X-6.060 Y-16.406 E0.0227
G1 X-5.953 Y-16.545 E0.0067
G1 X-5.566 Y-16.995 E0.0227
G1 X-5.446 Y-17.122 E0.0067
G1 X-5.014 Y-17.532 E0.0228
G1 X-4.882 Y-17.646 E0.0067
G1 X-4.412 Y-18.010 E0.0227
G1 X-4.268 Y-18.109 E0.0067
G1 X-3.764 Y-18.424 E0.0227
G1 X-3.611 Y-18.508 E0.0067
G1 X-3.078 Y-18.770 E0.0227
G1 X-2.918 Y-18.839 E0.0067
G1 X-2.358 Y-19.046 E0.0228
G1 X-2.192 Y-19.098 E0.0067
G1 X-1.617 Y-19.247 E0.0227
G1 X-1.446 Y-19.282 E0.0067
G1 X-0.858 Y-19.372 E0.0227
G1 X-0.684 Y-19.390 E0.0067
G1 X-0.091 Y-19.420 E0.0227
