; G-Code generated by Simplify3D(R) Version 4.1.2
; Apr 2, 2020 at 4:35:11 PM
; Settings Summary
;   processName,Process1
;   applyToModels,lampV1R1,lampV1R1(2)
;   profileName,MakerBot Replicator 2 HBP (modified)
;   profileVersion,2020-03-12 10:48:50
;   baseProfile,MakerBot Replicator 2(2)
;   printMaterial,PLA
;   printQuality,Medium
;   printExtruders,
;   extruderName,Primary Extruder
;   extruderToolheadNumber,0
;   extruderDiameter,0.4
;   extruderAutoWidth,0
;   extruderWidth,0.4
;   extrusionMultiplier,1
;   extruderUseRetract,1
;   extruderRetractionDistance,1.9
;   extruderExtraRestartDistance,0
;   extruderRetractionZLift,0.5
;   extruderRetractionSpeed,1200
;   extruderUseCoasting,0
;   extruderCoastingDistance,0.2
;   extruderUseWipe,0
;   extruderWipeDistance,5
;   primaryExtruder,0
;   layerHeight,0.2
;   topSolidLayers,3
;   bottomSolidLayers,3
;   perimeterOutlines,2
;   printPerimetersInsideOut,1
;   startPointOption,3
;   startPointOriginX,0
;   startPointOriginY,150
;   sequentialIslands,0
;   spiralVaseMode,0
;   firstLayerHeightPercentage,100
;   firstLayerWidthPercentage,115
;   firstLayerUnderspeed,0.5
;   useRaft,0
;   raftExtruder,0
;   raftTopLayers,2
;   raftBaseLayers,1
;   raftOffset,1
;   raftSeparationDistance,0.14
;   raftTopInfill,90
;   aboveRaftSpeedMultiplier,0.3
;   useSkirt,1
;   skirtExtruder,0
;   skirtLayers,1
;   skirtOutlines,10
;   skirtOffset,0
;   usePrimePillar,0
;   primePillarExtruder,999
;   primePillarWidth,12
;   primePillarLocation,7
;   primePillarSpeedMultiplier,1
;   useOozeShield,0
;   oozeShieldExtruder,999
;   oozeShieldOffset,2
;   oozeShieldOutlines,1
;   oozeShieldSidewallShape,1
;   oozeShieldSidewallAngle,30
;   oozeShieldSpeedMultiplier,1
;   infillExtruder,0
;   internalInfillPattern,Rectilinear
;   externalInfillPattern,Rectilinear
;   infillPercentage,15
;   outlineOverlapPercentage,25
;   infillExtrusionWidthPercentage,100
;   minInfillLength,5
;   infillLayerInterval,1
;   internalInfillAngles,45,-45
;   overlapInternalInfillAngles,0
;   externalInfillAngles,45,-45
;   generateSupport,0
;   supportExtruder,0
;   supportInfillPercentage,30
;   supportExtraInflation,0.5
;   supportBaseLayers,0
;   denseSupportExtruder,0
;   denseSupportLayers,2
;   denseSupportInfillPercentage,90
;   supportLayerInterval,1
;   supportHorizontalPartOffset,0.3
;   supportUpperSeparationLayers,1
;   supportLowerSeparationLayers,1
;   supportType,1
;   supportGridSpacing,2
;   maxOverhangAngle,45
;   supportAngles,45,-45
;   temperatureName,Primary Extruder,Heated Build Platform
;   temperatureNumber,0,0
;   temperatureSetpointCount,1,1
;   temperatureSetpointLayers,1,1
;   temperatureSetpointTemperatures,230,60
;   temperatureStabilizeAtStartup,1,1
;   temperatureHeatedBed,0,1
;   fanLayers,1,2
;   fanSpeeds,0,100
;   blipFanToFullPower,1
;   adjustSpeedForCooling,1
;   minSpeedLayerTime,15
;   minCoolingSpeedSlowdown,20
;   increaseFanForCooling,1
;   minFanLayerTime,45
;   maxCoolingFanSpeed,100
;   increaseFanForBridging,1
;   bridgingFanSpeed,100
;   use5D,1
;   relativeEdistances,1
;   allowEaxisZeroing,0
;   independentExtruderAxes,1
;   includeM10123,0
;   stickySupport,1
;   applyToolheadOffsets,0
;   gcodeXoffset,0
;   gcodeYoffset,0
;   gcodeZoffset,0
;   overrideMachineDefinition,1
;   machineTypeOverride,0
;   strokeXoverride,280
;   strokeYoverride,150
;   strokeZoverride,150
;   originOffsetXoverride,140
;   originOffsetYoverride,75
;   originOffsetZoverride,0
;   homeXdirOverride,1
;   homeYdirOverride,1
;   homeZdirOverride,-1
;   flipXoverride,1
;   flipYoverride,-1
;   flipZoverride,1
;   toolheadOffsets,0,0|0,0|0,0|0,0|0,0|0,0
;   overrideFirmwareConfiguration,1
;   firmwareTypeOverride,MakerBot/Sailfish Firmware
;   GPXconfigOverride,r2h
;   baudRateOverride,115200
;   overridePrinterModels,1
;   printerModelsOverride,MakerBot_Replicator2.stl
;   startingGcode,; **** Replicator 2 start.gcode ****,M73 P0 ; enable build progress,G162 X Y F3000 ; home XY maximum,G161 Z F1200 ; home Z minimum,G92 Z-5 ; set Z to -5,G1 Z0 ; move Z to 0,G161 Z F100 ; home Z slowly,M132 X Y Z A B ; recall home offsets,G1 X-145 Y-75 Z30 F9000 ; move to wait position off table,G130 X20 Y20 Z20 A20 B20 ; lower stepper Vrefs while heating,M126 S[fan_speed_pwm],M140 S[bed0_temperature] T0,M134 T0 ; stabilize bed temperature,M104 S[extruder0_temperature] T0,M133 T0 ; stabilize extruder temperature,G130 X127 Y127 Z40 A127 B127 ; default stepper Vrefs,G92 A0 ; zero extruder,G1 Z0.4 ; position nozzle,G1 E25 F300 ; purge nozzle,G1 X-140 Y-70 Z0.15 F1200 ; slow wipe,G1 X-135 Y-65 Z0.5 F1200 ; lift,G92 A0 ; zero extruder,M73 P1 ;@body (notify GPX body has started),; **** end of start.gcode ****
;   layerChangeGcode,
;   retractionGcode,
;   toolChangeGcode,
;   endingGcode,; **** Replicator 2 end.gcode ****,M73 P100 ; end build progress,G1 Z155 F1000 ; send Z axis to bottom of machine,M104 S0 T0 ; cool down extruder,M140 S0 T0 ; cool down HBP,M127 ; stop blower fan,G162 X Y F3000 ; home XY maximum,M18 ; disable stepper,M0 ; stop codes,M72 P1 ; play Ta-Da song,; **** end of end.gcode ****
;   exportFileFormat,gcode
;   celebration,0
;   celebrationSong,Random Song
;   postProcessing,
;   defaultSpeed,4800
;   outlineUnderspeed,0.5
;   solidInfillUnderspeed,1
;   supportUnderspeed,1
;   rapidXYspeed,9000
;   rapidZspeed,1200
;   minBridgingArea,50
;   bridgingExtraInflation,0
;   bridgingExtrusionMultiplier,1
;   bridgingSpeedMultiplier,0.8
;   useFixedBridgingAngle,0
;   fixedBridgingAngle,0
;   applyBridgingToPerimeters,0
;   filamentDiameters,1.75|1.75|1.75|1.75|1.75|1.75
;   filamentPricesPerKg,46|46|46|46|46|46
;   filamentDensities,1.25|1.25|1.25|1.25|1.25|1.25
;   useMinPrintHeight,0
;   minPrintHeight,0
;   useMaxPrintHeight,0
;   maxPrintHeight,4.84
;   useDiaphragm,0
;   diaphragmLayerInterval,20
;   robustSlicing,1
;   mergeAllIntoSolid,0
;   onlyRetractWhenCrossingOutline,0
;   retractBetweenLayers,0
;   useRetractionMinTravel,1
;   retractionMinTravel,7
;   retractWhileWiping,1
;   onlyWipeOutlines,1
;   avoidCrossingOutline,0
;   maxMovementDetourFactor,3
;   toolChangeRetractionDistance,12
;   toolChangeExtraRestartDistance,-0.5
;   toolChangeRetractionSpeed,600
;   externalThinWallType,0
;   internalThinWallType,0
;   thinWallAllowedOverlapPercentage,10
;   singleExtrusionMinLength,1
;   singleExtrusionMinPrintingWidthPercentage,50
;   singleExtrusionMaxPrintingWidthPercentage,200
;   singleExtrusionEndpointExtension,0.2
;   horizontalSizeCompensation,0
G90
M83
; **** Replicator 2 start.gcode ****
M73 P0 ; enable build progress
G162 X Y F3000 ; home XY maximum
G161 Z F1200 ; home Z minimum
G92 Z-5 ; set Z to -5
G1 Z0 ; move Z to 0
G161 Z F100 ; home Z slowly
M132 X Y Z A B ; recall home offsets
G1 X-145 Y-75 Z30 F9000 ; move to wait position off table
G130 X20 Y20 Z20 A20 B20 ; lower stepper Vrefs while heating
M126 S170
M140 S60 T0
M134 T0 ; stabilize bed temperature
M104 S230 T0
M133 T0 ; stabilize extruder temperature
G130 X127 Y127 Z40 A127 B127 ; default stepper Vrefs
G92 A0 ; zero extruder
G1 Z0.4 ; position nozzle
G1 E25 F300 ; purge nozzle
G1 X-140 Y-70 Z0.15 F1200 ; slow wipe
G1 X-135 Y-65 Z0.5 F1200 ; lift
G92 A0 ; zero extruder
M73 P1 ;@body (notify GPX body has started)
; **** end of start.gcode ****
; process Process1
; layer 1, Z = 0.200
M135 T0
G1 E-1.9000 F1200
; feature skirt
; tool H0.200 W0.460
G1 Z0.500 F1200
G1 X11.072 Y8.479 F9000
G1 Z0.200 F1200
G1 E1.9000 F1200
G1 X10.852 Y8.456 E0.0085 F768
G1 X10.220 Y8.359 E0.0245
G1 X10.003 Y8.315 E0.0085
G1 X9.379 Y8.153 E0.0247
G1 X9.167 Y8.087 E0.0085
G1 X8.568 Y7.865 E0.0244
G1 X8.365 Y7.777 E0.0085
G1 X7.790 Y7.496 E0.0245
G1 X7.596 Y7.388 E0.0085
G1 X7.052 Y7.049 E0.0245
G1 X6.870 Y6.923 E0.0085
G1 X6.364 Y6.530 E0.0245
G1 X6.196 Y6.386 E0.0085
G1 X5.730 Y5.944 E0.0246
G1 X5.578 Y5.783 E0.0085
G1 X5.160 Y5.297 E0.0245
G1 X5.025 Y5.122 E0.0085
G1 X4.658 Y4.595 E0.0245
G1 X4.541 Y4.408 E0.0085
G1 X4.230 Y3.848 E0.0245
G1 X4.133 Y3.649 E0.0085
G1 X3.880 Y3.060 E0.0245
G1 X3.803 Y2.852 E0.0085
G1 X3.611 Y2.241 E0.0245
G1 X3.556 Y2.026 E0.0085
G1 X3.427 Y1.397 E0.0245
G1 X3.393 Y1.179 E0.0085
G1 X3.328 Y0.542 E0.0245
G1 X3.317 Y0.320 E0.0085
G1 X3.317 Y-0.320 E0.0245
G1 X3.328 Y-0.542 E0.0085
G1 X3.393 Y-1.179 E0.0245
G1 X3.427 Y-1.398 E0.0085
G1 X3.556 Y-2.026 E0.0245
G1 X3.611 Y-2.240 E0.0085
G1 X3.803 Y-2.852 E0.0245
G1 X3.880 Y-3.059 E0.0085
G1 X4.133 Y-3.649 E0.0245
G1 X4.230 Y-3.848 E0.0085
G1 X4.541 Y-4.407 E0.0245
G1 X4.658 Y-4.595 E0.0085
G1 X5.026 Y-5.124 E0.0246
G1 X5.162 Y-5.299 E0.0085
G1 X5.577 Y-5.783 E0.0244
G1 X5.730 Y-5.944 E0.0085
G1 X6.196 Y-6.386 E0.0246
G1 X6.364 Y-6.530 E0.0085
G1 X6.870 Y-6.923 E0.0245
G1 X7.052 Y-7.049 E0.0085
G1 X7.596 Y-7.388 E0.0245
G1 X7.790 Y-7.496 E0.0085
G1 X8.365 Y-7.777 E0.0245
G1 X8.568 Y-7.865 E0.0085
G1 X9.169 Y-8.088 E0.0245
G1 X9.381 Y-8.154 E0.0085
G1 X10.002 Y-8.315 E0.0245
G1 X10.219 Y-8.359 E0.0085
G1 X10.852 Y-8.456 E0.0245
G1 X11.072 Y-8.479 E0.0085
G1 X11.712 Y-8.511 E0.0245
G1 X11.934 Y-8.511 E0.0085
G1 X12.574 Y-8.479 E0.0245
G1 X12.794 Y-8.456 E0.0085
G1 X13.427 Y-8.359 E0.0245
G1 X13.644 Y-8.315 E0.0085
G1 X14.265 Y-8.154 E0.0245
G1 X14.476 Y-8.088 E0.0085
G1 X15.077 Y-7.865 E0.0245
G1 X15.281 Y-7.778 E0.0085
G1 X15.856 Y-7.496 E0.0245
G1 X16.050 Y-7.388 E0.0085
G1 X16.594 Y-7.049 E0.0245
G1 X16.776 Y-6.922 E0.0085
G1 X17.282 Y-6.531 E0.0245
G1 X17.450 Y-6.386 E0.0085
G1 X17.915 Y-5.945 E0.0245
G1 X18.067 Y-5.784 E0.0085
G1 X18.486 Y-5.297 E0.0245
G1 X18.621 Y-5.122 E0.0085
G1 X18.987 Y-4.597 E0.0245
G1 X19.104 Y-4.409 E0.0085
G1 X19.416 Y-3.847 E0.0246
G1 X19.513 Y-3.648 E0.0085
G1 X19.766 Y-3.060 E0.0245
G1 X19.843 Y-2.852 E0.0085
G1 X20.035 Y-2.240 E0.0245
G1 X20.090 Y-2.026 E0.0085
G1 X20.219 Y-1.399 E0.0245
G1 X20.253 Y-1.180 E0.0085
G1 X20.317 Y-0.542 E0.0245
G1 X20.329 Y-0.321 E0.0085
G1 X20.329 Y0.321 E0.0246
G1 X20.317 Y0.542 E0.0085
G1 X20.253 Y1.180 E0.0245
G1 X20.219 Y1.399 E0.0085
G1 X20.090 Y2.026 E0.0245
G1 X20.035 Y2.241 E0.0085
G1 X19.843 Y2.852 E0.0245
G1 X19.766 Y3.060 E0.0085
G1 X19.513 Y3.648 E0.0245
G1 X19.416 Y3.847 E0.0085
G1 X19.104 Y4.409 E0.0246
G1 X18.987 Y4.597 E0.0085
G1 X18.620 Y5.123 E0.0245
G1 X18.485 Y5.298 E0.0085
G1 X18.068 Y5.783 E0.0245
G1 X17.916 Y5.944 E0.0085
G1 X17.450 Y6.386 E0.0246
G1 X17.282 Y6.531 E0.0085
G1 X16.776 Y6.922 E0.0245
G1 X16.594 Y7.049 E0.0085
G1 X16.050 Y7.388 E0.0245
G1 X15.856 Y7.496 E0.0085
G1 X15.281 Y7.777 E0.0245
G1 X15.078 Y7.865 E0.0085
G1 X14.478 Y8.087 E0.0245
G1 X14.267 Y8.153 E0.0085
G1 X13.643 Y8.315 E0.0246
G1 X13.426 Y8.359 E0.0085
G1 X12.794 Y8.456 E0.0245
G1 X12.574 Y8.479 E0.0085
G1 X11.934 Y8.511 E0.0245
G1 X11.712 Y8.511 E0.0085
G1 X11.072 Y8.479 E0.0245
G1 X11.107 Y8.020 F9000
G1 X10.910 Y8.000 E0.0076 F768
G1 X10.301 Y7.906 E0.0236
G1 X10.107 Y7.867 E0.0076
G1 X9.506 Y7.711 E0.0237
G1 X9.317 Y7.652 E0.0076
G1 X8.739 Y7.438 E0.0236
G1 X8.557 Y7.359 E0.0076
G1 X8.003 Y7.088 E0.0236
G1 X7.830 Y6.992 E0.0076
G1 X7.305 Y6.665 E0.0236
G1 X7.143 Y6.552 E0.0076
G1 X6.654 Y6.174 E0.0236
G1 X6.504 Y6.045 E0.0076
G1 X6.056 Y5.619 E0.0237
G1 X5.919 Y5.475 E0.0076
G1 X5.517 Y5.006 E0.0236
G1 X5.395 Y4.849 E0.0076
G1 X5.043 Y4.342 E0.0236
G1 X4.938 Y4.174 E0.0076
G1 X4.638 Y3.635 E0.0236
G1 X4.551 Y3.457 E0.0076
G1 X4.308 Y2.889 E0.0236
G1 X4.239 Y2.703 E0.0076
G1 X4.054 Y2.114 E0.0236
G1 X4.004 Y1.922 E0.0076
G1 X3.880 Y1.316 E0.0237
G1 X3.850 Y1.120 E0.0076
G1 X3.787 Y0.507 E0.0236
G1 X3.777 Y0.309 E0.0076
G1 X3.777 Y-0.309 E0.0236
G1 X3.787 Y-0.507 E0.0076
G1 X3.850 Y-1.120 E0.0236
G1 X3.880 Y-1.316 E0.0076
G1 X4.004 Y-1.922 E0.0236
G1 X4.054 Y-2.114 E0.0076
G1 X4.239 Y-2.703 E0.0236
G1 X4.307 Y-2.889 E0.0076
G1 X4.551 Y-3.457 E0.0236
G1 X4.638 Y-3.635 E0.0076
G1 X4.938 Y-4.174 E0.0236
G1 X5.043 Y-4.342 E0.0076
G1 X5.397 Y-4.851 E0.0237
G1 X5.518 Y-5.008 E0.0076
G1 X5.919 Y-5.474 E0.0235
G1 X6.055 Y-5.618 E0.0076
G1 X6.504 Y-6.045 E0.0237
G1 X6.654 Y-6.174 E0.0076
G1 X7.143 Y-6.552 E0.0236
G1 X7.305 Y-6.665 E0.0076
G1 X7.830 Y-6.992 E0.0236
G1 X8.003 Y-7.088 E0.0076
G1 X8.557 Y-7.359 E0.0236
G1 X8.739 Y-7.438 E0.0076
G1 X9.318 Y-7.652 E0.0236
G1 X9.507 Y-7.712 E0.0076
G1 X10.106 Y-7.866 E0.0237
G1 X10.300 Y-7.906 E0.0076
G1 X10.910 Y-8.000 E0.0236
G1 X11.107 Y-8.020 E0.0076
G1 X11.724 Y-8.051 E0.0236
G1 X11.922 Y-8.051 E0.0076
G1 X12.539 Y-8.020 E0.0236
G1 X12.736 Y-8.000 E0.0076
G1 X13.346 Y-7.906 E0.0236
G1 X13.540 Y-7.866 E0.0076
G1 X14.139 Y-7.712 E0.0236
G1 X14.328 Y-7.652 E0.0076
G1 X14.907 Y-7.438 E0.0236
G1 X15.089 Y-7.360 E0.0076
G1 X15.643 Y-7.088 E0.0236
G1 X15.816 Y-6.992 E0.0076
G1 X16.341 Y-6.665 E0.0236
G1 X16.504 Y-6.551 E0.0076
G1 X16.991 Y-6.174 E0.0236
G1 X17.142 Y-6.045 E0.0076
G1 X17.590 Y-5.619 E0.0236
G1 X17.726 Y-5.476 E0.0076
G1 X18.129 Y-5.006 E0.0237
G1 X18.250 Y-4.850 E0.0076
G1 X18.602 Y-4.344 E0.0236
G1 X18.707 Y-4.175 E0.0076
G1 X19.008 Y-3.634 E0.0237
G1 X19.095 Y-3.456 E0.0076
G1 X19.339 Y-2.889 E0.0236
G1 X19.407 Y-2.703 E0.0076
G1 X19.592 Y-2.114 E0.0236
G1 X19.642 Y-1.922 E0.0076
G1 X19.766 Y-1.318 E0.0236
G1 X19.796 Y-1.122 E0.0076
G1 X19.859 Y-0.507 E0.0236
G1 X19.869 Y-0.309 E0.0076
G1 X19.869 Y0.309 E0.0237
G1 X19.859 Y0.507 E0.0076
G1 X19.796 Y1.122 E0.0236
G1 X19.766 Y1.318 E0.0076
G1 X19.642 Y1.922 E0.0236
G1 X19.592 Y2.114 E0.0076
G1 X19.407 Y2.703 E0.0236
G1 X19.338 Y2.889 E0.0076
G1 X19.095 Y3.456 E0.0236
G1 X19.008 Y3.634 E0.0076
G1 X18.707 Y4.175 E0.0237
G1 X18.603 Y4.344 E0.0076
G1 X18.250 Y4.851 E0.0236
G1 X18.128 Y5.007 E0.0076
G1 X17.727 Y5.475 E0.0236
G1 X17.590 Y5.619 E0.0076
G1 X17.142 Y6.045 E0.0237
G1 X16.991 Y6.174 E0.0076
G1 X16.504 Y6.551 E0.0236
G1 X16.341 Y6.665 E0.0076
G1 X15.816 Y6.992 E0.0236
G1 X15.643 Y7.088 E0.0076
G1 X15.089 Y7.359 E0.0236
G1 X14.907 Y7.438 E0.0076
G1 X14.329 Y7.652 E0.0236
G1 X14.140 Y7.711 E0.0076
G1 X13.539 Y7.867 E0.0237
G1 X13.345 Y7.906 E0.0076
G1 X12.736 Y8.000 E0.0236
G1 X12.539 Y8.020 E0.0076
G1 X11.922 Y8.051 E0.0236
G1 X11.724 Y8.051 E0.0076
G1 X11.107 Y8.020 E0.0236
G1 X11.142 Y7.561 F9000
G1 X10.968 Y7.543 E0.0067 F768
G1 X10.382 Y7.453 E0.0227
G1 X10.210 Y7.418 E0.0067
G1 X9.632 Y7.269 E0.0228
G1 X9.466 Y7.216 E0.0067
G1 X8.910 Y7.010 E0.0227
G1 X8.749 Y6.941 E0.0067
G1 X8.216 Y6.680 E0.0227
G1 X8.063 Y6.595 E0.0067
G1 X7.558 Y6.281 E0.0227
G1 X7.415 Y6.181 E0.0067
G1 X6.945 Y5.817 E0.0227
G1 X6.812 Y5.703 E0.0067
G1 X6.381 Y5.293 E0.0228
G1 X6.261 Y5.166 E0.0067
G1 X5.873 Y4.715 E0.0227
G1 X5.766 Y4.577 E0.0067
G1 X5.427 Y4.089 E0.0227
G1 X5.334 Y3.941 E0.0067
G1 X5.046 Y3.422 E0.0227
G1 X4.969 Y3.264 E0.0067
G1 X4.735 Y2.719 E0.0227
G1 X4.674 Y2.555 E0.0067
G1 X4.496 Y1.987 E0.0227
G1 X4.452 Y1.818 E0.0067
G1 X4.333 Y1.235 E0.0228
G1 X4.306 Y1.062 E0.0067
G1 X4.246 Y0.472 E0.0227
G1 X4.237 Y0.297 E0.0067
G1 X4.237 Y-0.297 E0.0227
G1 X4.246 Y-0.472 E0.0067
G1 X4.306 Y-1.062 E0.0227
G1 X4.333 Y-1.235 E0.0067
G1 X4.452 Y-1.818 E0.0228
G1 X4.496 Y-1.987 E0.0067
G1 X4.674 Y-2.554 E0.0227
G1 X4.735 Y-2.718 E0.0067
G1 X4.969 Y-3.265 E0.0227
G1 X5.046 Y-3.421 E0.0067
G1 X5.334 Y-3.941 E0.0227
G1 X5.427 Y-4.089 E0.0067
G1 X5.768 Y-4.579 E0.0228
G1 X5.875 Y-4.717 E0.0067
G1 X6.260 Y-5.166 E0.0226
G1 X6.381 Y-5.293 E0.0067
G1 X6.812 Y-5.703 E0.0228
G1 X6.945 Y-5.817 E0.0067
G1 X7.415 Y-6.181 E0.0227
G1 X7.558 Y-6.281 E0.0067
G1 X8.063 Y-6.595 E0.0227
G1 X8.216 Y-6.680 E0.0067
G1 X8.749 Y-6.941 E0.0227
G1 X8.909 Y-7.010 E0.0067
G1 X9.467 Y-7.217 E0.0227
G1 X9.634 Y-7.269 E0.0067
G1 X10.210 Y-7.418 E0.0228
G1 X10.381 Y-7.453 E0.0067
G1 X10.968 Y-7.543 E0.0227
G1 X11.142 Y-7.561 E0.0067
G1 X11.736 Y-7.591 E0.0227
G1 X11.910 Y-7.591 E0.0067
G1 X12.504 Y-7.561 E0.0227
G1 X12.678 Y-7.543 E0.0067
G1 X13.265 Y-7.453 E0.0227
G1 X13.436 Y-7.418 E0.0067
G1 X14.012 Y-7.269 E0.0228
G1 X14.179 Y-7.217 E0.0067
G1 X14.736 Y-7.010 E0.0227
G1 X14.897 Y-6.941 E0.0067
G1 X15.430 Y-6.680 E0.0227
G1 X15.583 Y-6.595 E0.0067
G1 X16.088 Y-6.280 E0.0228
G1 X16.231 Y-6.181 E0.0067
G1 X16.701 Y-5.817 E0.0227
G1 X16.833 Y-5.703 E0.0067
G1 X17.264 Y-5.294 E0.0227
