; G-Code generated by Simplify3D(R) Version 4.1.2
; Apr 2, 2020 at 4:36:47 PM
; Settings Summary
;   processName,Process1
;   applyToModels,coilBV1R3,coilCV1R3,coilAV1R3,coilBV1R3(2),coilCV1R3(2),coilAV1R3(2)
;   profileName,MakerBot Replicator 2 HBP (modified)
;   profileVersion,2020-03-12 10:48:50
;   baseProfile,MakerBot Replicator 2(2)
;   printMaterial,PLA
;   printQuality,Medium
;   printExtruders,
;   extruderName,Primary Extruder
;   extruderToolheadNumber,0
;   extruderDiameter,0.4
;   extruderAutoWidth,0
;   extruderWidth,0.4
;   extrusionMultiplier,1
;   extruderUseRetract,1
;   extruderRetractionDistance,1.9
;   extruderExtraRestartDistance,0
;   extruderRetractionZLift,0.5
;   extruderRetractionSpeed,1200
;   extruderUseCoasting,0
;   extruderCoastingDistance,0.2
;   extruderUseWipe,0
;   extruderWipeDistance,5
;   primaryExtruder,0
;   layerHeight,0.2
;   topSolidLayers,3
;   bottomSolidLayers,3
;   perimeterOutlines,2
;   printPerimetersInsideOut,1
;   startPointOption,3
;   startPointOriginX,0
;   startPointOriginY,150
;   sequentialIslands,0
;   spiralVaseMode,0
;   firstLayerHeightPercentage,100
;   firstLayerWidthPercentage,115
;   firstLayerUnderspeed,0.5
;   useRaft,0
;   raftExtruder,0
;   raftTopLayers,2
;   raftBaseLayers,1
;   raftOffset,1
;   raftSeparationDistance,0.14
;   raftTopInfill,90
;   aboveRaftSpeedMultiplier,0.3
;   useSkirt,0
;   skirtExtruder,0
;   skirtLayers,1
;   skirtOutlines,10
;   skirtOffset,0
;   usePrimePillar,0
;   primePillarExtruder,999
;   primePillarWidth,12
;   primePillarLocation,7
;   primePillarSpeedMultiplier,1
;   useOozeShield,0
;   oozeShieldExtruder,999
;   oozeShieldOffset,2
;   oozeShieldOutlines,1
;   oozeShieldSidewallShape,1
;   oozeShieldSidewallAngle,30
;   oozeShieldSpeedMultiplier,1
;   infillExtruder,0
;   internalInfillPattern,Rectilinear
;   externalInfillPattern,Rectilinear
;   infillPercentage,15
;   outlineOverlapPercentage,25
;   infillExtrusionWidthPercentage,100
;   minInfillLength,5
;   infillLayerInterval,1
;   internalInfillAngles,45,-45
;   overlapInternalInfillAngles,0
;   externalInfillAngles,45,-45
;   generateSupport,1
;   supportExtruder,0
;   supportInfillPercentage,30
;   supportExtraInflation,0.5
;   supportBaseLayers,0
;   denseSupportExtruder,0
;   denseSupportLayers,2
;   denseSupportInfillPercentage,90
;   supportLayerInterval,1
;   supportHorizontalPartOffset,0.3
;   supportUpperSeparationLayers,1
;   supportLowerSeparationLayers,1
;   supportType,1
;   supportGridSpacing,2
;   maxOverhangAngle,45
;   supportAngles,45,-45
;   temperatureName,Primary Extruder,Heated Build Platform
;   temperatureNumber,0,0
;   temperatureSetpointCount,1,1
;   temperatureSetpointLayers,1,1
;   temperatureSetpointTemperatures,230,60
;   temperatureStabilizeAtStartup,1,1
;   temperatureHeatedBed,0,1
;   fanLayers,1,2
;   fanSpeeds,0,100
;   blipFanToFullPower,1
;   adjustSpeedForCooling,1
;   minSpeedLayerTime,15
;   minCoolingSpeedSlowdown,20
;   increaseFanForCooling,1
;   minFanLayerTime,45
;   maxCoolingFanSpeed,100
;   increaseFanForBridging,1
;   bridgingFanSpeed,100
;   use5D,1
;   relativeEdistances,1
;   allowEaxisZeroing,0
;   independentExtruderAxes,1
;   includeM10123,0
;   stickySupport,1
;   applyToolheadOffsets,0
;   gcodeXoffset,0
;   gcodeYoffset,0
;   gcodeZoffset,0
;   overrideMachineDefinition,1
;   machineTypeOverride,0
;   strokeXoverride,280
;   strokeYoverride,150
;   strokeZoverride,150
;   originOffsetXoverride,140
;   originOffsetYoverride,75
;   originOffsetZoverride,0
;   homeXdirOverride,1
;   homeYdirOverride,1
;   homeZdirOverride,-1
;   flipXoverride,1
;   flipYoverride,-1
;   flipZoverride,1
;   toolheadOffsets,0,0|0,0|0,0|0,0|0,0|0,0
;   overrideFirmwareConfiguration,1
;   firmwareTypeOverride,MakerBot/Sailfish Firmware
;   GPXconfigOverride,r2h
;   baudRateOverride,115200
;   overridePrinterModels,1
;   printerModelsOverride,MakerBot_Replicator2.stl
;   startingGcode,; **** Replicator 2 start.gcode ****,M73 P0 ; enable build progress,G162 X Y F3000 ; home XY maximum,G161 Z F1200 ; home Z minimum,G92 Z-5 ; set Z to -5,G1 Z0 ; move Z to 0,G161 Z F100 ; home Z slowly,M132 X Y Z A B ; recall home offsets,G1 X-145 Y-75 Z30 F9000 ; move to wait position off table,G130 X20 Y20 Z20 A20 B20 ; lower stepper Vrefs while heating,M126 S[fan_speed_pwm],M140 S[bed0_temperature] T0,M134 T0 ; stabilize bed temperature,M104 S[extruder0_temperature] T0,M133 T0 ; stabilize extruder temperature,G130 X127 Y127 Z40 A127 B127 ; default stepper Vrefs,G92 A0 ; zero extruder,G1 Z0.4 ; position nozzle,G1 E25 F300 ; purge nozzle,G1 X-140 Y-70 Z0.15 F1200 ; slow wipe,G1 X-135 Y-65 Z0.5 F1200 ; lift,G92 A0 ; zero extruder,M73 P1 ;@body (notify GPX body has started),; **** end of start.gcode ****
;   layerChangeGcode,
;   retractionGcode,
;   toolChangeGcode,
;   endingGcode,; **** Replicator 2 end.gcode ****,M73 P100 ; end build progress,G1 Z155 F1000 ; send Z axis to bottom of machine,M104 S0 T0 ; cool down extruder,M140 S0 T0 ; cool down HBP,M127 ; stop blower fan,G162 X Y F3000 ; home XY maximum,M18 ; disable stepper,M0 ; stop codes,M72 P1 ; play Ta-Da song,; **** end of end.gcode ****
;   exportFileFormat,gcode
;   celebration,0
;   celebrationSong,Random Song
;   postProcessing,
;   defaultSpeed,4800
;   outlineUnderspeed,0.5
;   solidInfillUnderspeed,1
;   supportUnderspeed,1
;   rapidXYspeed,9000
;   rapidZspeed,1200
;   minBridgingArea,50
;   bridgingExtraInflation,0
;   bridgingExtrusionMultiplier,1
;   bridgingSpeedMultiplier,0.8
;   useFixedBridgingAngle,0
;   fixedBridgingAngle,0
;   applyBridgingToPerimeters,0
;   filamentDiameters,1.75|1.75|1.75|1.75|1.75|1.75
;   filamentPricesPerKg,46|46|46|46|46|46
;   filamentDensities,1.25|1.25|1.25|1.25|1.25|1.25
;   useMinPrintHeight,0
;   minPrintHeight,0
;   useMaxPrintHeight,0
;   maxPrintHeight,4.84
;   useDiaphragm,0
;   diaphragmLayerInterval,20
;   robustSlicing,1
;   mergeAllIntoSolid,0
;   onlyRetractWhenCrossingOutline,0
;   retractBetweenLayers,0
;   useRetractionMinTravel,1
;   retractionMinTravel,7
;   retractWhileWiping,1
;   onlyWipeOutlines,1
;   avoidCrossingOutline,0
;   maxMovementDetourFactor,3
;   toolChangeRetractionDistance,12
;   toolChangeExtraRestartDistance,-0.5
;   toolChangeRetractionSpeed,600
;   externalThinWallType,0
;   internalThinWallType,0
;   thinWallAllowedOverlapPercentage,10
;   singleExtrusionMinLength,1
;   singleExtrusionMinPrintingWidthPercentage,50
;   singleExtrusionMaxPrintingWidthPercentage,200
;   singleExtrusionEndpointExtension,0.2
;   horizontalSizeCompensation,0
G90
M83
; **** Replicator 2 start.gcode ****
M73 P0 ; enable build progress
G162 X Y F3000 ; home XY maximum
G161 Z F1200 ; home Z minimum
G92 Z-5 ; set Z to -5
G1 Z0 ; move Z to 0
G161 Z F100 ; home Z slowly
M132 X Y Z A B ; recall home offsets
G1 X-145 Y-75 Z30 F9000 ; move to wait position off table
G130 X20 Y20 Z20 A20 B20 ; lower stepper Vrefs while heating
M127
M140 S60 T0
M134 T0 ; stabilize bed temperature
M104 S230 T0
M133 T0 ; stabilize extruder temperature
G130 X127 Y127 Z40 A127 B127 ; default stepper Vrefs
G92 A0 ; zero extruder
G1 Z0.4 ; position nozzle
G1 E25 F300 ; purge nozzle
G1 X-140 Y-70 Z0.15 F1200 ; slow wipe
G1 X-135 Y-65 Z0.5 F1200 ; lift
G92 A0 ; zero extruder
M73 P1 ;@body (notify GPX body has started)
; **** end of start.gcode ****
; process Process1
; layer 1, Z = 0.200
M135 T0
G1 E-1.9000 F1200
; feature inner perimeter
; tool H0.200 W0.460
G1 Z0.500 F1200
G1 X-17.005 Y-4.884 F9000
G1 Z0.200 F1200
G1 E1.9000 F1200
G1 X-18.362 Y-4.849 E0.0519 F1800
G1 X-19.714 Y-4.954 E0.0519
G1 X-21.049 Y-5.197 E0.0519
G1 X-22.352 Y-5.576 E0.0519
G1 X-23.609 Y-6.087 E0.0519
G1 X-24.806 Y-6.725 E0.0519
G1 X-25.932 Y-7.482 E0.0519
G1 X-26.974 Y-8.352 E0.0519
G1 X-27.921 Y-9.323 E0.0519
G1 X-28.763 Y-10.387 E0.0519
G1 X-29.491 Y-11.532 E0.0519
G1 X-30.098 Y-12.746 E0.0519
G1 X-30.576 Y-14.015 E0.0519
G1 X-30.922 Y-15.327 E0.0519
G1 X-31.131 Y-16.668 E0.0519
G1 X-31.200 Y-18.023 E0.0519
G1 X-31.134 Y-19.318 E0.0496
G1 X-30.921 Y-20.720 E0.0542
G1 X-30.576 Y-22.031 E0.0518
G1 X-30.098 Y-23.300 E0.0519
G1 X-29.491 Y-24.514 E0.0519
G1 X-28.763 Y-25.659 E0.0519
G1 X-27.921 Y-26.722 E0.0519
G1 X-26.974 Y-27.694 E0.0519
G1 X-25.978 Y-28.525 E0.0496
G1 X-24.805 Y-29.321 E0.0543
G1 X-23.609 Y-29.958 E0.0518
G1 X-22.352 Y-30.470 E0.0519
G1 X-21.049 Y-30.849 E0.0519
G1 X-19.714 Y-31.092 E0.0519
G1 X-18.362 Y-31.197 E0.0519
G1 X-17.005 Y-31.162 E0.0519
G1 X-15.660 Y-30.988 E0.0519
G1 X-14.339 Y-30.676 E0.0519
G1 X-13.058 Y-30.230 E0.0519
G1 X-11.829 Y-29.655 E0.0519
G1 X-10.666 Y-28.957 E0.0519
G1 X-9.580 Y-28.142 E0.0519
G1 X-8.585 Y-27.221 E0.0519
G1 X-7.689 Y-26.201 E0.0519
G1 X-6.903 Y-25.096 E0.0519
G1 X-6.235 Y-23.915 E0.0519
G1 X-5.691 Y-22.672 E0.0519
G1 X-5.279 Y-21.379 E0.0519
G1 X-5.001 Y-20.051 E0.0519
G1 X-4.862 Y-18.701 E0.0519
G1 X-4.862 Y-17.344 E0.0519
G1 X-5.001 Y-15.995 E0.0519
G1 X-5.279 Y-14.667 E0.0519
G1 X-5.691 Y-13.374 E0.0519
G1 X-6.235 Y-12.131 E0.0519
G1 X-6.903 Y-10.950 E0.0519
G1 X-7.689 Y-9.844 E0.0519
G1 X-8.585 Y-8.825 E0.0519
G1 X-9.580 Y-7.904 E0.0519
G1 X-10.666 Y-7.089 E0.0519
G1 X-11.829 Y-6.391 E0.0519
G1 X-13.058 Y-5.816 E0.0519
G1 X-14.339 Y-5.370 E0.0519
G1 X-15.660 Y-5.058 E0.0519
G1 X-17.005 Y-4.884 E0.0519
; feature outer perimeter
G1 X-16.970 Y-4.425 F9000
G1 X-18.373 Y-4.389 E0.0537 F1200
G1 X-19.773 Y-4.497 E0.0537
G1 X-21.155 Y-4.749 E0.0537
G1 X-22.503 Y-5.141 E0.0537
G1 X-23.804 Y-5.670 E0.0537
G1 X-25.043 Y-6.330 E0.0537
G1 X-26.209 Y-7.114 E0.0537
G1 X-27.287 Y-8.014 E0.0537
G1 X-28.267 Y-9.019 E0.0537
G1 X-29.138 Y-10.120 E0.0537
G1 X-29.892 Y-11.305 E0.0537
G1 X-30.520 Y-12.561 E0.0537
G1 X-31.015 Y-13.875 E0.0537
G1 X-31.373 Y-15.233 E0.0537
G1 X-31.589 Y-16.620 E0.0537
G1 X-31.661 Y-18.023 E0.0537
G1 X-31.592 Y-19.364 E0.0514
G1 X-31.373 Y-20.813 E0.0561
G1 X-31.015 Y-22.171 E0.0537
G1 X-30.520 Y-23.485 E0.0537
G1 X-29.892 Y-24.741 E0.0537
G1 X-29.138 Y-25.926 E0.0537
G1 X-28.267 Y-27.027 E0.0537
G1 X-27.287 Y-28.032 E0.0537
G1 X-26.256 Y-28.892 E0.0514
G1 X-25.043 Y-29.716 E0.0561
G1 X-23.804 Y-30.376 E0.0537
G1 X-22.503 Y-30.905 E0.0537
G1 X-21.155 Y-31.297 E0.0537
G1 X-19.773 Y-31.549 E0.0537
G1 X-18.373 Y-31.657 E0.0537
G1 X-16.970 Y-31.621 E0.0537
G1 X-15.577 Y-31.441 E0.0537
G1 X-14.210 Y-31.118 E0.0537
G1 X-12.884 Y-30.657 E0.0537
G1 X-11.612 Y-30.062 E0.0537
G1 X-10.408 Y-29.339 E0.0537
G1 X-9.285 Y-28.496 E0.0537
G1 X-8.255 Y-27.542 E0.0537
G1 X-7.328 Y-26.487 E0.0537
G1 X-6.514 Y-25.343 E0.0537
G1 X-5.822 Y-24.121 E0.0537
G1 X-5.260 Y-22.834 E0.0537
G1 X-4.833 Y-21.496 E0.0537
G1 X-4.546 Y-20.122 E0.0537
G1 X-4.402 Y-18.725 E0.0537
G1 X-4.402 Y-17.321 E0.0537
G1 X-4.546 Y-15.924 E0.0537
G1 X-4.833 Y-14.550 E0.0537
G1 X-5.260 Y-13.212 E0.0537
G1 X-5.822 Y-11.925 E0.0537
G1 X-6.514 Y-10.703 E0.0537
G1 X-7.328 Y-9.559 E0.0537
G1 X-8.255 Y-8.504 E0.0537
G1 X-9.285 Y-7.550 E0.0537
G1 X-10.408 Y-6.707 E0.0537
G1 X-11.612 Y-5.984 E0.0537
G1 X-12.884 Y-5.389 E0.0537
G1 X-14.210 Y-4.928 E0.0537
G1 X-15.577 Y-4.605 E0.0537
G1 X-16.970 Y-4.425 E0.0537
; feature inner perimeter
G1 X-17.807 Y-7.899 F9000
G1 X-16.470 Y-8.016 E0.0513 F1800
G1 X-15.160 Y-8.309 E0.0513
G1 X-13.900 Y-8.773 E0.0513
G1 X-12.713 Y-9.400 E0.0513
G1 X-11.619 Y-10.178 E0.0513
G1 X-10.637 Y-11.094 E0.0513
G1 X-9.786 Y-12.132 E0.0513
G1 X-9.079 Y-13.273 E0.0513
G1 X-8.529 Y-14.498 E0.0513
G1 X-8.146 Y-15.785 E0.0513
G1 X-7.818 Y-17.863 E0.0805
G1 X-10.321 Y-17.863 E0.0957
G1 X-10.321 Y-18.183 E0.0122
G1 X-7.818 Y-18.183 E0.0957
G1 X-8.146 Y-20.261 E0.0805
G1 X-8.529 Y-21.548 E0.0513
G1 X-9.079 Y-22.773 E0.0513
G1 X-9.786 Y-23.914 E0.0513
G1 X-10.637 Y-24.952 E0.0513
G1 X-11.619 Y-25.868 E0.0513
G1 X-12.713 Y-26.646 E0.0513
G1 X-13.900 Y-27.272 E0.0513
G1 X-15.160 Y-27.736 E0.0513
G1 X-16.470 Y-28.030 E0.0513
G1 X-17.807 Y-28.147 E0.0513
G1 X-19.148 Y-28.087 E0.0513
G1 X-20.470 Y-27.849 E0.0513
G1 X-21.748 Y-27.439 E0.0513
G1 X-22.961 Y-26.863 E0.0513
G1 X-24.088 Y-26.132 E0.0514
G1 X-25.126 Y-25.237 E0.0525
G1 X-26.001 Y-24.258 E0.0502
G1 X-26.756 Y-23.148 E0.0513
G1 X-27.357 Y-21.948 E0.0513
G1 X-27.794 Y-20.678 E0.0513
G1 X-28.060 Y-19.362 E0.0513
G1 X-28.149 Y-18.023 E0.0513
G1 X-28.060 Y-16.683 E0.0513
G1 X-27.794 Y-15.367 E0.0513
G1 X-27.357 Y-14.098 E0.0513
G1 X-26.756 Y-12.898 E0.0513
G1 X-26.001 Y-11.787 E0.0513
G1 X-25.106 Y-10.787 E0.0513
G1 X-24.087 Y-9.913 E0.0513
G1 X-22.961 Y-9.182 E0.0513
G1 X-21.748 Y-8.607 E0.0513
G1 X-20.470 Y-8.197 E0.0513
G1 X-19.148 Y-7.959 E0.0513
G1 X-17.807 Y-7.899 E0.0513
; feature outer perimeter
G1 X-17.817 Y-8.360 F9000
G1 X-16.541 Y-8.472 E0.0490 F1200
G1 X-15.290 Y-8.752 E0.0490
G1 X-14.088 Y-9.194 E0.0490
G1 X-12.955 Y-9.792 E0.0490
G1 X-11.910 Y-10.535 E0.0490
G1 X-10.974 Y-11.409 E0.0490
G1 X-10.161 Y-12.400 E0.0490
G1 X-9.486 Y-13.489 E0.0490
G1 X-8.961 Y-14.658 E0.0490
G1 X-8.596 Y-15.886 E0.0490
G1 X-8.356 Y-17.403 E0.0587
G1 X-10.788 Y-17.403 E0.0930
G1 X-10.781 Y-17.473 E0.0027
G1 X-10.781 Y-18.573 E0.0420
G1 X-10.788 Y-18.643 E0.0027
G1 X-8.356 Y-18.643 E0.0930
G1 X-8.596 Y-20.159 E0.0587
G1 X-8.961 Y-21.388 E0.0490
G1 X-9.486 Y-22.557 E0.0490
G1 X-10.161 Y-23.646 E0.0490
G1 X-10.974 Y-24.636 E0.0490
G1 X-11.910 Y-25.511 E0.0490
G1 X-12.955 Y-26.253 E0.0490
G1 X-14.088 Y-26.851 E0.0490
G1 X-15.290 Y-27.294 E0.0490
G1 X-16.541 Y-27.574 E0.0490
G1 X-17.817 Y-27.686 E0.0490
G1 X-19.097 Y-27.628 E0.0490
G1 X-20.358 Y-27.402 E0.0490
G1 X-21.578 Y-27.010 E0.0490
G1 X-22.736 Y-26.461 E0.0490
G1 X-23.811 Y-25.763 E0.0490
G1 X-24.803 Y-24.908 E0.0501
G1 X-25.638 Y-23.974 E0.0479
G1 X-26.358 Y-22.915 E0.0490
G1 X-26.932 Y-21.769 E0.0490
G1 X-27.349 Y-20.558 E0.0490
G1 X-27.603 Y-19.301 E0.0490
G1 X-27.688 Y-18.023 E0.0490
G1 X-27.603 Y-16.744 E0.0490
G1 X-27.349 Y-15.488 E0.0490
G1 X-26.932 Y-14.277 E0.0490
G1 X-26.358 Y-13.131 E0.0490
G1 X-25.638 Y-12.071 E0.0490
G1 X-24.784 Y-11.116 E0.0490
G1 X-23.811 Y-10.282 E0.0490
G1 X-22.736 Y-9.585 E0.0490
G1 X-21.578 Y-9.035 E0.0490
G1 X-20.358 Y-8.644 E0.0490
G1 X-19.097 Y-8.417 E0.0490
G1 X-17.817 Y-8.360 E0.0490
; feature solid layer
G1 X-23.308 Y-8.997 F9000
G1 X-19.603 Y-5.291 E0.2004 F2400
G1 X-18.898 Y-5.237 E0.0271
G1 X-22.011 Y-8.350 E0.1684
G1 X-21.875 Y-8.285 E0.0057
G1 X-21.022 Y-8.012 E0.0343
G1 X-18.209 Y-5.198 E0.1522
G1 X-17.575 Y-5.214 E0.0243
G1 X-20.149 Y-7.788 E0.1392
G1 X-19.356 Y-7.646 E0.0308
G1 X-16.949 Y-5.239 E0.1302
G1 X-16.373 Y-5.314 E0.0222
G1 X-18.651 Y-7.591 E0.1232
G1 X-17.969 Y-7.561 E0.0261
G1 X-15.797 Y-5.388 E0.1175
G1 X-15.722 Y-5.398 E0.0029
G1 X-15.264 Y-5.506 E0.0180
G1 X-17.350 Y-7.592 E0.1129
G1 X-16.752 Y-7.645 E0.0230
G1 X-14.738 Y-5.630 E0.1090
G1 X-14.436 Y-5.702 E0.0119
G1 X-14.230 Y-5.773 E0.0083
G1 X-16.184 Y-7.727 E0.1057
G1 X-15.652 Y-7.846 E0.0208
G1 X-13.747 Y-5.941 E0.1030
G1 X-13.265 Y-6.109 E0.0195
G1 X-15.121 Y-7.965 E0.1004
G1 X-15.062 Y-7.978 E0.0023
G1 X-14.639 Y-8.134 E0.0173
G1 X-12.815 Y-6.310 E0.0986
G1 X-12.372 Y-6.517 E0.0187
G1 X-14.163 Y-8.309 E0.0969
G1 X-13.759 Y-8.457 E0.0165
G1 X-13.696 Y-8.491 E0.0028
G1 X-11.934 Y-6.730 E0.0953
G1 X-11.528 Y-6.974 E0.0181
G1 X-13.270 Y-8.716 E0.0942
G1 X-12.844 Y-8.941 E0.0184
G1 X-11.121 Y-7.218 E0.0932
G1 X-10.858 Y-7.376 E0.0117
G1 X-10.727 Y-7.474 E0.0063
G1 X-12.430 Y-9.178 E0.0921
G1 X-12.050 Y-9.448 E0.0178
G1 X-10.355 Y-7.753 E0.0917
G1 X-9.984 Y-8.032 E0.0178
G1 X-11.670 Y-9.718 E0.0912
G1 X-11.400 Y-9.910 E0.0127
G1 X-11.302 Y-10.001 E0.0051
G1 X-9.629 Y-8.328 E0.0905
G1 X-9.292 Y-8.641 E0.0176
G1 X-10.966 Y-10.315 E0.0906
G1 X-10.629 Y-10.629 E0.0176
G1 X-8.954 Y-8.954 E0.0906
G1 X-8.832 Y-9.066 E0.0063
G1 X-8.637 Y-9.288 E0.0113
G1 X-10.305 Y-10.955 E0.0902
G1 X-10.012 Y-11.313 E0.0177
G1 X-8.333 Y-9.634 E0.0908
G1 X-8.029 Y-9.980 E0.0176
G1 X-9.718 Y-11.670 E0.0914
G1 X-9.504 Y-11.931 E0.0129
G1 X-9.437 Y-12.039 E0.0049
G1 X-7.751 Y-10.353 E0.0912
G1 X-7.480 Y-10.733 E0.0178
G1 X-9.188 Y-12.441 E0.0924
G1 X-8.939 Y-12.843 E0.0181
G1 X-7.210 Y-11.113 E0.0935
G1 X-7.194 Y-11.136 E0.0010
G1 X-6.973 Y-11.527 E0.0172
