; G-Code generated by Simplify3D(R) Version 4.1.2
; Apr 2, 2020 at 4:49:50 PM
; Settings Summary
;   processName,Process1
;   applyToModels,FlatStandoff_10_V1R2,FlatStandoff_10_V1R2(2),FlatStandoff_10_V1R2(3),FlatStandoff_10_V1R2(4),FlatStandoff_10_V1R2(5),FlatStandoff_10_V1R2(2)(2),FlatStandoff_10_V1R2(6),FlatStandoff_10_V1R2(2)(3),FlatStandoff_10_V1R2(3)(2),FlatStandoff_10_V1R2(4)(2),FlatStandoff_10_V1R2(5)(2),FlatStandoff_10_V1R2(2)(2)(2)
;   profileName,MakerBot Replicator 2 HBP (modified)
;   profileVersion,2020-03-12 10:48:50
;   baseProfile,MakerBot Replicator 2(2)
;   printMaterial,PLA
;   printQuality,Medium
;   printExtruders,
;   extruderName,Primary Extruder
;   extruderToolheadNumber,0
;   extruderDiameter,0.4
;   extruderAutoWidth,0
;   extruderWidth,0.4
;   extrusionMultiplier,1
;   extruderUseRetract,1
;   extruderRetractionDistance,1.9
;   extruderExtraRestartDistance,0
;   extruderRetractionZLift,0.5
;   extruderRetractionSpeed,1200
;   extruderUseCoasting,0
;   extruderCoastingDistance,0.2
;   extruderUseWipe,0
;   extruderWipeDistance,5
;   primaryExtruder,0
;   layerHeight,0.2
;   topSolidLayers,3
;   bottomSolidLayers,3
;   perimeterOutlines,2
;   printPerimetersInsideOut,1
;   startPointOption,3
;   startPointOriginX,0
;   startPointOriginY,150
;   sequentialIslands,0
;   spiralVaseMode,0
;   firstLayerHeightPercentage,100
;   firstLayerWidthPercentage,115
;   firstLayerUnderspeed,0.5
;   useRaft,0
;   raftExtruder,0
;   raftTopLayers,2
;   raftBaseLayers,1
;   raftOffset,1
;   raftSeparationDistance,0.14
;   raftTopInfill,90
;   aboveRaftSpeedMultiplier,0.3
;   useSkirt,0
;   skirtExtruder,0
;   skirtLayers,1
;   skirtOutlines,10
;   skirtOffset,0
;   usePrimePillar,0
;   primePillarExtruder,999
;   primePillarWidth,12
;   primePillarLocation,7
;   primePillarSpeedMultiplier,1
;   useOozeShield,0
;   oozeShieldExtruder,999
;   oozeShieldOffset,2
;   oozeShieldOutlines,1
;   oozeShieldSidewallShape,1
;   oozeShieldSidewallAngle,30
;   oozeShieldSpeedMultiplier,1
;   infillExtruder,0
;   internalInfillPattern,Rectilinear
;   externalInfillPattern,Rectilinear
;   infillPercentage,15
;   outlineOverlapPercentage,25
;   infillExtrusionWidthPercentage,100
;   minInfillLength,5
;   infillLayerInterval,1
;   internalInfillAngles,45,-45
;   overlapInternalInfillAngles,0
;   externalInfillAngles,45,-45
;   generateSupport,1
;   supportExtruder,0
;   supportInfillPercentage,30
;   supportExtraInflation,0.5
;   supportBaseLayers,0
;   denseSupportExtruder,0
;   denseSupportLayers,2
;   denseSupportInfillPercentage,90
;   supportLayerInterval,1
;   supportHorizontalPartOffset,0.3
;   supportUpperSeparationLayers,1
;   supportLowerSeparationLayers,1
;   supportType,1
;   supportGridSpacing,2
;   maxOverhangAngle,45
;   supportAngles,45,-45
;   temperatureName,Primary Extruder,Heated Build Platform
;   temperatureNumber,0,0
;   temperatureSetpointCount,1,1
;   temperatureSetpointLayers,1,1
;   temperatureSetpointTemperatures,230,60
;   temperatureStabilizeAtStartup,1,1
;   temperatureHeatedBed,0,1
;   fanLayers,1,2
;   fanSpeeds,0,100
;   blipFanToFullPower,1
;   adjustSpeedForCooling,1
;   minSpeedLayerTime,15
;   minCoolingSpeedSlowdown,20
;   increaseFanForCooling,1
;   minFanLayerTime,45
;   maxCoolingFanSpeed,100
;   increaseFanForBridging,1
;   bridgingFanSpeed,100
;   use5D,1
;   relativeEdistances,1
;   allowEaxisZeroing,0
;   independentExtruderAxes,1
;   includeM10123,0
;   stickySupport,1
;   applyToolheadOffsets,0
;   gcodeXoffset,0
;   gcodeYoffset,0
;   gcodeZoffset,0
;   overrideMachineDefinition,1
;   machineTypeOverride,0
;   strokeXoverride,280
;   strokeYoverride,150
;   strokeZoverride,150
;   originOffsetXoverride,140
;   originOffsetYoverride,75
;   originOffsetZoverride,0
;   homeXdirOverride,1
;   homeYdirOverride,1
;   homeZdirOverride,-1
;   flipXoverride,1
;   flipYoverride,-1
;   flipZoverride,1
;   toolheadOffsets,0,0|0,0|0,0|0,0|0,0|0,0
;   overrideFirmwareConfiguration,1
;   firmwareTypeOverride,MakerBot/Sailfish Firmware
;   GPXconfigOverride,r2h
;   baudRateOverride,115200
;   overridePrinterModels,1
;   printerModelsOverride,MakerBot_Replicator2.stl
;   startingGcode,; **** Replicator 2 start.gcode ****,M73 P0 ; enable build progress,G162 X Y F3000 ; home XY maximum,G161 Z F1200 ; home Z minimum,G92 Z-5 ; set Z to -5,G1 Z0 ; move Z to 0,G161 Z F100 ; home Z slowly,M132 X Y Z A B ; recall home offsets,G1 X-145 Y-75 Z30 F9000 ; move to wait position off table,G130 X20 Y20 Z20 A20 B20 ; lower stepper Vrefs while heating,M126 S[fan_speed_pwm],M140 S[bed0_temperature] T0,M134 T0 ; stabilize bed temperature,M104 S[extruder0_temperature] T0,M133 T0 ; stabilize extruder temperature,G130 X127 Y127 Z40 A127 B127 ; default stepper Vrefs,G92 A0 ; zero extruder,G1 Z0.4 ; position nozzle,G1 E25 F300 ; purge nozzle,G1 X-140 Y-70 Z0.15 F1200 ; slow wipe,G1 X-135 Y-65 Z0.5 F1200 ; lift,G92 A0 ; zero extruder,M73 P1 ;@body (notify GPX body has started),; **** end of start.gcode ****
;   layerChangeGcode,
;   retractionGcode,
;   toolChangeGcode,
;   endingGcode,; **** Replicator 2 end.gcode ****,M73 P100 ; end build progress,G1 Z155 F1000 ; send Z axis to bottom of machine,M104 S0 T0 ; cool down extruder,M140 S0 T0 ; cool down HBP,M127 ; stop blower fan,G162 X Y F3000 ; home XY maximum,M18 ; disable stepper,M0 ; stop codes,M72 P1 ; play Ta-Da song,; **** end of end.gcode ****
;   exportFileFormat,gcode
;   celebration,0
;   celebrationSong,Random Song
;   postProcessing,
;   defaultSpeed,4800
;   outlineUnderspeed,0.5
;   solidInfillUnderspeed,1
;   supportUnderspeed,1
;   rapidXYspeed,9000
;   rapidZspeed,1200
;   minBridgingArea,50
;   bridgingExtraInflation,0
;   bridgingExtrusionMultiplier,1
;   bridgingSpeedMultiplier,0.8
;   useFixedBridgingAngle,0
;   fixedBridgingAngle,0
;   applyBridgingToPerimeters,0
;   filamentDiameters,1.75|1.75|1.75|1.75|1.75|1.75
;   filamentPricesPerKg,46|46|46|46|46|46
;   filamentDensities,1.25|1.25|1.25|1.25|1.25|1.25
;   useMinPrintHeight,0
;   minPrintHeight,0
;   useMaxPrintHeight,0
;   maxPrintHeight,4.84
;   useDiaphragm,0
;   diaphragmLayerInterval,20
;   robustSlicing,1
;   mergeAllIntoSolid,0
;   onlyRetractWhenCrossingOutline,0
;   retractBetweenLayers,0
;   useRetractionMinTravel,1
;   retractionMinTravel,7
;   retractWhileWiping,1
;   onlyWipeOutlines,1
;   avoidCrossingOutline,0
;   maxMovementDetourFactor,3
;   toolChangeRetractionDistance,12
;   toolChangeExtraRestartDistance,-0.5
;   toolChangeRetractionSpeed,600
;   externalThinWallType,0
;   internalThinWallType,0
;   thinWallAllowedOverlapPercentage,10
;   singleExtrusionMinLength,1
;   singleExtrusionMinPrintingWidthPercentage,50
;   singleExtrusionMaxPrintingWidthPercentage,200
;   singleExtrusionEndpointExtension,0.2
;   horizontalSizeCompensation,0
G90
M83
; **** Replicator 2 start.gcode ****
M73 P0 ; enable build progress
G162 X Y F3000 ; home XY maximum
G161 Z F1200 ; home Z minimum
G92 Z-5 ; set Z to -5
G1 Z0 ; move Z to 0
G161 Z F100 ; home Z slowly
M132 X Y Z A B ; recall home offsets
G1 X-145 Y-75 Z30 F9000 ; move to wait position off table
G130 X20 Y20 Z20 A20 B20 ; lower stepper Vrefs while heating
M127
M140 S60 T0
M134 T0 ; stabilize bed temperature
M104 S230 T0
M133 T0 ; stabilize extruder temperature
G130 X127 Y127 Z40 A127 B127 ; default stepper Vrefs
G92 A0 ; zero extruder
G1 Z0.4 ; position nozzle
G1 E25 F300 ; purge nozzle
G1 X-140 Y-70 Z0.15 F1200 ; slow wipe
G1 X-135 Y-65 Z0.5 F1200 ; lift
G92 A0 ; zero extruder
M73 P1 ;@body (notify GPX body has started)
; **** end of start.gcode ****
; process Process1
; layer 1, Z = 0.200
M135 T0
G1 E-1.9000 F1200
; feature inner perimeter
; tool H0.200 W0.460
G1 Z0.500 F1200
G1 X-3.190 Y15.007 F9000
G1 Z0.200 F1200
G1 E1.9000 F1200
G1 X-11.751 Y15.007 E0.3274 F1800
G1 X-11.751 Y4.865 E0.3879
G1 X-3.190 Y4.865 E0.3274
G1 X-3.190 Y15.007 E0.3879
; feature outer perimeter
G1 X-2.730 Y15.467 F9000
G1 X-12.211 Y15.467 E0.3626 F1200
G1 X-12.211 Y2.730 E0.4872
G1 X-11.416 Y2.730 E0.0304
G1 X-11.416 Y4.405 E0.0641
G1 X-3.187 Y4.405 E0.3148
G1 X-3.187 Y2.730 E0.0641
G1 X-2.730 Y2.730 E0.0175
G1 X-2.730 Y15.467 E0.4872
G1 E-1.9000 F1200
; feature solid layer
G1 Z0.700 F1200
G1 X-11.360 Y14.662 F9000
G1 Z0.200 F1200
G1 E1.9000 F1200
G1 X-11.406 Y14.616 E0.0025 F2400
G1 X-11.406 Y13.965 E0.0249
G1 X-10.709 Y14.662 E0.0377
G1 X-10.059 Y14.662 E0.0249
G1 X-11.406 Y13.315 E0.0729
G1 X-11.406 Y12.664 E0.0249
G1 X-9.408 Y14.662 E0.1081
G1 X-8.758 Y14.662 E0.0249
G1 X-11.406 Y12.013 E0.1433
G1 X-11.406 Y11.363 E0.0249
G1 X-8.107 Y14.662 E0.1784
G1 X-7.456 Y14.662 E0.0249
G1 X-11.406 Y10.712 E0.2136
G1 X-11.406 Y10.062 E0.0249
G1 X-6.806 Y14.662 E0.2488
G1 X-6.155 Y14.662 E0.0249
G1 X-11.406 Y9.411 E0.2840
G1 X-11.406 Y8.761 E0.0249
G1 X-5.505 Y14.662 E0.3192
G1 X-4.854 Y14.662 E0.0249
G1 X-11.406 Y8.110 E0.3544
G1 X-11.406 Y7.460 E0.0249
G1 X-4.204 Y14.662 E0.3896
G1 X-3.553 Y14.662 E0.0249
G1 X-11.406 Y6.809 E0.4248
G1 X-11.406 Y6.159 E0.0249
G1 X-3.535 Y14.030 E0.4258
G1 X-3.535 Y13.379 E0.0249
G1 X-11.406 Y5.508 E0.4258
G1 X-11.406 Y5.210 E0.0114
G1 X-11.053 Y5.210 E0.0135
G1 X-3.535 Y12.728 E0.4067
G1 X-3.535 Y12.078 E0.0249
G1 X-10.403 Y5.210 E0.3715
G1 X-9.752 Y5.210 E0.0249
G1 X-3.535 Y11.427 E0.3363
G1 X-3.535 Y10.777 E0.0249
G1 X-9.102 Y5.210 E0.3011
G1 X-8.451 Y5.210 E0.0249
G1 X-3.535 Y10.126 E0.2659
G1 X-3.535 Y9.476 E0.0249
G1 X-7.801 Y5.210 E0.2307
G1 X-7.150 Y5.210 E0.0249
G1 X-3.535 Y8.825 E0.1956
G1 X-3.535 Y8.175 E0.0249
G1 X-6.500 Y5.210 E0.1604
G1 X-5.849 Y5.210 E0.0249
G1 X-3.535 Y7.524 E0.1252
G1 X-3.535 Y6.874 E0.0249
G1 X-5.199 Y5.210 E0.0900
G1 X-4.548 Y5.210 E0.0249
G1 X-3.535 Y6.223 E0.0548
G1 X-3.535 Y5.573 E0.0249
G1 X-3.897 Y5.210 E0.0196
G1 E-1.9000 F1200
; feature inner perimeter
G1 Z0.700 F1200
G1 X3.190 Y15.007 F9000
G1 Z0.200 F1200
G1 E1.9000 F1200
G1 X3.190 Y4.865 E0.3879 F1800
G1 X11.751 Y4.865 E0.3274
G1 X11.751 Y15.007 E0.3879
G1 X3.190 Y15.007 E0.3274
; feature outer perimeter
G1 X2.730 Y15.467 F9000
G1 X2.730 Y2.730 E0.4872 F1200
G1 X3.524 Y2.730 E0.0304
G1 X3.524 Y4.405 E0.0641
G1 X11.754 Y4.405 E0.3148
G1 X11.754 Y2.730 E0.0641
G1 X12.211 Y2.730 E0.0175
G1 X12.211 Y15.467 E0.4872
G1 X2.730 Y15.467 E0.3626
; feature solid layer
G1 X3.603 Y14.662 F9000
G1 X3.535 Y14.594 E0.0037 F2400
G1 X3.535 Y13.944 E0.0249
G1 X4.253 Y14.662 E0.0388
G1 X4.904 Y14.662 E0.0249
G1 X3.535 Y13.293 E0.0740
G1 X3.535 Y12.643 E0.0249
G1 X5.554 Y14.662 E0.1092
G1 X6.205 Y14.662 E0.0249
G1 X3.535 Y11.992 E0.1444
G1 X3.535 Y11.341 E0.0249
G1 X6.855 Y14.662 E0.1796
G1 X7.506 Y14.662 E0.0249
G1 X3.535 Y10.691 E0.2148
G1 X3.535 Y10.040 E0.0249
G1 X8.156 Y14.662 E0.2500
G1 X8.807 Y14.662 E0.0249
G1 X3.535 Y9.390 E0.2852
G1 X3.535 Y8.739 E0.0249
G1 X9.458 Y14.662 E0.3204
G1 X10.108 Y14.662 E0.0249
G1 X3.535 Y8.089 E0.3556
G1 X3.535 Y7.438 E0.0249
G1 X10.759 Y14.662 E0.3907
G1 X11.406 Y14.662 E0.0248
G1 X3.535 Y6.788 E0.4259
G1 X3.535 Y6.137 E0.0249
G1 X11.406 Y14.008 E0.4258
G1 X11.406 Y13.357 E0.0249
G1 X3.535 Y5.487 E0.4258
G1 X3.535 Y5.210 E0.0106
G1 X3.909 Y5.210 E0.0143
G1 X11.406 Y12.707 E0.4055
G1 X11.406 Y12.056 E0.0249
G1 X4.560 Y5.210 E0.3703
G1 X5.210 Y5.210 E0.0249
G1 X11.406 Y11.406 E0.3351
G1 X11.406 Y10.755 E0.0249
G1 X5.861 Y5.210 E0.3000
G1 X6.511 Y5.210 E0.0249
G1 X11.406 Y10.105 E0.2648
G1 X11.406 Y9.454 E0.0249
G1 X7.162 Y5.210 E0.2296
G1 X7.812 Y5.210 E0.0249
G1 X11.406 Y8.804 E0.1944
G1 X11.406 Y8.153 E0.0249
G1 X8.463 Y5.210 E0.1592
G1 X9.113 Y5.210 E0.0249
G1 X11.406 Y7.503 E0.1240
G1 X11.406 Y6.852 E0.0249
G1 X9.764 Y5.210 E0.0888
G1 X10.414 Y5.210 E0.0249
G1 X11.406 Y6.202 E0.0536
G1 X11.406 Y5.551 E0.0249
G1 X11.065 Y5.210 E0.0184
G1 E-1.9000 F1200
; feature inner perimeter
G1 Z0.700 F1200
G1 X18.131 Y15.007 F9000
G1 Z0.200 F1200
G1 E1.9000 F1200
G1 X18.131 Y4.865 E0.3879 F1800
G1 X26.692 Y4.865 E0.3274
G1 X26.692 Y15.007 E0.3879
G1 X18.131 Y15.007 E0.3274
; feature outer perimeter
G1 X17.671 Y15.467 F9000
G1 X17.671 Y2.730 E0.4872 F1200
G1 X18.465 Y2.730 E0.0304
G1 X18.465 Y4.405 E0.0641
G1 X26.695 Y4.405 E0.3148
G1 X26.695 Y2.730 E0.0641
G1 X27.152 Y2.730 E0.0175
G1 X27.152 Y15.467 E0.4872
G1 X17.671 Y15.467 E0.3626
; feature solid layer
G1 X18.565 Y14.662 F9000
G1 X18.476 Y14.573 E0.0048 F2400
G1 X18.476 Y13.922 E0.0249
G1 X19.216 Y14.662 E0.0400
G1 X19.866 Y14.662 E0.0249
G1 X18.476 Y13.272 E0.0752
G1 X18.476 Y12.621 E0.0249
G1 X20.517 Y14.662 E0.1104
G1 X21.167 Y14.662 E0.0249
G1 X18.476 Y11.970 E0.1456
G1 X18.476 Y11.320 E0.0249
G1 X21.818 Y14.662 E0.1808
G1 X22.468 Y14.662 E0.0249
G1 X18.476 Y10.669 E0.2160
G1 X18.476 Y10.019 E0.0249
G1 X23.119 Y14.662 E0.2511
G1 X23.769 Y14.662 E0.0249
G1 X18.476 Y9.368 E0.2863
G1 X18.476 Y8.718 E0.0249
G1 X24.420 Y14.662 E0.3215
G1 X25.070 Y14.662 E0.0249
G1 X18.476 Y8.067 E0.3567
G1 X18.476 Y7.417 E0.0249
G1 X25.721 Y14.662 E0.3919
G1 X26.347 Y14.662 E0.0239
G1 X26.347 Y14.637 E0.0009
G1 X18.476 Y6.766 E0.4258
G1 X18.476 Y6.116 E0.0249
G1 X26.347 Y13.987 E0.4258
G1 X26.347 Y13.336 E0.0249
G1 X18.476 Y5.465 E0.4258
G1 X18.476 Y5.210 E0.0098
G1 X18.871 Y5.210 E0.0151
G1 X26.347 Y12.685 E0.4044
G1 X26.347 Y12.035 E0.0249
G1 X19.522 Y5.210 E0.3692
G1 X20.172 Y5.210 E0.0249
G1 X26.347 Y11.384 E0.3340
G1 X26.347 Y10.734 E0.0249
G1 X20.823 Y5.210 E0.2988
G1 X21.474 Y5.210 E0.0249
G1 X26.347 Y10.083 E0.2636
G1 X26.347 Y9.433 E0.0249
G1 X22.124 Y5.210 E0.2284
G1 X22.775 Y5.210 E0.0249
G1 X26.347 Y8.782 E0.1932
G1 X26.347 Y8.132 E0.0249
G1 X23.425 Y5.210 E0.1580
G1 X24.076 Y5.210 E0.0249
G1 X26.347 Y7.481 E0.1228
G1 X26.347 Y6.831 E0.0249
G1 X24.726 Y5.210 E0.0877
G1 X25.377 Y5.210 E0.0249
G1 X26.347 Y6.180 E0.0525
G1 X26.347 Y5.530 E0.0249
G1 X26.027 Y5.210 E0.0173
G1 E-1.9000 F1200
; feature inner perimeter
G1 Z0.700 F1200
G1 X33.072 Y15.007 F9000
G1 Z0.200 F1200
G1 E1.9000 F1200
G1 X33.072 Y4.865 E0.3879 F1800
G1 X41.633 Y4.865 E0.3274
G1 X41.633 Y15.007 E0.3879
G1 X33.072 Y15.007 E0.3274
; feature outer perimeter
G1 X32.612 Y15.467 F9000
G1 X32.612 Y2.730 E0.4872 F1200
G1 X33.406 Y2.730 E0.0304
G1 X33.406 Y4.405 E0.0641
G1 X41.636 Y4.405 E0.3148
G1 X41.636 Y2.730 E0.0641
G1 X42.093 Y2.730 E0.0175
G1 X42.093 Y15.467 E0.4872
G1 X32.612 Y15.467 E0.3626
; feature solid layer
G1 X33.527 Y14.662 F9000
G1 X33.417 Y14.551 E0.0060 F2400
G1 X33.417 Y13.901 E0.0249
G1 X34.178 Y14.662 E0.0412
G1 X34.829 Y14.662 E0.0249
G1 X33.417 Y13.250 E0.0764
G1 X33.417 Y12.600 E0.0249
G1 X35.479 Y14.662 E0.1116
G1 X36.130 Y14.662 E0.0249
G1 X33.417 Y11.949 E0.1467
G1 X33.417 Y11.298 E0.0249
G1 X36.780 Y14.662 E0.1819
G1 X37.431 Y14.662 E0.0249
G1 X33.417 Y10.648 E0.2171
G1 X33.417 Y9.997 E0.0249
G1 X38.081 Y14.662 E0.2523
G1 X38.732 Y14.662 E0.0249
G1 X33.417 Y9.347 E0.2875
G1 X33.417 Y8.696 E0.0249
G1 X39.382 Y14.662 E0.3227
G1 X40.033 Y14.662 E0.0249
G1 X33.417 Y8.046 E0.3579
G1 X33.417 Y7.395 E0.0249
G1 X40.683 Y14.662 E0.3931
G1 X41.288 Y14.662 E0.0231
G1 X41.288 Y14.616 E0.0018
G1 X33.417 Y6.745 E0.4258
G1 X33.417 Y6.094 E0.0249
G1 X41.288 Y13.965 E0.4258
G1 X41.288 Y13.314 E0.0249
G1 X33.417 Y5.444 E0.4258
G1 X33.417 Y5.210 E0.0089
G1 X33.834 Y5.210 E0.0160
G1 X41.288 Y12.664 E0.4032
G1 X41.288 Y12.013 E0.0249
G1 X34.484 Y5.210 E0.3680
G1 X35.135 Y5.210 E0.0249
G1 X41.288 Y11.363 E0.3328
G1 X41.288 Y10.712 E0.0249
G1 X35.785 Y5.210 E0.2976
G1 X36.436 Y5.210 E0.0249
G1 X41.288 Y10.062 E0.2624
G1 X41.288 Y9.411 E0.0249
G1 X37.086 Y5.210 E0.2273
G1 X37.737 Y5.210 E0.0249
G1 X41.288 Y8.761 E0.1921
G1 X41.288 Y8.110 E0.0249
G1 X38.388 Y5.210 E0.1569
G1 X39.038 Y5.210 E0.0249
G1 X41.288 Y7.460 E0.1217
G1 X41.288 Y6.809 E0.0249
G1 X39.689 Y5.210 E0.0865
G1 X40.339 Y5.210 E0.0249
G1 X41.288 Y6.159 E0.0513
G1 X41.288 Y5.508 E0.0249
G1 X40.990 Y5.210 E0.0161
G1 E-1.9000 F1200
; feature inner perimeter
G1 Z0.700 F1200
G1 X33.072 Y-3.190 F9000
G1 Z0.200 F1200
G1 E1.9000 F1200
G1 X33.072 Y-13.332 E0.3879 F1800
G1 X41.633 Y-13.332 E0.3274
G1 X41.633 Y-3.190 E0.3879
G1 X33.072 Y-3.190 E0.3274
; feature outer perimeter
G1 X32.612 Y-2.730 F9000
G1 X32.612 Y-15.467 E0.4872 F1200
