; G-Code generated by Simplify3D(R) Version 4.1.2
; Apr 2, 2020 at 4:50:05 PM
; Settings Summary
;   processName,Process1
;   applyToModels,FlatStandoff_10_V1R2,FlatStandoff_10_V1R2(2),FlatStandoff_10_V1R2(3),FlatStandoff_10_V1R2(4),FlatStandoff_10_V1R2(5),FlatStandoff_10_V1R2(2)(2),FlatStandoff_10_V1R2(6),FlatStandoff_10_V1R2(2)(3),FlatStandoff_10_V1R2(3)(2),FlatStandoff_10_V1R2(4)(2),FlatStandoff_10_V1R2(5)(2),FlatStandoff_10_V1R2(2)(2)(2),FlatStandoff_10_V1R2(7),FlatStandoff_10_V1R2(2)(4),FlatStandoff_10_V1R2(3)(3),FlatStandoff_10_V1R2(4)(3),FlatStandoff_10_V1R2(5)(3),FlatStandoff_10_V1R2(2)(2)(3),FlatStandoff_10_V1R2(6)(2),FlatStandoff_10_V1R2(2)(3)(2),FlatStandoff_10_V1R2(3)(2)(2),FlatStandoff_10_V1R2(4)(2)(2),FlatStandoff_10_V1R2(5)(2)(2),FlatStandoff_10_V1R2(2)(2)(2)(2)
;   profileName,MakerBot Replicator 2 HBP (modified)
;   profileVersion,2020-03-12 10:48:50
;   baseProfile,MakerBot Replicator 2(2)
;   printMaterial,PLA
;   printQuality,Medium
;   printExtruders,
;   extruderName,Primary Extruder
;   extruderToolheadNumber,0
;   extruderDiameter,0.4
;   extruderAutoWidth,0
;   extruderWidth,0.4
;   extrusionMultiplier,1
;   extruderUseRetract,1
;   extruderRetractionDistance,1.9
;   extruderExtraRestartDistance,0
;   extruderRetractionZLift,0.5
;   extruderRetractionSpeed,1200
;   extruderUseCoasting,0
;   extruderCoastingDistance,0.2
;   extruderUseWipe,0
;   extruderWipeDistance,5
;   primaryExtruder,0
;   layerHeight,0.2
;   topSolidLayers,3
;   bottomSolidLayers,3
;   perimeterOutlines,2
;   printPerimetersInsideOut,1
;   startPointOption,3
;   startPointOriginX,0
;   startPointOriginY,150
;   sequentialIslands,0
;   spiralVaseMode,0
;   firstLayerHeightPercentage,100
;   firstLayerWidthPercentage,115
;   firstLayerUnderspeed,0.5
;   useRaft,0
;   raftExtruder,0
;   raftTopLayers,2
;   raftBaseLayers,1
;   raftOffset,1
;   raftSeparationDistance,0.14
;   raftTopInfill,90
;   aboveRaftSpeedMultiplier,0.3
;   useSkirt,0
;   skirtExtruder,0
;   skirtLayers,1
;   skirtOutlines,10
;   skirtOffset,0
;   usePrimePillar,0
;   primePillarExtruder,999
;   primePillarWidth,12
;   primePillarLocation,7
;   primePillarSpeedMultiplier,1
;   useOozeShield,0
;   oozeShieldExtruder,999
;   oozeShieldOffset,2
;   oozeShieldOutlines,1
;   oozeShieldSidewallShape,1
;   oozeShieldSidewallAngle,30
;   oozeShieldSpeedMultiplier,1
;   infillExtruder,0
;   internalInfillPattern,Rectilinear
;   externalInfillPattern,Rectilinear
;   infillPercentage,15
;   outlineOverlapPercentage,25
;   infillExtrusionWidthPercentage,100
;   minInfillLength,5
;   infillLayerInterval,1
;   internalInfillAngles,45,-45
;   overlapInternalInfillAngles,0
;   externalInfillAngles,45,-45
;   generateSupport,1
;   supportExtruder,0
;   supportInfillPercentage,30
;   supportExtraInflation,0.5
;   supportBaseLayers,0
;   denseSupportExtruder,0
;   denseSupportLayers,2
;   denseSupportInfillPercentage,90
;   supportLayerInterval,1
;   supportHorizontalPartOffset,0.3
;   supportUpperSeparationLayers,1
;   supportLowerSeparationLayers,1
;   supportType,1
;   supportGridSpacing,2
;   maxOverhangAngle,45
;   supportAngles,45,-45
;   temperatureName,Primary Extruder,Heated Build Platform
;   temperatureNumber,0,0
;   temperatureSetpointCount,1,1
;   temperatureSetpointLayers,1,1
;   temperatureSetpointTemperatures,230,60
;   temperatureStabilizeAtStartup,1,1
;   temperatureHeatedBed,0,1
;   fanLayers,1,2
;   fanSpeeds,0,100
;   blipFanToFullPower,1
;   adjustSpeedForCooling,1
;   minSpeedLayerTime,15
;   minCoolingSpeedSlowdown,20
;   increaseFanForCooling,1
;   minFanLayerTime,45
;   maxCoolingFanSpeed,100
;   increaseFanForBridging,1
;   bridgingFanSpeed,100
;   use5D,1
;   relativeEdistances,1
;   allowEaxisZeroing,0
;   independentExtruderAxes,1
;   includeM10123,0
;   stickySupport,1
;   applyToolheadOffsets,0
;   gcodeXoffset,0
;   gcodeYoffset,0
;   gcodeZoffset,0
;   overrideMachineDefinition,1
;   machineTypeOverride,0
;   strokeXoverride,280
;   strokeYoverride,150
;   strokeZoverride,150
;   originOffsetXoverride,140
;   originOffsetYoverride,75
;   originOffsetZoverride,0
;   homeXdirOverride,1
;   homeYdirOverride,1
;   homeZdirOverride,-1
;   flipXoverride,1
;   flipYoverride,-1
;   flipZoverride,1
;   toolheadOffsets,0,0|0,0|0,0|0,0|0,0|0,0
;   overrideFirmwareConfiguration,1
;   firmwareTypeOverride,MakerBot/Sailfish Firmware
;   GPXconfigOverride,r2h
;   baudRateOverride,115200
;   overridePrinterModels,1
;   printerModelsOverride,MakerBot_Replicator2.stl
;   startingGcode,; **** Replicator 2 start.gcode ****,M73 P0 ; enable build progress,G162 X Y F3000 ; home XY maximum,G161 Z F1200 ; home Z minimum,G92 Z-5 ; set Z to -5,G1 Z0 ; move Z to 0,G161 Z F100 ; home Z slowly,M132 X Y Z A B ; recall home offsets,G1 X-145 Y-75 Z30 F9000 ; move to wait position off table,G130 X20 Y20 Z20 A20 B20 ; lower stepper Vrefs while heating,M126 S[fan_speed_pwm],M140 S[bed0_temperature] T0,M134 T0 ; stabilize bed temperature,M104 S[extruder0_temperature] T0,M133 T0 ; stabilize extruder temperature,G130 X127 Y127 Z40 A127 B127 ; default stepper Vrefs,G92 A0 ; zero extruder,G1 Z0.4 ; position nozzle,G1 E25 F300 ; purge nozzle,G1 X-140 Y-70 Z0.15 F1200 ; slow wipe,G1 X-135 Y-65 Z0.5 F1200 ; lift,G92 A0 ; zero extruder,M73 P1 ;@body (notify GPX body has started),; **** end of start.gcode ****
;   layerChangeGcode,
;   retractionGcode,
;   toolChangeGcode,
;   endingGcode,; **** Replicator 2 end.gcode ****,M73 P100 ; end build progress,G1 Z155 F1000 ; send Z axis to bottom of machine,M104 S0 T0 ; cool down extruder,M140 S0 T0 ; cool down HBP,M127 ; stop blower fan,G162 X Y F3000 ; home XY maximum,M18 ; disable stepper,M0 ; stop codes,M72 P1 ; play Ta-Da song,; **** end of end.gcode ****
;   exportFileFormat,gcode
;   celebration,0
;   celebrationSong,Random Song
;   postProcessing,
;   defaultSpeed,4800
;   outlineUnderspeed,0.5
;   solidInfillUnderspeed,1
;   supportUnderspeed,1
;   rapidXYspeed,9000
;   rapidZspeed,1200
;   minBridgingArea,50
;   bridgingExtraInflation,0
;   bridgingExtrusionMultiplier,1
;   bridgingSpeedMultiplier,0.8
;   useFixedBridgingAngle,0
;   fixedBridgingAngle,0
;   applyBridgingToPerimeters,0
;   filamentDiameters,1.75|1.75|1.75|1.75|1.75|1.75
;   filamentPricesPerKg,46|46|46|46|46|46
;   filamentDensities,1.25|1.25|1.25|1.25|1.25|1.25
;   useMinPrintHeight,0
;   minPrintHeight,0
;   useMaxPrintHeight,0
;   maxPrintHeight,4.84
;   useDiaphragm,0
;   diaphragmLayerInterval,20
;   robustSlicing,1
;   mergeAllIntoSolid,0
;   onlyRetractWhenCrossingOutline,0
;   retractBetweenLayers,0
;   useRetractionMinTravel,1
;   retractionMinTravel,7
;   retractWhileWiping,1
;   onlyWipeOutlines,1
;   avoidCrossingOutline,0
;   maxMovementDetourFactor,3
;   toolChangeRetractionDistance,12
;   toolChangeExtraRestartDistance,-0.5
;   toolChangeRetractionSpeed,600
;   externalThinWallType,0
;   internalThinWallType,0
;   thinWallAllowedOverlapPercentage,10
;   singleExtrusionMinLength,1
;   singleExtrusionMinPrintingWidthPercentage,50
;   singleExtrusionMaxPrintingWidthPercentage,200
;   singleExtrusionEndpointExtension,0.2
;   horizontalSizeCompensation,0
G90
M83
; **** Replicator 2 start.gcode ****
M73 P0 ; enable build progress
G162 X Y F3000 ; home XY maximum
G161 Z F1200 ; home Z minimum
G92 Z-5 ; set Z to -5
G1 Z0 ; move Z to 0
G161 Z F100 ; home Z slowly
M132 X Y Z A B ; recall home offsets
G1 X-145 Y-75 Z30 F9000 ; move to wait position off table
G130 X20 Y20 Z20 A20 B20 ; lower stepper Vrefs while heating
M127
M140 S60 T0
M134 T0 ; stabilize bed temperature
M104 S230 T0
M133 T0 ; stabilize extruder temperature
G130 X127 Y127 Z40 A127 B127 ; default stepper Vrefs
G92 A0 ; zero extruder
G1 Z0.4 ; position nozzle
G1 E25 F300 ; purge nozzle
G1 X-140 Y-70 Z0.15 F1200 ; slow wipe
G1 X-135 Y-65 Z0.5 F1200 ; lift
G92 A0 ; zero extruder
M73 P1 ;@body (notify GPX body has started)
; **** end of start.gcode ****
; process Process1
; layer 1, Z = 0.200
M135 T0
G1 E-1.9000 F1200
; feature inner perimeter
; tool H0.200 W0.460
G1 Z0.500 F1200
G1 X4.280 Y5.908 F9000
G1 Z0.200 F1200
G1 E1.9000 F1200
G1 X-4.280 Y5.908 E0.3274 F1800
G1 X-4.280 Y-4.233 E0.3879
G1 X4.280 Y-4.233 E0.3274
G1 X4.280 Y5.908 E0.3879
; feature outer perimeter
G1 X4.740 Y6.368 F9000
G1 X-4.740 Y6.368 E0.3626 F1200
G1 X-4.740 Y-6.368 E0.4872
G1 X-3.946 Y-6.368 E0.0304
G1 X-3.946 Y-4.693 E0.0641
G1 X4.284 Y-4.693 E0.3148
G1 X4.284 Y-6.368 E0.0641
G1 X4.740 Y-6.368 E0.0175
G1 X4.740 Y6.368 E0.4872
G1 E-1.9000 F1200
; feature solid layer
G1 Z0.700 F1200
G1 X-3.544 Y5.563 F9000
G1 Z0.200 F1200
G1 E1.9000 F1200
G1 X-3.935 Y5.172 E0.0212 F2400
G1 X-3.935 Y4.522 E0.0249
G1 X-2.894 Y5.563 E0.0564
G1 X-2.243 Y5.563 E0.0249
G1 X-3.935 Y3.871 E0.0915
G1 X-3.935 Y3.220 E0.0249
G1 X-1.593 Y5.563 E0.1267
G1 X-0.942 Y5.563 E0.0249
G1 X-3.935 Y2.570 E0.1619
G1 X-3.935 Y1.919 E0.0249
G1 X-0.291 Y5.563 E0.1971
G1 X0.359 Y5.563 E0.0249
G1 X-3.935 Y1.269 E0.2323
G1 X-3.935 Y0.618 E0.0249
G1 X1.010 Y5.563 E0.2675
G1 X1.660 Y5.563 E0.0249
G1 X-3.935 Y-0.032 E0.3027
G1 X-3.935 Y-0.683 E0.0249
G1 X2.311 Y5.563 E0.3379
G1 X2.961 Y5.563 E0.0249
G1 X-3.935 Y-1.333 E0.3731
G1 X-3.935 Y-1.984 E0.0249
G1 X3.612 Y5.563 E0.4082
G1 X3.935 Y5.563 E0.0124
G1 X3.935 Y5.236 E0.0125
G1 X-3.935 Y-2.634 E0.4258
G1 X-3.935 Y-3.285 E0.0249
G1 X3.935 Y4.586 E0.4258
G1 X3.935 Y3.935 E0.0249
G1 X-3.888 Y-3.888 E0.4232
G1 X-3.238 Y-3.888 E0.0249
G1 X3.935 Y3.285 E0.3880
G1 X3.935 Y2.634 E0.0249
G1 X-2.587 Y-3.888 E0.3528
G1 X-1.937 Y-3.888 E0.0249
G1 X3.935 Y1.984 E0.3176
G1 X3.935 Y1.333 E0.0249
G1 X-1.286 Y-3.888 E0.2824
G1 X-0.636 Y-3.888 E0.0249
G1 X3.935 Y0.683 E0.2473
G1 X3.935 Y0.032 E0.0249
G1 X0.015 Y-3.888 E0.2121
G1 X0.665 Y-3.888 E0.0249
G1 X3.935 Y-0.618 E0.1769
G1 X3.935 Y-1.269 E0.0249
G1 X1.316 Y-3.888 E0.1417
G1 X1.967 Y-3.888 E0.0249
G1 X3.935 Y-1.919 E0.1065
G1 X3.935 Y-2.570 E0.0249
G1 X2.617 Y-3.888 E0.0713
G1 X3.268 Y-3.888 E0.0249
G1 X3.935 Y-3.220 E0.0361
G1 X3.935 Y-3.871 E0.0249
G1 X3.918 Y-3.888 E0.0009
G1 E-1.9000 F1200
; feature inner perimeter
G1 Z0.700 F1200
G1 X10.660 Y5.908 F9000
G1 Z0.200 F1200
G1 E1.9000 F1200
G1 X10.660 Y-4.233 E0.3879 F1800
G1 X19.221 Y-4.233 E0.3274
G1 X19.221 Y5.908 E0.3879
G1 X10.660 Y5.908 E0.3274
; feature outer perimeter
G1 X10.200 Y6.368 F9000
G1 X10.200 Y-6.368 E0.4872 F1200
G1 X10.995 Y-6.368 E0.0304
G1 X10.995 Y-4.693 E0.0641
G1 X19.225 Y-4.693 E0.3148
G1 X19.225 Y-6.368 E0.0641
G1 X19.681 Y-6.368 E0.0175
G1 X19.681 Y6.368 E0.4872
G1 X10.200 Y6.368 E0.3626
; feature solid layer
G1 X11.005 Y5.151 F9000
G1 X11.418 Y5.563 E0.0223 F2400
G1 X12.069 Y5.563 E0.0249
G1 X11.005 Y4.500 E0.0575
G1 X11.005 Y3.850 E0.0249
G1 X12.719 Y5.563 E0.0927
G1 X13.370 Y5.563 E0.0249
G1 X11.005 Y3.199 E0.1279
G1 X11.005 Y2.548 E0.0249
G1 X14.020 Y5.563 E0.1631
G1 X14.671 Y5.563 E0.0249
G1 X11.005 Y1.898 E0.1983
G1 X11.005 Y1.247 E0.0249
G1 X15.321 Y5.563 E0.2335
G1 X15.972 Y5.563 E0.0249
G1 X11.005 Y0.597 E0.2687
G1 X11.005 Y-0.054 E0.0249
G1 X16.623 Y5.563 E0.3038
G1 X17.273 Y5.563 E0.0249
G1 X11.005 Y-0.704 E0.3390
G1 X11.005 Y-1.355 E0.0249
G1 X17.924 Y5.563 E0.3742
G1 X18.574 Y5.563 E0.0249
G1 X11.005 Y-2.005 E0.4094
G1 X11.005 Y-2.656 E0.0249
G1 X18.876 Y5.215 E0.4258
G1 X18.876 Y4.564 E0.0249
G1 X11.005 Y-3.306 E0.4258
G1 X11.005 Y-3.888 E0.0223
G1 X11.074 Y-3.888 E0.0026
G1 X18.876 Y3.914 E0.4220
G1 X18.876 Y3.263 E0.0249
G1 X11.725 Y-3.888 E0.3869
G1 X12.375 Y-3.888 E0.0249
G1 X18.876 Y2.613 E0.3517
G1 X18.876 Y1.962 E0.0249
G1 X13.026 Y-3.888 E0.3165
G1 X13.676 Y-3.888 E0.0249
G1 X18.876 Y1.312 E0.2813
G1 X18.876 Y0.661 E0.0249
G1 X14.327 Y-3.888 E0.2461
G1 X14.977 Y-3.888 E0.0249
G1 X18.876 Y0.011 E0.2109
G1 X18.876 Y-0.640 E0.0249
G1 X15.628 Y-3.888 E0.1757
G1 X16.278 Y-3.888 E0.0249
G1 X18.876 Y-1.290 E0.1405
G1 X18.876 Y-1.941 E0.0249
G1 X16.929 Y-3.888 E0.1053
G1 X17.579 Y-3.888 E0.0249
G1 X18.876 Y-2.591 E0.0702
G1 X18.876 Y-3.242 E0.0249
G1 X18.230 Y-3.888 E0.0350
G1 E-1.9000 F1200
; feature inner perimeter
G1 Z0.700 F1200
G1 X25.601 Y5.908 F9000
G1 Z0.200 F1200
G1 E1.9000 F1200
G1 X25.601 Y-4.233 E0.3879 F1800
G1 X34.162 Y-4.233 E0.3274
G1 X34.162 Y5.908 E0.3879
G1 X25.601 Y5.908 E0.3274
; feature outer perimeter
G1 X25.141 Y6.368 F9000
G1 X25.141 Y-6.368 E0.4872 F1200
G1 X25.936 Y-6.368 E0.0304
G1 X25.936 Y-4.693 E0.0641
G1 X34.165 Y-4.693 E0.3148
G1 X34.165 Y-6.368 E0.0641
G1 X34.622 Y-6.368 E0.0175
G1 X34.622 Y6.368 E0.4872
G1 X25.141 Y6.368 E0.3626
; feature solid layer
G1 X25.946 Y5.129 F9000
G1 X26.381 Y5.563 E0.0235 F2400
G1 X27.031 Y5.563 E0.0249
G1 X25.946 Y4.479 E0.0587
G1 X25.946 Y3.828 E0.0249
G1 X27.682 Y5.563 E0.0939
G1 X28.332 Y5.563 E0.0249
G1 X25.946 Y3.177 E0.1291
G1 X25.946 Y2.527 E0.0249
G1 X28.983 Y5.563 E0.1643
G1 X29.633 Y5.563 E0.0249
G1 X25.946 Y1.876 E0.1994
G1 X25.946 Y1.226 E0.0249
G1 X30.284 Y5.563 E0.2346
G1 X30.934 Y5.563 E0.0249
G1 X25.946 Y0.575 E0.2698
G1 X25.946 Y-0.075 E0.0249
G1 X31.585 Y5.563 E0.3050
G1 X32.235 Y5.563 E0.0249
G1 X25.946 Y-0.726 E0.3402
G1 X25.946 Y-1.376 E0.0249
G1 X32.886 Y5.563 E0.3754
G1 X33.537 Y5.563 E0.0249
G1 X25.946 Y-2.027 E0.4106
G1 X25.946 Y-2.677 E0.0249
G1 X33.817 Y5.193 E0.4258
G1 X33.817 Y4.543 E0.0249
G1 X25.946 Y-3.328 E0.4258
G1 X25.946 Y-3.888 E0.0214
G1 X26.036 Y-3.888 E0.0034
G1 X33.817 Y3.892 E0.4209
G1 X33.817 Y3.242 E0.0249
G1 X26.687 Y-3.888 E0.3857
G1 X27.338 Y-3.888 E0.0249
G1 X33.817 Y2.591 E0.3505
G1 X33.817 Y1.941 E0.0249
G1 X27.988 Y-3.888 E0.3153
G1 X28.639 Y-3.888 E0.0249
G1 X33.817 Y1.290 E0.2801
G1 X33.817 Y0.640 E0.0249
G1 X29.289 Y-3.888 E0.2449
G1 X29.940 Y-3.888 E0.0249
G1 X33.817 Y-0.011 E0.2097
G1 X33.817 Y-0.661 E0.0249
G1 X30.590 Y-3.888 E0.1746
G1 X31.241 Y-3.888 E0.0249
G1 X33.817 Y-1.312 E0.1394
G1 X33.817 Y-1.962 E0.0249
G1 X31.891 Y-3.888 E0.1042
G1 X32.542 Y-3.888 E0.0249
G1 X33.817 Y-2.613 E0.0690
G1 X33.817 Y-3.264 E0.0249
G1 X33.192 Y-3.888 E0.0338
G1 E-1.9000 F1200
; feature inner perimeter
G1 Z0.700 F1200
G1 X40.542 Y5.908 F9000
G1 Z0.200 F1200
G1 E1.9000 F1200
G1 X40.542 Y-4.233 E0.3879 F1800
G1 X49.103 Y-4.233 E0.3274
G1 X49.103 Y5.908 E0.3879
G1 X40.542 Y5.908 E0.3274
; feature outer perimeter
G1 X40.082 Y6.368 F9000
G1 X40.082 Y-6.368 E0.4872 F1200
G1 X40.877 Y-6.368 E0.0304
G1 X40.877 Y-4.693 E0.0641
G1 X49.106 Y-4.693 E0.3148
G1 X49.106 Y-6.368 E0.0641
G1 X49.563 Y-6.368 E0.0175
G1 X49.563 Y6.368 E0.4872
G1 X40.082 Y6.368 E0.3626
; feature solid layer
G1 X40.887 Y5.108 F9000
G1 X41.343 Y5.563 E0.0247 F2400
G1 X41.994 Y5.563 E0.0249
G1 X40.887 Y4.457 E0.0598
G1 X40.887 Y3.806 E0.0249
G1 X42.644 Y5.563 E0.0950
G1 X43.295 Y5.563 E0.0249
G1 X40.887 Y3.156 E0.1302
G1 X40.887 Y2.505 E0.0249
G1 X43.945 Y5.563 E0.1654
G1 X44.596 Y5.563 E0.0249
G1 X40.887 Y1.855 E0.2006
G1 X40.887 Y1.204 E0.0249
G1 X45.246 Y5.563 E0.2358
G1 X45.897 Y5.563 E0.0249
G1 X40.887 Y0.554 E0.2710
G1 X40.887 Y-0.097 E0.0249
G1 X46.547 Y5.563 E0.3062
G1 X47.198 Y5.563 E0.0249
G1 X40.887 Y-0.747 E0.3414
G1 X40.887 Y-1.398 E0.0249
G1 X47.848 Y5.563 E0.3765
G1 X48.499 Y5.563 E0.0249
G1 X40.887 Y-2.048 E0.4117
G1 X40.887 Y-2.699 E0.0249
G1 X48.758 Y5.172 E0.4258
G1 X48.758 Y4.521 E0.0249
G1 X40.887 Y-3.349 E0.4258
G1 X40.887 Y-3.888 E0.0206
G1 X40.999 Y-3.888 E0.0043
G1 X48.758 Y3.871 E0.4197
G1 X48.758 Y3.220 E0.0249
G1 X41.649 Y-3.888 E0.3845
G1 X42.300 Y-3.888 E0.0249
G1 X48.758 Y2.570 E0.3493
G1 X48.758 Y1.919 E0.0249
G1 X42.950 Y-3.888 E0.3141
G1 X43.601 Y-3.888 E0.0249
G1 X48.758 Y1.269 E0.2790
G1 X48.758 Y0.618 E0.0249
G1 X44.252 Y-3.888 E0.2438
G1 X44.902 Y-3.888 E0.0249
G1 X48.758 Y-0.032 E0.2086
G1 X48.758 Y-0.683 E0.0249
G1 X45.553 Y-3.888 E0.1734
G1 X46.203 Y-3.888 E0.0249
G1 X48.758 Y-1.333 E0.1382
G1 X48.758 Y-1.984 E0.0249
G1 X46.854 Y-3.888 E0.1030
G1 X47.504 Y-3.888 E0.0249
G1 X48.758 Y-2.634 E0.0678
G1 X48.758 Y-3.285 E0.0249
G1 X48.155 Y-3.888 E0.0326
G1 E-1.9000 F1200
; feature inner perimeter
G1 Z0.700 F1200
G1 X55.483 Y5.908 F9000
G1 Z0.200 F1200
G1 E1.9000 F1200
G1 X55.483 Y-4.233 E0.3879 F1800
G1 X64.044 Y-4.233 E0.3274
G1 X64.044 Y5.908 E0.3879
