; G-Code generated by Simplify3D(R) Version 4.1.2
; Apr 2, 2020 at 1:55:11 PM
; Settings Summary
;   processName,Process1
;   applyToModels,Donut Heaven V1R2JV,Donut Heaven V1R2JV(2)
;   profileName,MakerBot Replicator 2 HBP (modified)
;   profileVersion,2020-03-12 10:48:50
;   baseProfile,MakerBot Replicator 2(2)
;   printMaterial,PLA
;   printQuality,Medium
;   printExtruders,
;   extruderName,Primary Extruder
;   extruderToolheadNumber,0
;   extruderDiameter,0.4
;   extruderAutoWidth,0
;   extruderWidth,0.4
;   extrusionMultiplier,1
;   extruderUseRetract,1
;   extruderRetractionDistance,1.9
;   extruderExtraRestartDistance,0
;   extruderRetractionZLift,0.5
;   extruderRetractionSpeed,1200
;   extruderUseCoasting,0
;   extruderCoastingDistance,0.2
;   extruderUseWipe,0
;   extruderWipeDistance,5
;   primaryExtruder,0
;   layerHeight,0.2
;   topSolidLayers,3
;   bottomSolidLayers,3
;   perimeterOutlines,2
;   printPerimetersInsideOut,1
;   startPointOption,3
;   startPointOriginX,0
;   startPointOriginY,150
;   sequentialIslands,0
;   spiralVaseMode,0
;   firstLayerHeightPercentage,100
;   firstLayerWidthPercentage,115
;   firstLayerUnderspeed,0.5
;   useRaft,0
;   raftExtruder,0
;   raftTopLayers,2
;   raftBaseLayers,1
;   raftOffset,1
;   raftSeparationDistance,0.14
;   raftTopInfill,90
;   aboveRaftSpeedMultiplier,0.3
;   useSkirt,0
;   skirtExtruder,0
;   skirtLayers,1
;   skirtOutlines,5
;   skirtOffset,0
;   usePrimePillar,0
;   primePillarExtruder,999
;   primePillarWidth,12
;   primePillarLocation,7
;   primePillarSpeedMultiplier,1
;   useOozeShield,0
;   oozeShieldExtruder,999
;   oozeShieldOffset,2
;   oozeShieldOutlines,1
;   oozeShieldSidewallShape,1
;   oozeShieldSidewallAngle,30
;   oozeShieldSpeedMultiplier,1
;   infillExtruder,0
;   internalInfillPattern,Rectilinear
;   externalInfillPattern,Rectilinear
;   infillPercentage,15
;   outlineOverlapPercentage,25
;   infillExtrusionWidthPercentage,100
;   minInfillLength,5
;   infillLayerInterval,1
;   internalInfillAngles,45,-45
;   overlapInternalInfillAngles,0
;   externalInfillAngles,45,-45
;   generateSupport,1
;   supportExtruder,0
;   supportInfillPercentage,30
;   supportExtraInflation,0.5
;   supportBaseLayers,0
;   denseSupportExtruder,0
;   denseSupportLayers,2
;   denseSupportInfillPercentage,90
;   supportLayerInterval,1
;   supportHorizontalPartOffset,0.3
;   supportUpperSeparationLayers,1
;   supportLowerSeparationLayers,1
;   supportType,1
;   supportGridSpacing,2
;   maxOverhangAngle,45
;   supportAngles,45,-45
;   temperatureName,Primary Extruder,Heated Build Platform
;   temperatureNumber,0,0
;   temperatureSetpointCount,1,1
;   temperatureSetpointLayers,1,1
;   temperatureSetpointTemperatures,230,60
;   temperatureStabilizeAtStartup,1,1
;   temperatureHeatedBed,0,1
;   fanLayers,1,2
;   fanSpeeds,0,100
;   blipFanToFullPower,1
;   adjustSpeedForCooling,1
;   minSpeedLayerTime,15
;   minCoolingSpeedSlowdown,20
;   increaseFanForCooling,1
;   minFanLayerTime,45
;   maxCoolingFanSpeed,100
;   increaseFanForBridging,1
;   bridgingFanSpeed,100
;   use5D,1
;   relativeEdistances,1
;   allowEaxisZeroing,0
;   independentExtruderAxes,1
;   includeM10123,0
;   stickySupport,1
;   applyToolheadOffsets,0
;   gcodeXoffset,0
;   gcodeYoffset,0
;   gcodeZoffset,0
;   overrideMachineDefinition,1
;   machineTypeOverride,0
;   strokeXoverride,280
;   strokeYoverride,150
;   strokeZoverride,150
;   originOffsetXoverride,140
;   originOffsetYoverride,75
;   originOffsetZoverride,0
;   homeXdirOverride,1
;   homeYdirOverride,1
;   homeZdirOverride,-1
;   flipXoverride,1
;   flipYoverride,-1
;   flipZoverride,1
;   toolheadOffsets,0,0|0,0|0,0|0,0|0,0|0,0
;   overrideFirmwareConfiguration,1
;   firmwareTypeOverride,MakerBot/Sailfish Firmware
;   GPXconfigOverride,r2h
;   baudRateOverride,115200
;   overridePrinterModels,1
;   printerModelsOverride,MakerBot_Replicator2.stl
;   startingGcode,; **** Replicator 2 start.gcode ****,M73 P0 ; enable build progress,G162 X Y F3000 ; home XY maximum,G161 Z F1200 ; home Z minimum,G92 Z-5 ; set Z to -5,G1 Z0 ; move Z to 0,G161 Z F100 ; home Z slowly,M132 X Y Z A B ; recall home offsets,G1 X-145 Y-75 Z30 F9000 ; move to wait position off table,G130 X20 Y20 Z20 A20 B20 ; lower stepper Vrefs while heating,M126 S[fan_speed_pwm],M140 S[bed0_temperature] T0,M134 T0 ; stabilize bed temperature,M104 S[extruder0_temperature] T0,M133 T0 ; stabilize extruder temperature,G130 X127 Y127 Z40 A127 B127 ; default stepper Vrefs,G92 A0 ; zero extruder,G1 Z0.4 ; position nozzle,G1 E25 F300 ; purge nozzle,G1 X-140 Y-70 Z0.15 F1200 ; slow wipe,G1 X-135 Y-65 Z0.5 F1200 ; lift,G92 A0 ; zero extruder,M73 P1 ;@body (notify GPX body has started),; **** end of start.gcode ****
;   layerChangeGcode,
;   retractionGcode,
;   toolChangeGcode,
;   endingGcode,; **** Replicator 2 end.gcode ****,M73 P100 ; end build progress,G1 Z155 F1000 ; send Z axis to bottom of machine,M104 S0 T0 ; cool down extruder,M140 S0 T0 ; cool down HBP,M127 ; stop blower fan,G162 X Y F3000 ; home XY maximum,M18 ; disable stepper,M0 ; stop codes,M72 P1 ; play Ta-Da song,; **** end of end.gcode ****
;   exportFileFormat,gcode
;   celebration,0
;   celebrationSong,Random Song
;   postProcessing,
;   defaultSpeed,4800
;   outlineUnderspeed,0.5
;   solidInfillUnderspeed,1
;   supportUnderspeed,1
;   rapidXYspeed,9000
;   rapidZspeed,1200
;   minBridgingArea,50
;   bridgingExtraInflation,0
;   bridgingExtrusionMultiplier,1
;   bridgingSpeedMultiplier,0.8
;   useFixedBridgingAngle,0
;   fixedBridgingAngle,0
;   applyBridgingToPerimeters,0
;   filamentDiameters,1.75|1.75|1.75|1.75|1.75|1.75
;   filamentPricesPerKg,46|46|46|46|46|46
;   filamentDensities,1.25|1.25|1.25|1.25|1.25|1.25
;   useMinPrintHeight,0
;   minPrintHeight,0
;   useMaxPrintHeight,0
;   maxPrintHeight,4.84
;   useDiaphragm,0
;   diaphragmLayerInterval,20
;   robustSlicing,1
;   mergeAllIntoSolid,0
;   onlyRetractWhenCrossingOutline,0
;   retractBetweenLayers,0
;   useRetractionMinTravel,1
;   retractionMinTravel,7
;   retractWhileWiping,1
;   onlyWipeOutlines,1
;   avoidCrossingOutline,0
;   maxMovementDetourFactor,3
;   toolChangeRetractionDistance,12
;   toolChangeExtraRestartDistance,-0.5
;   toolChangeRetractionSpeed,600
;   externalThinWallType,0
;   internalThinWallType,0
;   thinWallAllowedOverlapPercentage,10
;   singleExtrusionMinLength,1
;   singleExtrusionMinPrintingWidthPercentage,50
;   singleExtrusionMaxPrintingWidthPercentage,200
;   singleExtrusionEndpointExtension,0.2
;   horizontalSizeCompensation,0
G90
M83
; **** Replicator 2 start.gcode ****
M73 P0 ; enable build progress
G162 X Y F3000 ; home XY maximum
G161 Z F1200 ; home Z minimum
G92 Z-5 ; set Z to -5
G1 Z0 ; move Z to 0
G161 Z F100 ; home Z slowly
M132 X Y Z A B ; recall home offsets
G1 X-145 Y-75 Z30 F9000 ; move to wait position off table
G130 X20 Y20 Z20 A20 B20 ; lower stepper Vrefs while heating
M127
M140 S60 T0
M134 T0 ; stabilize bed temperature
M104 S230 T0
M133 T0 ; stabilize extruder temperature
G130 X127 Y127 Z40 A127 B127 ; default stepper Vrefs
G92 A0 ; zero extruder
G1 Z0.4 ; position nozzle
G1 E25 F300 ; purge nozzle
G1 X-140 Y-70 Z0.15 F1200 ; slow wipe
G1 X-135 Y-65 Z0.5 F1200 ; lift
G92 A0 ; zero extruder
M73 P1 ;@body (notify GPX body has started)
; **** end of start.gcode ****
; process Process1
; layer 1, Z = 0.200
M135 T0
G1 E-1.9000 F1200
; feature inner perimeter
; tool H0.200 W0.460
G1 Z0.500 F1200
G1 X69.711 Y-3.190 F9000
G1 Z0.200 F1200
G1 E1.9000 F1200
G1 X-69.711 Y-3.190 E5.3328 F1800
G1 X-69.711 Y-53.335 E1.9180
G1 X69.711 Y-53.335 E5.3328
G1 X69.711 Y-3.190 E1.9180
; feature outer perimeter
G1 X70.171 Y-2.730 F9000
G1 X-70.171 Y-2.730 E5.3680 F1200
G1 X-70.171 Y-53.795 E1.9532
G1 X70.171 Y-53.795 E5.3680
G1 X70.171 Y-2.730 E1.9532
; feature inner perimeter
G1 X69.587 Y-3.309 F9000
G1 X69.587 Y-51.706 E1.8511 F1800
G1 X-69.587 Y-51.706 E5.3233
G1 X-69.587 Y-3.309 E1.8511
G1 X69.587 Y-3.309 E5.3233
; feature outer perimeter
G1 X69.127 Y-3.769 F9000
G1 X69.127 Y-51.246 E1.8159 F1200
G1 X-69.127 Y-51.246 E5.2881
G1 X-69.127 Y-3.769 E1.8159
G1 X69.127 Y-3.769 E5.2881
G1 E-1.9000 F1200
; feature solid layer
G1 Z0.700 F1200
G1 X69.311 Y-52.990 F9000
G1 Z0.200 F1200
G1 E1.9000 F1200
G1 X69.366 Y-52.935 E0.0030 F2400
G1 X69.366 Y-52.284 E0.0249
G1 X68.660 Y-52.990 E0.0382
G1 X68.010 Y-52.990 E0.0249
G1 X68.950 Y-52.051 E0.0508
G1 X68.299 Y-52.051 E0.0249
G1 X67.359 Y-52.990 E0.0508
G1 X66.709 Y-52.990 E0.0249
G1 X67.648 Y-52.051 E0.0508
G1 X66.998 Y-52.051 E0.0249
G1 X66.058 Y-52.990 E0.0508
G1 X65.408 Y-52.990 E0.0249
G1 X66.347 Y-52.051 E0.0508
G1 X65.697 Y-52.051 E0.0249
G1 X64.757 Y-52.990 E0.0508
G1 X64.107 Y-52.990 E0.0249
G1 X65.046 Y-52.051 E0.0508
G1 X64.396 Y-52.051 E0.0249
G1 X63.456 Y-52.990 E0.0508
G1 X62.806 Y-52.990 E0.0249
G1 X63.745 Y-52.051 E0.0508
G1 X63.095 Y-52.051 E0.0249
G1 X62.155 Y-52.990 E0.0508
G1 X61.505 Y-52.990 E0.0249
G1 X62.444 Y-52.051 E0.0508
G1 X61.794 Y-52.051 E0.0249
G1 X60.854 Y-52.990 E0.0508
G1 X60.203 Y-52.990 E0.0249
G1 X61.143 Y-52.051 E0.0508
G1 X60.493 Y-52.051 E0.0249
G1 X59.553 Y-52.990 E0.0508
G1 X58.902 Y-52.990 E0.0249
G1 X59.842 Y-52.051 E0.0508
G1 X59.191 Y-52.051 E0.0249
G1 X58.252 Y-52.990 E0.0508
G1 X57.601 Y-52.990 E0.0249
G1 X58.541 Y-52.051 E0.0508
G1 X57.890 Y-52.051 E0.0249
G1 X56.951 Y-52.990 E0.0508
G1 X56.300 Y-52.990 E0.0249
G1 X57.240 Y-52.051 E0.0508
G1 X56.589 Y-52.051 E0.0249
G1 X55.650 Y-52.990 E0.0508
G1 X54.999 Y-52.990 E0.0249
G1 X55.939 Y-52.051 E0.0508
G1 X55.288 Y-52.051 E0.0249
G1 X54.349 Y-52.990 E0.0508
G1 X53.698 Y-52.990 E0.0249
G1 X54.638 Y-52.051 E0.0508
G1 X53.987 Y-52.051 E0.0249
G1 X53.048 Y-52.990 E0.0508
G1 X52.397 Y-52.990 E0.0249
G1 X53.337 Y-52.051 E0.0508
G1 X52.686 Y-52.051 E0.0249
G1 X51.746 Y-52.990 E0.0508
G1 X51.096 Y-52.990 E0.0249
G1 X52.036 Y-52.051 E0.0508
G1 X51.385 Y-52.051 E0.0249
G1 X50.445 Y-52.990 E0.0508
G1 X49.795 Y-52.990 E0.0249
G1 X50.734 Y-52.051 E0.0508
G1 X50.084 Y-52.051 E0.0249
G1 X49.144 Y-52.990 E0.0508
G1 X48.494 Y-52.990 E0.0249
G1 X49.433 Y-52.051 E0.0508
G1 X48.783 Y-52.051 E0.0249
G1 X47.843 Y-52.990 E0.0508
G1 X47.193 Y-52.990 E0.0249
G1 X48.132 Y-52.051 E0.0508
G1 X47.482 Y-52.051 E0.0249
G1 X46.542 Y-52.990 E0.0508
G1 X45.892 Y-52.990 E0.0249
G1 X46.831 Y-52.051 E0.0508
G1 X46.181 Y-52.051 E0.0249
G1 X45.241 Y-52.990 E0.0508
G1 X44.591 Y-52.990 E0.0249
G1 X45.530 Y-52.051 E0.0508
G1 X44.880 Y-52.051 E0.0249
G1 X43.940 Y-52.990 E0.0508
G1 X43.289 Y-52.990 E0.0249
G1 X44.229 Y-52.051 E0.0508
G1 X43.579 Y-52.051 E0.0249
G1 X42.639 Y-52.990 E0.0508
G1 X41.988 Y-52.990 E0.0249
G1 X42.928 Y-52.051 E0.0508
G1 X42.277 Y-52.051 E0.0249
G1 X41.338 Y-52.990 E0.0508
G1 X40.687 Y-52.990 E0.0249
G1 X41.627 Y-52.051 E0.0508
G1 X40.976 Y-52.051 E0.0249
G1 X40.037 Y-52.990 E0.0508
G1 X39.386 Y-52.990 E0.0249
G1 X40.326 Y-52.051 E0.0508
G1 X39.675 Y-52.051 E0.0249
G1 X38.736 Y-52.990 E0.0508
G1 X38.085 Y-52.990 E0.0249
G1 X39.025 Y-52.051 E0.0508
G1 X38.374 Y-52.051 E0.0249
G1 X37.435 Y-52.990 E0.0508
G1 X36.784 Y-52.990 E0.0249
G1 X37.724 Y-52.051 E0.0508
G1 X37.073 Y-52.051 E0.0249
G1 X36.134 Y-52.990 E0.0508
G1 X35.483 Y-52.990 E0.0249
G1 X36.423 Y-52.051 E0.0508
G1 X35.772 Y-52.051 E0.0249
G1 X34.832 Y-52.990 E0.0508
G1 X34.182 Y-52.990 E0.0249
G1 X35.122 Y-52.051 E0.0508
G1 X34.471 Y-52.051 E0.0249
G1 X33.531 Y-52.990 E0.0508
G1 X32.881 Y-52.990 E0.0249
G1 X33.820 Y-52.051 E0.0508
G1 X33.170 Y-52.051 E0.0249
G1 X32.230 Y-52.990 E0.0508
G1 X31.580 Y-52.990 E0.0249
G1 X32.519 Y-52.051 E0.0508
G1 X31.869 Y-52.051 E0.0249
G1 X30.929 Y-52.990 E0.0508
G1 X30.279 Y-52.990 E0.0249
G1 X31.218 Y-52.051 E0.0508
G1 X30.568 Y-52.051 E0.0249
G1 X29.628 Y-52.990 E0.0508
G1 X28.978 Y-52.990 E0.0249
G1 X29.917 Y-52.051 E0.0508
G1 X29.267 Y-52.051 E0.0249
G1 X28.327 Y-52.990 E0.0508
G1 X27.677 Y-52.990 E0.0249
G1 X28.616 Y-52.051 E0.0508
G1 X27.966 Y-52.051 E0.0249
G1 X27.026 Y-52.990 E0.0508
G1 X26.375 Y-52.990 E0.0249
G1 X27.315 Y-52.051 E0.0508
G1 X26.665 Y-52.051 E0.0249
G1 X25.725 Y-52.990 E0.0508
G1 X25.074 Y-52.990 E0.0249
G1 X26.014 Y-52.051 E0.0508
G1 X25.363 Y-52.051 E0.0249
G1 X24.424 Y-52.990 E0.0508
G1 X23.773 Y-52.990 E0.0249
G1 X24.713 Y-52.051 E0.0508
G1 X24.062 Y-52.051 E0.0249
G1 X23.123 Y-52.990 E0.0508
G1 X22.472 Y-52.990 E0.0249
G1 X23.412 Y-52.051 E0.0508
G1 X22.761 Y-52.051 E0.0249
G1 X21.822 Y-52.990 E0.0508
G1 X21.171 Y-52.990 E0.0249
G1 X22.111 Y-52.051 E0.0508
G1 X21.460 Y-52.051 E0.0249
G1 X20.521 Y-52.990 E0.0508
G1 X19.870 Y-52.990 E0.0249
G1 X20.810 Y-52.051 E0.0508
G1 X20.159 Y-52.051 E0.0249
G1 X19.220 Y-52.990 E0.0508
G1 X18.569 Y-52.990 E0.0249
G1 X19.509 Y-52.051 E0.0508
G1 X18.858 Y-52.051 E0.0249
G1 X17.918 Y-52.990 E0.0508
G1 X17.268 Y-52.990 E0.0249
G1 X18.208 Y-52.051 E0.0508
G1 X17.557 Y-52.051 E0.0249
G1 X16.617 Y-52.990 E0.0508
G1 X15.967 Y-52.990 E0.0249
G1 X16.906 Y-52.051 E0.0508
G1 X16.256 Y-52.051 E0.0249
G1 X15.316 Y-52.990 E0.0508
G1 X14.666 Y-52.990 E0.0249
G1 X15.605 Y-52.051 E0.0508
G1 X14.955 Y-52.051 E0.0249
G1 X14.015 Y-52.990 E0.0508
G1 X13.365 Y-52.990 E0.0249
G1 X14.304 Y-52.051 E0.0508
G1 X13.654 Y-52.051 E0.0249
G1 X12.714 Y-52.990 E0.0508
G1 X12.064 Y-52.990 E0.0249
G1 X13.003 Y-52.051 E0.0508
G1 X12.353 Y-52.051 E0.0249
G1 X11.413 Y-52.990 E0.0508
G1 X10.763 Y-52.990 E0.0249
G1 X11.702 Y-52.051 E0.0508
G1 X11.052 Y-52.051 E0.0249
G1 X10.112 Y-52.990 E0.0508
G1 X9.461 Y-52.990 E0.0249
G1 X10.401 Y-52.051 E0.0508
G1 X9.751 Y-52.051 E0.0249
G1 X8.811 Y-52.990 E0.0508
G1 X8.160 Y-52.990 E0.0249
G1 X9.100 Y-52.051 E0.0508
G1 X8.449 Y-52.051 E0.0249
G1 X7.510 Y-52.990 E0.0508
G1 X6.859 Y-52.990 E0.0249
G1 X7.799 Y-52.051 E0.0508
G1 X7.148 Y-52.051 E0.0249
G1 X6.209 Y-52.990 E0.0508
G1 X5.558 Y-52.990 E0.0249
G1 X6.498 Y-52.051 E0.0508
G1 X5.847 Y-52.051 E0.0249
G1 X4.908 Y-52.990 E0.0508
G1 X4.257 Y-52.990 E0.0249
G1 X5.197 Y-52.051 E0.0508
G1 X4.546 Y-52.051 E0.0249
G1 X3.607 Y-52.990 E0.0508
G1 X2.956 Y-52.990 E0.0249
G1 X3.896 Y-52.051 E0.0508
G1 X3.245 Y-52.051 E0.0249
G1 X2.306 Y-52.990 E0.0508
G1 X1.655 Y-52.990 E0.0249
G1 X2.595 Y-52.051 E0.0508
G1 X1.944 Y-52.051 E0.0249
G1 X1.004 Y-52.990 E0.0508
G1 X0.354 Y-52.990 E0.0249
G1 X1.294 Y-52.051 E0.0508
G1 X0.643 Y-52.051 E0.0249
G1 X-0.297 Y-52.990 E0.0508
G1 X-0.947 Y-52.990 E0.0249
G1 X-0.008 Y-52.051 E0.0508
G1 X-0.658 Y-52.051 E0.0249
G1 X-1.598 Y-52.990 E0.0508
G1 X-2.248 Y-52.990 E0.0249
G1 X-1.309 Y-52.051 E0.0508
G1 X-1.959 Y-52.051 E0.0249
G1 X-2.899 Y-52.990 E0.0508
G1 X-3.549 Y-52.990 E0.0249
G1 X-2.610 Y-52.051 E0.0508
G1 X-3.260 Y-52.051 E0.0249
G1 X-4.200 Y-52.990 E0.0508
G1 X-4.850 Y-52.990 E0.0249
G1 X-3.911 Y-52.051 E0.0508
G1 X-4.561 Y-52.051 E0.0249
G1 X-5.501 Y-52.990 E0.0508
G1 X-6.151 Y-52.990 E0.0249
G1 X-5.212 Y-52.051 E0.0508
G1 X-5.862 Y-52.051 E0.0249
G1 X-6.802 Y-52.990 E0.0508
G1 X-7.453 Y-52.990 E0.0249
G1 X-6.513 Y-52.051 E0.0508
G1 X-7.163 Y-52.051 E0.0249
G1 X-8.103 Y-52.990 E0.0508
G1 X-8.754 Y-52.990 E0.0249
G1 X-7.814 Y-52.051 E0.0508
G1 X-8.465 Y-52.051 E0.0249
G1 X-9.404 Y-52.990 E0.0508
G1 X-10.055 Y-52.990 E0.0249
G1 X-9.115 Y-52.051 E0.0508
G1 X-9.766 Y-52.051 E0.0249
G1 X-10.705 Y-52.990 E0.0508
G1 X-11.356 Y-52.990 E0.0249
G1 X-10.416 Y-52.051 E0.0508
G1 X-11.067 Y-52.051 E0.0249
G1 X-12.006 Y-52.990 E0.0508
G1 X-12.657 Y-52.990 E0.0249
G1 X-11.717 Y-52.051 E0.0508
G1 X-12.368 Y-52.051 E0.0249
G1 X-13.307 Y-52.990 E0.0508
G1 X-13.958 Y-52.990 E0.0249
G1 X-13.018 Y-52.051 E0.0508
G1 X-13.669 Y-52.051 E0.0249
G1 X-14.608 Y-52.990 E0.0508
G1 X-15.259 Y-52.990 E0.0249
G1 X-14.319 Y-52.051 E0.0508
G1 X-14.970 Y-52.051 E0.0249
G1 X-15.910 Y-52.990 E0.0508
G1 X-16.560 Y-52.990 E0.0249
G1 X-15.620 Y-52.051 E0.0508
G1 X-16.271 Y-52.051 E0.0249
G1 X-17.211 Y-52.990 E0.0508
G1 X-17.861 Y-52.990 E0.0249
G1 X-16.922 Y-52.051 E0.0508
G1 X-17.572 Y-52.051 E0.0249
G1 X-18.512 Y-52.990 E0.0508
G1 X-19.162 Y-52.990 E0.0249
G1 X-18.223 Y-52.051 E0.0508
G1 X-18.873 Y-52.051 E0.0249
G1 X-19.813 Y-52.990 E0.0508
G1 X-20.463 Y-52.990 E0.0249
