; G-Code generated by Simplify3D(R) Version 4.1.2
; Apr 2, 2020 at 1:56:10 PM
; Settings Summary
;   processName,Process1
;   applyToModels,DH sign,DH sign(2),DH sign(3),DH sign(2)(2)
;   profileName,MakerBot Replicator 2 HBP (modified)
;   profileVersion,2020-03-12 10:48:50
;   baseProfile,MakerBot Replicator 2(2)
;   printMaterial,PLA
;   printQuality,Medium
;   printExtruders,
;   extruderName,Primary Extruder
;   extruderToolheadNumber,0
;   extruderDiameter,0.4
;   extruderAutoWidth,0
;   extruderWidth,0.4
;   extrusionMultiplier,1
;   extruderUseRetract,1
;   extruderRetractionDistance,1.9
;   extruderExtraRestartDistance,0
;   extruderRetractionZLift,0.5
;   extruderRetractionSpeed,1200
;   extruderUseCoasting,0
;   extruderCoastingDistance,0.2
;   extruderUseWipe,0
;   extruderWipeDistance,5
;   primaryExtruder,0
;   layerHeight,0.2
;   topSolidLayers,3
;   bottomSolidLayers,3
;   perimeterOutlines,2
;   printPerimetersInsideOut,1
;   startPointOption,3
;   startPointOriginX,0
;   startPointOriginY,150
;   sequentialIslands,0
;   spiralVaseMode,0
;   firstLayerHeightPercentage,100
;   firstLayerWidthPercentage,115
;   firstLayerUnderspeed,0.5
;   useRaft,0
;   raftExtruder,0
;   raftTopLayers,2
;   raftBaseLayers,1
;   raftOffset,1
;   raftSeparationDistance,0.14
;   raftTopInfill,90
;   aboveRaftSpeedMultiplier,0.3
;   useSkirt,0
;   skirtExtruder,0
;   skirtLayers,1
;   skirtOutlines,5
;   skirtOffset,0
;   usePrimePillar,0
;   primePillarExtruder,999
;   primePillarWidth,12
;   primePillarLocation,7
;   primePillarSpeedMultiplier,1
;   useOozeShield,0
;   oozeShieldExtruder,999
;   oozeShieldOffset,2
;   oozeShieldOutlines,1
;   oozeShieldSidewallShape,1
;   oozeShieldSidewallAngle,30
;   oozeShieldSpeedMultiplier,1
;   infillExtruder,0
;   internalInfillPattern,Rectilinear
;   externalInfillPattern,Rectilinear
;   infillPercentage,15
;   outlineOverlapPercentage,25
;   infillExtrusionWidthPercentage,100
;   minInfillLength,5
;   infillLayerInterval,1
;   internalInfillAngles,45,-45
;   overlapInternalInfillAngles,0
;   externalInfillAngles,45,-45
;   generateSupport,1
;   supportExtruder,0
;   supportInfillPercentage,30
;   supportExtraInflation,0.5
;   supportBaseLayers,0
;   denseSupportExtruder,0
;   denseSupportLayers,2
;   denseSupportInfillPercentage,90
;   supportLayerInterval,1
;   supportHorizontalPartOffset,0.3
;   supportUpperSeparationLayers,1
;   supportLowerSeparationLayers,1
;   supportType,1
;   supportGridSpacing,2
;   maxOverhangAngle,45
;   supportAngles,45,-45
;   temperatureName,Primary Extruder,Heated Build Platform
;   temperatureNumber,0,0
;   temperatureSetpointCount,1,1
;   temperatureSetpointLayers,1,1
;   temperatureSetpointTemperatures,230,60
;   temperatureStabilizeAtStartup,1,1
;   temperatureHeatedBed,0,1
;   fanLayers,1,2
;   fanSpeeds,0,100
;   blipFanToFullPower,1
;   adjustSpeedForCooling,1
;   minSpeedLayerTime,15
;   minCoolingSpeedSlowdown,20
;   increaseFanForCooling,1
;   minFanLayerTime,45
;   maxCoolingFanSpeed,100
;   increaseFanForBridging,1
;   bridgingFanSpeed,100
;   use5D,1
;   relativeEdistances,1
;   allowEaxisZeroing,0
;   independentExtruderAxes,1
;   includeM10123,0
;   stickySupport,1
;   applyToolheadOffsets,0
;   gcodeXoffset,0
;   gcodeYoffset,0
;   gcodeZoffset,0
;   overrideMachineDefinition,1
;   machineTypeOverride,0
;   strokeXoverride,280
;   strokeYoverride,150
;   strokeZoverride,150
;   originOffsetXoverride,140
;   originOffsetYoverride,75
;   originOffsetZoverride,0
;   homeXdirOverride,1
;   homeYdirOverride,1
;   homeZdirOverride,-1
;   flipXoverride,1
;   flipYoverride,-1
;   flipZoverride,1
;   toolheadOffsets,0,0|0,0|0,0|0,0|0,0|0,0
;   overrideFirmwareConfiguration,1
;   firmwareTypeOverride,MakerBot/Sailfish Firmware
;   GPXconfigOverride,r2h
;   baudRateOverride,115200
;   overridePrinterModels,1
;   printerModelsOverride,MakerBot_Replicator2.stl
;   startingGcode,; **** Replicator 2 start.gcode ****,M73 P0 ; enable build progress,G162 X Y F3000 ; home XY maximum,G161 Z F1200 ; home Z minimum,G92 Z-5 ; set Z to -5,G1 Z0 ; move Z to 0,G161 Z F100 ; home Z slowly,M132 X Y Z A B ; recall home offsets,G1 X-145 Y-75 Z30 F9000 ; move to wait position off table,G130 X20 Y20 Z20 A20 B20 ; lower stepper Vrefs while heating,M126 S[fan_speed_pwm],M140 S[bed0_temperature] T0,M134 T0 ; stabilize bed temperature,M104 S[extruder0_temperature] T0,M133 T0 ; stabilize extruder temperature,G130 X127 Y127 Z40 A127 B127 ; default stepper Vrefs,G92 A0 ; zero extruder,G1 Z0.4 ; position nozzle,G1 E25 F300 ; purge nozzle,G1 X-140 Y-70 Z0.15 F1200 ; slow wipe,G1 X-135 Y-65 Z0.5 F1200 ; lift,G92 A0 ; zero extruder,M73 P1 ;@body (notify GPX body has started),; **** end of start.gcode ****
;   layerChangeGcode,
;   retractionGcode,
;   toolChangeGcode,
;   endingGcode,; **** Replicator 2 end.gcode ****,M73 P100 ; end build progress,G1 Z155 F1000 ; send Z axis to bottom of machine,M104 S0 T0 ; cool down extruder,M140 S0 T0 ; cool down HBP,M127 ; stop blower fan,G162 X Y F3000 ; home XY maximum,M18 ; disable stepper,M0 ; stop codes,M72 P1 ; play Ta-Da song,; **** end of end.gcode ****
;   exportFileFormat,gcode
;   celebration,0
;   celebrationSong,Random Song
;   postProcessing,
;   defaultSpeed,4800
;   outlineUnderspeed,0.5
;   solidInfillUnderspeed,1
;   supportUnderspeed,1
;   rapidXYspeed,9000
;   rapidZspeed,1200
;   minBridgingArea,50
;   bridgingExtraInflation,0
;   bridgingExtrusionMultiplier,1
;   bridgingSpeedMultiplier,0.8
;   useFixedBridgingAngle,0
;   fixedBridgingAngle,0
;   applyBridgingToPerimeters,0
;   filamentDiameters,1.75|1.75|1.75|1.75|1.75|1.75
;   filamentPricesPerKg,46|46|46|46|46|46
;   filamentDensities,1.25|1.25|1.25|1.25|1.25|1.25
;   useMinPrintHeight,0
;   minPrintHeight,0
;   useMaxPrintHeight,0
;   maxPrintHeight,4.84
;   useDiaphragm,0
;   diaphragmLayerInterval,20
;   robustSlicing,1
;   mergeAllIntoSolid,0
;   onlyRetractWhenCrossingOutline,0
;   retractBetweenLayers,0
;   useRetractionMinTravel,1
;   retractionMinTravel,7
;   retractWhileWiping,1
;   onlyWipeOutlines,1
;   avoidCrossingOutline,0
;   maxMovementDetourFactor,3
;   toolChangeRetractionDistance,12
;   toolChangeExtraRestartDistance,-0.5
;   toolChangeRetractionSpeed,600
;   externalThinWallType,0
;   internalThinWallType,0
;   thinWallAllowedOverlapPercentage,10
;   singleExtrusionMinLength,1
;   singleExtrusionMinPrintingWidthPercentage,50
;   singleExtrusionMaxPrintingWidthPercentage,200
;   singleExtrusionEndpointExtension,0.2
;   horizontalSizeCompensation,0
G90
M83
; **** Replicator 2 start.gcode ****
M73 P0 ; enable build progress
G162 X Y F3000 ; home XY maximum
G161 Z F1200 ; home Z minimum
G92 Z-5 ; set Z to -5
G1 Z0 ; move Z to 0
G161 Z F100 ; home Z slowly
M132 X Y Z A B ; recall home offsets
G1 X-145 Y-75 Z30 F9000 ; move to wait position off table
G130 X20 Y20 Z20 A20 B20 ; lower stepper Vrefs while heating
M127
M140 S60 T0
M134 T0 ; stabilize bed temperature
M104 S230 T0
M133 T0 ; stabilize extruder temperature
G130 X127 Y127 Z40 A127 B127 ; default stepper Vrefs
G92 A0 ; zero extruder
G1 Z0.4 ; position nozzle
G1 E25 F300 ; purge nozzle
G1 X-140 Y-70 Z0.15 F1200 ; slow wipe
G1 X-135 Y-65 Z0.5 F1200 ; lift
G92 A0 ; zero extruder
M73 P1 ;@body (notify GPX body has started)
; **** end of start.gcode ****
; process Process1
; layer 1, Z = 0.200
M135 T0
G1 E-1.9000 F1200
; feature inner perimeter
; tool H0.200 W0.460
G1 Z0.500 F1200
G1 X33.060 Y14.810 F9000
G1 Z0.200 F1200
G1 E1.9000 F1200
G1 X-33.060 Y14.810 E2.5290 F1800
G1 X-33.060 Y3.190 E0.4445
G1 X33.060 Y3.190 E2.5290
G1 X33.060 Y14.810 E0.4445
; feature outer perimeter
G1 X33.520 Y15.270 F9000
G1 X-33.520 Y15.270 E2.5642 F1200
G1 X-33.520 Y2.730 E0.4796
G1 X33.520 Y2.730 E2.5642
G1 X33.520 Y15.270 E0.4796
G1 E-1.9000 F1200
; feature solid layer
G1 Z0.700 F1200
G1 X32.159 Y3.535 F9000
G1 Z0.200 F1200
G1 E1.9000 F1200
G1 X32.715 Y4.091 E0.0301 F2400
G1 X32.715 Y4.742 E0.0249
G1 X31.508 Y3.535 E0.0653
G1 X30.858 Y3.535 E0.0249
G1 X32.715 Y5.392 E0.1005
G1 X32.715 Y6.043 E0.0249
G1 X30.207 Y3.535 E0.1357
G1 X29.557 Y3.535 E0.0249
G1 X32.715 Y6.693 E0.1708
G1 X32.715 Y7.344 E0.0249
G1 X28.906 Y3.535 E0.2060
G1 X28.255 Y3.535 E0.0249
G1 X32.715 Y7.995 E0.2412
G1 X32.715 Y8.645 E0.0249
G1 X27.605 Y3.535 E0.2764
G1 X26.954 Y3.535 E0.0249
G1 X32.715 Y9.296 E0.3116
G1 X32.715 Y9.946 E0.0249
G1 X26.304 Y3.535 E0.3468
G1 X25.653 Y3.535 E0.0249
G1 X32.715 Y10.597 E0.3820
G1 X32.715 Y11.247 E0.0249
G1 X25.003 Y3.535 E0.4172
G1 X24.352 Y3.535 E0.0249
G1 X32.715 Y11.898 E0.4524
G1 X32.715 Y12.548 E0.0249
G1 X23.702 Y3.535 E0.4876
G1 X23.051 Y3.535 E0.0249
G1 X32.715 Y13.199 E0.5227
G1 X32.715 Y13.849 E0.0249
G1 X22.401 Y3.535 E0.5579
G1 X21.750 Y3.535 E0.0249
G1 X32.680 Y14.465 E0.5912
G1 X32.030 Y14.465 E0.0249
G1 X21.100 Y3.535 E0.5912
G1 X20.449 Y3.535 E0.0249
G1 X31.379 Y14.465 E0.5912
G1 X30.728 Y14.465 E0.0249
G1 X19.798 Y3.535 E0.5912
G1 X19.148 Y3.535 E0.0249
G1 X30.078 Y14.465 E0.5912
G1 X29.427 Y14.465 E0.0249
G1 X18.497 Y3.535 E0.5912
G1 X17.847 Y3.535 E0.0249
G1 X28.777 Y14.465 E0.5912
G1 X28.126 Y14.465 E0.0249
G1 X17.196 Y3.535 E0.5912
G1 X16.546 Y3.535 E0.0249
G1 X27.476 Y14.465 E0.5912
G1 X26.825 Y14.465 E0.0249
G1 X15.895 Y3.535 E0.5912
G1 X15.245 Y3.535 E0.0249
G1 X26.175 Y14.465 E0.5912
G1 X25.524 Y14.465 E0.0249
G1 X14.594 Y3.535 E0.5912
G1 X13.944 Y3.535 E0.0249
G1 X24.874 Y14.465 E0.5912
G1 X24.223 Y14.465 E0.0249
G1 X13.293 Y3.535 E0.5912
G1 X12.643 Y3.535 E0.0249
G1 X23.573 Y14.465 E0.5912
G1 X22.922 Y14.465 E0.0249
G1 X11.992 Y3.535 E0.5912
G1 X11.341 Y3.535 E0.0249
G1 X22.271 Y14.465 E0.5912
G1 X21.621 Y14.465 E0.0249
G1 X10.691 Y3.535 E0.5912
G1 X10.040 Y3.535 E0.0249
G1 X20.970 Y14.465 E0.5912
G1 X20.320 Y14.465 E0.0249
G1 X9.390 Y3.535 E0.5912
G1 X8.739 Y3.535 E0.0249
G1 X19.669 Y14.465 E0.5912
G1 X19.019 Y14.465 E0.0249
G1 X8.089 Y3.535 E0.5912
G1 X7.438 Y3.535 E0.0249
G1 X18.368 Y14.465 E0.5912
G1 X17.718 Y14.465 E0.0249
G1 X6.788 Y3.535 E0.5912
G1 X6.137 Y3.535 E0.0249
G1 X17.067 Y14.465 E0.5912
G1 X16.417 Y14.465 E0.0249
G1 X5.487 Y3.535 E0.5912
G1 X4.836 Y3.535 E0.0249
G1 X15.766 Y14.465 E0.5912
G1 X15.116 Y14.465 E0.0249
G1 X4.186 Y3.535 E0.5912
G1 X3.535 Y3.535 E0.0249
G1 X14.465 Y14.465 E0.5912
G1 X13.814 Y14.465 E0.0249
G1 X2.884 Y3.535 E0.5912
G1 X2.234 Y3.535 E0.0249
G1 X13.164 Y14.465 E0.5912
G1 X12.513 Y14.465 E0.0249
G1 X1.583 Y3.535 E0.5912
G1 X0.933 Y3.535 E0.0249
G1 X11.863 Y14.465 E0.5912
G1 X11.212 Y14.465 E0.0249
G1 X0.282 Y3.535 E0.5912
G1 X-0.368 Y3.535 E0.0249
G1 X10.562 Y14.465 E0.5912
G1 X9.911 Y14.465 E0.0249
G1 X-1.019 Y3.535 E0.5912
G1 X-1.669 Y3.535 E0.0249
G1 X9.261 Y14.465 E0.5912
G1 X8.610 Y14.465 E0.0249
G1 X-2.320 Y3.535 E0.5912
G1 X-2.970 Y3.535 E0.0249
G1 X7.960 Y14.465 E0.5912
G1 X7.309 Y14.465 E0.0249
G1 X-3.621 Y3.535 E0.5912
G1 X-4.271 Y3.535 E0.0249
G1 X6.659 Y14.465 E0.5912
G1 X6.008 Y14.465 E0.0249
G1 X-4.922 Y3.535 E0.5912
G1 X-5.573 Y3.535 E0.0249
G1 X5.357 Y14.465 E0.5912
G1 X4.707 Y14.465 E0.0249
G1 X-6.223 Y3.535 E0.5912
G1 X-6.874 Y3.535 E0.0249
G1 X4.056 Y14.465 E0.5912
G1 X3.406 Y14.465 E0.0249
G1 X-7.524 Y3.535 E0.5912
G1 X-8.175 Y3.535 E0.0249
G1 X2.755 Y14.465 E0.5912
G1 X2.105 Y14.465 E0.0249
G1 X-8.825 Y3.535 E0.5912
G1 X-9.476 Y3.535 E0.0249
G1 X1.454 Y14.465 E0.5912
G1 X0.804 Y14.465 E0.0249
G1 X-10.126 Y3.535 E0.5912
G1 X-10.777 Y3.535 E0.0249
G1 X0.153 Y14.465 E0.5912
G1 X-0.497 Y14.465 E0.0249
G1 X-11.427 Y3.535 E0.5912
G1 X-12.078 Y3.535 E0.0249
G1 X-1.148 Y14.465 E0.5912
G1 X-1.798 Y14.465 E0.0249
G1 X-12.728 Y3.535 E0.5912
G1 X-13.379 Y3.535 E0.0249
G1 X-2.449 Y14.465 E0.5912
G1 X-3.100 Y14.465 E0.0249
G1 X-14.030 Y3.535 E0.5912
G1 X-14.680 Y3.535 E0.0249
G1 X-3.750 Y14.465 E0.5912
G1 X-4.401 Y14.465 E0.0249
G1 X-15.331 Y3.535 E0.5912
G1 X-15.981 Y3.535 E0.0249
G1 X-5.051 Y14.465 E0.5912
G1 X-5.702 Y14.465 E0.0249
G1 X-16.632 Y3.535 E0.5912
G1 X-17.282 Y3.535 E0.0249
G1 X-6.352 Y14.465 E0.5912
G1 X-7.003 Y14.465 E0.0249
G1 X-17.933 Y3.535 E0.5912
G1 X-18.583 Y3.535 E0.0249
G1 X-7.653 Y14.465 E0.5912
G1 X-8.304 Y14.465 E0.0249
G1 X-19.234 Y3.535 E0.5912
G1 X-19.884 Y3.535 E0.0249
G1 X-8.954 Y14.465 E0.5912
G1 X-9.605 Y14.465 E0.0249
G1 X-20.535 Y3.535 E0.5912
G1 X-21.185 Y3.535 E0.0249
G1 X-10.255 Y14.465 E0.5912
G1 X-10.906 Y14.465 E0.0249
G1 X-21.836 Y3.535 E0.5912
G1 X-22.487 Y3.535 E0.0249
G1 X-11.557 Y14.465 E0.5912
G1 X-12.207 Y14.465 E0.0249
G1 X-23.137 Y3.535 E0.5912
G1 X-23.788 Y3.535 E0.0249
G1 X-12.858 Y14.465 E0.5912
G1 X-13.508 Y14.465 E0.0249
G1 X-24.438 Y3.535 E0.5912
G1 X-25.089 Y3.535 E0.0249
G1 X-14.159 Y14.465 E0.5912
G1 X-14.809 Y14.465 E0.0249
G1 X-25.739 Y3.535 E0.5912
G1 X-26.390 Y3.535 E0.0249
G1 X-15.460 Y14.465 E0.5912
G1 X-16.110 Y14.465 E0.0249
G1 X-27.040 Y3.535 E0.5912
G1 X-27.691 Y3.535 E0.0249
G1 X-16.761 Y14.465 E0.5912
G1 X-17.411 Y14.465 E0.0249
G1 X-28.341 Y3.535 E0.5912
G1 X-28.992 Y3.535 E0.0249
G1 X-18.062 Y14.465 E0.5912
G1 X-18.712 Y14.465 E0.0249
G1 X-29.642 Y3.535 E0.5912
G1 X-30.293 Y3.535 E0.0249
G1 X-19.363 Y14.465 E0.5912
G1 X-20.014 Y14.465 E0.0249
G1 X-30.944 Y3.535 E0.5912
G1 X-31.594 Y3.535 E0.0249
G1 X-20.664 Y14.465 E0.5912
G1 X-21.315 Y14.465 E0.0249
G1 X-32.245 Y3.535 E0.5912
G1 X-32.715 Y3.535 E0.0180
G1 X-32.715 Y3.715 E0.0069
G1 X-21.965 Y14.465 E0.5815
G1 X-22.616 Y14.465 E0.0249
G1 X-32.715 Y4.366 E0.5463
G1 X-32.715 Y5.016 E0.0249
G1 X-23.266 Y14.465 E0.5111
G1 X-23.917 Y14.465 E0.0249
G1 X-32.715 Y5.667 E0.4759
G1 X-32.715 Y6.317 E0.0249
G1 X-24.567 Y14.465 E0.4407
G1 X-25.218 Y14.465 E0.0249
G1 X-32.715 Y6.968 E0.4055
G1 X-32.715 Y7.618 E0.0249
G1 X-25.868 Y14.465 E0.3704
G1 X-26.519 Y14.465 E0.0249
G1 X-32.715 Y8.269 E0.3352
G1 X-32.715 Y8.919 E0.0249
G1 X-27.169 Y14.465 E0.3000
G1 X-27.820 Y14.465 E0.0249
G1 X-32.715 Y9.570 E0.2648
G1 X-32.715 Y10.221 E0.0249
G1 X-28.471 Y14.465 E0.2296
G1 X-29.121 Y14.465 E0.0249
G1 X-32.715 Y10.871 E0.1944
G1 X-32.715 Y11.522 E0.0249
G1 X-29.772 Y14.465 E0.1592
G1 X-30.422 Y14.465 E0.0249
G1 X-32.715 Y12.172 E0.1240
G1 X-32.715 Y12.823 E0.0249
G1 X-31.073 Y14.465 E0.0888
G1 X-31.723 Y14.465 E0.0249
G1 X-32.715 Y13.473 E0.0536
G1 X-32.715 Y14.124 E0.0249
G1 X-32.374 Y14.465 E0.0185
G1 E-1.9000 F1200
; feature inner perimeter
G1 Z0.700 F1200
G1 X33.060 Y32.810 F9000
G1 Z0.200 F1200
G1 E1.9000 F1200
G1 X-33.060 Y32.810 E2.5290 F1800
G1 X-33.060 Y21.190 E0.4445
G1 X33.060 Y21.190 E2.5290
G1 X33.060 Y32.810 E0.4445
; feature outer perimeter
G1 X33.520 Y33.270 F9000
G1 X-33.520 Y33.270 E2.5642 F1200
G1 X-33.520 Y20.730 E0.4796
G1 X33.520 Y20.730 E2.5642
G1 X33.520 Y33.270 E0.4796
G1 E-1.9000 F1200
; feature solid layer
G1 Z0.700 F1200
G1 X32.594 Y21.535 F9000
G1 Z0.200 F1200
G1 E1.9000 F1200
G1 X32.715 Y21.656 E0.0065 F2400
G1 X32.715 Y22.306 E0.0249
G1 X31.944 Y21.535 E0.0417
G1 X31.293 Y21.535 E0.0249
G1 X32.715 Y22.957 E0.0769
G1 X32.715 Y23.607 E0.0249
G1 X30.643 Y21.535 E0.1121
G1 X29.992 Y21.535 E0.0249
G1 X32.715 Y24.258 E0.1473
G1 X32.715 Y24.909 E0.0249
G1 X29.341 Y21.535 E0.1825
G1 X28.691 Y21.535 E0.0249
G1 X32.715 Y25.559 E0.2177
G1 X32.715 Y26.210 E0.0249
G1 X28.040 Y21.535 E0.2529
G1 X27.390 Y21.535 E0.0249
G1 X32.715 Y26.860 E0.2881
G1 X32.715 Y27.511 E0.0249
G1 X26.739 Y21.535 E0.3232
G1 X26.089 Y21.535 E0.0249
G1 X32.715 Y28.161 E0.3584
G1 X32.715 Y28.812 E0.0249
G1 X25.438 Y21.535 E0.3936
G1 X24.788 Y21.535 E0.0249
G1 X32.715 Y29.462 E0.4288
G1 X32.715 Y30.113 E0.0249
G1 X24.137 Y21.535 E0.4640
G1 X23.487 Y21.535 E0.0249
G1 X32.715 Y30.763 E0.4992
G1 X32.715 Y31.414 E0.0249
G1 X22.836 Y21.535 E0.5344
G1 X22.186 Y21.535 E0.0249
G1 X32.715 Y32.064 E0.5696
G1 X32.715 Y32.465 E0.0153
G1 X32.465 Y32.465 E0.0096
G1 X21.535 Y21.535 E0.5912
G1 X20.884 Y21.535 E0.0249
G1 X31.814 Y32.465 E0.5912
G1 X31.164 Y32.465 E0.0249
G1 X20.234 Y21.535 E0.5912
G1 X19.583 Y21.535 E0.0249
G1 X30.513 Y32.465 E0.5912
G1 X29.863 Y32.465 E0.0249
G1 X18.933 Y21.535 E0.5912
G1 X18.282 Y21.535 E0.0249
G1 X29.212 Y32.465 E0.5912
G1 X28.562 Y32.465 E0.0249
G1 X17.632 Y21.535 E0.5912
G1 X16.981 Y21.535 E0.0249
