; G-Code generated by Simplify3D(R) Version 4.1.2
; Apr 2, 2020 at 1:58:45 PM
; Settings Summary
;   processName,Process1
;   applyToModels,Key mod washer,Key mod front,Key mod nut,Key mod washer(2),Key mod front(2),Key mod nut(2)
;   profileName,MakerBot Replicator 2 HBP (modified)
;   profileVersion,2020-03-12 10:48:50
;   baseProfile,MakerBot Replicator 2(2)
;   printMaterial,PLA
;   printQuality,Medium
;   printExtruders,
;   extruderName,Primary Extruder
;   extruderToolheadNumber,0
;   extruderDiameter,0.4
;   extruderAutoWidth,0
;   extruderWidth,0.4
;   extrusionMultiplier,1
;   extruderUseRetract,1
;   extruderRetractionDistance,1.9
;   extruderExtraRestartDistance,0
;   extruderRetractionZLift,0.5
;   extruderRetractionSpeed,1200
;   extruderUseCoasting,0
;   extruderCoastingDistance,0.2
;   extruderUseWipe,0
;   extruderWipeDistance,5
;   primaryExtruder,0
;   layerHeight,0.2
;   topSolidLayers,3
;   bottomSolidLayers,3
;   perimeterOutlines,2
;   printPerimetersInsideOut,1
;   startPointOption,3
;   startPointOriginX,0
;   startPointOriginY,150
;   sequentialIslands,0
;   spiralVaseMode,0
;   firstLayerHeightPercentage,100
;   firstLayerWidthPercentage,115
;   firstLayerUnderspeed,0.5
;   useRaft,0
;   raftExtruder,0
;   raftTopLayers,2
;   raftBaseLayers,1
;   raftOffset,1
;   raftSeparationDistance,0.14
;   raftTopInfill,90
;   aboveRaftSpeedMultiplier,0.3
;   useSkirt,0
;   skirtExtruder,0
;   skirtLayers,1
;   skirtOutlines,5
;   skirtOffset,0
;   usePrimePillar,0
;   primePillarExtruder,999
;   primePillarWidth,12
;   primePillarLocation,7
;   primePillarSpeedMultiplier,1
;   useOozeShield,0
;   oozeShieldExtruder,999
;   oozeShieldOffset,2
;   oozeShieldOutlines,1
;   oozeShieldSidewallShape,1
;   oozeShieldSidewallAngle,30
;   oozeShieldSpeedMultiplier,1
;   infillExtruder,0
;   internalInfillPattern,Rectilinear
;   externalInfillPattern,Rectilinear
;   infillPercentage,15
;   outlineOverlapPercentage,25
;   infillExtrusionWidthPercentage,100
;   minInfillLength,5
;   infillLayerInterval,1
;   internalInfillAngles,45,-45
;   overlapInternalInfillAngles,0
;   externalInfillAngles,45,-45
;   generateSupport,1
;   supportExtruder,0
;   supportInfillPercentage,30
;   supportExtraInflation,0.5
;   supportBaseLayers,0
;   denseSupportExtruder,0
;   denseSupportLayers,2
;   denseSupportInfillPercentage,90
;   supportLayerInterval,1
;   supportHorizontalPartOffset,0.3
;   supportUpperSeparationLayers,1
;   supportLowerSeparationLayers,1
;   supportType,1
;   supportGridSpacing,2
;   maxOverhangAngle,45
;   supportAngles,45,-45
;   temperatureName,Primary Extruder,Heated Build Platform
;   temperatureNumber,0,0
;   temperatureSetpointCount,1,1
;   temperatureSetpointLayers,1,1
;   temperatureSetpointTemperatures,230,60
;   temperatureStabilizeAtStartup,1,1
;   temperatureHeatedBed,0,1
;   fanLayers,1,2
;   fanSpeeds,0,100
;   blipFanToFullPower,1
;   adjustSpeedForCooling,1
;   minSpeedLayerTime,15
;   minCoolingSpeedSlowdown,20
;   increaseFanForCooling,1
;   minFanLayerTime,45
;   maxCoolingFanSpeed,100
;   increaseFanForBridging,1
;   bridgingFanSpeed,100
;   use5D,1
;   relativeEdistances,1
;   allowEaxisZeroing,0
;   independentExtruderAxes,1
;   includeM10123,0
;   stickySupport,1
;   applyToolheadOffsets,0
;   gcodeXoffset,0
;   gcodeYoffset,0
;   gcodeZoffset,0
;   overrideMachineDefinition,1
;   machineTypeOverride,0
;   strokeXoverride,280
;   strokeYoverride,150
;   strokeZoverride,150
;   originOffsetXoverride,140
;   originOffsetYoverride,75
;   originOffsetZoverride,0
;   homeXdirOverride,1
;   homeYdirOverride,1
;   homeZdirOverride,-1
;   flipXoverride,1
;   flipYoverride,-1
;   flipZoverride,1
;   toolheadOffsets,0,0|0,0|0,0|0,0|0,0|0,0
;   overrideFirmwareConfiguration,1
;   firmwareTypeOverride,MakerBot/Sailfish Firmware
;   GPXconfigOverride,r2h
;   baudRateOverride,115200
;   overridePrinterModels,1
;   printerModelsOverride,MakerBot_Replicator2.stl
;   startingGcode,; **** Replicator 2 start.gcode ****,M73 P0 ; enable build progress,G162 X Y F3000 ; home XY maximum,G161 Z F1200 ; home Z minimum,G92 Z-5 ; set Z to -5,G1 Z0 ; move Z to 0,G161 Z F100 ; home Z slowly,M132 X Y Z A B ; recall home offsets,G1 X-145 Y-75 Z30 F9000 ; move to wait position off table,G130 X20 Y20 Z20 A20 B20 ; lower stepper Vrefs while heating,M126 S[fan_speed_pwm],M140 S[bed0_temperature] T0,M134 T0 ; stabilize bed temperature,M104 S[extruder0_temperature] T0,M133 T0 ; stabilize extruder temperature,G130 X127 Y127 Z40 A127 B127 ; default stepper Vrefs,G92 A0 ; zero extruder,G1 Z0.4 ; position nozzle,G1 E25 F300 ; purge nozzle,G1 X-140 Y-70 Z0.15 F1200 ; slow wipe,G1 X-135 Y-65 Z0.5 F1200 ; lift,G92 A0 ; zero extruder,M73 P1 ;@body (notify GPX body has started),; **** end of start.gcode ****
;   layerChangeGcode,
;   retractionGcode,
;   toolChangeGcode,
;   endingGcode,; **** Replicator 2 end.gcode ****,M73 P100 ; end build progress,G1 Z155 F1000 ; send Z axis to bottom of machine,M104 S0 T0 ; cool down extruder,M140 S0 T0 ; cool down HBP,M127 ; stop blower fan,G162 X Y F3000 ; home XY maximum,M18 ; disable stepper,M0 ; stop codes,M72 P1 ; play Ta-Da song,; **** end of end.gcode ****
;   exportFileFormat,gcode
;   celebration,0
;   celebrationSong,Random Song
;   postProcessing,
;   defaultSpeed,4800
;   outlineUnderspeed,0.5
;   solidInfillUnderspeed,1
;   supportUnderspeed,1
;   rapidXYspeed,9000
;   rapidZspeed,1200
;   minBridgingArea,50
;   bridgingExtraInflation,0
;   bridgingExtrusionMultiplier,1
;   bridgingSpeedMultiplier,0.8
;   useFixedBridgingAngle,0
;   fixedBridgingAngle,0
;   applyBridgingToPerimeters,0
;   filamentDiameters,1.75|1.75|1.75|1.75|1.75|1.75
;   filamentPricesPerKg,46|46|46|46|46|46
;   filamentDensities,1.25|1.25|1.25|1.25|1.25|1.25
;   useMinPrintHeight,0
;   minPrintHeight,0
;   useMaxPrintHeight,0
;   maxPrintHeight,4.84
;   useDiaphragm,0
;   diaphragmLayerInterval,20
;   robustSlicing,1
;   mergeAllIntoSolid,0
;   onlyRetractWhenCrossingOutline,0
;   retractBetweenLayers,0
;   useRetractionMinTravel,1
;   retractionMinTravel,7
;   retractWhileWiping,1
;   onlyWipeOutlines,1
;   avoidCrossingOutline,0
;   maxMovementDetourFactor,3
;   toolChangeRetractionDistance,12
;   toolChangeExtraRestartDistance,-0.5
;   toolChangeRetractionSpeed,600
;   externalThinWallType,0
;   internalThinWallType,0
;   thinWallAllowedOverlapPercentage,10
;   singleExtrusionMinLength,1
;   singleExtrusionMinPrintingWidthPercentage,50
;   singleExtrusionMaxPrintingWidthPercentage,200
;   singleExtrusionEndpointExtension,0.2
;   horizontalSizeCompensation,0
G90
M83
; **** Replicator 2 start.gcode ****
M73 P0 ; enable build progress
G162 X Y F3000 ; home XY maximum
G161 Z F1200 ; home Z minimum
G92 Z-5 ; set Z to -5
G1 Z0 ; move Z to 0
G161 Z F100 ; home Z slowly
M132 X Y Z A B ; recall home offsets
G1 X-145 Y-75 Z30 F9000 ; move to wait position off table
G130 X20 Y20 Z20 A20 B20 ; lower stepper Vrefs while heating
M127
M140 S60 T0
M134 T0 ; stabilize bed temperature
M104 S230 T0
M133 T0 ; stabilize extruder temperature
G130 X127 Y127 Z40 A127 B127 ; default stepper Vrefs
G92 A0 ; zero extruder
G1 Z0.4 ; position nozzle
G1 E25 F300 ; purge nozzle
G1 X-140 Y-70 Z0.15 F1200 ; slow wipe
G1 X-135 Y-65 Z0.5 F1200 ; lift
G92 A0 ; zero extruder
M73 P1 ;@body (notify GPX body has started)
; **** end of start.gcode ****
; process Process1
; layer 1, Z = 0.200
M135 T0
G1 E-1.9000 F1200
; feature inner perimeter
; tool H0.200 W0.460
G1 Z0.500 F1200
G1 X-13.548 Y-0.618 F9000
G1 Z0.200 F1200
G1 E1.9000 F1200
G1 X-15.377 Y-0.480 E0.0702 F1800
G1 X-17.211 Y-0.533 E0.0702
G1 X-19.029 Y-0.778 E0.0702
G1 X-20.811 Y-1.212 E0.0702
G1 X-22.538 Y-1.829 E0.0702
G1 X-24.192 Y-2.624 E0.0702
G1 X-25.753 Y-3.587 E0.0702
G1 X-27.205 Y-4.708 E0.0702
G1 X-28.531 Y-5.975 E0.0702
G1 X-29.719 Y-7.373 E0.0702
G1 X-30.753 Y-8.888 E0.0702
G1 X-31.624 Y-10.503 E0.0702
G1 X-32.320 Y-12.200 E0.0702
G1 X-32.836 Y-13.960 E0.0702
G1 X-33.165 Y-15.765 E0.0702
G1 X-33.303 Y-17.594 E0.0702
G1 X-33.250 Y-19.427 E0.0702
G1 X-33.005 Y-21.245 E0.0702
G1 X-32.571 Y-23.028 E0.0702
G1 X-31.954 Y-24.755 E0.0702
G1 X-31.159 Y-26.408 E0.0702
G1 X-30.196 Y-27.970 E0.0702
G1 X-29.075 Y-29.421 E0.0702
G1 X-27.808 Y-30.748 E0.0702
G1 X-26.410 Y-31.935 E0.0702
G1 X-24.895 Y-32.970 E0.0702
G1 X-23.280 Y-33.840 E0.0702
G1 X-21.584 Y-34.537 E0.0702
G1 X-19.823 Y-35.053 E0.0702
G1 X-18.018 Y-35.382 E0.0702
G1 X-16.189 Y-35.520 E0.0702
G1 X-14.356 Y-35.467 E0.0702
G1 X-12.538 Y-35.222 E0.0702
G1 X-10.755 Y-34.788 E0.0702
G1 X-9.028 Y-34.171 E0.0702
G1 X-7.375 Y-33.376 E0.0702
G1 X-5.814 Y-32.413 E0.0702
G1 X-4.362 Y-31.292 E0.0702
G1 X-3.035 Y-30.025 E0.0702
G1 X-1.848 Y-28.627 E0.0702
G1 X-0.813 Y-27.112 E0.0702
G1 X0.057 Y-25.497 E0.0702
G1 X0.754 Y-23.800 E0.0702
G1 X1.270 Y-22.040 E0.0702
G1 X1.598 Y-20.235 E0.0702
G1 X1.737 Y-18.406 E0.0702
G1 X1.683 Y-16.573 E0.0702
G1 X1.438 Y-14.755 E0.0702
G1 X1.005 Y-12.972 E0.0702
G1 X0.387 Y-11.245 E0.0702
G1 X-0.387 Y-9.634 E0.0684
G1 X-1.371 Y-8.030 E0.0720
G1 X-2.492 Y-6.579 E0.0701
G1 X-3.758 Y-5.252 E0.0702
G1 X-5.157 Y-4.065 E0.0702
G1 X-6.672 Y-3.030 E0.0702
G1 X-8.286 Y-2.160 E0.0702
G1 X-9.983 Y-1.463 E0.0702
G1 X-11.743 Y-0.947 E0.0702
G1 X-13.548 Y-0.618 E0.0702
; feature outer perimeter
G1 X-13.489 Y-0.161 F9000
G1 X-15.366 Y-0.019 E0.0720 F1200
G1 X-17.248 Y-0.074 E0.0720
G1 X-19.114 Y-0.326 E0.0720
G1 X-20.943 Y-0.771 E0.0720
G1 X-22.716 Y-1.404 E0.0720
G1 X-24.413 Y-2.220 E0.0720
G1 X-26.015 Y-3.208 E0.0720
G1 X-27.505 Y-4.359 E0.0720
G1 X-28.867 Y-5.659 E0.0720
G1 X-30.085 Y-7.094 E0.0720
G1 X-31.147 Y-8.649 E0.0720
G1 X-32.040 Y-10.306 E0.0720
G1 X-32.755 Y-12.047 E0.0720
G1 X-33.284 Y-13.854 E0.0720
G1 X-33.622 Y-15.706 E0.0720
G1 X-33.764 Y-17.583 E0.0720
G1 X-33.709 Y-19.465 E0.0720
G1 X-33.458 Y-21.331 E0.0720
G1 X-33.013 Y-23.160 E0.0720
G1 X-32.379 Y-24.933 E0.0720
G1 X-31.563 Y-26.629 E0.0720
G1 X-30.575 Y-28.232 E0.0720
G1 X-29.424 Y-29.722 E0.0720
G1 X-28.125 Y-31.083 E0.0720
G1 X-26.689 Y-32.302 E0.0720
G1 X-25.135 Y-33.363 E0.0720
G1 X-23.477 Y-34.257 E0.0720
G1 X-21.736 Y-34.972 E0.0720
G1 X-19.929 Y-35.501 E0.0720
G1 X-18.077 Y-35.839 E0.0720
G1 X-16.200 Y-35.981 E0.0720
G1 X-14.318 Y-35.926 E0.0720
G1 X-12.453 Y-35.674 E0.0720
G1 X-10.623 Y-35.229 E0.0720
G1 X-8.851 Y-34.596 E0.0720
G1 X-7.154 Y-33.780 E0.0720
G1 X-5.552 Y-32.792 E0.0720
G1 X-4.062 Y-31.641 E0.0720
G1 X-2.700 Y-30.341 E0.0720
G1 X-1.482 Y-28.906 E0.0720
G1 X-0.420 Y-27.351 E0.0720
G1 X0.473 Y-25.694 E0.0720
G1 X1.189 Y-23.953 E0.0720
G1 X1.718 Y-22.146 E0.0720
G1 X2.055 Y-20.294 E0.0720
G1 X2.197 Y-18.417 E0.0720
G1 X2.142 Y-16.535 E0.0720
G1 X1.891 Y-14.669 E0.0720
G1 X1.446 Y-12.840 E0.0720
G1 X0.812 Y-11.067 E0.0720
G1 X0.017 Y-9.413 E0.0702
G1 X-0.992 Y-7.768 E0.0738
G1 X-2.142 Y-6.278 E0.0720
G1 X-3.442 Y-4.917 E0.0720
G1 X-4.877 Y-3.698 E0.0720
G1 X-6.432 Y-2.637 E0.0720
G1 X-8.089 Y-1.743 E0.0720
G1 X-9.831 Y-1.028 E0.0720
G1 X-11.637 Y-0.499 E0.0720
G1 X-13.489 Y-0.161 E0.0720
; feature inner perimeter
G1 X-14.122 Y-6.278 F9000
G1 X-12.508 Y-6.620 E0.0631 F1800
G1 X-10.921 Y-7.202 E0.0647
G1 X-9.403 Y-8.027 E0.0661
G1 X-8.077 Y-9.009 E0.0631
G1 X-6.876 Y-10.197 E0.0646
G1 X-5.856 Y-11.544 E0.0646
G1 X-5.038 Y-13.023 E0.0646
G1 X-4.439 Y-14.603 E0.0646
G1 X-4.071 Y-16.252 E0.0646
G1 X-3.942 Y-17.936 E0.0646
G1 X-4.053 Y-19.622 E0.0646
G1 X-4.403 Y-21.275 E0.0646
G1 X-4.986 Y-22.862 E0.0647
G1 X-5.811 Y-24.380 E0.0661
G1 X-6.792 Y-25.706 E0.0631
G1 X-7.980 Y-26.907 E0.0646
G1 X-9.328 Y-27.927 E0.0646
G1 X-10.806 Y-28.745 E0.0646
G1 X-12.386 Y-29.344 E0.0646
G1 X-14.035 Y-29.712 E0.0646
G1 X-15.720 Y-29.842 E0.0646
G1 X-17.407 Y-29.730 E0.0647
G1 X-19.095 Y-29.366 E0.0661
G1 X-20.644 Y-28.798 E0.0631
G1 X-22.132 Y-27.996 E0.0646
G1 X-23.490 Y-26.991 E0.0646
G1 X-24.692 Y-25.802 E0.0647
G1 X-25.730 Y-24.421 E0.0661
G1 X-26.528 Y-22.977 E0.0631
G1 X-27.127 Y-21.397 E0.0646
G1 X-27.495 Y-19.747 E0.0647
G1 X-27.622 Y-18.024 E0.0661
G1 X-27.513 Y-16.378 E0.0631
G1 X-27.163 Y-14.725 E0.0646
G1 X-26.581 Y-13.139 E0.0646
G1 X-25.779 Y-11.652 E0.0646
G1 X-24.774 Y-10.294 E0.0646
G1 X-23.586 Y-9.092 E0.0646
G1 X-22.239 Y-8.073 E0.0646
G1 X-20.760 Y-7.255 E0.0646
G1 X-19.181 Y-6.656 E0.0646
G1 X-17.532 Y-6.288 E0.0646
G1 X-15.846 Y-6.158 E0.0647
G1 X-14.122 Y-6.278 E0.0661
; feature outer perimeter
G1 X-14.186 Y-6.735 F9000
G1 X-12.636 Y-7.063 E0.0606 F1200
G1 X-11.111 Y-7.623 E0.0621
G1 X-9.651 Y-8.416 E0.0636
G1 X-8.377 Y-9.359 E0.0606
G1 X-7.223 Y-10.501 E0.0621
G1 X-6.243 Y-11.796 E0.0621
G1 X-5.457 Y-13.217 E0.0621
G1 X-4.881 Y-14.735 E0.0621
G1 X-4.527 Y-16.320 E0.0621
G1 X-4.403 Y-17.939 E0.0621
G1 X-4.510 Y-19.559 E0.0621
G1 X-4.847 Y-21.147 E0.0621
G1 X-5.406 Y-22.672 E0.0621
G1 X-6.199 Y-24.132 E0.0636
G1 X-7.142 Y-25.406 E0.0606
G1 X-8.284 Y-26.561 E0.0621
G1 X-9.579 Y-27.541 E0.0621
G1 X-11.000 Y-28.326 E0.0621
G1 X-12.518 Y-28.902 E0.0621
G1 X-14.103 Y-29.256 E0.0621
G1 X-15.722 Y-29.380 E0.0621
G1 X-17.343 Y-29.273 E0.0621
G1 X-18.967 Y-28.923 E0.0636
G1 X-20.455 Y-28.377 E0.0606
G1 X-21.884 Y-27.607 E0.0621
G1 X-23.190 Y-26.641 E0.0621
G1 X-24.344 Y-25.499 E0.0621
G1 X-25.343 Y-24.170 E0.0636
G1 X-26.110 Y-22.783 E0.0606
G1 X-26.685 Y-21.265 E0.0621
G1 X-27.039 Y-19.680 E0.0621
G1 X-27.161 Y-18.023 E0.0636
G1 X-27.057 Y-16.441 E0.0606
G1 X-26.720 Y-14.853 E0.0621
G1 X-26.161 Y-13.328 E0.0621
G1 X-25.390 Y-11.899 E0.0621
G1 X-24.424 Y-10.594 E0.0621
G1 X-23.282 Y-9.439 E0.0621
G1 X-21.988 Y-8.459 E0.0621
G1 X-20.567 Y-7.673 E0.0621
G1 X-19.048 Y-7.098 E0.0621
G1 X-17.463 Y-6.744 E0.0621
G1 X-15.844 Y-6.620 E0.0621
G1 X-14.186 Y-6.735 E0.0636
G1 E-1.9000 F1200
; feature solid layer
G1 Z0.700 F1200
G1 X-23.734 Y-8.772 F9000
G1 Z0.200 F1200
G1 E1.9000 F1200
G1 X-15.800 Y-0.837 E0.4292 F2400
G1 X-15.385 Y-0.825 E0.0159
G1 X-15.155 Y-0.843 E0.0088
G1 X-21.682 Y-7.371 E0.3531
G1 X-20.906 Y-6.941 E0.0339
G1 X-20.417 Y-6.756 E0.0200
G1 X-14.550 Y-0.888 E0.3174
G1 X-13.945 Y-0.934 E0.0232
G1 X-19.369 Y-6.359 E0.2934
G1 X-19.280 Y-6.325 E0.0037
G1 X-18.514 Y-6.154 E0.0300
G1 X-13.363 Y-1.003 E0.2786
G1 X-12.813 Y-1.103 E0.0214
G1 X-17.677 Y-5.967 E0.2631
G1 X-17.583 Y-5.946 E0.0037
G1 X-16.957 Y-5.898 E0.0240
G1 X-12.262 Y-1.203 E0.2539
G1 X-11.823 Y-1.283 E0.0171
G1 X-11.722 Y-1.313 E0.0040
G1 X-16.252 Y-5.844 E0.2451
G1 X-15.847 Y-5.812 E0.0155
G1 X-15.588 Y-5.830 E0.0099
G1 X-11.218 Y-1.460 E0.2364
G1 X-10.715 Y-1.608 E0.0201
G1 X-14.980 Y-5.873 E0.2307
G1 X-14.372 Y-5.915 E0.0233
G1 X-10.212 Y-1.755 E0.2250
G1 X-10.097 Y-1.789 E0.0046
G1 X-9.741 Y-1.935 E0.0147
G1 X-13.800 Y-5.994 E0.2195
G1 X-13.263 Y-6.107 E0.0210
G1 X-9.280 Y-2.124 E0.2154
G1 X-8.819 Y-2.314 E0.0191
G1 X-12.727 Y-6.221 E0.2114
G1 X-12.413 Y-6.288 E0.0123
G1 X-12.215 Y-6.360 E0.0081
G1 X-8.364 Y-2.510 E0.2083
G1 X-7.942 Y-2.737 E0.0184
G1 X-11.739 Y-6.535 E0.2054
G1 X-11.263 Y-6.709 E0.0194
G1 X-7.519 Y-2.965 E0.2025
G1 X-7.096 Y-3.193 E0.0184
G1 X-10.787 Y-6.884 E0.1996
G1 X-10.778 Y-6.887 E0.0004
G1 X-10.365 Y-7.112 E0.0180
G1 X-6.689 Y-3.436 E0.1988
G1 X-6.302 Y-3.700 E0.0179
G1 X-9.943 Y-7.341 E0.1969
G1 X-9.522 Y-7.570 E0.0183
G1 X-5.916 Y-3.964 E0.1951
G1 X-5.529 Y-4.228 E0.0179
G1 X-9.113 Y-7.812 E0.1939
G1 X-8.740 Y-8.089 E0.0178
G1 X-5.163 Y-4.512 E0.1935
G1 X-4.811 Y-4.811 E0.0177
G1 X-8.366 Y-8.366 E0.1923
G1 X-7.992 Y-8.643 E0.0178
G1 X-4.459 Y-5.109 E0.1911
G1 X-4.107 Y-5.408 E0.0177
G1 X-7.647 Y-8.948 E0.1915
G1 X-7.320 Y-9.272 E0.0176
G1 X-3.779 Y-5.730 E0.1916
G1 X-3.461 Y-6.063 E0.0176
G1 X-6.993 Y-9.596 E0.1911
G1 X-6.666 Y-9.919 E0.0176
G1 X-3.143 Y-6.396 E0.1906
G1 X-2.825 Y-6.729 E0.0176
G1 X-6.379 Y-10.282 E0.1922
G1 X-6.098 Y-10.652 E0.0178
G1 X-2.534 Y-7.088 E0.1928
G1 X-2.251 Y-7.455 E0.0177
G1 X-5.818 Y-11.023 E0.1930
G1 X-5.566 Y-11.356 E0.0160
G1 X-5.543 Y-11.398 E0.0018
G1 X-1.967 Y-7.822 E0.1934
G1 X-1.684 Y-8.189 E0.0177
G1 X-5.311 Y-11.817 E0.1962
G1 X-5.079 Y-12.235 E0.0183
G1 X-1.433 Y-8.589 E0.1973
G1 X-1.186 Y-8.992 E0.0181
G1 X-4.848 Y-12.654 E0.1981
G1 X-4.724 Y-12.877 E0.0098
