; G-Code generated by Simplify3D(R) Version 4.1.2
; Apr 2, 2020 at 1:26:04 PM
; Settings Summary
;   processName,Process1
;   applyToModels,Bob Specials A V2R1,Bob Specials B V2R1
;   profileName,MakerBot Replicator 2 HBP (modified)
;   profileVersion,2020-03-12 10:48:50
;   baseProfile,MakerBot Replicator 2(2)
;   printMaterial,PLA
;   printQuality,Medium
;   printExtruders,
;   extruderName,Primary Extruder
;   extruderToolheadNumber,0
;   extruderDiameter,0.4
;   extruderAutoWidth,0
;   extruderWidth,0.4
;   extrusionMultiplier,1
;   extruderUseRetract,1
;   extruderRetractionDistance,1.9
;   extruderExtraRestartDistance,0
;   extruderRetractionZLift,0.5
;   extruderRetractionSpeed,1200
;   extruderUseCoasting,0
;   extruderCoastingDistance,0.2
;   extruderUseWipe,0
;   extruderWipeDistance,5
;   primaryExtruder,0
;   layerHeight,0.2
;   topSolidLayers,3
;   bottomSolidLayers,3
;   perimeterOutlines,2
;   printPerimetersInsideOut,1
;   startPointOption,3
;   startPointOriginX,0
;   startPointOriginY,150
;   sequentialIslands,0
;   spiralVaseMode,0
;   firstLayerHeightPercentage,100
;   firstLayerWidthPercentage,115
;   firstLayerUnderspeed,0.5
;   useRaft,0
;   raftExtruder,0
;   raftTopLayers,2
;   raftBaseLayers,1
;   raftOffset,1
;   raftSeparationDistance,0.14
;   raftTopInfill,90
;   aboveRaftSpeedMultiplier,0.3
;   useSkirt,0
;   skirtExtruder,0
;   skirtLayers,1
;   skirtOutlines,5
;   skirtOffset,0
;   usePrimePillar,0
;   primePillarExtruder,999
;   primePillarWidth,12
;   primePillarLocation,7
;   primePillarSpeedMultiplier,1
;   useOozeShield,0
;   oozeShieldExtruder,999
;   oozeShieldOffset,2
;   oozeShieldOutlines,1
;   oozeShieldSidewallShape,1
;   oozeShieldSidewallAngle,30
;   oozeShieldSpeedMultiplier,1
;   infillExtruder,0
;   internalInfillPattern,Rectilinear
;   externalInfillPattern,Rectilinear
;   infillPercentage,15
;   outlineOverlapPercentage,25
;   infillExtrusionWidthPercentage,100
;   minInfillLength,5
;   infillLayerInterval,1
;   internalInfillAngles,45,-45
;   overlapInternalInfillAngles,0
;   externalInfillAngles,45,-45
;   generateSupport,0
;   supportExtruder,0
;   supportInfillPercentage,30
;   supportExtraInflation,0.5
;   supportBaseLayers,0
;   denseSupportExtruder,0
;   denseSupportLayers,2
;   denseSupportInfillPercentage,90
;   supportLayerInterval,1
;   supportHorizontalPartOffset,0.3
;   supportUpperSeparationLayers,1
;   supportLowerSeparationLayers,1
;   supportType,1
;   supportGridSpacing,2
;   maxOverhangAngle,45
;   supportAngles,45,-45
;   temperatureName,Primary Extruder,Heated Build Platform
;   temperatureNumber,0,0
;   temperatureSetpointCount,1,1
;   temperatureSetpointLayers,1,1
;   temperatureSetpointTemperatures,230,60
;   temperatureStabilizeAtStartup,1,1
;   temperatureHeatedBed,0,1
;   fanLayers,1,2
;   fanSpeeds,0,100
;   blipFanToFullPower,1
;   adjustSpeedForCooling,1
;   minSpeedLayerTime,15
;   minCoolingSpeedSlowdown,20
;   increaseFanForCooling,1
;   minFanLayerTime,45
;   maxCoolingFanSpeed,100
;   increaseFanForBridging,1
;   bridgingFanSpeed,100
;   use5D,1
;   relativeEdistances,1
;   allowEaxisZeroing,0
;   independentExtruderAxes,1
;   includeM10123,0
;   stickySupport,1
;   applyToolheadOffsets,0
;   gcodeXoffset,0
;   gcodeYoffset,0
;   gcodeZoffset,0
;   overrideMachineDefinition,1
;   machineTypeOverride,0
;   strokeXoverride,280
;   strokeYoverride,150
;   strokeZoverride,150
;   originOffsetXoverride,140
;   originOffsetYoverride,75
;   originOffsetZoverride,0
;   homeXdirOverride,1
;   homeYdirOverride,1
;   homeZdirOverride,-1
;   flipXoverride,1
;   flipYoverride,-1
;   flipZoverride,1
;   toolheadOffsets,0,0|0,0|0,0|0,0|0,0|0,0
;   overrideFirmwareConfiguration,1
;   firmwareTypeOverride,MakerBot/Sailfish Firmware
;   GPXconfigOverride,r2h
;   baudRateOverride,115200
;   overridePrinterModels,1
;   printerModelsOverride,MakerBot_Replicator2.stl
;   startingGcode,; **** Replicator 2 start.gcode ****,M73 P0 ; enable build progress,G162 X Y F3000 ; home XY maximum,G161 Z F1200 ; home Z minimum,G92 Z-5 ; set Z to -5,G1 Z0 ; move Z to 0,G161 Z F100 ; home Z slowly,M132 X Y Z A B ; recall home offsets,G1 X-145 Y-75 Z30 F9000 ; move to wait position off table,G130 X20 Y20 Z20 A20 B20 ; lower stepper Vrefs while heating,M126 S[fan_speed_pwm],M140 S[bed0_temperature] T0,M134 T0 ; stabilize bed temperature,M104 S[extruder0_temperature] T0,M133 T0 ; stabilize extruder temperature,G130 X127 Y127 Z40 A127 B127 ; default stepper Vrefs,G92 A0 ; zero extruder,G1 Z0.4 ; position nozzle,G1 E25 F300 ; purge nozzle,G1 X-140 Y-70 Z0.15 F1200 ; slow wipe,G1 X-135 Y-65 Z0.5 F1200 ; lift,G92 A0 ; zero extruder,M73 P1 ;@body (notify GPX body has started),; **** end of start.gcode ****
;   layerChangeGcode,
;   retractionGcode,
;   toolChangeGcode,
;   endingGcode,; **** Replicator 2 end.gcode ****,M73 P100 ; end build progress,G1 Z155 F1000 ; send Z axis to bottom of machine,M104 S0 T0 ; cool down extruder,M140 S0 T0 ; cool down HBP,M127 ; stop blower fan,G162 X Y F3000 ; home XY maximum,M18 ; disable stepper,M0 ; stop codes,M72 P1 ; play Ta-Da song,; **** end of end.gcode ****
;   exportFileFormat,gcode
;   celebration,0
;   celebrationSong,Random Song
;   postProcessing,
;   defaultSpeed,4800
;   outlineUnderspeed,0.5
;   solidInfillUnderspeed,1
;   supportUnderspeed,1
;   rapidXYspeed,9000
;   rapidZspeed,1200
;   minBridgingArea,50
;   bridgingExtraInflation,0
;   bridgingExtrusionMultiplier,1
;   bridgingSpeedMultiplier,0.8
;   useFixedBridgingAngle,0
;   fixedBridgingAngle,0
;   applyBridgingToPerimeters,0
;   filamentDiameters,1.75|1.75|1.75|1.75|1.75|1.75
;   filamentPricesPerKg,46|46|46|46|46|46
;   filamentDensities,1.25|1.25|1.25|1.25|1.25|1.25
;   useMinPrintHeight,0
;   minPrintHeight,0
;   useMaxPrintHeight,0
;   maxPrintHeight,4.84
;   useDiaphragm,0
;   diaphragmLayerInterval,20
;   robustSlicing,1
;   mergeAllIntoSolid,0
;   onlyRetractWhenCrossingOutline,0
;   retractBetweenLayers,0
;   useRetractionMinTravel,1
;   retractionMinTravel,7
;   retractWhileWiping,1
;   onlyWipeOutlines,1
;   avoidCrossingOutline,0
;   maxMovementDetourFactor,3
;   toolChangeRetractionDistance,12
;   toolChangeExtraRestartDistance,-0.5
;   toolChangeRetractionSpeed,600
;   externalThinWallType,0
;   internalThinWallType,0
;   thinWallAllowedOverlapPercentage,10
;   singleExtrusionMinLength,1
;   singleExtrusionMinPrintingWidthPercentage,50
;   singleExtrusionMaxPrintingWidthPercentage,200
;   singleExtrusionEndpointExtension,0.2
;   horizontalSizeCompensation,0
G90
M83
; **** Replicator 2 start.gcode ****
M73 P0 ; enable build progress
G162 X Y F3000 ; home XY maximum
G161 Z F1200 ; home Z minimum
G92 Z-5 ; set Z to -5
G1 Z0 ; move Z to 0
G161 Z F100 ; home Z slowly
M132 X Y Z A B ; recall home offsets
G1 X-145 Y-75 Z30 F9000 ; move to wait position off table
G130 X20 Y20 Z20 A20 B20 ; lower stepper Vrefs while heating
M127
M140 S60 T0
M134 T0 ; stabilize bed temperature
M104 S230 T0
M133 T0 ; stabilize extruder temperature
G130 X127 Y127 Z40 A127 B127 ; default stepper Vrefs
G92 A0 ; zero extruder
G1 Z0.4 ; position nozzle
G1 E25 F300 ; purge nozzle
G1 X-140 Y-70 Z0.15 F1200 ; slow wipe
G1 X-135 Y-65 Z0.5 F1200 ; lift
G92 A0 ; zero extruder
M73 P1 ;@body (notify GPX body has started)
; **** end of start.gcode ****
; process Process1
; layer 1, Z = 0.200
M135 T0
G1 E-1.9000 F1200
; feature inner perimeter
; tool H0.200 W0.460
G1 Z0.500 F1200
G1 X1.833 Y3.779 F9000
G1 Z0.200 F1200
G1 E1.9000 F1200
G1 X1.833 Y-44.841 E1.8597 F1800
G1 X15.453 Y-44.841 E0.5210
G1 X15.456 Y-27.341 E0.6694
G1 X31.717 Y-27.341 E0.6220
G1 X31.717 Y-44.841 E0.6694
G1 X45.337 Y-44.841 E0.5210
G1 X45.337 Y-27.341 E0.6694
G1 X59.151 Y-27.341 E0.5284
G1 X59.151 Y-13.721 E0.5210
G1 X45.337 Y-13.721 E0.5284
G1 X45.337 Y3.779 E0.6694
G1 X31.717 Y3.779 E0.5210
G1 X31.717 Y-13.721 E0.6694
G1 X15.456 Y-13.721 E0.6220
G1 X15.453 Y3.779 E0.6694
G1 X1.833 Y3.779 E0.5210
; feature outer perimeter
G1 X1.373 Y4.239 F9000
G1 X1.373 Y-45.301 E1.8949 F1200
G1 X15.913 Y-45.301 E0.5561
G1 X15.916 Y-27.801 E0.6694
G1 X31.257 Y-27.801 E0.5868
G1 X31.257 Y-45.301 E0.6694
G1 X45.797 Y-45.301 E0.5561
G1 X45.797 Y-27.801 E0.6694
G1 X59.611 Y-27.801 E0.5284
G1 X59.611 Y-13.261 E0.5561
G1 X45.797 Y-13.261 E0.5284
G1 X45.797 Y4.239 E0.6694
G1 X31.257 Y4.239 E0.5561
G1 X31.257 Y-13.261 E0.6694
G1 X15.916 Y-13.261 E0.5868
G1 X15.913 Y4.239 E0.6694
G1 X1.373 Y4.239 E0.5561
; feature solid layer
G1 X2.784 Y3.434 F9000
G1 X2.178 Y2.829 E0.0328 F2400
G1 X2.178 Y2.178 E0.0249
G1 X3.434 Y3.434 E0.0680
G1 X4.085 Y3.434 E0.0249
G1 X2.178 Y1.527 E0.1032
G1 X2.178 Y0.877 E0.0249
G1 X4.736 Y3.434 E0.1383
G1 X5.386 Y3.434 E0.0249
G1 X2.178 Y0.226 E0.1735
G1 X2.178 Y-0.424 E0.0249
G1 X6.037 Y3.434 E0.2087
G1 X6.687 Y3.434 E0.0249
G1 X2.178 Y-1.075 E0.2439
G1 X2.178 Y-1.725 E0.0249
G1 X7.338 Y3.434 E0.2791
G1 X7.988 Y3.434 E0.0249
G1 X2.178 Y-2.376 E0.3143
G1 X2.178 Y-3.026 E0.0249
G1 X8.639 Y3.434 E0.3495
G1 X9.289 Y3.434 E0.0249
G1 X2.178 Y-3.677 E0.3847
G1 X2.178 Y-4.327 E0.0249
G1 X9.940 Y3.434 E0.4199
G1 X10.590 Y3.434 E0.0249
G1 X2.178 Y-4.978 E0.4550
G1 X2.178 Y-5.628 E0.0249
G1 X11.241 Y3.434 E0.4902
G1 X11.891 Y3.434 E0.0249
G1 X2.178 Y-6.279 E0.5254
G1 X2.178 Y-6.930 E0.0249
G1 X12.542 Y3.434 E0.5606
G1 X13.193 Y3.434 E0.0249
G1 X2.178 Y-7.580 E0.5958
G1 X2.178 Y-8.231 E0.0249
G1 X13.843 Y3.434 E0.6310
G1 X14.494 Y3.434 E0.0249
G1 X2.178 Y-8.881 E0.6662
G1 X2.178 Y-9.532 E0.0249
G1 X15.108 Y3.398 E0.6994
G1 X15.108 Y2.748 E0.0249
G1 X2.178 Y-10.182 E0.6994
G1 X2.178 Y-10.833 E0.0249
G1 X15.108 Y2.098 E0.6994
G1 X15.108 Y1.447 E0.0249
G1 X2.178 Y-11.483 E0.6994
G1 X2.178 Y-12.134 E0.0249
G1 X15.109 Y0.797 E0.6994
G1 X15.109 Y0.146 E0.0249
G1 X2.178 Y-12.784 E0.6994
G1 X2.178 Y-13.435 E0.0249
G1 X15.109 Y-0.504 E0.6995
G1 X15.109 Y-1.155 E0.0249
G1 X2.178 Y-14.085 E0.6995
G1 X2.178 Y-14.736 E0.0249
G1 X15.109 Y-1.805 E0.6995
G1 X15.109 Y-2.456 E0.0249
G1 X2.178 Y-15.387 E0.6995
G1 X2.178 Y-16.037 E0.0249
G1 X15.109 Y-3.106 E0.6995
G1 X15.109 Y-3.756 E0.0249
G1 X2.178 Y-16.688 E0.6995
G1 X2.178 Y-17.338 E0.0249
G1 X15.109 Y-4.407 E0.6995
G1 X15.109 Y-5.057 E0.0249
G1 X2.178 Y-17.989 E0.6995
G1 X2.178 Y-18.639 E0.0249
G1 X15.109 Y-5.708 E0.6995
G1 X15.110 Y-6.358 E0.0249
G1 X2.178 Y-19.290 E0.6995
G1 X2.178 Y-19.940 E0.0249
G1 X15.110 Y-7.009 E0.6995
G1 X15.110 Y-7.659 E0.0249
G1 X2.178 Y-20.591 E0.6995
G1 X2.178 Y-21.241 E0.0249
G1 X15.110 Y-8.310 E0.6995
G1 X15.110 Y-8.960 E0.0249
G1 X2.178 Y-21.892 E0.6995
G1 X2.178 Y-22.542 E0.0249
G1 X15.110 Y-9.610 E0.6995
G1 X15.110 Y-10.261 E0.0249
G1 X2.178 Y-23.193 E0.6995
G1 X2.178 Y-23.844 E0.0249
G1 X15.110 Y-10.911 E0.6995
G1 X15.110 Y-11.562 E0.0249
G1 X2.178 Y-24.494 E0.6995
G1 X2.178 Y-25.145 E0.0249
G1 X15.110 Y-12.212 E0.6995
G1 X15.110 Y-12.863 E0.0249
G1 X2.178 Y-25.795 E0.6995
G1 X2.178 Y-26.446 E0.0249
G1 X15.111 Y-13.513 E0.6996
G1 X15.111 Y-14.066 E0.0211
G1 X15.209 Y-14.066 E0.0038
G1 X2.178 Y-27.096 E0.7049
G1 X2.178 Y-27.747 E0.0249
G1 X15.859 Y-14.066 E0.7401
G1 X16.510 Y-14.066 E0.0249
G1 X2.178 Y-28.397 E0.7752
G1 X2.178 Y-29.048 E0.0249
G1 X17.160 Y-14.066 E0.8104
G1 X17.811 Y-14.066 E0.0249
G1 X2.178 Y-29.698 E0.8456
G1 X2.178 Y-30.349 E0.0249
G1 X18.461 Y-14.066 E0.8808
G1 X19.112 Y-14.066 E0.0249
G1 X2.178 Y-30.999 E0.9160
G1 X2.178 Y-31.650 E0.0249
G1 X19.762 Y-14.066 E0.9512
G1 X20.413 Y-14.066 E0.0249
G1 X2.178 Y-32.301 E0.9864
G1 X2.178 Y-32.951 E0.0249
G1 X21.064 Y-14.066 E1.0216
G1 X21.714 Y-14.066 E0.0249
G1 X2.178 Y-33.602 E1.0568
G1 X2.178 Y-34.252 E0.0249
G1 X22.365 Y-14.066 E1.0919
G1 X23.015 Y-14.066 E0.0249
G1 X2.178 Y-34.903 E1.1271
G1 X2.178 Y-35.553 E0.0249
G1 X23.666 Y-14.066 E1.1623
G1 X24.316 Y-14.066 E0.0249
G1 X2.178 Y-36.204 E1.1975
G1 X2.178 Y-36.854 E0.0249
G1 X24.967 Y-14.066 E1.2327
G1 X25.617 Y-14.066 E0.0249
G1 X2.178 Y-37.505 E1.2679
G1 X2.178 Y-38.155 E0.0249
G1 X26.268 Y-14.066 E1.3031
G1 X26.918 Y-14.066 E0.0249
G1 X2.178 Y-38.806 E1.3383
G1 E-1.9000 F1200
G1 Z0.700 F1200
G1 X15.108 Y-44.091 F9000
G1 Z0.200 F1200
G1 E1.9000 F1200
G1 X14.703 Y-44.496 E0.0219 F2400
G1 X14.053 Y-44.496 E0.0249
G1 X15.108 Y-43.440 E0.0571
G1 X15.108 Y-42.790 E0.0249
G1 X13.402 Y-44.496 E0.0923
G1 X12.752 Y-44.496 E0.0249
G1 X15.108 Y-42.139 E0.1275
G1 X15.109 Y-41.488 E0.0249
G1 X12.101 Y-44.496 E0.1627
G1 X11.451 Y-44.496 E0.0249
G1 X15.109 Y-40.838 E0.1979
G1 X15.109 Y-40.187 E0.0249
G1 X10.800 Y-44.496 E0.2331
G1 X10.150 Y-44.496 E0.0249
G1 X15.109 Y-39.536 E0.2683
G1 X15.109 Y-38.886 E0.0249
G1 X9.499 Y-44.496 E0.3034
G1 X8.849 Y-44.496 E0.0249
G1 X15.109 Y-38.235 E0.3386
G1 X15.109 Y-37.584 E0.0249
G1 X8.198 Y-44.496 E0.3738
G1 X7.548 Y-44.496 E0.0249
G1 X15.109 Y-36.934 E0.4090
G1 X15.109 Y-36.283 E0.0249
G1 X6.897 Y-44.496 E0.4442
G1 X6.246 Y-44.496 E0.0249
G1 X15.109 Y-35.633 E0.4794
G1 X15.110 Y-34.982 E0.0249
G1 X5.596 Y-44.496 E0.5146
G1 X4.945 Y-44.496 E0.0249
G1 X15.110 Y-34.331 E0.5498
G1 X15.110 Y-33.681 E0.0249
G1 X4.295 Y-44.496 E0.5850
G1 X3.644 Y-44.496 E0.0249
G1 X15.110 Y-33.030 E0.6202
G1 X15.110 Y-32.379 E0.0249
G1 X2.994 Y-44.496 E0.6554
G1 X2.343 Y-44.496 E0.0249
G1 X15.110 Y-31.729 E0.6906
G1 X15.110 Y-31.078 E0.0249
G1 X2.178 Y-44.010 E0.6995
G1 X2.178 Y-43.360 E0.0249
G1 X15.110 Y-30.428 E0.6995
G1 X15.110 Y-29.777 E0.0249
G1 X2.178 Y-42.709 E0.6995
G1 X2.178 Y-42.059 E0.0249
G1 X15.110 Y-29.126 E0.6995
G1 X15.110 Y-28.476 E0.0249
G1 X2.178 Y-41.408 E0.6995
G1 X2.178 Y-40.758 E0.0249
G1 X15.111 Y-27.825 E0.6996
G1 X15.111 Y-27.174 E0.0249
G1 X2.178 Y-40.107 E0.6996
G1 X2.178 Y-39.456 E0.0249
G1 X27.569 Y-14.066 E1.3735
G1 X28.219 Y-14.066 E0.0249
G1 X15.289 Y-26.996 E0.6994
G1 X15.940 Y-26.996 E0.0249
G1 X28.870 Y-14.066 E0.6994
G1 X29.521 Y-14.066 E0.0249
G1 X16.591 Y-26.996 E0.6994
G1 X17.241 Y-26.996 E0.0249
G1 X30.171 Y-14.066 E0.6994
G1 X30.822 Y-14.066 E0.0249
G1 X17.892 Y-26.996 E0.6994
G1 X18.542 Y-26.996 E0.0249
G1 X31.472 Y-14.066 E0.6994
G1 X32.062 Y-14.066 E0.0226
G1 X32.062 Y-13.476 E0.0226
G1 X44.992 Y-0.546 E0.6994
G1 X44.992 Y-1.196 E0.0249
G1 X19.193 Y-26.996 E1.3956
G1 X19.843 Y-26.996 E0.0249
G1 X44.992 Y-1.847 E1.3604
G1 X44.992 Y-2.497 E0.0249
G1 X20.494 Y-26.996 E1.3252
G1 X21.144 Y-26.996 E0.0249
G1 X44.992 Y-3.148 E1.2900
G1 X44.992 Y-3.798 E0.0249
G1 X21.795 Y-26.996 E1.2548
G1 X22.445 Y-26.996 E0.0249
G1 X44.992 Y-4.449 E1.2196
G1 X44.992 Y-5.099 E0.0249
G1 X23.096 Y-26.996 E1.1844
G1 X23.746 Y-26.996 E0.0249
G1 X44.992 Y-5.750 E1.1492
G1 X44.992 Y-6.400 E0.0249
G1 X24.397 Y-26.996 E1.1140
G1 X25.048 Y-26.996 E0.0249
G1 X44.992 Y-7.051 E1.0789
G1 X44.992 Y-7.702 E0.0249
G1 X25.698 Y-26.996 E1.0437
G1 X26.349 Y-26.996 E0.0249
G1 X44.992 Y-8.352 E1.0085
G1 X44.992 Y-9.003 E0.0249
G1 X26.999 Y-26.996 E0.9733
G1 X27.650 Y-26.996 E0.0249
G1 X44.992 Y-9.653 E0.9381
G1 X44.992 Y-10.304 E0.0249
G1 X28.300 Y-26.996 E0.9029
G1 X28.951 Y-26.996 E0.0249
G1 X44.992 Y-10.954 E0.8677
G1 X44.992 Y-11.605 E0.0249
G1 X29.601 Y-26.996 E0.8325
G1 X30.252 Y-26.996 E0.0249
G1 X44.992 Y-12.255 E0.7973
G1 X44.992 Y-12.906 E0.0249
G1 X30.902 Y-26.996 E0.7621
G1 X31.553 Y-26.996 E0.0249
G1 X44.992 Y-13.556 E0.7270
G1 X44.992 Y-14.066 E0.0195
G1 X45.133 Y-14.066 E0.0054
G1 X32.062 Y-27.137 E0.7071
G1 X32.062 Y-27.787 E0.0249
G1 X45.784 Y-14.066 E0.7423
G1 X46.435 Y-14.066 E0.0249
G1 X32.062 Y-28.438 E0.7774
G1 X32.062 Y-29.089 E0.0249
G1 X47.085 Y-14.066 E0.8126
G1 X47.736 Y-14.066 E0.0249
G1 X32.062 Y-29.739 E0.8478
G1 X32.062 Y-30.390 E0.0249
G1 X48.386 Y-14.066 E0.8830
G1 X49.037 Y-14.066 E0.0249
G1 X32.062 Y-31.040 E0.9182
G1 X32.062 Y-31.691 E0.0249
G1 X49.687 Y-14.066 E0.9534
G1 X50.338 Y-14.066 E0.0249
G1 X32.062 Y-32.341 E0.9886
G1 X32.062 Y-32.992 E0.0249
G1 X50.988 Y-14.066 E1.0238
G1 X51.639 Y-14.066 E0.0249
G1 X32.062 Y-33.642 E1.0590
G1 X32.062 Y-34.293 E0.0249
G1 X52.289 Y-14.066 E1.0941
G1 X52.940 Y-14.066 E0.0249
G1 X32.062 Y-34.943 E1.1293
G1 X32.062 Y-35.594 E0.0249
G1 X53.590 Y-14.066 E1.1645
G1 X54.241 Y-14.066 E0.0249
G1 X32.062 Y-36.244 E1.1997
G1 X32.062 Y-36.895 E0.0249
