; G-Code generated by Simplify3D(R) Version 4.1.2
; Apr 2, 2020 at 1:26:54 PM
; Settings Summary
;   processName,Process1
;   applyToModels,BOB bkt
;   profileName,MakerBot Replicator 2 HBP (modified)
;   profileVersion,2020-03-12 10:48:50
;   baseProfile,MakerBot Replicator 2(2)
;   printMaterial,PLA
;   printQuality,Medium
;   printExtruders,
;   extruderName,Primary Extruder
;   extruderToolheadNumber,0
;   extruderDiameter,0.4
;   extruderAutoWidth,0
;   extruderWidth,0.4
;   extrusionMultiplier,1
;   extruderUseRetract,1
;   extruderRetractionDistance,1.9
;   extruderExtraRestartDistance,0
;   extruderRetractionZLift,0.5
;   extruderRetractionSpeed,1200
;   extruderUseCoasting,0
;   extruderCoastingDistance,0.2
;   extruderUseWipe,0
;   extruderWipeDistance,5
;   primaryExtruder,0
;   layerHeight,0.2
;   topSolidLayers,3
;   bottomSolidLayers,3
;   perimeterOutlines,2
;   printPerimetersInsideOut,1
;   startPointOption,3
;   startPointOriginX,0
;   startPointOriginY,150
;   sequentialIslands,0
;   spiralVaseMode,0
;   firstLayerHeightPercentage,100
;   firstLayerWidthPercentage,115
;   firstLayerUnderspeed,0.5
;   useRaft,0
;   raftExtruder,0
;   raftTopLayers,2
;   raftBaseLayers,1
;   raftOffset,1
;   raftSeparationDistance,0.14
;   raftTopInfill,90
;   aboveRaftSpeedMultiplier,0.3
;   useSkirt,0
;   skirtExtruder,0
;   skirtLayers,1
;   skirtOutlines,5
;   skirtOffset,0
;   usePrimePillar,0
;   primePillarExtruder,999
;   primePillarWidth,12
;   primePillarLocation,7
;   primePillarSpeedMultiplier,1
;   useOozeShield,0
;   oozeShieldExtruder,999
;   oozeShieldOffset,2
;   oozeShieldOutlines,1
;   oozeShieldSidewallShape,1
;   oozeShieldSidewallAngle,30
;   oozeShieldSpeedMultiplier,1
;   infillExtruder,0
;   internalInfillPattern,Rectilinear
;   externalInfillPattern,Rectilinear
;   infillPercentage,15
;   outlineOverlapPercentage,25
;   infillExtrusionWidthPercentage,100
;   minInfillLength,5
;   infillLayerInterval,1
;   internalInfillAngles,45,-45
;   overlapInternalInfillAngles,0
;   externalInfillAngles,45,-45
;   generateSupport,0
;   supportExtruder,0
;   supportInfillPercentage,30
;   supportExtraInflation,0.5
;   supportBaseLayers,0
;   denseSupportExtruder,0
;   denseSupportLayers,2
;   denseSupportInfillPercentage,90
;   supportLayerInterval,1
;   supportHorizontalPartOffset,0.3
;   supportUpperSeparationLayers,1
;   supportLowerSeparationLayers,1
;   supportType,1
;   supportGridSpacing,2
;   maxOverhangAngle,45
;   supportAngles,45,-45
;   temperatureName,Primary Extruder,Heated Build Platform
;   temperatureNumber,0,0
;   temperatureSetpointCount,1,1
;   temperatureSetpointLayers,1,1
;   temperatureSetpointTemperatures,230,60
;   temperatureStabilizeAtStartup,1,1
;   temperatureHeatedBed,0,1
;   fanLayers,1,2
;   fanSpeeds,0,100
;   blipFanToFullPower,1
;   adjustSpeedForCooling,1
;   minSpeedLayerTime,15
;   minCoolingSpeedSlowdown,20
;   increaseFanForCooling,1
;   minFanLayerTime,45
;   maxCoolingFanSpeed,100
;   increaseFanForBridging,1
;   bridgingFanSpeed,100
;   use5D,1
;   relativeEdistances,1
;   allowEaxisZeroing,0
;   independentExtruderAxes,1
;   includeM10123,0
;   stickySupport,1
;   applyToolheadOffsets,0
;   gcodeXoffset,0
;   gcodeYoffset,0
;   gcodeZoffset,0
;   overrideMachineDefinition,1
;   machineTypeOverride,0
;   strokeXoverride,280
;   strokeYoverride,150
;   strokeZoverride,150
;   originOffsetXoverride,140
;   originOffsetYoverride,75
;   originOffsetZoverride,0
;   homeXdirOverride,1
;   homeYdirOverride,1
;   homeZdirOverride,-1
;   flipXoverride,1
;   flipYoverride,-1
;   flipZoverride,1
;   toolheadOffsets,0,0|0,0|0,0|0,0|0,0|0,0
;   overrideFirmwareConfiguration,1
;   firmwareTypeOverride,MakerBot/Sailfish Firmware
;   GPXconfigOverride,r2h
;   baudRateOverride,115200
;   overridePrinterModels,1
;   printerModelsOverride,MakerBot_Replicator2.stl
;   startingGcode,; **** Replicator 2 start.gcode ****,M73 P0 ; enable build progress,G162 X Y F3000 ; home XY maximum,G161 Z F1200 ; home Z minimum,G92 Z-5 ; set Z to -5,G1 Z0 ; move Z to 0,G161 Z F100 ; home Z slowly,M132 X Y Z A B ; recall home offsets,G1 X-145 Y-75 Z30 F9000 ; move to wait position off table,G130 X20 Y20 Z20 A20 B20 ; lower stepper Vrefs while heating,M126 S[fan_speed_pwm],M140 S[bed0_temperature] T0,M134 T0 ; stabilize bed temperature,M104 S[extruder0_temperature] T0,M133 T0 ; stabilize extruder temperature,G130 X127 Y127 Z40 A127 B127 ; default stepper Vrefs,G92 A0 ; zero extruder,G1 Z0.4 ; position nozzle,G1 E25 F300 ; purge nozzle,G1 X-140 Y-70 Z0.15 F1200 ; slow wipe,G1 X-135 Y-65 Z0.5 F1200 ; lift,G92 A0 ; zero extruder,M73 P1 ;@body (notify GPX body has started),; **** end of start.gcode ****
;   layerChangeGcode,
;   retractionGcode,
;   toolChangeGcode,
;   endingGcode,; **** Replicator 2 end.gcode ****,M73 P100 ; end build progress,G1 Z155 F1000 ; send Z axis to bottom of machine,M104 S0 T0 ; cool down extruder,M140 S0 T0 ; cool down HBP,M127 ; stop blower fan,G162 X Y F3000 ; home XY maximum,M18 ; disable stepper,M0 ; stop codes,M72 P1 ; play Ta-Da song,; **** end of end.gcode ****
;   exportFileFormat,gcode
;   celebration,0
;   celebrationSong,Random Song
;   postProcessing,
;   defaultSpeed,4800
;   outlineUnderspeed,0.5
;   solidInfillUnderspeed,1
;   supportUnderspeed,1
;   rapidXYspeed,9000
;   rapidZspeed,1200
;   minBridgingArea,50
;   bridgingExtraInflation,0
;   bridgingExtrusionMultiplier,1
;   bridgingSpeedMultiplier,0.8
;   useFixedBridgingAngle,0
;   fixedBridgingAngle,0
;   applyBridgingToPerimeters,0
;   filamentDiameters,1.75|1.75|1.75|1.75|1.75|1.75
;   filamentPricesPerKg,46|46|46|46|46|46
;   filamentDensities,1.25|1.25|1.25|1.25|1.25|1.25
;   useMinPrintHeight,0
;   minPrintHeight,0
;   useMaxPrintHeight,0
;   maxPrintHeight,4.84
;   useDiaphragm,0
;   diaphragmLayerInterval,20
;   robustSlicing,1
;   mergeAllIntoSolid,0
;   onlyRetractWhenCrossingOutline,0
;   retractBetweenLayers,0
;   useRetractionMinTravel,1
;   retractionMinTravel,7
;   retractWhileWiping,1
;   onlyWipeOutlines,1
;   avoidCrossingOutline,0
;   maxMovementDetourFactor,3
;   toolChangeRetractionDistance,12
;   toolChangeExtraRestartDistance,-0.5
;   toolChangeRetractionSpeed,600
;   externalThinWallType,0
;   internalThinWallType,0
;   thinWallAllowedOverlapPercentage,10
;   singleExtrusionMinLength,1
;   singleExtrusionMinPrintingWidthPercentage,50
;   singleExtrusionMaxPrintingWidthPercentage,200
;   singleExtrusionEndpointExtension,0.2
;   horizontalSizeCompensation,0
G90
M83
; **** Replicator 2 start.gcode ****
M73 P0 ; enable build progress
G162 X Y F3000 ; home XY maximum
G161 Z F1200 ; home Z minimum
G92 Z-5 ; set Z to -5
G1 Z0 ; move Z to 0
G161 Z F100 ; home Z slowly
M132 X Y Z A B ; recall home offsets
G1 X-145 Y-75 Z30 F9000 ; move to wait position off table
G130 X20 Y20 Z20 A20 B20 ; lower stepper Vrefs while heating
M127
M140 S60 T0
M134 T0 ; stabilize bed temperature
M104 S230 T0
M133 T0 ; stabilize extruder temperature
G130 X127 Y127 Z40 A127 B127 ; default stepper Vrefs
G92 A0 ; zero extruder
G1 Z0.4 ; position nozzle
G1 E25 F300 ; purge nozzle
G1 X-140 Y-70 Z0.15 F1200 ; slow wipe
G1 X-135 Y-65 Z0.5 F1200 ; lift
G92 A0 ; zero extruder
M73 P1 ;@body (notify GPX body has started)
; **** end of start.gcode ****
; process Process1
; layer 1, Z = 0.200
M135 T0
G1 E-1.9000 F1200
; feature inner perimeter
; tool H0.200 W0.460
G1 Z0.500 F1200
G1 X11.032 Y16.810 F9000
G1 Z0.200 F1200
G1 E1.9000 F1200
G1 X-11.056 Y16.810 E0.8448 F1800
G1 X-11.056 Y-16.810 E1.2859
G1 X11.032 Y-16.810 E0.8448
G1 X11.032 Y16.810 E1.2859
; feature outer perimeter
G1 X11.492 Y17.270 F9000
G1 X-11.516 Y17.270 E0.8800 F1200
G1 X-11.516 Y-17.270 E1.3211
G1 X11.492 Y-17.270 E0.8800
G1 X11.492 Y17.270 E1.3211
G1 E-1.9000 F1200
; feature solid layer
G1 Z0.700 F1200
G1 X-10.207 Y16.465 F9000
G1 Z0.200 F1200
G1 E1.9000 F1200
G1 X-10.711 Y15.961 E0.0272 F2400
G1 X-10.711 Y15.311 E0.0249
G1 X-9.557 Y16.465 E0.0624
G1 X-8.906 Y16.465 E0.0249
G1 X-10.711 Y14.660 E0.0976
G1 X-10.711 Y14.010 E0.0249
G1 X-8.255 Y16.465 E0.1328
G1 X-7.605 Y16.465 E0.0249
G1 X-10.711 Y13.359 E0.1680
G1 X-10.711 Y12.709 E0.0249
G1 X-6.954 Y16.465 E0.2032
G1 X-6.304 Y16.465 E0.0249
G1 X-10.711 Y12.058 E0.2384
G1 X-10.711 Y11.408 E0.0249
G1 X-5.653 Y16.465 E0.2736
G1 X-5.003 Y16.465 E0.0249
G1 X-10.711 Y10.757 E0.3088
G1 X-10.711 Y10.107 E0.0249
G1 X-4.352 Y16.465 E0.3439
G1 X-3.702 Y16.465 E0.0249
G1 X-10.711 Y9.456 E0.3791
G1 X-10.711 Y8.806 E0.0249
G1 X-3.051 Y16.465 E0.4143
G1 X-2.401 Y16.465 E0.0249
G1 X-10.711 Y8.155 E0.4495
G1 X-10.711 Y7.504 E0.0249
G1 X-1.750 Y16.465 E0.4847
G1 X-1.100 Y16.465 E0.0249
G1 X-10.711 Y6.854 E0.5199
G1 X-10.711 Y6.203 E0.0249
G1 X-0.449 Y16.465 E0.5551
G1 X0.202 Y16.465 E0.0249
G1 X-10.711 Y5.553 E0.5903
G1 X-10.711 Y4.902 E0.0249
G1 X0.852 Y16.465 E0.6255
G1 X1.503 Y16.465 E0.0249
G1 X-10.711 Y4.252 E0.6606
G1 X-10.711 Y3.601 E0.0249
G1 X2.153 Y16.465 E0.6958
G1 X2.804 Y16.465 E0.0249
G1 X-10.711 Y2.951 E0.7310
G1 X-10.711 Y2.300 E0.0249
G1 X3.454 Y16.465 E0.7662
G1 X4.105 Y16.465 E0.0249
G1 X-10.711 Y1.650 E0.8014
G1 X-10.711 Y0.999 E0.0249
G1 X4.755 Y16.465 E0.8366
G1 X5.406 Y16.465 E0.0249
G1 X-10.711 Y0.349 E0.8718
G1 X-10.711 Y-0.302 E0.0249
G1 X6.056 Y16.465 E0.9070
G1 X6.707 Y16.465 E0.0249
G1 X-10.711 Y-0.953 E0.9422
G1 X-10.711 Y-1.603 E0.0249
G1 X7.357 Y16.465 E0.9773
G1 X8.008 Y16.465 E0.0249
G1 X-10.711 Y-2.254 E1.0125
G1 X-10.711 Y-2.904 E0.0249
G1 X8.659 Y16.465 E1.0477
G1 X9.309 Y16.465 E0.0249
G1 X-10.711 Y-3.555 E1.0829
G1 X-10.711 Y-4.205 E0.0249
G1 X9.960 Y16.465 E1.1181
G1 X10.610 Y16.465 E0.0249
G1 X-10.711 Y-4.856 E1.1533
G1 X-10.711 Y-5.506 E0.0249
G1 X10.687 Y15.891 E1.1574
G1 X10.687 Y15.240 E0.0249
G1 X-10.711 Y-6.157 E1.1574
G1 X-10.711 Y-6.807 E0.0249
G1 X10.687 Y14.590 E1.1574
G1 X10.687 Y13.939 E0.0249
G1 X-10.711 Y-7.458 E1.1574
G1 X-10.711 Y-8.108 E0.0249
G1 X10.687 Y13.289 E1.1574
G1 X10.687 Y12.638 E0.0249
G1 X-10.711 Y-8.759 E1.1574
G1 X-10.711 Y-9.410 E0.0249
G1 X10.687 Y11.988 E1.1574
G1 X10.687 Y11.337 E0.0249
G1 X-10.711 Y-10.060 E1.1574
G1 X-10.711 Y-10.711 E0.0249
G1 X10.687 Y10.687 E1.1574
G1 X10.687 Y10.036 E0.0249
G1 X-10.711 Y-11.361 E1.1574
G1 X-10.711 Y-12.012 E0.0249
G1 X10.687 Y9.386 E1.1574
G1 X10.687 Y8.735 E0.0249
G1 X-10.711 Y-12.662 E1.1574
G1 X-10.711 Y-13.313 E0.0249
G1 X10.687 Y8.084 E1.1574
G1 X10.687 Y7.434 E0.0249
G1 X-10.711 Y-13.963 E1.1574
G1 X-10.711 Y-14.614 E0.0249
G1 X10.687 Y6.783 E1.1574
G1 X10.687 Y6.133 E0.0249
G1 X-10.711 Y-15.264 E1.1574
G1 X-10.711 Y-15.915 E0.0249
G1 X10.687 Y5.482 E1.1574
G1 X10.687 Y4.832 E0.0249
G1 X-10.610 Y-16.465 E1.1520
G1 X-9.960 Y-16.465 E0.0249
G1 X10.687 Y4.181 E1.1168
G1 X10.687 Y3.531 E0.0249
G1 X-9.309 Y-16.465 E1.0816
G1 X-8.659 Y-16.465 E0.0249
G1 X10.687 Y2.880 E1.0464
G1 X10.687 Y2.230 E0.0249
G1 X-8.008 Y-16.465 E1.0112
G1 X-7.357 Y-16.465 E0.0249
G1 X10.687 Y1.579 E0.9760
G1 X10.687 Y0.929 E0.0249
G1 X-6.707 Y-16.465 E0.9409
G1 X-6.056 Y-16.465 E0.0249
G1 X10.687 Y0.278 E0.9057
G1 X10.687 Y-0.373 E0.0249
G1 X-5.406 Y-16.465 E0.8705
G1 X-4.755 Y-16.465 E0.0249
G1 X10.687 Y-1.023 E0.8353
G1 X10.687 Y-1.674 E0.0249
G1 X-4.105 Y-16.465 E0.8001
G1 X-3.454 Y-16.465 E0.0249
G1 X10.687 Y-2.324 E0.7649
G1 X10.687 Y-2.975 E0.0249
G1 X-2.804 Y-16.465 E0.7297
G1 X-2.153 Y-16.465 E0.0249
G1 X10.687 Y-3.625 E0.6945
G1 X10.687 Y-4.276 E0.0249
G1 X-1.503 Y-16.465 E0.6593
G1 X-0.852 Y-16.465 E0.0249
G1 X10.687 Y-4.926 E0.6242
G1 X10.687 Y-5.577 E0.0249
G1 X-0.202 Y-16.465 E0.5890
G1 X0.449 Y-16.465 E0.0249
G1 X10.687 Y-6.227 E0.5538
G1 X10.687 Y-6.878 E0.0249
G1 X1.100 Y-16.465 E0.5186
G1 X1.750 Y-16.465 E0.0249
G1 X10.687 Y-7.528 E0.4834
G1 X10.687 Y-8.179 E0.0249
G1 X2.401 Y-16.465 E0.4482
G1 X3.051 Y-16.465 E0.0249
G1 X10.687 Y-8.830 E0.4130
G1 X10.687 Y-9.480 E0.0249
G1 X3.702 Y-16.465 E0.3778
G1 X4.352 Y-16.465 E0.0249
G1 X10.687 Y-10.131 E0.3426
G1 X10.687 Y-10.781 E0.0249
G1 X5.003 Y-16.465 E0.3075
G1 X5.653 Y-16.465 E0.0249
G1 X10.687 Y-11.432 E0.2723
G1 X10.687 Y-12.082 E0.0249
G1 X6.304 Y-16.465 E0.2371
G1 X6.954 Y-16.465 E0.0249
G1 X10.687 Y-12.733 E0.2019
G1 X10.687 Y-13.383 E0.0249
G1 X7.605 Y-16.465 E0.1667
G1 X8.255 Y-16.465 E0.0249
G1 X10.687 Y-14.034 E0.1315
G1 X10.687 Y-14.684 E0.0249
G1 X8.906 Y-16.465 E0.0963
G1 X9.557 Y-16.465 E0.0249
G1 X10.687 Y-15.335 E0.0611
G1 X10.687 Y-15.985 E0.0249
G1 X10.207 Y-16.465 E0.0259
G1 E-1.9000 F1200
; layer 2, Z = 0.400
M126 S255
; feature inner perimeter
; tool H0.200 W0.400
G1 Z0.700 F1200
G1 X11.074 Y16.900 F9000
G1 Z0.400 F1200
G1 E1.9000 F1200
G1 X-11.146 Y16.900 E0.7390 F3600
G1 X-11.146 Y-16.900 E1.1242
G1 X11.074 Y-16.900 E0.7390
G1 X11.074 Y16.900 E1.1242
; feature outer perimeter
G1 X11.474 Y17.300 F9000
G1 X-11.546 Y17.300 E0.7656 F2400
G1 X-11.546 Y-17.300 E1.1508
G1 X11.474 Y-17.300 E0.7656
G1 X11.474 Y17.300 E1.1508
; feature solid layer
G1 X10.774 Y16.379 F9000
G1 X10.553 Y16.600 E0.0104 F4800
G1 X9.987 Y16.600 E0.0188
G1 X10.774 Y15.814 E0.0370
G1 X10.774 Y15.248 E0.0188
G1 X9.422 Y16.600 E0.0636
G1 X8.856 Y16.600 E0.0188
G1 X10.774 Y14.682 E0.0902
G1 X10.774 Y14.117 E0.0188
G1 X8.290 Y16.600 E0.1168
G1 X7.725 Y16.600 E0.0188
G1 X10.774 Y13.551 E0.1434
G1 X10.774 Y12.985 E0.0188
G1 X7.159 Y16.600 E0.1700
G1 X6.593 Y16.600 E0.0188
G1 X10.774 Y12.420 E0.1966
G1 X10.774 Y11.854 E0.0188
G1 X6.027 Y16.600 E0.2232
G1 X5.462 Y16.600 E0.0188
G1 X10.774 Y11.288 E0.2499
G1 X10.774 Y10.722 E0.0188
G1 X4.896 Y16.600 E0.2765
G1 X4.330 Y16.600 E0.0188
G1 X10.774 Y10.157 E0.3031
G1 X10.774 Y9.591 E0.0188
G1 X3.765 Y16.600 E0.3297
G1 X3.199 Y16.600 E0.0188
G1 X10.774 Y9.025 E0.3563
G1 X10.774 Y8.460 E0.0188
G1 X2.633 Y16.600 E0.3829
G1 X2.068 Y16.600 E0.0188
G1 X10.774 Y7.894 E0.4095
G1 X10.774 Y7.328 E0.0188
G1 X1.502 Y16.600 E0.4361
G1 X0.936 Y16.600 E0.0188
G1 X10.774 Y6.763 E0.4627
G1 X10.774 Y6.197 E0.0188
G1 X0.371 Y16.600 E0.4893
G1 X-0.195 Y16.600 E0.0188
G1 X10.774 Y5.631 E0.5159
G1 X10.774 Y5.066 E0.0188
G1 X-0.761 Y16.600 E0.5425
G1 X-1.326 Y16.600 E0.0188
G1 X10.774 Y4.500 E0.5692
G1 X10.774 Y3.934 E0.0188
G1 X-1.892 Y16.600 E0.5958
G1 X-2.458 Y16.600 E0.0188
G1 X10.774 Y3.369 E0.6224
G1 X10.774 Y2.803 E0.0188
G1 X-3.024 Y16.600 E0.6490
G1 X-3.589 Y16.600 E0.0188
G1 X10.774 Y2.237 E0.6756
G1 X10.774 Y1.671 E0.0188
G1 X-4.155 Y16.600 E0.7022
G1 X-4.721 Y16.600 E0.0188
G1 X10.774 Y1.106 E0.7288
G1 X10.774 Y0.540 E0.0188
G1 X-5.286 Y16.600 E0.7554
G1 X-5.852 Y16.600 E0.0188
G1 X10.774 Y-0.026 E0.7820
G1 X10.774 Y-0.591 E0.0188
G1 X-6.418 Y16.600 E0.8086
G1 X-6.983 Y16.600 E0.0188
G1 X10.774 Y-1.157 E0.8352
G1 X10.774 Y-1.723 E0.0188
G1 X-7.549 Y16.600 E0.8618
G1 X-8.115 Y16.600 E0.0188
G1 X10.774 Y-2.288 E0.8884
G1 X10.774 Y-2.854 E0.0188
G1 X-8.680 Y16.600 E0.9151
G1 X-9.246 Y16.600 E0.0188
G1 X10.774 Y-3.420 E0.9417
G1 X10.774 Y-3.985 E0.0188
G1 X-9.812 Y16.600 E0.9683
G1 X-10.377 Y16.600 E0.0188
G1 X10.774 Y-4.551 E0.9949
G1 X10.774 Y-5.117 E0.0188
G1 X-10.846 Y16.503 E1.0169
G1 X-10.846 Y15.937 E0.0188
G1 X10.774 Y-5.682 E1.0169
G1 X10.774 Y-6.248 E0.0188
G1 X-10.846 Y15.371 E1.0169
G1 X-10.846 Y14.805 E0.0188
G1 X10.774 Y-6.814 E1.0169
G1 X10.774 Y-7.379 E0.0188
G1 X-10.846 Y14.240 E1.0169
G1 X-10.846 Y13.674 E0.0188
G1 X10.774 Y-7.945 E1.0169
G1 X10.774 Y-8.511 E0.0188
G1 X-10.846 Y13.108 E1.0169
G1 X-10.846 Y12.543 E0.0188
G1 X10.774 Y-9.077 E1.0169
G1 X10.774 Y-9.642 E0.0188
G1 X-10.846 Y11.977 E1.0169
G1 X-10.846 Y11.411 E0.0188
G1 X10.774 Y-10.208 E1.0169
G1 X10.774 Y-10.774 E0.0188
G1 X-10.846 Y10.846 E1.0169
G1 X-10.846 Y10.280 E0.0188
G1 X10.774 Y-11.339 E1.0169
G1 X10.774 Y-11.905 E0.0188
G1 X-10.846 Y9.714 E1.0169
G1 X-10.846 Y9.149 E0.0188
G1 X10.774 Y-12.471 E1.0169
G1 X10.774 Y-13.036 E0.0188
G1 X-10.846 Y8.583 E1.0169
G1 X-10.846 Y8.017 E0.0188
G1 X10.774 Y-13.602 E1.0169
G1 X10.774 Y-14.168 E0.0188
G1 X-10.846 Y7.452 E1.0169
G1 X-10.846 Y6.886 E0.0188
G1 X10.774 Y-14.733 E1.0169
G1 X10.774 Y-15.299 E0.0188
G1 X-10.846 Y6.320 E1.0169
G1 X-10.846 Y5.754 E0.0188
G1 X10.774 Y-15.865 E1.0169
