; G-Code generated by Simplify3D(R) Version 4.1.2
; Apr 2, 2020 at 1:30:23 PM
; Settings Summary
;   processName,Process1
;   applyToModels,pop tris
;   profileName,MakerBot Replicator 2 HBP (modified)
;   profileVersion,2020-03-12 10:48:50
;   baseProfile,MakerBot Replicator 2(2)
;   printMaterial,PLA
;   printQuality,Medium
;   printExtruders,
;   extruderName,Primary Extruder
;   extruderToolheadNumber,0
;   extruderDiameter,0.4
;   extruderAutoWidth,0
;   extruderWidth,0.4
;   extrusionMultiplier,1
;   extruderUseRetract,1
;   extruderRetractionDistance,1.9
;   extruderExtraRestartDistance,0
;   extruderRetractionZLift,0.5
;   extruderRetractionSpeed,1200
;   extruderUseCoasting,0
;   extruderCoastingDistance,0.2
;   extruderUseWipe,0
;   extruderWipeDistance,5
;   primaryExtruder,0
;   layerHeight,0.2
;   topSolidLayers,3
;   bottomSolidLayers,3
;   perimeterOutlines,2
;   printPerimetersInsideOut,1
;   startPointOption,3
;   startPointOriginX,0
;   startPointOriginY,150
;   sequentialIslands,0
;   spiralVaseMode,0
;   firstLayerHeightPercentage,100
;   firstLayerWidthPercentage,115
;   firstLayerUnderspeed,0.5
;   useRaft,0
;   raftExtruder,0
;   raftTopLayers,2
;   raftBaseLayers,1
;   raftOffset,1
;   raftSeparationDistance,0.14
;   raftTopInfill,90
;   aboveRaftSpeedMultiplier,0.3
;   useSkirt,0
;   skirtExtruder,0
;   skirtLayers,1
;   skirtOutlines,5
;   skirtOffset,0
;   usePrimePillar,0
;   primePillarExtruder,999
;   primePillarWidth,12
;   primePillarLocation,7
;   primePillarSpeedMultiplier,1
;   useOozeShield,0
;   oozeShieldExtruder,999
;   oozeShieldOffset,2
;   oozeShieldOutlines,1
;   oozeShieldSidewallShape,1
;   oozeShieldSidewallAngle,30
;   oozeShieldSpeedMultiplier,1
;   infillExtruder,0
;   internalInfillPattern,Rectilinear
;   externalInfillPattern,Rectilinear
;   infillPercentage,15
;   outlineOverlapPercentage,25
;   infillExtrusionWidthPercentage,100
;   minInfillLength,5
;   infillLayerInterval,1
;   internalInfillAngles,45,-45
;   overlapInternalInfillAngles,0
;   externalInfillAngles,45,-45
;   generateSupport,0
;   supportExtruder,0
;   supportInfillPercentage,30
;   supportExtraInflation,0.5
;   supportBaseLayers,0
;   denseSupportExtruder,0
;   denseSupportLayers,2
;   denseSupportInfillPercentage,90
;   supportLayerInterval,1
;   supportHorizontalPartOffset,0.3
;   supportUpperSeparationLayers,1
;   supportLowerSeparationLayers,1
;   supportType,1
;   supportGridSpacing,2
;   maxOverhangAngle,45
;   supportAngles,45,-45
;   temperatureName,Primary Extruder,Heated Build Platform
;   temperatureNumber,0,0
;   temperatureSetpointCount,1,1
;   temperatureSetpointLayers,1,1
;   temperatureSetpointTemperatures,230,60
;   temperatureStabilizeAtStartup,1,1
;   temperatureHeatedBed,0,1
;   fanLayers,1,2
;   fanSpeeds,0,100
;   blipFanToFullPower,1
;   adjustSpeedForCooling,1
;   minSpeedLayerTime,15
;   minCoolingSpeedSlowdown,20
;   increaseFanForCooling,1
;   minFanLayerTime,45
;   maxCoolingFanSpeed,100
;   increaseFanForBridging,1
;   bridgingFanSpeed,100
;   use5D,1
;   relativeEdistances,1
;   allowEaxisZeroing,0
;   independentExtruderAxes,1
;   includeM10123,0
;   stickySupport,1
;   applyToolheadOffsets,0
;   gcodeXoffset,0
;   gcodeYoffset,0
;   gcodeZoffset,0
;   overrideMachineDefinition,1
;   machineTypeOverride,0
;   strokeXoverride,280
;   strokeYoverride,150
;   strokeZoverride,150
;   originOffsetXoverride,140
;   originOffsetYoverride,75
;   originOffsetZoverride,0
;   homeXdirOverride,1
;   homeYdirOverride,1
;   homeZdirOverride,-1
;   flipXoverride,1
;   flipYoverride,-1
;   flipZoverride,1
;   toolheadOffsets,0,0|0,0|0,0|0,0|0,0|0,0
;   overrideFirmwareConfiguration,1
;   firmwareTypeOverride,MakerBot/Sailfish Firmware
;   GPXconfigOverride,r2h
;   baudRateOverride,115200
;   overridePrinterModels,1
;   printerModelsOverride,MakerBot_Replicator2.stl
;   startingGcode,; **** Replicator 2 start.gcode ****,M73 P0 ; enable build progress,G162 X Y F3000 ; home XY maximum,G161 Z F1200 ; home Z minimum,G92 Z-5 ; set Z to -5,G1 Z0 ; move Z to 0,G161 Z F100 ; home Z slowly,M132 X Y Z A B ; recall home offsets,G1 X-145 Y-75 Z30 F9000 ; move to wait position off table,G130 X20 Y20 Z20 A20 B20 ; lower stepper Vrefs while heating,M126 S[fan_speed_pwm],M140 S[bed0_temperature] T0,M134 T0 ; stabilize bed temperature,M104 S[extruder0_temperature] T0,M133 T0 ; stabilize extruder temperature,G130 X127 Y127 Z40 A127 B127 ; default stepper Vrefs,G92 A0 ; zero extruder,G1 Z0.4 ; position nozzle,G1 E25 F300 ; purge nozzle,G1 X-140 Y-70 Z0.15 F1200 ; slow wipe,G1 X-135 Y-65 Z0.5 F1200 ; lift,G92 A0 ; zero extruder,M73 P1 ;@body (notify GPX body has started),; **** end of start.gcode ****
;   layerChangeGcode,
;   retractionGcode,
;   toolChangeGcode,
;   endingGcode,; **** Replicator 2 end.gcode ****,M73 P100 ; end build progress,G1 Z155 F1000 ; send Z axis to bottom of machine,M104 S0 T0 ; cool down extruder,M140 S0 T0 ; cool down HBP,M127 ; stop blower fan,G162 X Y F3000 ; home XY maximum,M18 ; disable stepper,M0 ; stop codes,M72 P1 ; play Ta-Da song,; **** end of end.gcode ****
;   exportFileFormat,gcode
;   celebration,0
;   celebrationSong,Random Song
;   postProcessing,
;   defaultSpeed,4800
;   outlineUnderspeed,0.5
;   solidInfillUnderspeed,1
;   supportUnderspeed,1
;   rapidXYspeed,9000
;   rapidZspeed,1200
;   minBridgingArea,50
;   bridgingExtraInflation,0
;   bridgingExtrusionMultiplier,1
;   bridgingSpeedMultiplier,0.8
;   useFixedBridgingAngle,0
;   fixedBridgingAngle,0
;   applyBridgingToPerimeters,0
;   filamentDiameters,1.75|1.75|1.75|1.75|1.75|1.75
;   filamentPricesPerKg,46|46|46|46|46|46
;   filamentDensities,1.25|1.25|1.25|1.25|1.25|1.25
;   useMinPrintHeight,0
;   minPrintHeight,0
;   useMaxPrintHeight,0
;   maxPrintHeight,4.84
;   useDiaphragm,0
;   diaphragmLayerInterval,20
;   robustSlicing,1
;   mergeAllIntoSolid,0
;   onlyRetractWhenCrossingOutline,0
;   retractBetweenLayers,0
;   useRetractionMinTravel,1
;   retractionMinTravel,7
;   retractWhileWiping,1
;   onlyWipeOutlines,1
;   avoidCrossingOutline,0
;   maxMovementDetourFactor,3
;   toolChangeRetractionDistance,12
;   toolChangeExtraRestartDistance,-0.5
;   toolChangeRetractionSpeed,600
;   externalThinWallType,0
;   internalThinWallType,0
;   thinWallAllowedOverlapPercentage,10
;   singleExtrusionMinLength,1
;   singleExtrusionMinPrintingWidthPercentage,50
;   singleExtrusionMaxPrintingWidthPercentage,200
;   singleExtrusionEndpointExtension,0.2
;   horizontalSizeCompensation,0
G90
M83
; **** Replicator 2 start.gcode ****
M73 P0 ; enable build progress
G162 X Y F3000 ; home XY maximum
G161 Z F1200 ; home Z minimum
G92 Z-5 ; set Z to -5
G1 Z0 ; move Z to 0
G161 Z F100 ; home Z slowly
M132 X Y Z A B ; recall home offsets
G1 X-145 Y-75 Z30 F9000 ; move to wait position off table
G130 X20 Y20 Z20 A20 B20 ; lower stepper Vrefs while heating
M127
M140 S60 T0
M134 T0 ; stabilize bed temperature
M104 S230 T0
M133 T0 ; stabilize extruder temperature
G130 X127 Y127 Z40 A127 B127 ; default stepper Vrefs
G92 A0 ; zero extruder
G1 Z0.4 ; position nozzle
G1 E25 F300 ; purge nozzle
G1 X-140 Y-70 Z0.15 F1200 ; slow wipe
G1 X-135 Y-65 Z0.5 F1200 ; lift
G92 A0 ; zero extruder
M73 P1 ;@body (notify GPX body has started)
; **** end of start.gcode ****
; process Process1
; layer 1, Z = 0.200
M135 T0
G1 E-1.9000 F1200
; feature inner perimeter
; tool H0.200 W0.460
G1 Z0.500 F1200
G1 X20.466 Y12.656 F9000
G1 Z0.200 F1200
G1 E1.9000 F1200
G1 X22.294 Y9.235 E0.1484 F1800
G1 X23.420 Y5.523 E0.1484
G1 X34.604 Y14.333 E0.5446
G1 X20.466 Y12.656 E0.5446
; feature outer perimeter
G1 X19.743 Y13.033 F9000
G1 X21.867 Y9.058 E0.1724 F1200
G1 X23.176 Y4.744 E0.1724
G1 X36.171 Y14.983 E0.6328
G1 X19.743 Y13.033 E0.6328
; feature inner perimeter
G1 X19.524 Y14.065 F9000
G1 X26.485 Y26.485 E0.5446 F1800
G1 X14.065 Y19.524 E0.5446
G1 X17.063 Y17.063 E0.1484
G1 X19.524 Y14.065 E0.1484
; feature outer perimeter
G1 X19.596 Y13.252 F9000
G1 X27.684 Y27.684 E0.6328 F1200
G1 X13.252 Y19.596 E0.6328
G1 X16.737 Y16.737 E0.1724
G1 X19.596 Y13.252 E0.1724
G1 E-1.9000 F1200
; feature inner perimeter
G1 Z0.700 F1200
G1 X12.656 Y20.466 F9000
G1 Z0.200 F1200
G1 E1.9000 F1200
G1 X14.333 Y34.604 E0.5446 F1800
G1 X5.523 Y23.420 E0.5446
G1 X9.235 Y22.294 E0.1484
G1 X12.656 Y20.466 E0.1484
; feature outer perimeter
G1 X13.033 Y19.743 F9000
G1 X14.983 Y36.171 E0.6328 F1200
G1 X4.744 Y23.176 E0.6328
G1 X9.058 Y21.867 E0.1724
G1 X13.033 Y19.743 E0.1724
G1 E-1.9000 F1200
; feature inner perimeter
G1 Z0.700 F1200
G1 X3.860 Y23.751 F9000
G1 Z0.200 F1200
G1 E1.9000 F1200
G1 X0.000 Y37.455 E0.5446 F1800
G1 X-3.860 Y23.751 E0.5446
G1 X0.000 Y24.131 E0.1484
G1 X3.860 Y23.751 E0.1484
; feature outer perimeter
G1 X4.486 Y23.227 F9000
G1 X0.000 Y39.152 E0.6328 F1200
G1 X-4.486 Y23.227 E0.6328
G1 X0.000 Y23.669 E0.1724
G1 X4.486 Y23.227 E0.1724
G1 E-1.9000 F1200
; feature inner perimeter
G1 Z0.700 F1200
G1 X-5.523 Y23.420 F9000
G1 Z0.200 F1200
G1 E1.9000 F1200
G1 X-14.333 Y34.604 E0.5446 F1800
G1 X-12.656 Y20.466 E0.5446
G1 X-9.235 Y22.294 E0.1484
G1 X-5.523 Y23.420 E0.1484
; feature outer perimeter
G1 X-4.744 Y23.176 F9000
G1 X-14.983 Y36.171 E0.6328 F1200
G1 X-13.033 Y19.743 E0.6328
G1 X-9.058 Y21.867 E0.1724
G1 X-4.744 Y23.176 E0.1724
G1 E-1.9000 F1200
; feature inner perimeter
G1 Z0.700 F1200
G1 X-14.065 Y19.524 F9000
G1 Z0.200 F1200
G1 E1.9000 F1200
G1 X-26.485 Y26.485 E0.5446 F1800
G1 X-19.524 Y14.065 E0.5446
G1 X-17.063 Y17.063 E0.1484
G1 X-14.065 Y19.524 E0.1484
; feature outer perimeter
G1 X-13.252 Y19.596 F9000
G1 X-27.684 Y27.684 E0.6328 F1200
G1 X-19.596 Y13.252 E0.6328
G1 X-16.737 Y16.737 E0.1724
G1 X-13.252 Y19.596 E0.1724
G1 E-1.9000 F1200
; feature inner perimeter
G1 Z0.700 F1200
G1 X-20.466 Y12.656 F9000
G1 Z0.200 F1200
G1 E1.9000 F1200
G1 X-34.604 Y14.333 E0.5446 F1800
G1 X-23.420 Y5.523 E0.5446
G1 X-22.294 Y9.235 E0.1484
G1 X-20.466 Y12.656 E0.1484
; feature outer perimeter
G1 X-19.743 Y13.033 F9000
G1 X-36.171 Y14.983 E0.6328 F1200
G1 X-23.176 Y4.744 E0.6328
G1 X-21.867 Y9.058 E0.1724
G1 X-19.743 Y13.033 E0.1724
G1 E-1.9000 F1200
; feature inner perimeter
G1 Z0.700 F1200
G1 X-23.751 Y3.860 F9000
G1 Z0.200 F1200
G1 E1.9000 F1200
G1 X-37.455 Y0.000 E0.5446 F1800
G1 X-23.751 Y-3.860 E0.5446
G1 X-24.131 Y0.000 E0.1484
G1 X-23.751 Y3.860 E0.1484
; feature outer perimeter
G1 X-23.227 Y4.486 F9000
G1 X-39.152 Y0.000 E0.6328 F1200
G1 X-23.227 Y-4.486 E0.6328
G1 X-23.669 Y0.000 E0.1724
G1 X-23.227 Y4.486 E0.1724
G1 E-1.9000 F1200
; feature inner perimeter
G1 Z0.700 F1200
G1 X-23.420 Y-5.523 F9000
G1 Z0.200 F1200
G1 E1.9000 F1200
G1 X-34.604 Y-14.333 E0.5446 F1800
G1 X-20.466 Y-12.656 E0.5446
G1 X-22.294 Y-9.235 E0.1484
G1 X-23.420 Y-5.523 E0.1484
; feature outer perimeter
G1 X-23.176 Y-4.744 F9000
G1 X-36.171 Y-14.983 E0.6328 F1200
G1 X-19.743 Y-13.033 E0.6328
G1 X-21.867 Y-9.058 E0.1724
G1 X-23.176 Y-4.744 E0.1724
G1 E-1.9000 F1200
; feature inner perimeter
G1 Z0.700 F1200
G1 X-19.524 Y-14.065 F9000
G1 Z0.200 F1200
G1 E1.9000 F1200
G1 X-26.485 Y-26.485 E0.5446 F1800
G1 X-14.065 Y-19.524 E0.5446
G1 X-17.063 Y-17.063 E0.1484
G1 X-19.524 Y-14.065 E0.1484
; feature outer perimeter
G1 X-19.596 Y-13.252 F9000
G1 X-27.684 Y-27.684 E0.6328 F1200
G1 X-13.252 Y-19.596 E0.6328
G1 X-16.737 Y-16.737 E0.1724
G1 X-19.596 Y-13.252 E0.1724
G1 E-1.9000 F1200
; feature inner perimeter
G1 Z0.700 F1200
G1 X-12.656 Y-20.466 F9000
G1 Z0.200 F1200
G1 E1.9000 F1200
G1 X-14.333 Y-34.604 E0.5446 F1800
G1 X-5.523 Y-23.420 E0.5446
G1 X-9.235 Y-22.294 E0.1484
G1 X-12.656 Y-20.466 E0.1484
; feature outer perimeter
G1 X-13.033 Y-19.743 F9000
G1 X-14.983 Y-36.171 E0.6328 F1200
G1 X-4.744 Y-23.176 E0.6328
G1 X-9.058 Y-21.867 E0.1724
G1 X-13.033 Y-19.743 E0.1724
G1 E-1.9000 F1200
; feature inner perimeter
G1 Z0.700 F1200
G1 X-3.860 Y-23.751 F9000
G1 Z0.200 F1200
G1 E1.9000 F1200
G1 X0.000 Y-37.455 E0.5446 F1800
G1 X3.860 Y-23.751 E0.5446
G1 X0.000 Y-24.131 E0.1484
G1 X-3.860 Y-23.751 E0.1484
; feature outer perimeter
G1 X-4.486 Y-23.227 F9000
G1 X0.000 Y-39.152 E0.6328 F1200
G1 X4.486 Y-23.227 E0.6328
G1 X0.000 Y-23.669 E0.1724
G1 X-4.486 Y-23.227 E0.1724
G1 E-1.9000 F1200
; feature inner perimeter
G1 Z0.700 F1200
G1 X5.523 Y-23.420 F9000
G1 Z0.200 F1200
G1 E1.9000 F1200
G1 X14.333 Y-34.604 E0.5446 F1800
G1 X12.656 Y-20.466 E0.5446
G1 X9.235 Y-22.294 E0.1484
G1 X5.523 Y-23.420 E0.1484
; feature outer perimeter
G1 X4.744 Y-23.176 F9000
G1 X14.983 Y-36.171 E0.6328 F1200
G1 X13.033 Y-19.743 E0.6328
G1 X9.058 Y-21.867 E0.1724
G1 X4.744 Y-23.176 E0.1724
G1 E-1.9000 F1200
; feature inner perimeter
G1 Z0.700 F1200
G1 X14.065 Y-19.524 F9000
G1 Z0.200 F1200
G1 E1.9000 F1200
G1 X26.485 Y-26.485 E0.5446 F1800
G1 X19.524 Y-14.065 E0.5446
G1 X17.063 Y-17.063 E0.1484
G1 X14.065 Y-19.524 E0.1484
; feature outer perimeter
G1 X13.252 Y-19.596 F9000
G1 X27.684 Y-27.684 E0.6328 F1200
G1 X19.596 Y-13.252 E0.6328
G1 X16.737 Y-16.737 E0.1724
G1 X13.252 Y-19.596 E0.1724
G1 E-1.9000 F1200
; feature inner perimeter
G1 Z0.700 F1200
G1 X20.466 Y-12.656 F9000
G1 Z0.200 F1200
G1 E1.9000 F1200
G1 X34.604 Y-14.333 E0.5446 F1800
G1 X23.420 Y-5.523 E0.5446
G1 X22.294 Y-9.235 E0.1484
G1 X20.466 Y-12.656 E0.1484
; feature outer perimeter
G1 X19.743 Y-13.033 F9000
G1 X36.171 Y-14.983 E0.6328 F1200
G1 X23.176 Y-4.744 E0.6328
G1 X21.867 Y-9.058 E0.1724
G1 X19.743 Y-13.033 E0.1724
G1 E-1.9000 F1200
; feature inner perimeter
G1 Z0.700 F1200
G1 X23.751 Y-3.860 F9000
G1 Z0.200 F1200
G1 E1.9000 F1200
G1 X37.455 Y0.000 E0.5446 F1800
G1 X23.751 Y3.860 E0.5446
G1 X24.131 Y0.000 E0.1484
G1 X23.751 Y-3.860 E0.1484
; feature outer perimeter
G1 X23.227 Y-4.486 F9000
G1 X39.152 Y0.000 E0.6328 F1200
G1 X23.227 Y4.486 E0.6328
G1 X23.669 Y0.000 E0.1724
G1 X23.227 Y-4.486 E0.1724
; feature solid layer
G1 X23.724 Y-6.201 F9000
G1 X23.510 Y-6.414 E0.0115 F2400
G1 X23.227 Y-7.348 E0.0373
G1 X24.088 Y-6.488 E0.0465
G1 X24.452 Y-6.774 E0.0177
G1 X22.944 Y-8.282 E0.0816
G1 X22.661 Y-9.216 E0.0373
G1 X24.815 Y-7.061 E0.1166
G1 X25.179 Y-7.348 E0.0177
G1 X21.989 Y-10.538 E0.1726
G1 X21.242 Y-11.936 E0.0606
G1 X25.543 Y-7.634 E0.2327
G1 X25.907 Y-7.921 E0.0177
G1 X21.408 Y-12.420 E0.2434
G1 X21.990 Y-12.489 E0.0224
G1 X26.271 Y-8.208 E0.2316
G1 X26.635 Y-8.494 E0.0177
G1 X22.571 Y-12.558 E0.2198
G1 X23.153 Y-12.627 E0.0224
G1 X26.999 Y-8.781 E0.2080
G1 X27.363 Y-9.068 E0.0177
G1 X23.734 Y-12.696 E0.1963
G1 X24.316 Y-12.765 E0.0224
G1 X27.726 Y-9.354 E0.1845
G1 X28.090 Y-9.641 E0.0177
G1 X24.897 Y-12.834 E0.1727
G1 X25.479 Y-12.903 E0.0224
G1 X28.454 Y-9.928 E0.1609
G1 X28.818 Y-10.214 E0.0177
G1 X26.060 Y-12.972 E0.1492
G1 X26.642 Y-13.041 E0.0224
G1 X29.182 Y-10.501 E0.1374
G1 X29.546 Y-10.788 E0.0177
G1 X27.223 Y-13.110 E0.1256
G1 X27.805 Y-13.179 E0.0224
G1 X29.910 Y-11.074 E0.1139
G1 X30.273 Y-11.361 E0.0177
G1 X28.386 Y-13.248 E0.1021
G1 X28.968 Y-13.317 E0.0224
G1 X30.637 Y-11.648 E0.0903
G1 X31.001 Y-11.934 E0.0177
G1 X29.549 Y-13.386 E0.0785
G1 X30.131 Y-13.455 E0.0224
G1 X31.365 Y-12.221 E0.0668
G1 X31.729 Y-12.508 E0.0177
G1 X30.712 Y-13.524 E0.0550
G1 X31.294 Y-13.593 E0.0224
G1 X32.093 Y-12.794 E0.0432
G1 X32.457 Y-13.081 E0.0177
G1 X31.875 Y-13.662 E0.0314
G1 X32.457 Y-13.731 E0.0224
G1 X32.821 Y-13.368 E0.0197
G1 X33.184 Y-13.654 E0.0177
G1 X33.039 Y-13.800 E0.0079
G1 E-1.9000 F1200
G1 Z0.700 F1200
G1 X35.622 Y-0.158 F9000
G1 Z0.200 F1200
G1 E1.9000 F1200
G1 X35.868 Y0.089 E0.0133 F2400
G1 X35.361 Y0.232 E0.0202
G1 X34.716 Y-0.413 E0.0349
G1 X33.810 Y-0.668 E0.0360
G1 X34.853 Y0.375 E0.0564
G1 X34.346 Y0.518 E0.0202
G1 X32.905 Y-0.923 E0.0779
G1 X31.999 Y-1.179 E0.0360
G1 X33.838 Y0.660 E0.0995
G1 X33.330 Y0.803 E0.0202
G1 X31.093 Y-1.434 E0.1210
G1 X30.188 Y-1.689 E0.0360
G1 X32.823 Y0.946 E0.1425
G1 X32.315 Y1.089 E0.0202
G1 X29.282 Y-1.944 E0.1641
G1 X28.376 Y-2.199 E0.0360
G1 X31.808 Y1.232 E0.1856
G1 X31.300 Y1.375 E0.0202
G1 X27.471 Y-2.454 E0.2071
G1 X26.565 Y-2.709 E0.0360
G1 X30.793 Y1.518 E0.2287
G1 X30.285 Y1.661 E0.0202
G1 X25.659 Y-2.964 E0.2502
G1 X24.754 Y-3.219 E0.0360
G1 X29.777 Y1.804 E0.2717
