; G-Code generated by Simplify3D(R) Version 4.1.2
; Apr 2, 2020 at 1:28:16 PM
; Settings Summary
;   processName,Process1
;   applyToModels,popBuilding
;   profileName,MakerBot Replicator 2 HBP (modified)
;   profileVersion,2020-03-12 10:48:50
;   baseProfile,MakerBot Replicator 2(2)
;   printMaterial,PLA
;   printQuality,Medium
;   printExtruders,
;   extruderName,Primary Extruder
;   extruderToolheadNumber,0
;   extruderDiameter,0.4
;   extruderAutoWidth,0
;   extruderWidth,0.4
;   extrusionMultiplier,1
;   extruderUseRetract,1
;   extruderRetractionDistance,1.9
;   extruderExtraRestartDistance,0
;   extruderRetractionZLift,0.5
;   extruderRetractionSpeed,1200
;   extruderUseCoasting,0
;   extruderCoastingDistance,0.2
;   extruderUseWipe,0
;   extruderWipeDistance,5
;   primaryExtruder,0
;   layerHeight,0.2
;   topSolidLayers,3
;   bottomSolidLayers,3
;   perimeterOutlines,2
;   printPerimetersInsideOut,1
;   startPointOption,3
;   startPointOriginX,0
;   startPointOriginY,150
;   sequentialIslands,0
;   spiralVaseMode,0
;   firstLayerHeightPercentage,100
;   firstLayerWidthPercentage,115
;   firstLayerUnderspeed,0.5
;   useRaft,0
;   raftExtruder,0
;   raftTopLayers,2
;   raftBaseLayers,1
;   raftOffset,1
;   raftSeparationDistance,0.14
;   raftTopInfill,90
;   aboveRaftSpeedMultiplier,0.3
;   useSkirt,0
;   skirtExtruder,0
;   skirtLayers,1
;   skirtOutlines,5
;   skirtOffset,0
;   usePrimePillar,0
;   primePillarExtruder,999
;   primePillarWidth,12
;   primePillarLocation,7
;   primePillarSpeedMultiplier,1
;   useOozeShield,0
;   oozeShieldExtruder,999
;   oozeShieldOffset,2
;   oozeShieldOutlines,1
;   oozeShieldSidewallShape,1
;   oozeShieldSidewallAngle,30
;   oozeShieldSpeedMultiplier,1
;   infillExtruder,0
;   internalInfillPattern,Rectilinear
;   externalInfillPattern,Rectilinear
;   infillPercentage,15
;   outlineOverlapPercentage,25
;   infillExtrusionWidthPercentage,100
;   minInfillLength,5
;   infillLayerInterval,1
;   internalInfillAngles,45,-45
;   overlapInternalInfillAngles,0
;   externalInfillAngles,45,-45
;   generateSupport,0
;   supportExtruder,0
;   supportInfillPercentage,30
;   supportExtraInflation,0.5
;   supportBaseLayers,0
;   denseSupportExtruder,0
;   denseSupportLayers,2
;   denseSupportInfillPercentage,90
;   supportLayerInterval,1
;   supportHorizontalPartOffset,0.3
;   supportUpperSeparationLayers,1
;   supportLowerSeparationLayers,1
;   supportType,1
;   supportGridSpacing,2
;   maxOverhangAngle,45
;   supportAngles,45,-45
;   temperatureName,Primary Extruder,Heated Build Platform
;   temperatureNumber,0,0
;   temperatureSetpointCount,1,1
;   temperatureSetpointLayers,1,1
;   temperatureSetpointTemperatures,230,60
;   temperatureStabilizeAtStartup,1,1
;   temperatureHeatedBed,0,1
;   fanLayers,1,2
;   fanSpeeds,0,100
;   blipFanToFullPower,1
;   adjustSpeedForCooling,1
;   minSpeedLayerTime,15
;   minCoolingSpeedSlowdown,20
;   increaseFanForCooling,1
;   minFanLayerTime,45
;   maxCoolingFanSpeed,100
;   increaseFanForBridging,1
;   bridgingFanSpeed,100
;   use5D,1
;   relativeEdistances,1
;   allowEaxisZeroing,0
;   independentExtruderAxes,1
;   includeM10123,0
;   stickySupport,1
;   applyToolheadOffsets,0
;   gcodeXoffset,0
;   gcodeYoffset,0
;   gcodeZoffset,0
;   overrideMachineDefinition,1
;   machineTypeOverride,0
;   strokeXoverride,280
;   strokeYoverride,150
;   strokeZoverride,150
;   originOffsetXoverride,140
;   originOffsetYoverride,75
;   originOffsetZoverride,0
;   homeXdirOverride,1
;   homeYdirOverride,1
;   homeZdirOverride,-1
;   flipXoverride,1
;   flipYoverride,-1
;   flipZoverride,1
;   toolheadOffsets,0,0|0,0|0,0|0,0|0,0|0,0
;   overrideFirmwareConfiguration,1
;   firmwareTypeOverride,MakerBot/Sailfish Firmware
;   GPXconfigOverride,r2h
;   baudRateOverride,115200
;   overridePrinterModels,1
;   printerModelsOverride,MakerBot_Replicator2.stl
;   startingGcode,; **** Replicator 2 start.gcode ****,M73 P0 ; enable build progress,G162 X Y F3000 ; home XY maximum,G161 Z F1200 ; home Z minimum,G92 Z-5 ; set Z to -5,G1 Z0 ; move Z to 0,G161 Z F100 ; home Z slowly,M132 X Y Z A B ; recall home offsets,G1 X-145 Y-75 Z30 F9000 ; move to wait position off table,G130 X20 Y20 Z20 A20 B20 ; lower stepper Vrefs while heating,M126 S[fan_speed_pwm],M140 S[bed0_temperature] T0,M134 T0 ; stabilize bed temperature,M104 S[extruder0_temperature] T0,M133 T0 ; stabilize extruder temperature,G130 X127 Y127 Z40 A127 B127 ; default stepper Vrefs,G92 A0 ; zero extruder,G1 Z0.4 ; position nozzle,G1 E25 F300 ; purge nozzle,G1 X-140 Y-70 Z0.15 F1200 ; slow wipe,G1 X-135 Y-65 Z0.5 F1200 ; lift,G92 A0 ; zero extruder,M73 P1 ;@body (notify GPX body has started),; **** end of start.gcode ****
;   layerChangeGcode,
;   retractionGcode,
;   toolChangeGcode,
;   endingGcode,; **** Replicator 2 end.gcode ****,M73 P100 ; end build progress,G1 Z155 F1000 ; send Z axis to bottom of machine,M104 S0 T0 ; cool down extruder,M140 S0 T0 ; cool down HBP,M127 ; stop blower fan,G162 X Y F3000 ; home XY maximum,M18 ; disable stepper,M0 ; stop codes,M72 P1 ; play Ta-Da song,; **** end of end.gcode ****
;   exportFileFormat,gcode
;   celebration,0
;   celebrationSong,Random Song
;   postProcessing,
;   defaultSpeed,4800
;   outlineUnderspeed,0.5
;   solidInfillUnderspeed,1
;   supportUnderspeed,1
;   rapidXYspeed,9000
;   rapidZspeed,1200
;   minBridgingArea,50
;   bridgingExtraInflation,0
;   bridgingExtrusionMultiplier,1
;   bridgingSpeedMultiplier,0.8
;   useFixedBridgingAngle,0
;   fixedBridgingAngle,0
;   applyBridgingToPerimeters,0
;   filamentDiameters,1.75|1.75|1.75|1.75|1.75|1.75
;   filamentPricesPerKg,46|46|46|46|46|46
;   filamentDensities,1.25|1.25|1.25|1.25|1.25|1.25
;   useMinPrintHeight,0
;   minPrintHeight,0
;   useMaxPrintHeight,0
;   maxPrintHeight,4.84
;   useDiaphragm,0
;   diaphragmLayerInterval,20
;   robustSlicing,1
;   mergeAllIntoSolid,0
;   onlyRetractWhenCrossingOutline,0
;   retractBetweenLayers,0
;   useRetractionMinTravel,1
;   retractionMinTravel,7
;   retractWhileWiping,1
;   onlyWipeOutlines,1
;   avoidCrossingOutline,0
;   maxMovementDetourFactor,3
;   toolChangeRetractionDistance,12
;   toolChangeExtraRestartDistance,-0.5
;   toolChangeRetractionSpeed,600
;   externalThinWallType,0
;   internalThinWallType,0
;   thinWallAllowedOverlapPercentage,10
;   singleExtrusionMinLength,1
;   singleExtrusionMinPrintingWidthPercentage,50
;   singleExtrusionMaxPrintingWidthPercentage,200
;   singleExtrusionEndpointExtension,0.2
;   horizontalSizeCompensation,0
G90
M83
; **** Replicator 2 start.gcode ****
M73 P0 ; enable build progress
G162 X Y F3000 ; home XY maximum
G161 Z F1200 ; home Z minimum
G92 Z-5 ; set Z to -5
G1 Z0 ; move Z to 0
G161 Z F100 ; home Z slowly
M132 X Y Z A B ; recall home offsets
G1 X-145 Y-75 Z30 F9000 ; move to wait position off table
G130 X20 Y20 Z20 A20 B20 ; lower stepper Vrefs while heating
M127
M140 S60 T0
M134 T0 ; stabilize bed temperature
M104 S230 T0
M133 T0 ; stabilize extruder temperature
G130 X127 Y127 Z40 A127 B127 ; default stepper Vrefs
G92 A0 ; zero extruder
G1 Z0.4 ; position nozzle
G1 E25 F300 ; purge nozzle
G1 X-140 Y-70 Z0.15 F1200 ; slow wipe
G1 X-135 Y-65 Z0.5 F1200 ; lift
G92 A0 ; zero extruder
M73 P1 ;@body (notify GPX body has started)
; **** end of start.gcode ****
; process Process1
; layer 1, Z = 0.200
M135 T0
G1 E-1.9000 F1200
; feature inner perimeter
; tool H0.200 W0.460
G1 Z0.500 F1200
G1 X2.971 Y33.459 F9000
G1 Z0.200 F1200
G1 E1.9000 F1200
G1 X-10.339 Y33.457 E0.5091 F1800
G1 X-22.636 Y28.362 E0.5091
G1 X-32.046 Y18.948 E0.5091
G1 X-37.138 Y6.650 E0.5091
G1 X-37.138 Y6.043 E0.0232
G1 X-38.688 Y6.043 E0.0593
G1 X-38.704 Y6.097 E0.0022
G1 X-54.013 Y6.097 E0.5856
G1 X-54.010 Y-6.108 E0.4668
G1 X-38.359 Y-6.108 E0.5986
G1 X-38.321 Y-5.976 E0.0053
G1 X-37.136 Y-6.145 E0.0458
G1 X-37.136 Y-6.650 E0.0193
G1 X-32.041 Y-18.957 E0.5095
G1 X-22.627 Y-28.367 E0.5091
G1 X-10.329 Y-33.459 E0.5091
G1 X2.981 Y-33.457 E0.5091
G1 X15.278 Y-28.362 E0.5091
G1 X24.688 Y-18.948 E0.5091
G1 X29.780 Y-6.650 E0.5091
G1 X29.780 Y-6.043 E0.0232
G1 X31.296 Y-6.043 E0.0580
G1 X31.309 Y-6.097 E0.0021
G1 X54.013 Y-6.097 E0.8684
G1 X54.010 Y6.107 E0.4668
G1 X31.025 Y6.107 E0.8792
G1 X30.995 Y5.986 E0.0048
G1 X29.778 Y6.130 E0.0469
G1 X29.778 Y6.660 E0.0203
G1 X24.683 Y18.957 E0.5091
G1 X15.269 Y28.367 E0.5091
G1 X2.971 Y33.459 E0.5091
; feature outer perimeter
G1 X3.063 Y33.919 F9000
G1 X-10.431 Y33.917 E0.5161 F1200
G1 X-22.896 Y28.752 E0.5161
G1 X-32.436 Y19.209 E0.5161
G1 X-37.598 Y6.742 E0.5161
G1 X-37.598 Y6.503 E0.0091
G1 X-38.343 Y6.503 E0.0285
G1 X-38.359 Y6.557 E0.0022
G1 X-54.473 Y6.557 E0.6164
G1 X-54.470 Y-6.568 E0.5020
G1 X-38.014 Y-6.568 E0.6294
G1 X-37.991 Y-6.487 E0.0032
G1 X-37.596 Y-6.544 E0.0153
G1 X-37.596 Y-6.742 E0.0076
G1 X-32.431 Y-19.217 E0.5165
G1 X-22.888 Y-28.757 E0.5161
G1 X-10.421 Y-33.919 E0.5161
G1 X3.073 Y-33.917 E0.5161
G1 X15.538 Y-28.752 E0.5161
G1 X25.078 Y-19.209 E0.5161
G1 X30.240 Y-6.742 E0.5161
G1 X30.240 Y-6.503 E0.0091
G1 X30.934 Y-6.503 E0.0265
G1 X30.947 Y-6.557 E0.0021
G1 X54.473 Y-6.557 E0.8999
G1 X54.470 Y6.567 E0.5020
G1 X30.662 Y6.567 E0.9106
G1 X30.644 Y6.491 E0.0030
G1 X30.238 Y6.539 E0.0156
G1 X30.238 Y6.752 E0.0081
G1 X25.073 Y19.217 E0.5161
G1 X15.530 Y28.757 E0.5161
G1 X3.063 Y33.919 E0.5161
; feature inner perimeter
G1 X2.871 Y32.954 F9000
G1 X14.984 Y27.939 E0.5014 F1800
G1 X24.255 Y18.671 E0.5014
G1 X29.274 Y6.560 E0.5014
G1 X29.276 Y-6.550 E0.5014
G1 X24.260 Y-18.663 E0.5014
G1 X14.992 Y-27.934 E0.5014
G1 X2.881 Y-32.953 E0.5014
G1 X-10.229 Y-32.954 E0.5014
G1 X-22.341 Y-27.939 E0.5014
G1 X-31.613 Y-18.671 E0.5014
G1 X-36.631 Y-6.560 E0.5014
G1 X-36.633 Y6.550 E0.5014
G1 X-31.618 Y18.663 E0.5014
G1 X-22.350 Y27.934 E0.5014
G1 X-10.239 Y32.953 E0.5014
G1 X2.871 Y32.954 E0.5014
; feature outer perimeter
G1 X2.780 Y32.494 F9000
G1 X14.723 Y27.549 E0.4944 F1200
G1 X23.865 Y18.410 E0.4944
G1 X28.814 Y6.468 E0.4944
G1 X28.816 Y-6.459 E0.4944
G1 X23.870 Y-18.402 E0.4944
G1 X14.731 Y-27.544 E0.4944
G1 X2.789 Y-32.493 E0.4944
G1 X-10.137 Y-32.494 E0.4944
G1 X-22.081 Y-27.549 E0.4944
G1 X-31.223 Y-18.410 E0.4944
G1 X-36.171 Y-6.468 E0.4944
G1 X-36.173 Y6.459 E0.4944
G1 X-31.228 Y18.402 E0.4944
G1 X-22.089 Y27.544 E0.4944
G1 X-10.147 Y32.493 E0.4944
G1 X2.780 Y32.494 E0.4944
G1 E-1.9000 F1200
; feature inner perimeter
G1 Z0.700 F1200
G1 X46.183 Y1.501 F9000
G1 Z0.200 F1200
G1 E1.9000 F1200
G1 X46.518 Y1.909 E0.0202 F1800
G1 X46.926 Y2.244 E0.0202
G1 X47.392 Y2.493 E0.0202
G1 X47.897 Y2.647 E0.0202
G1 X48.422 Y2.698 E0.0202
G1 X48.948 Y2.647 E0.0202
G1 X49.453 Y2.493 E0.0202
G1 X49.919 Y2.244 E0.0202
G1 X50.327 Y1.909 E0.0202
G1 X50.662 Y1.501 E0.0202
G1 X50.911 Y1.036 E0.0202
G1 X51.064 Y0.530 E0.0202
G1 X51.116 Y0.005 E0.0202
G1 X51.064 Y-0.520 E0.0202
G1 X50.911 Y-1.026 E0.0202
G1 X50.662 Y-1.491 E0.0202
G1 X50.327 Y-1.899 E0.0202
G1 X49.919 Y-2.234 E0.0202
G1 X49.453 Y-2.483 E0.0202
G1 X48.948 Y-2.637 E0.0202
G1 X48.422 Y-2.688 E0.0202
G1 X47.897 Y-2.637 E0.0202
G1 X47.392 Y-2.483 E0.0202
G1 X46.926 Y-2.234 E0.0202
G1 X46.542 Y-1.919 E0.0190
G1 X46.185 Y-1.495 E0.0212
G1 X45.934 Y-1.026 E0.0204
G1 X45.781 Y-0.520 E0.0202
G1 X45.729 Y0.005 E0.0202
G1 X45.781 Y0.530 E0.0202
G1 X45.934 Y1.036 E0.0202
G1 X46.183 Y1.501 E0.0202
; feature outer perimeter
G1 X46.567 Y1.245 F9000
G1 X46.845 Y1.583 E0.0167 F1200
G1 X47.183 Y1.860 E0.0167
G1 X47.569 Y2.066 E0.0167
G1 X47.987 Y2.193 E0.0167
G1 X48.422 Y2.236 E0.0167
G1 X48.858 Y2.193 E0.0167
G1 X49.276 Y2.066 E0.0167
G1 X49.662 Y1.860 E0.0167
G1 X50.000 Y1.583 E0.0167
G1 X50.277 Y1.245 E0.0167
G1 X50.484 Y0.859 E0.0167
G1 X50.611 Y0.440 E0.0167
G1 X50.653 Y0.005 E0.0167
G1 X50.611 Y-0.430 E0.0167
G1 X50.484 Y-0.849 E0.0167
G1 X50.277 Y-1.235 E0.0167
G1 X50.000 Y-1.573 E0.0167
G1 X49.662 Y-1.850 E0.0167
G1 X49.276 Y-2.056 E0.0167
G1 X48.858 Y-2.183 E0.0167
G1 X48.422 Y-2.226 E0.0167
G1 X47.987 Y-2.183 E0.0167
G1 X47.569 Y-2.056 E0.0167
G1 X47.183 Y-1.850 E0.0167
G1 X46.867 Y-1.591 E0.0156
G1 X46.568 Y-1.236 E0.0177
G1 X46.361 Y-0.849 E0.0168
G1 X46.234 Y-0.430 E0.0167
G1 X46.191 Y0.005 E0.0167
G1 X46.234 Y0.440 E0.0167
G1 X46.361 Y0.859 E0.0167
G1 X46.567 Y1.245 E0.0167
; feature solid layer
G1 X46.810 Y2.574 F9000
G1 X49.999 Y5.763 E0.1725 F2400
G1 X50.650 Y5.763 E0.0249
G1 X47.879 Y2.991 E0.1499
G1 X48.422 Y3.045 E0.0209
G1 X48.568 Y3.031 E0.0056
G1 X51.300 Y5.763 E0.1478
G1 X51.951 Y5.763 E0.0249
G1 X49.138 Y2.949 E0.1522
G1 X49.586 Y2.814 E0.0179
G1 X49.629 Y2.790 E0.0019
G1 X52.601 Y5.763 E0.1608
G1 X53.252 Y5.763 E0.0249
G1 X50.053 Y2.564 E0.1730
G1 X50.111 Y2.533 E0.0025
G1 X50.420 Y2.280 E0.0153
G1 X53.665 Y5.526 E0.1756
G1 X53.666 Y4.875 E0.0249
G1 X50.740 Y1.950 E0.1582
G1 X50.950 Y1.694 E0.0127
G1 X51.014 Y1.573 E0.0052
G1 X53.666 Y4.225 E0.1434
G1 X53.666 Y3.574 E0.0249
G1 X51.238 Y1.146 E0.1313
G1 X51.389 Y0.647 E0.0200
G1 X53.666 Y2.924 E0.1232
G1 X53.666 Y2.274 E0.0249
G1 X51.457 Y0.064 E0.1195
G1 X51.462 Y0.005 E0.0023
G1 X51.404 Y-0.588 E0.0228
G1 X51.382 Y-0.661 E0.0029
G1 X53.666 Y1.623 E0.1236
G1 X53.666 Y0.973 E0.0249
G1 X50.677 Y-2.017 E0.1617
G1 X53.447 Y-5.752 F9000
G1 X53.668 Y-5.531 E0.0120 F2400
G1 X53.668 Y-4.881 E0.0249
G1 X52.796 Y-5.752 E0.0472
G1 X52.145 Y-5.752 E0.0249
G1 X53.668 Y-4.230 E0.0823
G1 X53.667 Y-3.580 E0.0249
G1 X51.495 Y-5.752 E0.1175
G1 X50.844 Y-5.752 E0.0249
G1 X53.667 Y-2.929 E0.1527
G1 X53.667 Y-2.279 E0.0249
G1 X50.194 Y-5.752 E0.1879
G1 X49.543 Y-5.752 E0.0249
G1 X53.667 Y-1.629 E0.2231
G1 X53.667 Y-0.978 E0.0249
G1 X48.893 Y-5.752 E0.2582
G1 X48.242 Y-5.752 E0.0249
G1 X53.667 Y-0.328 E0.2934
G1 X53.667 Y0.322 E0.0249
G1 X47.592 Y-5.752 E0.3286
G1 X46.941 Y-5.752 E0.0249
G1 X50.444 Y-2.250 E0.1895
G1 X50.111 Y-2.523 E0.0165
G1 X49.586 Y-2.804 E0.0228
G1 X49.089 Y-2.954 E0.0199
G1 X46.291 Y-5.752 E0.1514
G1 X45.640 Y-5.752 E0.0249
G1 X48.363 Y-3.029 E0.1473
G1 X47.829 Y-2.977 E0.0205
G1 X47.780 Y-2.962 E0.0020
G1 X44.990 Y-5.752 E0.1510
G1 X44.339 Y-5.752 E0.0249
G1 X47.281 Y-2.810 E0.1591
G1 X47.259 Y-2.804 E0.0009
G1 X46.854 Y-2.587 E0.0176
G1 X43.688 Y-5.752 E0.1712
G1 X43.038 Y-5.752 E0.0249
G1 X46.478 Y-2.313 E0.1861
G1 X46.299 Y-2.166 E0.0089
G1 X46.150 Y-1.990 E0.0088
G1 X42.387 Y-5.752 E0.2035
G1 X41.737 Y-5.752 E0.0249
G1 X45.864 Y-1.626 E0.2232
G1 X45.637 Y-1.202 E0.0184
G1 X41.086 Y-5.752 E0.2462
G1 X40.436 Y-5.752 E0.0249
G1 X45.478 Y-0.710 E0.2727
G1 X45.441 Y-0.588 E0.0049
G1 X45.397 Y-0.141 E0.0172
G1 X39.785 Y-5.752 E0.3035
G1 X39.135 Y-5.752 E0.0249
G1 X45.436 Y0.549 E0.3409
G1 X45.441 Y0.598 E0.0019
G1 X45.614 Y1.168 E0.0228
G1 X45.854 Y1.617 E0.0195
G1 X38.484 Y-5.752 E0.3986
G1 X37.834 Y-5.752 E0.0249
G1 X49.349 Y5.763 E0.6229
G1 X48.698 Y5.763 E0.0249
G1 X37.183 Y-5.752 E0.6229
G1 X36.533 Y-5.752 E0.0249
G1 X48.047 Y5.763 E0.6229
G1 X47.397 Y5.763 E0.0249
G1 X35.882 Y-5.752 E0.6229
G1 X35.231 Y-5.752 E0.0249
G1 X46.746 Y5.763 E0.6229
G1 X46.096 Y5.763 E0.0249
G1 X34.581 Y-5.752 E0.6229
G1 X33.930 Y-5.752 E0.0249
G1 X45.445 Y5.763 E0.6229
G1 X44.795 Y5.763 E0.0249
G1 X33.280 Y-5.752 E0.6229
G1 X32.629 Y-5.752 E0.0249
G1 X44.144 Y5.763 E0.6229
G1 X43.494 Y5.763 E0.0249
G1 X31.979 Y-5.752 E0.6229
G1 X31.581 Y-5.752 E0.0152
G1 X31.568 Y-5.698 E0.0021
G1 X31.382 Y-5.698 E0.0071
G1 X42.843 Y5.763 E0.6199
G1 X42.193 Y5.763 E0.0249
G1 X30.732 Y-5.698 E0.6199
G1 X30.081 Y-5.698 E0.0249
G1 X41.542 Y5.763 E0.6199
G1 X40.892 Y5.763 E0.0249
G1 X29.620 Y-5.509 E0.6097
G1 X29.620 Y-4.858 E0.0249
G1 X40.241 Y5.763 E0.5745
G1 X39.591 Y5.763 E0.0249
G1 X29.620 Y-4.208 E0.5393
G1 X29.620 Y-3.557 E0.0249
G1 X38.940 Y5.763 E0.5041
G1 X38.289 Y5.763 E0.0249
G1 X29.620 Y-2.907 E0.4689
G1 X29.620 Y-2.256 E0.0249
G1 X37.639 Y5.763 E0.4338
G1 X36.988 Y5.763 E0.0249
G1 X29.620 Y-1.606 E0.3986
G1 X29.620 Y-0.956 E0.0249
G1 X36.338 Y5.763 E0.3634
G1 X35.687 Y5.763 E0.0249
G1 X29.620 Y-0.305 E0.3282
G1 X29.620 Y0.345 E0.0249
G1 X35.037 Y5.763 E0.2930
G1 X34.386 Y5.763 E0.0249
G1 X29.619 Y0.996 E0.2578
G1 X29.619 Y1.646 E0.0249
G1 X33.736 Y5.763 E0.2227
G1 X33.085 Y5.763 E0.0249
G1 X29.619 Y2.297 E0.1875
