; G-Code generated by Simplify3D(R) Version 4.1.2
; Apr 2, 2020 at 1:28:49 PM
; Settings Summary
;   processName,Process1
;   applyToModels,pop top
;   profileName,MakerBot Replicator 2 HBP (modified)
;   profileVersion,2020-03-12 10:48:50
;   baseProfile,MakerBot Replicator 2(2)
;   printMaterial,PLA
;   printQuality,Medium
;   printExtruders,
;   extruderName,Primary Extruder
;   extruderToolheadNumber,0
;   extruderDiameter,0.4
;   extruderAutoWidth,0
;   extruderWidth,0.4
;   extrusionMultiplier,1
;   extruderUseRetract,1
;   extruderRetractionDistance,1.9
;   extruderExtraRestartDistance,0
;   extruderRetractionZLift,0.5
;   extruderRetractionSpeed,1200
;   extruderUseCoasting,0
;   extruderCoastingDistance,0.2
;   extruderUseWipe,0
;   extruderWipeDistance,5
;   primaryExtruder,0
;   layerHeight,0.2
;   topSolidLayers,3
;   bottomSolidLayers,3
;   perimeterOutlines,2
;   printPerimetersInsideOut,1
;   startPointOption,3
;   startPointOriginX,0
;   startPointOriginY,150
;   sequentialIslands,0
;   spiralVaseMode,0
;   firstLayerHeightPercentage,100
;   firstLayerWidthPercentage,115
;   firstLayerUnderspeed,0.5
;   useRaft,0
;   raftExtruder,0
;   raftTopLayers,2
;   raftBaseLayers,1
;   raftOffset,1
;   raftSeparationDistance,0.14
;   raftTopInfill,90
;   aboveRaftSpeedMultiplier,0.3
;   useSkirt,0
;   skirtExtruder,0
;   skirtLayers,1
;   skirtOutlines,5
;   skirtOffset,0
;   usePrimePillar,0
;   primePillarExtruder,999
;   primePillarWidth,12
;   primePillarLocation,7
;   primePillarSpeedMultiplier,1
;   useOozeShield,0
;   oozeShieldExtruder,999
;   oozeShieldOffset,2
;   oozeShieldOutlines,1
;   oozeShieldSidewallShape,1
;   oozeShieldSidewallAngle,30
;   oozeShieldSpeedMultiplier,1
;   infillExtruder,0
;   internalInfillPattern,Rectilinear
;   externalInfillPattern,Rectilinear
;   infillPercentage,15
;   outlineOverlapPercentage,25
;   infillExtrusionWidthPercentage,100
;   minInfillLength,5
;   infillLayerInterval,1
;   internalInfillAngles,45,-45
;   overlapInternalInfillAngles,0
;   externalInfillAngles,45,-45
;   generateSupport,0
;   supportExtruder,0
;   supportInfillPercentage,30
;   supportExtraInflation,0.5
;   supportBaseLayers,0
;   denseSupportExtruder,0
;   denseSupportLayers,2
;   denseSupportInfillPercentage,90
;   supportLayerInterval,1
;   supportHorizontalPartOffset,0.3
;   supportUpperSeparationLayers,1
;   supportLowerSeparationLayers,1
;   supportType,1
;   supportGridSpacing,2
;   maxOverhangAngle,45
;   supportAngles,45,-45
;   temperatureName,Primary Extruder,Heated Build Platform
;   temperatureNumber,0,0
;   temperatureSetpointCount,1,1
;   temperatureSetpointLayers,1,1
;   temperatureSetpointTemperatures,230,60
;   temperatureStabilizeAtStartup,1,1
;   temperatureHeatedBed,0,1
;   fanLayers,1,2
;   fanSpeeds,0,100
;   blipFanToFullPower,1
;   adjustSpeedForCooling,1
;   minSpeedLayerTime,15
;   minCoolingSpeedSlowdown,20
;   increaseFanForCooling,1
;   minFanLayerTime,45
;   maxCoolingFanSpeed,100
;   increaseFanForBridging,1
;   bridgingFanSpeed,100
;   use5D,1
;   relativeEdistances,1
;   allowEaxisZeroing,0
;   independentExtruderAxes,1
;   includeM10123,0
;   stickySupport,1
;   applyToolheadOffsets,0
;   gcodeXoffset,0
;   gcodeYoffset,0
;   gcodeZoffset,0
;   overrideMachineDefinition,1
;   machineTypeOverride,0
;   strokeXoverride,280
;   strokeYoverride,150
;   strokeZoverride,150
;   originOffsetXoverride,140
;   originOffsetYoverride,75
;   originOffsetZoverride,0
;   homeXdirOverride,1
;   homeYdirOverride,1
;   homeZdirOverride,-1
;   flipXoverride,1
;   flipYoverride,-1
;   flipZoverride,1
;   toolheadOffsets,0,0|0,0|0,0|0,0|0,0|0,0
;   overrideFirmwareConfiguration,1
;   firmwareTypeOverride,MakerBot/Sailfish Firmware
;   GPXconfigOverride,r2h
;   baudRateOverride,115200
;   overridePrinterModels,1
;   printerModelsOverride,MakerBot_Replicator2.stl
;   startingGcode,; **** Replicator 2 start.gcode ****,M73 P0 ; enable build progress,G162 X Y F3000 ; home XY maximum,G161 Z F1200 ; home Z minimum,G92 Z-5 ; set Z to -5,G1 Z0 ; move Z to 0,G161 Z F100 ; home Z slowly,M132 X Y Z A B ; recall home offsets,G1 X-145 Y-75 Z30 F9000 ; move to wait position off table,G130 X20 Y20 Z20 A20 B20 ; lower stepper Vrefs while heating,M126 S[fan_speed_pwm],M140 S[bed0_temperature] T0,M134 T0 ; stabilize bed temperature,M104 S[extruder0_temperature] T0,M133 T0 ; stabilize extruder temperature,G130 X127 Y127 Z40 A127 B127 ; default stepper Vrefs,G92 A0 ; zero extruder,G1 Z0.4 ; position nozzle,G1 E25 F300 ; purge nozzle,G1 X-140 Y-70 Z0.15 F1200 ; slow wipe,G1 X-135 Y-65 Z0.5 F1200 ; lift,G92 A0 ; zero extruder,M73 P1 ;@body (notify GPX body has started),; **** end of start.gcode ****
;   layerChangeGcode,
;   retractionGcode,
;   toolChangeGcode,
;   endingGcode,; **** Replicator 2 end.gcode ****,M73 P100 ; end build progress,G1 Z155 F1000 ; send Z axis to bottom of machine,M104 S0 T0 ; cool down extruder,M140 S0 T0 ; cool down HBP,M127 ; stop blower fan,G162 X Y F3000 ; home XY maximum,M18 ; disable stepper,M0 ; stop codes,M72 P1 ; play Ta-Da song,; **** end of end.gcode ****
;   exportFileFormat,gcode
;   celebration,0
;   celebrationSong,Random Song
;   postProcessing,
;   defaultSpeed,4800
;   outlineUnderspeed,0.5
;   solidInfillUnderspeed,1
;   supportUnderspeed,1
;   rapidXYspeed,9000
;   rapidZspeed,1200
;   minBridgingArea,50
;   bridgingExtraInflation,0
;   bridgingExtrusionMultiplier,1
;   bridgingSpeedMultiplier,0.8
;   useFixedBridgingAngle,0
;   fixedBridgingAngle,0
;   applyBridgingToPerimeters,0
;   filamentDiameters,1.75|1.75|1.75|1.75|1.75|1.75
;   filamentPricesPerKg,46|46|46|46|46|46
;   filamentDensities,1.25|1.25|1.25|1.25|1.25|1.25
;   useMinPrintHeight,0
;   minPrintHeight,0
;   useMaxPrintHeight,0
;   maxPrintHeight,4.84
;   useDiaphragm,0
;   diaphragmLayerInterval,20
;   robustSlicing,1
;   mergeAllIntoSolid,0
;   onlyRetractWhenCrossingOutline,0
;   retractBetweenLayers,0
;   useRetractionMinTravel,1
;   retractionMinTravel,7
;   retractWhileWiping,1
;   onlyWipeOutlines,1
;   avoidCrossingOutline,0
;   maxMovementDetourFactor,3
;   toolChangeRetractionDistance,12
;   toolChangeExtraRestartDistance,-0.5
;   toolChangeRetractionSpeed,600
;   externalThinWallType,0
;   internalThinWallType,0
;   thinWallAllowedOverlapPercentage,10
;   singleExtrusionMinLength,1
;   singleExtrusionMinPrintingWidthPercentage,50
;   singleExtrusionMaxPrintingWidthPercentage,200
;   singleExtrusionEndpointExtension,0.2
;   horizontalSizeCompensation,0
G90
M83
; **** Replicator 2 start.gcode ****
M73 P0 ; enable build progress
G162 X Y F3000 ; home XY maximum
G161 Z F1200 ; home Z minimum
G92 Z-5 ; set Z to -5
G1 Z0 ; move Z to 0
G161 Z F100 ; home Z slowly
M132 X Y Z A B ; recall home offsets
G1 X-145 Y-75 Z30 F9000 ; move to wait position off table
G130 X20 Y20 Z20 A20 B20 ; lower stepper Vrefs while heating
M127
M140 S60 T0
M134 T0 ; stabilize bed temperature
M104 S230 T0
M133 T0 ; stabilize extruder temperature
G130 X127 Y127 Z40 A127 B127 ; default stepper Vrefs
G92 A0 ; zero extruder
G1 Z0.4 ; position nozzle
G1 E25 F300 ; purge nozzle
G1 X-140 Y-70 Z0.15 F1200 ; slow wipe
G1 X-135 Y-65 Z0.5 F1200 ; lift
G92 A0 ; zero extruder
M73 P1 ;@body (notify GPX body has started)
; **** end of start.gcode ****
; process Process1
; layer 1, Z = 0.200
M135 T0
G1 E-1.9000 F1200
; feature inner perimeter
; tool H0.200 W0.460
G1 Z0.500 F1200
G1 X0.000 Y39.296 F9000
G1 Z0.200 F1200
G1 E1.9000 F1200
G1 X-15.038 Y36.305 E0.5865 F1800
G1 X-27.787 Y27.787 E0.5865
G1 X-36.305 Y15.038 E0.5865
G1 X-39.296 Y0.000 E0.5865
G1 X-36.305 Y-15.038 E0.5865
G1 X-27.787 Y-27.787 E0.5865
G1 X-15.038 Y-36.305 E0.5865
G1 X0.000 Y-39.296 E0.5865
G1 X15.038 Y-36.305 E0.5865
G1 X27.787 Y-27.787 E0.5865
G1 X36.305 Y-15.038 E0.5865
G1 X39.296 Y0.000 E0.5865
G1 X36.305 Y15.038 E0.5865
G1 X27.787 Y27.787 E0.5865
G1 X15.038 Y36.305 E0.5865
G1 X0.000 Y39.296 E0.5865
; feature outer perimeter
G1 X0.000 Y39.765 F9000
G1 X-15.218 Y36.739 E0.5935 F1200
G1 X-28.118 Y28.118 E0.5935
G1 X-36.739 Y15.218 E0.5935
G1 X-39.765 Y0.000 E0.5935
G1 X-36.739 Y-15.218 E0.5935
G1 X-28.118 Y-28.118 E0.5935
G1 X-15.218 Y-36.739 E0.5935
G1 X0.000 Y-39.765 E0.5935
G1 X15.218 Y-36.739 E0.5935
G1 X28.118 Y-28.118 E0.5935
G1 X36.739 Y-15.218 E0.5935
G1 X39.765 Y0.000 E0.5935
G1 X36.739 Y15.218 E0.5935
G1 X28.118 Y28.118 E0.5935
G1 X15.218 Y36.739 E0.5935
G1 X0.000 Y39.765 E0.5935
G1 E-1.9000 F1200
; feature inner perimeter
G1 Z0.700 F1200
G1 X0.000 Y22.213 F9000
G1 Z0.200 F1200
G1 E1.9000 F1200
G1 X0.472 Y22.167 E0.0182 F1800
G1 X0.927 Y22.029 E0.0182
G1 X1.345 Y21.805 E0.0182
G1 X1.712 Y21.504 E0.0182
G1 X2.013 Y21.137 E0.0182
G1 X2.237 Y20.719 E0.0182
G1 X2.375 Y20.264 E0.0182
G1 X2.422 Y19.792 E0.0182
G1 X2.376 Y19.330 E0.0178
G1 X2.238 Y18.867 E0.0185
G1 X2.013 Y18.447 E0.0182
G1 X1.712 Y18.080 E0.0182
G1 X1.345 Y17.779 E0.0182
G1 X0.927 Y17.555 E0.0182
G1 X0.472 Y17.417 E0.0182
G1 X0.000 Y17.370 E0.0182
G1 X-0.472 Y17.417 E0.0182
G1 X-0.927 Y17.555 E0.0182
G1 X-1.345 Y17.779 E0.0182
G1 X-1.712 Y18.080 E0.0182
G1 X-2.013 Y18.447 E0.0182
G1 X-2.237 Y18.865 E0.0182
G1 X-2.375 Y19.320 E0.0182
G1 X-2.422 Y19.792 E0.0182
G1 X-2.375 Y20.264 E0.0182
G1 X-2.237 Y20.719 E0.0182
G1 X-2.013 Y21.137 E0.0182
G1 X-1.712 Y21.504 E0.0182
G1 X-1.345 Y21.805 E0.0182
G1 X-0.927 Y22.029 E0.0182
G1 X-0.472 Y22.167 E0.0182
G1 X0.000 Y22.213 E0.0182
; feature outer perimeter
G1 X0.000 Y21.751 F9000
G1 X0.382 Y21.714 E0.0147 F1200
G1 X0.750 Y21.602 E0.0147
G1 X1.089 Y21.421 E0.0147
G1 X1.385 Y21.177 E0.0147
G1 X1.629 Y20.880 E0.0147
G1 X1.810 Y20.542 E0.0147
G1 X1.922 Y20.174 E0.0147
G1 X1.959 Y19.792 E0.0147
G1 X1.923 Y19.419 E0.0143
G1 X1.810 Y19.043 E0.0150
G1 X1.629 Y18.703 E0.0147
G1 X1.385 Y18.407 E0.0147
G1 X1.089 Y18.163 E0.0147
G1 X0.750 Y17.982 E0.0147
G1 X0.382 Y17.870 E0.0147
G1 X0.000 Y17.833 E0.0147
G1 X-0.382 Y17.870 E0.0147
G1 X-0.750 Y17.982 E0.0147
G1 X-1.089 Y18.163 E0.0147
G1 X-1.385 Y18.407 E0.0147
G1 X-1.629 Y18.703 E0.0147
G1 X-1.810 Y19.042 E0.0147
G1 X-1.922 Y19.410 E0.0147
G1 X-1.959 Y19.792 E0.0147
G1 X-1.922 Y20.174 E0.0147
G1 X-1.810 Y20.542 E0.0147
G1 X-1.629 Y20.880 E0.0147
G1 X-1.385 Y21.177 E0.0147
G1 X-1.089 Y21.421 E0.0147
G1 X-0.750 Y21.602 E0.0147
G1 X-0.382 Y21.714 E0.0147
G1 X0.000 Y21.751 E0.0147
G1 E-1.9000 F1200
; feature inner perimeter
G1 Z0.700 F1200
G1 X0.000 Y14.430 F9000
G1 Z0.200 F1200
G1 E1.9000 F1200
G1 X2.815 Y14.153 E0.1082 F1800
G1 X5.522 Y13.332 E0.1082
G1 X8.017 Y11.998 E0.1082
G1 X10.204 Y10.204 E0.1082
G1 X11.998 Y8.017 E0.1082
G1 X13.332 Y5.522 E0.1082
G1 X14.153 Y2.815 E0.1082
G1 X14.430 Y0.000 E0.1082
G1 X14.153 Y-2.815 E0.1082
G1 X13.332 Y-5.522 E0.1082
G1 X11.998 Y-8.017 E0.1082
G1 X10.204 Y-10.204 E0.1082
G1 X8.017 Y-11.998 E0.1082
G1 X5.522 Y-13.332 E0.1082
G1 X2.815 Y-14.153 E0.1082
G1 X0.000 Y-14.430 E0.1082
G1 X-2.815 Y-14.153 E0.1082
G1 X-5.522 Y-13.332 E0.1082
G1 X-8.017 Y-11.998 E0.1082
G1 X-10.204 Y-10.204 E0.1082
G1 X-11.998 Y-8.017 E0.1082
G1 X-13.332 Y-5.522 E0.1082
G1 X-14.153 Y-2.815 E0.1082
G1 X-14.428 Y0.024 E0.1091
G1 X-14.153 Y2.815 E0.1073
G1 X-13.332 Y5.522 E0.1082
G1 X-11.998 Y8.017 E0.1082
G1 X-10.204 Y10.204 E0.1082
G1 X-8.017 Y11.998 E0.1082
G1 X-5.522 Y13.332 E0.1082
G1 X-2.815 Y14.153 E0.1082
G1 X0.000 Y14.430 E0.1082
; feature outer perimeter
G1 X0.000 Y13.968 F9000
G1 X2.725 Y13.700 E0.1047 F1200
G1 X5.345 Y12.905 E0.1047
G1 X7.760 Y11.614 E0.1047
G1 X9.877 Y9.877 E0.1047
G1 X11.614 Y7.760 E0.1047
G1 X12.905 Y5.345 E0.1047
G1 X13.700 Y2.725 E0.1047
G1 X13.968 Y0.000 E0.1047
G1 X13.700 Y-2.725 E0.1047
G1 X12.905 Y-5.345 E0.1047
G1 X11.614 Y-7.760 E0.1047
G1 X9.877 Y-9.877 E0.1047
G1 X7.760 Y-11.614 E0.1047
G1 X5.345 Y-12.905 E0.1047
G1 X2.725 Y-13.700 E0.1047
G1 X0.000 Y-13.968 E0.1047
G1 X-2.725 Y-13.700 E0.1047
G1 X-5.345 Y-12.905 E0.1047
G1 X-7.760 Y-11.614 E0.1047
G1 X-9.877 Y-9.877 E0.1047
G1 X-11.614 Y-7.760 E0.1047
G1 X-12.905 Y-5.345 E0.1047
G1 X-13.700 Y-2.725 E0.1047
G1 X-13.966 Y0.024 E0.1056
G1 X-13.700 Y2.725 E0.1038
G1 X-12.905 Y5.345 E0.1047
G1 X-11.614 Y7.760 E0.1047
G1 X-9.877 Y9.877 E0.1047
G1 X-7.760 Y11.614 E0.1047
G1 X-5.345 Y12.905 E0.1047
G1 X-2.725 Y13.700 E0.1047
G1 X0.000 Y13.968 E0.1047
; feature solid layer
G1 X2.756 Y19.670 F9000
G1 X17.399 Y34.313 E0.7921 F2400
G1 X17.009 Y34.573 E0.0179
G1 X2.720 Y20.284 E0.7729
G1 X2.715 Y20.332 E0.0018
G1 X2.576 Y20.791 E0.0183
G1 X16.619 Y34.834 E0.7596
G1 X16.229 Y35.095 E0.0179
G1 X2.358 Y21.224 E0.7503
G1 X2.302 Y21.330 E0.0046
G1 X2.082 Y21.598 E0.0133
G1 X15.839 Y35.355 E0.7442
G1 X15.449 Y35.616 E0.0179
G1 X1.752 Y21.918 E0.7409
G1 X1.538 Y22.094 E0.0106
G1 X1.367 Y22.185 E0.0074
G1 X15.059 Y35.876 E0.7406
G1 X14.903 Y35.980 E0.0072
G1 X14.577 Y36.045 E0.0127
G1 X0.923 Y22.391 E0.7386
G1 X0.540 Y22.507 E0.0153
G1 X0.402 Y22.520 E0.0053
G1 X14.035 Y36.153 E0.7374
G1 X13.492 Y36.261 E0.0212
G1 X-0.232 Y22.537 E0.7423
G1 E-1.9000 F1200
G1 Z0.700 F1200
G1 X-7.501 Y12.665 F9000
G1 Z0.200 F1200
G1 E1.9000 F1200
G1 X-2.126 Y18.040 E0.2908 F2400
G1 X-1.957 Y17.835 E0.0102
G1 X-1.806 Y17.710 E0.0075
G1 X-6.104 Y13.412 E0.2325
G1 X-5.655 Y13.652 E0.0195
G1 X-5.021 Y13.845 E0.0253
G1 X-1.432 Y17.434 E0.1941
G1 X-1.059 Y17.234 E0.0162
G1 X-0.999 Y17.216 E0.0024
G1 X-4.087 Y14.128 E0.1671
G1 X-3.153 Y14.411 E0.0373
G1 X-0.492 Y17.072 E0.1440
G1 X0.000 Y17.024 E0.0189
G1 X0.122 Y17.036 E0.0047
G1 X-2.370 Y14.544 E0.1348
G1 X-1.649 Y14.615 E0.0277
G1 X0.933 Y17.196 E0.1396
G1 X1.059 Y17.234 E0.0051
G1 X1.538 Y17.490 E0.0208
G1 X1.957 Y17.835 E0.0208
G1 X2.302 Y18.254 E0.0208
G1 X2.559 Y18.735 E0.0209
G1 X2.596 Y18.859 E0.0050
G1 X17.789 Y34.052 E0.8218
G1 X18.179 Y33.792 E0.0179
G1 X-0.927 Y14.686 E1.0335
G1 X-0.206 Y14.757 E0.0277
G1 X18.569 Y33.531 E1.0156
G1 X18.959 Y33.271 E0.0179
G1 X0.424 Y14.735 E1.0026
G1 X1.016 Y14.677 E0.0228
G1 X19.349 Y33.010 E0.9917
G1 X19.739 Y32.749 E0.0179
G1 X1.608 Y14.619 E0.9807
G1 X2.200 Y14.560 E0.0228
G1 X20.129 Y32.489 E0.9698
G1 X20.519 Y32.228 E0.0179
G1 X2.792 Y14.502 E0.9589
G1 X2.883 Y14.493 E0.0035
G1 X3.306 Y14.365 E0.0169
G1 X20.909 Y31.968 E0.9522
G1 X21.299 Y31.707 E0.0179
G1 X3.805 Y14.213 E0.9463
G1 X4.304 Y14.062 E0.0200
G1 X21.689 Y31.447 E0.9404
G1 X22.079 Y31.186 E0.0179
G1 X4.803 Y13.911 E0.9345
G1 X5.302 Y13.759 E0.0200
G1 X22.468 Y30.925 E0.9286
G1 X22.858 Y30.665 E0.0179
G1 X5.779 Y13.586 E0.9239
G1 X6.203 Y13.359 E0.0184
G1 X23.248 Y30.404 E0.9220
G1 X23.638 Y30.144 E0.0179
G1 X6.627 Y13.133 E0.9202
G1 X7.051 Y12.906 E0.0184
G1 X24.028 Y29.883 E0.9183
G1 X24.418 Y29.623 E0.0179
G1 X7.475 Y12.679 E0.9165
G1 X7.899 Y12.453 E0.0184
G1 X24.808 Y29.362 E0.9147
G1 X25.198 Y29.101 E0.0179
G1 X8.305 Y12.208 E0.9138
G1 X8.662 Y11.915 E0.0177
G1 X25.588 Y28.841 E0.9156
G1 X25.978 Y28.580 E0.0179
G1 X9.020 Y11.622 E0.9173
G1 X9.377 Y11.329 E0.0177
G1 X26.368 Y28.320 E0.9191
G1 X26.758 Y28.059 E0.0179
G1 X9.734 Y11.035 E0.9209
G1 X10.092 Y10.742 E0.0177
G1 X27.148 Y27.799 E0.9226
G1 X27.538 Y27.538 E0.0179
G1 X10.449 Y10.449 E0.9244
G1 X10.742 Y10.092 E0.0177
G1 X27.799 Y27.148 E0.9226
G1 X28.059 Y26.758 E0.0179
G1 X11.035 Y9.734 E0.9209
G1 X11.329 Y9.377 E0.0177
G1 X28.320 Y26.368 E0.9191
G1 X28.580 Y25.978 E0.0179
G1 X11.622 Y9.020 E0.9173
G1 X11.915 Y8.662 E0.0177
G1 X28.841 Y25.588 E0.9156
G1 X29.101 Y25.198 E0.0179
G1 X12.208 Y8.305 E0.9138
G1 X12.287 Y8.210 E0.0047
G1 X12.453 Y7.899 E0.0135
G1 X29.362 Y24.808 E0.9147
G1 X29.623 Y24.418 E0.0179
G1 X12.679 Y7.475 E0.9165
G1 X12.906 Y7.051 E0.0184
G1 X29.883 Y24.028 E0.9183
G1 X30.144 Y23.638 E0.0179
G1 X13.133 Y6.627 E0.9202
G1 X13.359 Y6.203 E0.0184
G1 X30.404 Y23.248 E0.9220
G1 X30.665 Y22.858 E0.0179
G1 X13.586 Y5.779 E0.9239
G1 X13.652 Y5.655 E0.0054
G1 X13.759 Y5.302 E0.0141
G1 X30.925 Y22.468 E0.9286
G1 X31.186 Y22.079 E0.0179
G1 X13.911 Y4.803 E0.9345
G1 X14.062 Y4.304 E0.0200
G1 X31.447 Y21.689 E0.9404
G1 X31.707 Y21.299 E0.0179
G1 X14.213 Y3.805 E0.9463
G1 X14.365 Y3.306 E0.0200
G1 X31.968 Y20.909 E0.9522
G1 X32.228 Y20.519 E0.0179
G1 X14.502 Y2.792 E0.9589
G1 X14.560 Y2.200 E0.0228
