; G-Code generated by Simplify3D(R) Version 4.1.2
; Apr 2, 2020 at 1:34:17 PM
; Settings Summary
;   processName,Process1
;   applyToModels,top train washer,top train washer(2),top train washer(3),top train washer(4)
;   profileName,MakerBot Replicator 2 HBP (modified)
;   profileVersion,2020-03-12 10:48:50
;   baseProfile,MakerBot Replicator 2(2)
;   printMaterial,PLA
;   printQuality,Medium
;   printExtruders,
;   extruderName,Primary Extruder
;   extruderToolheadNumber,0
;   extruderDiameter,0.4
;   extruderAutoWidth,0
;   extruderWidth,0.4
;   extrusionMultiplier,1
;   extruderUseRetract,1
;   extruderRetractionDistance,1.9
;   extruderExtraRestartDistance,0
;   extruderRetractionZLift,0.5
;   extruderRetractionSpeed,1200
;   extruderUseCoasting,0
;   extruderCoastingDistance,0.2
;   extruderUseWipe,0
;   extruderWipeDistance,5
;   primaryExtruder,0
;   layerHeight,0.2
;   topSolidLayers,3
;   bottomSolidLayers,3
;   perimeterOutlines,2
;   printPerimetersInsideOut,1
;   startPointOption,3
;   startPointOriginX,0
;   startPointOriginY,150
;   sequentialIslands,0
;   spiralVaseMode,0
;   firstLayerHeightPercentage,100
;   firstLayerWidthPercentage,115
;   firstLayerUnderspeed,0.5
;   useRaft,0
;   raftExtruder,0
;   raftTopLayers,2
;   raftBaseLayers,1
;   raftOffset,1
;   raftSeparationDistance,0.14
;   raftTopInfill,90
;   aboveRaftSpeedMultiplier,0.3
;   useSkirt,0
;   skirtExtruder,0
;   skirtLayers,1
;   skirtOutlines,5
;   skirtOffset,0
;   usePrimePillar,0
;   primePillarExtruder,999
;   primePillarWidth,12
;   primePillarLocation,7
;   primePillarSpeedMultiplier,1
;   useOozeShield,0
;   oozeShieldExtruder,999
;   oozeShieldOffset,2
;   oozeShieldOutlines,1
;   oozeShieldSidewallShape,1
;   oozeShieldSidewallAngle,30
;   oozeShieldSpeedMultiplier,1
;   infillExtruder,0
;   internalInfillPattern,Rectilinear
;   externalInfillPattern,Rectilinear
;   infillPercentage,15
;   outlineOverlapPercentage,25
;   infillExtrusionWidthPercentage,100
;   minInfillLength,5
;   infillLayerInterval,1
;   internalInfillAngles,45,-45
;   overlapInternalInfillAngles,0
;   externalInfillAngles,45,-45
;   generateSupport,1
;   supportExtruder,0
;   supportInfillPercentage,30
;   supportExtraInflation,0.5
;   supportBaseLayers,0
;   denseSupportExtruder,0
;   denseSupportLayers,2
;   denseSupportInfillPercentage,90
;   supportLayerInterval,1
;   supportHorizontalPartOffset,0.3
;   supportUpperSeparationLayers,1
;   supportLowerSeparationLayers,1
;   supportType,1
;   supportGridSpacing,2
;   maxOverhangAngle,45
;   supportAngles,45,-45
;   temperatureName,Primary Extruder,Heated Build Platform
;   temperatureNumber,0,0
;   temperatureSetpointCount,1,1
;   temperatureSetpointLayers,1,1
;   temperatureSetpointTemperatures,230,60
;   temperatureStabilizeAtStartup,1,1
;   temperatureHeatedBed,0,1
;   fanLayers,1,2
;   fanSpeeds,0,100
;   blipFanToFullPower,1
;   adjustSpeedForCooling,1
;   minSpeedLayerTime,15
;   minCoolingSpeedSlowdown,20
;   increaseFanForCooling,1
;   minFanLayerTime,45
;   maxCoolingFanSpeed,100
;   increaseFanForBridging,1
;   bridgingFanSpeed,100
;   use5D,1
;   relativeEdistances,1
;   allowEaxisZeroing,0
;   independentExtruderAxes,1
;   includeM10123,0
;   stickySupport,1
;   applyToolheadOffsets,0
;   gcodeXoffset,0
;   gcodeYoffset,0
;   gcodeZoffset,0
;   overrideMachineDefinition,1
;   machineTypeOverride,0
;   strokeXoverride,280
;   strokeYoverride,150
;   strokeZoverride,150
;   originOffsetXoverride,140
;   originOffsetYoverride,75
;   originOffsetZoverride,0
;   homeXdirOverride,1
;   homeYdirOverride,1
;   homeZdirOverride,-1
;   flipXoverride,1
;   flipYoverride,-1
;   flipZoverride,1
;   toolheadOffsets,0,0|0,0|0,0|0,0|0,0|0,0
;   overrideFirmwareConfiguration,1
;   firmwareTypeOverride,MakerBot/Sailfish Firmware
;   GPXconfigOverride,r2h
;   baudRateOverride,115200
;   overridePrinterModels,1
;   printerModelsOverride,MakerBot_Replicator2.stl
;   startingGcode,; **** Replicator 2 start.gcode ****,M73 P0 ; enable build progress,G162 X Y F3000 ; home XY maximum,G161 Z F1200 ; home Z minimum,G92 Z-5 ; set Z to -5,G1 Z0 ; move Z to 0,G161 Z F100 ; home Z slowly,M132 X Y Z A B ; recall home offsets,G1 X-145 Y-75 Z30 F9000 ; move to wait position off table,G130 X20 Y20 Z20 A20 B20 ; lower stepper Vrefs while heating,M126 S[fan_speed_pwm],M140 S[bed0_temperature] T0,M134 T0 ; stabilize bed temperature,M104 S[extruder0_temperature] T0,M133 T0 ; stabilize extruder temperature,G130 X127 Y127 Z40 A127 B127 ; default stepper Vrefs,G92 A0 ; zero extruder,G1 Z0.4 ; position nozzle,G1 E25 F300 ; purge nozzle,G1 X-140 Y-70 Z0.15 F1200 ; slow wipe,G1 X-135 Y-65 Z0.5 F1200 ; lift,G92 A0 ; zero extruder,M73 P1 ;@body (notify GPX body has started),; **** end of start.gcode ****
;   layerChangeGcode,
;   retractionGcode,
;   toolChangeGcode,
;   endingGcode,; **** Replicator 2 end.gcode ****,M73 P100 ; end build progress,G1 Z155 F1000 ; send Z axis to bottom of machine,M104 S0 T0 ; cool down extruder,M140 S0 T0 ; cool down HBP,M127 ; stop blower fan,G162 X Y F3000 ; home XY maximum,M18 ; disable stepper,M0 ; stop codes,M72 P1 ; play Ta-Da song,; **** end of end.gcode ****
;   exportFileFormat,gcode
;   celebration,0
;   celebrationSong,Random Song
;   postProcessing,
;   defaultSpeed,4800
;   outlineUnderspeed,0.5
;   solidInfillUnderspeed,1
;   supportUnderspeed,1
;   rapidXYspeed,9000
;   rapidZspeed,1200
;   minBridgingArea,50
;   bridgingExtraInflation,0
;   bridgingExtrusionMultiplier,1
;   bridgingSpeedMultiplier,0.8
;   useFixedBridgingAngle,0
;   fixedBridgingAngle,0
;   applyBridgingToPerimeters,0
;   filamentDiameters,1.75|1.75|1.75|1.75|1.75|1.75
;   filamentPricesPerKg,46|46|46|46|46|46
;   filamentDensities,1.25|1.25|1.25|1.25|1.25|1.25
;   useMinPrintHeight,0
;   minPrintHeight,0
;   useMaxPrintHeight,0
;   maxPrintHeight,4.84
;   useDiaphragm,0
;   diaphragmLayerInterval,20
;   robustSlicing,1
;   mergeAllIntoSolid,0
;   onlyRetractWhenCrossingOutline,0
;   retractBetweenLayers,0
;   useRetractionMinTravel,1
;   retractionMinTravel,7
;   retractWhileWiping,1
;   onlyWipeOutlines,1
;   avoidCrossingOutline,0
;   maxMovementDetourFactor,3
;   toolChangeRetractionDistance,12
;   toolChangeExtraRestartDistance,-0.5
;   toolChangeRetractionSpeed,600
;   externalThinWallType,0
;   internalThinWallType,0
;   thinWallAllowedOverlapPercentage,10
;   singleExtrusionMinLength,1
;   singleExtrusionMinPrintingWidthPercentage,50
;   singleExtrusionMaxPrintingWidthPercentage,200
;   singleExtrusionEndpointExtension,0.2
;   horizontalSizeCompensation,0
G90
M83
; **** Replicator 2 start.gcode ****
M73 P0 ; enable build progress
G162 X Y F3000 ; home XY maximum
G161 Z F1200 ; home Z minimum
G92 Z-5 ; set Z to -5
G1 Z0 ; move Z to 0
G161 Z F100 ; home Z slowly
M132 X Y Z A B ; recall home offsets
G1 X-145 Y-75 Z30 F9000 ; move to wait position off table
G130 X20 Y20 Z20 A20 B20 ; lower stepper Vrefs while heating
M127
M140 S60 T0
M134 T0 ; stabilize bed temperature
M104 S230 T0
M133 T0 ; stabilize extruder temperature
G130 X127 Y127 Z40 A127 B127 ; default stepper Vrefs
G92 A0 ; zero extruder
G1 Z0.4 ; position nozzle
G1 E25 F300 ; purge nozzle
G1 X-140 Y-70 Z0.15 F1200 ; slow wipe
G1 X-135 Y-65 Z0.5 F1200 ; lift
G92 A0 ; zero extruder
M73 P1 ;@body (notify GPX body has started)
; **** end of start.gcode ****
; process Process1
; layer 1, Z = 0.200
M135 T0
G1 E-1.9000 F1200
; feature inner perimeter
; tool H0.200 W0.460
G1 Z0.500 F1200
G1 X0.000 Y-3.190 F9000
G1 Z0.200 F1200
G1 E1.9000 F1200
G1 X-0.478 Y-3.206 E0.0183 F1800
G1 X-0.954 Y-3.253 E0.0183
G1 X-1.426 Y-3.331 E0.0183
G1 X-1.892 Y-3.439 E0.0183
G1 X-2.350 Y-3.578 E0.0183
G1 X-2.797 Y-3.747 E0.0183
G1 X-3.233 Y-3.944 E0.0183
G1 X-3.655 Y-4.170 E0.0183
G1 X-4.061 Y-4.422 E0.0183
G1 X-4.450 Y-4.701 E0.0183
G1 X-4.820 Y-5.004 E0.0183
G1 X-5.169 Y-5.331 E0.0183
G1 X-5.496 Y-5.680 E0.0183
G1 X-5.799 Y-6.050 E0.0183
G1 X-6.078 Y-6.439 E0.0183
G1 X-6.330 Y-6.845 E0.0183
G1 X-6.556 Y-7.267 E0.0183
G1 X-6.753 Y-7.703 E0.0183
G1 X-6.922 Y-8.150 E0.0183
G1 X-7.061 Y-8.608 E0.0183
G1 X-7.169 Y-9.074 E0.0183
G1 X-7.247 Y-9.546 E0.0183
G1 X-7.294 Y-10.022 E0.0183
G1 X-7.310 Y-10.500 E0.0183
G1 X-7.294 Y-10.978 E0.0183
G1 X-7.247 Y-11.454 E0.0183
G1 X-7.169 Y-11.926 E0.0183
G1 X-7.061 Y-12.392 E0.0183
G1 X-6.922 Y-12.850 E0.0183
G1 X-6.753 Y-13.297 E0.0183
G1 X-6.556 Y-13.733 E0.0183
G1 X-6.330 Y-14.155 E0.0183
G1 X-6.078 Y-14.561 E0.0183
G1 X-5.799 Y-14.950 E0.0183
G1 X-5.496 Y-15.319 E0.0183
G1 X-5.169 Y-15.669 E0.0183
G1 X-4.819 Y-15.996 E0.0183
G1 X-4.450 Y-16.299 E0.0183
G1 X-4.071 Y-16.570 E0.0178
G1 X-3.654 Y-16.831 E0.0188
G1 X-3.233 Y-17.056 E0.0183
G1 X-2.797 Y-17.253 E0.0183
G1 X-2.350 Y-17.422 E0.0183
G1 X-1.892 Y-17.561 E0.0183
G1 X-1.426 Y-17.669 E0.0183
G1 X-0.954 Y-17.747 E0.0183
G1 X-0.478 Y-17.794 E0.0183
G1 X-0.000 Y-17.810 E0.0183
G1 X0.478 Y-17.794 E0.0183
G1 X0.954 Y-17.747 E0.0183
G1 X1.426 Y-17.669 E0.0183
G1 X1.892 Y-17.561 E0.0183
G1 X2.349 Y-17.422 E0.0183
G1 X2.797 Y-17.253 E0.0183
G1 X3.233 Y-17.056 E0.0183
G1 X3.655 Y-16.830 E0.0183
G1 X4.061 Y-16.578 E0.0183
G1 X4.450 Y-16.299 E0.0183
G1 X4.820 Y-15.996 E0.0183
G1 X5.169 Y-15.669 E0.0183
G1 X5.496 Y-15.320 E0.0183
G1 X5.799 Y-14.950 E0.0183
G1 X6.078 Y-14.561 E0.0183
G1 X6.330 Y-14.155 E0.0183
G1 X6.556 Y-13.733 E0.0183
G1 X6.753 Y-13.297 E0.0183
G1 X6.922 Y-12.849 E0.0183
G1 X7.061 Y-12.392 E0.0183
G1 X7.169 Y-11.926 E0.0183
G1 X7.247 Y-11.454 E0.0183
G1 X7.294 Y-10.978 E0.0183
G1 X7.310 Y-10.500 E0.0183
G1 X7.294 Y-10.022 E0.0183
G1 X7.247 Y-9.546 E0.0183
G1 X7.169 Y-9.074 E0.0183
G1 X7.061 Y-8.608 E0.0183
G1 X6.922 Y-8.150 E0.0183
G1 X6.753 Y-7.703 E0.0183
G1 X6.556 Y-7.267 E0.0183
G1 X6.330 Y-6.845 E0.0183
G1 X6.078 Y-6.439 E0.0183
G1 X5.799 Y-6.050 E0.0183
G1 X5.496 Y-5.680 E0.0183
G1 X5.169 Y-5.331 E0.0183
G1 X4.820 Y-5.004 E0.0183
G1 X4.450 Y-4.701 E0.0183
G1 X4.061 Y-4.422 E0.0183
G1 X3.655 Y-4.170 E0.0183
G1 X3.233 Y-3.944 E0.0183
G1 X2.797 Y-3.747 E0.0183
G1 X2.349 Y-3.578 E0.0183
G1 X1.892 Y-3.439 E0.0183
G1 X1.426 Y-3.331 E0.0183
G1 X0.954 Y-3.253 E0.0183
G1 X0.478 Y-3.206 E0.0183
G1 X0.000 Y-3.190 E0.0183
; feature outer perimeter
G1 X0.000 Y-2.730 F9000
G1 X-0.508 Y-2.747 E0.0195 F1200
G1 X-1.014 Y-2.797 E0.0194
G1 X-1.516 Y-2.879 E0.0195
G1 X-2.011 Y-2.995 E0.0194
G1 X-2.498 Y-3.142 E0.0195
G1 X-2.973 Y-3.322 E0.0194
G1 X-3.437 Y-3.531 E0.0195
G1 X-3.885 Y-3.771 E0.0194
G1 X-4.317 Y-4.040 E0.0195
G1 X-4.730 Y-4.336 E0.0194
G1 X-5.123 Y-4.658 E0.0194
G1 X-5.494 Y-5.006 E0.0194
G1 X-5.842 Y-5.377 E0.0194
G1 X-6.164 Y-5.770 E0.0194
G1 X-6.460 Y-6.183 E0.0194
G1 X-6.729 Y-6.615 E0.0194
G1 X-6.969 Y-7.063 E0.0195
G1 X-7.178 Y-7.527 E0.0194
G1 X-7.357 Y-8.002 E0.0194
G1 X-7.505 Y-8.489 E0.0195
G1 X-7.621 Y-8.984 E0.0194
G1 X-7.703 Y-9.486 E0.0195
G1 X-7.753 Y-9.992 E0.0194
G1 X-7.770 Y-10.500 E0.0195
G1 X-7.753 Y-11.008 E0.0195
G1 X-7.703 Y-11.514 E0.0194
G1 X-7.621 Y-12.016 E0.0195
G1 X-7.505 Y-12.511 E0.0194
G1 X-7.358 Y-12.998 E0.0195
G1 X-7.178 Y-13.473 E0.0194
G1 X-6.969 Y-13.937 E0.0194
G1 X-6.729 Y-14.385 E0.0194
G1 X-6.460 Y-14.817 E0.0195
G1 X-6.164 Y-15.230 E0.0194
G1 X-5.842 Y-15.623 E0.0194
G1 X-5.494 Y-15.994 E0.0195
G1 X-5.123 Y-16.342 E0.0195
G1 X-4.730 Y-16.664 E0.0194
G1 X-4.327 Y-16.953 E0.0190
G1 X-3.885 Y-17.229 E0.0200
G1 X-3.437 Y-17.469 E0.0194
G1 X-2.973 Y-17.678 E0.0195
G1 X-2.498 Y-17.858 E0.0194
G1 X-2.011 Y-18.005 E0.0195
G1 X-1.516 Y-18.121 E0.0194
G1 X-1.014 Y-18.203 E0.0195
G1 X-0.508 Y-18.253 E0.0194
G1 X-0.000 Y-18.270 E0.0195
G1 X0.508 Y-18.253 E0.0195
G1 X1.014 Y-18.203 E0.0194
G1 X1.516 Y-18.121 E0.0195
G1 X2.011 Y-18.005 E0.0194
G1 X2.498 Y-17.858 E0.0194
G1 X2.973 Y-17.678 E0.0194
G1 X3.437 Y-17.469 E0.0194
G1 X3.885 Y-17.229 E0.0194
G1 X4.317 Y-16.960 E0.0195
G1 X4.730 Y-16.664 E0.0194
G1 X5.123 Y-16.342 E0.0195
G1 X5.494 Y-15.994 E0.0194
G1 X5.842 Y-15.623 E0.0195
G1 X6.164 Y-15.230 E0.0194
G1 X6.460 Y-14.817 E0.0194
G1 X6.729 Y-14.385 E0.0195
G1 X6.969 Y-13.937 E0.0194
G1 X7.178 Y-13.473 E0.0194
G1 X7.358 Y-12.998 E0.0194
G1 X7.505 Y-12.511 E0.0194
G1 X7.621 Y-12.016 E0.0194
G1 X7.703 Y-11.514 E0.0195
G1 X7.753 Y-11.008 E0.0194
G1 X7.770 Y-10.500 E0.0195
G1 X7.753 Y-9.992 E0.0195
G1 X7.703 Y-9.486 E0.0194
G1 X7.621 Y-8.984 E0.0195
G1 X7.505 Y-8.489 E0.0194
G1 X7.357 Y-8.002 E0.0195
G1 X7.178 Y-7.527 E0.0194
G1 X6.969 Y-7.063 E0.0194
G1 X6.729 Y-6.615 E0.0194
G1 X6.460 Y-6.183 E0.0195
G1 X6.164 Y-5.770 E0.0194
G1 X5.842 Y-5.377 E0.0194
G1 X5.494 Y-5.006 E0.0194
G1 X5.123 Y-4.658 E0.0194
G1 X4.730 Y-4.336 E0.0194
G1 X4.317 Y-4.040 E0.0194
G1 X3.885 Y-3.771 E0.0195
G1 X3.437 Y-3.531 E0.0194
G1 X2.973 Y-3.322 E0.0194
G1 X2.498 Y-3.142 E0.0194
G1 X2.011 Y-2.995 E0.0194
G1 X1.516 Y-2.879 E0.0194
G1 X1.014 Y-2.797 E0.0195
G1 X0.508 Y-2.747 E0.0194
G1 X0.000 Y-2.730 E0.0195
; feature inner perimeter
G1 X0.011 Y-6.809 F9000
G1 X0.471 Y-6.839 E0.0176 F1800
G1 X0.720 Y-6.881 E0.0097
G1 X0.966 Y-6.938 E0.0097
G1 X1.402 Y-7.086 E0.0176
G1 X1.643 Y-7.195 E0.0101
G1 X2.051 Y-7.431 E0.0180
G1 X2.425 Y-7.718 E0.0180
G1 X2.609 Y-7.891 E0.0097
G1 X2.782 Y-8.075 E0.0097
G1 X3.062 Y-8.440 E0.0176
G1 X3.202 Y-8.664 E0.0101
G1 X3.405 Y-9.077 E0.0176
G1 X3.498 Y-9.324 E0.0101
G1 X3.618 Y-9.769 E0.0176
G1 X3.661 Y-10.029 E0.0101
G1 X3.691 Y-10.500 E0.0180
G1 X3.661 Y-10.971 E0.0180
G1 X3.619 Y-11.220 E0.0097
G1 X3.562 Y-11.466 E0.0097
G1 X3.414 Y-11.902 E0.0176
G1 X3.305 Y-12.142 E0.0101
G1 X3.069 Y-12.551 E0.0180
G1 X2.782 Y-12.925 E0.0180
G1 X2.602 Y-13.118 E0.0101
G1 X2.256 Y-13.421 E0.0176
G1 X2.050 Y-13.568 E0.0097
G1 X1.836 Y-13.702 E0.0097
G1 X1.423 Y-13.905 E0.0176
G1 X1.176 Y-13.999 E0.0101
G1 X0.720 Y-14.121 E0.0180
G1 X0.253 Y-14.182 E0.0180
G1 X-0.011 Y-14.191 E0.0101
G1 X-0.471 Y-14.161 E0.0176
G1 X-0.731 Y-14.118 E0.0101
G1 X-1.176 Y-13.999 E0.0176
G1 X-1.412 Y-13.909 E0.0097
G1 X-1.643 Y-13.805 E0.0097
G1 X-2.041 Y-13.575 E0.0176
G1 X-2.256 Y-13.421 E0.0101
G1 X-2.610 Y-13.110 E0.0180
G1 X-2.921 Y-12.756 E0.0180
G1 X-3.075 Y-12.541 E0.0101
G1 X-3.305 Y-12.143 E0.0176
G1 X-3.409 Y-11.912 E0.0097
G1 X-3.499 Y-11.676 E0.0097
G1 X-3.621 Y-11.220 E0.0181
G1 X-3.682 Y-10.747 E0.0182
G1 X-3.691 Y-10.483 E0.0101
G1 X-3.661 Y-10.029 E0.0174
G1 X-3.619 Y-9.780 E0.0097
G1 X-3.562 Y-9.534 E0.0097
G1 X-3.410 Y-9.087 E0.0180
G1 X-3.202 Y-8.664 E0.0180
G1 X-3.062 Y-8.440 E0.0101
G1 X-2.782 Y-8.075 E0.0176
G1 X-2.602 Y-7.882 E0.0101
G1 X-2.256 Y-7.579 E0.0176
G1 X-2.041 Y-7.425 E0.0101
G1 X-1.643 Y-7.195 E0.0176
G1 X-1.412 Y-7.091 E0.0097
G1 X-1.176 Y-7.001 E0.0097
G1 X-0.720 Y-6.879 E0.0180
G1 X-0.253 Y-6.818 E0.0180
G1 X0.011 Y-6.809 E0.0101
; feature outer perimeter
G1 X0.004 Y-7.270 F9000
G1 X0.418 Y-7.297 E0.0159 F1200
G1 X0.630 Y-7.332 E0.0082
G1 X0.840 Y-7.381 E0.0082
G1 X1.233 Y-7.514 E0.0159
G1 X1.432 Y-7.605 E0.0084
G1 X1.795 Y-7.814 E0.0160
G1 X2.127 Y-8.069 E0.0160
G1 X2.284 Y-8.216 E0.0082
G1 X2.431 Y-8.373 E0.0082
G1 X2.684 Y-8.702 E0.0159
G1 X2.799 Y-8.888 E0.0084
G1 X2.983 Y-9.260 E0.0159
G1 X3.060 Y-9.465 E0.0084
G1 X3.167 Y-9.866 E0.0159
G1 X3.203 Y-10.082 E0.0084
G1 X3.230 Y-10.500 E0.0160
G1 X3.203 Y-10.918 E0.0160
G1 X3.168 Y-11.130 E0.0082
G1 X3.119 Y-11.340 E0.0082
G1 X2.986 Y-11.733 E0.0159
G1 X2.895 Y-11.932 E0.0084
G1 X2.686 Y-12.295 E0.0160
G1 X2.431 Y-12.627 E0.0160
G1 X2.281 Y-12.787 E0.0084
G1 X1.969 Y-13.060 E0.0159
G1 X1.795 Y-13.186 E0.0082
G1 X1.612 Y-13.299 E0.0082
G1 X1.240 Y-13.483 E0.0159
G1 X1.035 Y-13.560 E0.0084
G1 X0.630 Y-13.668 E0.0160
G1 X0.215 Y-13.723 E0.0160
G1 X-0.004 Y-13.730 E0.0084
G1 X-0.418 Y-13.703 E0.0159
G1 X-0.634 Y-13.667 E0.0084
G1 X-1.035 Y-13.560 E0.0159
G1 X-1.236 Y-13.484 E0.0082
G1 X-1.432 Y-13.395 E0.0082
G1 X-1.791 Y-13.188 E0.0159
G1 X-1.969 Y-13.060 E0.0084
G1 X-2.284 Y-12.784 E0.0160
G1 X-2.560 Y-12.469 E0.0160
G1 X-2.688 Y-12.291 E0.0084
G1 X-2.895 Y-11.932 E0.0159
G1 X-2.984 Y-11.736 E0.0082
G1 X-3.060 Y-11.535 E0.0082
G1 X-3.168 Y-11.130 E0.0160
G1 X-3.223 Y-10.710 E0.0162
G1 X-3.230 Y-10.491 E0.0084
G1 X-3.203 Y-10.082 E0.0157
G1 X-3.168 Y-9.870 E0.0082
