; G-Code generated by Simplify3D(R) Version 4.1.2
; Apr 2, 2020 at 1:32:27 PM
; Settings Summary
;   processName,Process1
;   applyToModels,Station 1 bracket V1R3 B
;   profileName,MakerBot Replicator 2 HBP (modified)
;   profileVersion,2020-03-12 10:48:50
;   baseProfile,MakerBot Replicator 2(2)
;   printMaterial,PLA
;   printQuality,Medium
;   printExtruders,
;   extruderName,Primary Extruder
;   extruderToolheadNumber,0
;   extruderDiameter,0.4
;   extruderAutoWidth,0
;   extruderWidth,0.4
;   extrusionMultiplier,1
;   extruderUseRetract,1
;   extruderRetractionDistance,1.9
;   extruderExtraRestartDistance,0
;   extruderRetractionZLift,0.5
;   extruderRetractionSpeed,1200
;   extruderUseCoasting,0
;   extruderCoastingDistance,0.2
;   extruderUseWipe,0
;   extruderWipeDistance,5
;   primaryExtruder,0
;   layerHeight,0.2
;   topSolidLayers,3
;   bottomSolidLayers,3
;   perimeterOutlines,2
;   printPerimetersInsideOut,1
;   startPointOption,3
;   startPointOriginX,0
;   startPointOriginY,150
;   sequentialIslands,0
;   spiralVaseMode,0
;   firstLayerHeightPercentage,100
;   firstLayerWidthPercentage,115
;   firstLayerUnderspeed,0.5
;   useRaft,0
;   raftExtruder,0
;   raftTopLayers,2
;   raftBaseLayers,1
;   raftOffset,1
;   raftSeparationDistance,0.14
;   raftTopInfill,90
;   aboveRaftSpeedMultiplier,0.3
;   useSkirt,0
;   skirtExtruder,0
;   skirtLayers,1
;   skirtOutlines,5
;   skirtOffset,0
;   usePrimePillar,0
;   primePillarExtruder,999
;   primePillarWidth,12
;   primePillarLocation,7
;   primePillarSpeedMultiplier,1
;   useOozeShield,0
;   oozeShieldExtruder,999
;   oozeShieldOffset,2
;   oozeShieldOutlines,1
;   oozeShieldSidewallShape,1
;   oozeShieldSidewallAngle,30
;   oozeShieldSpeedMultiplier,1
;   infillExtruder,0
;   internalInfillPattern,Rectilinear
;   externalInfillPattern,Rectilinear
;   infillPercentage,15
;   outlineOverlapPercentage,25
;   infillExtrusionWidthPercentage,100
;   minInfillLength,5
;   infillLayerInterval,1
;   internalInfillAngles,45,-45
;   overlapInternalInfillAngles,0
;   externalInfillAngles,45,-45
;   generateSupport,1
;   supportExtruder,0
;   supportInfillPercentage,30
;   supportExtraInflation,0.5
;   supportBaseLayers,0
;   denseSupportExtruder,0
;   denseSupportLayers,2
;   denseSupportInfillPercentage,90
;   supportLayerInterval,1
;   supportHorizontalPartOffset,0.3
;   supportUpperSeparationLayers,1
;   supportLowerSeparationLayers,1
;   supportType,1
;   supportGridSpacing,2
;   maxOverhangAngle,45
;   supportAngles,45,-45
;   temperatureName,Primary Extruder,Heated Build Platform
;   temperatureNumber,0,0
;   temperatureSetpointCount,1,1
;   temperatureSetpointLayers,1,1
;   temperatureSetpointTemperatures,230,60
;   temperatureStabilizeAtStartup,1,1
;   temperatureHeatedBed,0,1
;   fanLayers,1,2
;   fanSpeeds,0,100
;   blipFanToFullPower,1
;   adjustSpeedForCooling,1
;   minSpeedLayerTime,15
;   minCoolingSpeedSlowdown,20
;   increaseFanForCooling,1
;   minFanLayerTime,45
;   maxCoolingFanSpeed,100
;   increaseFanForBridging,1
;   bridgingFanSpeed,100
;   use5D,1
;   relativeEdistances,1
;   allowEaxisZeroing,0
;   independentExtruderAxes,1
;   includeM10123,0
;   stickySupport,1
;   applyToolheadOffsets,0
;   gcodeXoffset,0
;   gcodeYoffset,0
;   gcodeZoffset,0
;   overrideMachineDefinition,1
;   machineTypeOverride,0
;   strokeXoverride,280
;   strokeYoverride,150
;   strokeZoverride,150
;   originOffsetXoverride,140
;   originOffsetYoverride,75
;   originOffsetZoverride,0
;   homeXdirOverride,1
;   homeYdirOverride,1
;   homeZdirOverride,-1
;   flipXoverride,1
;   flipYoverride,-1
;   flipZoverride,1
;   toolheadOffsets,0,0|0,0|0,0|0,0|0,0|0,0
;   overrideFirmwareConfiguration,1
;   firmwareTypeOverride,MakerBot/Sailfish Firmware
;   GPXconfigOverride,r2h
;   baudRateOverride,115200
;   overridePrinterModels,1
;   printerModelsOverride,MakerBot_Replicator2.stl
;   startingGcode,; **** Replicator 2 start.gcode ****,M73 P0 ; enable build progress,G162 X Y F3000 ; home XY maximum,G161 Z F1200 ; home Z minimum,G92 Z-5 ; set Z to -5,G1 Z0 ; move Z to 0,G161 Z F100 ; home Z slowly,M132 X Y Z A B ; recall home offsets,G1 X-145 Y-75 Z30 F9000 ; move to wait position off table,G130 X20 Y20 Z20 A20 B20 ; lower stepper Vrefs while heating,M126 S[fan_speed_pwm],M140 S[bed0_temperature] T0,M134 T0 ; stabilize bed temperature,M104 S[extruder0_temperature] T0,M133 T0 ; stabilize extruder temperature,G130 X127 Y127 Z40 A127 B127 ; default stepper Vrefs,G92 A0 ; zero extruder,G1 Z0.4 ; position nozzle,G1 E25 F300 ; purge nozzle,G1 X-140 Y-70 Z0.15 F1200 ; slow wipe,G1 X-135 Y-65 Z0.5 F1200 ; lift,G92 A0 ; zero extruder,M73 P1 ;@body (notify GPX body has started),; **** end of start.gcode ****
;   layerChangeGcode,
;   retractionGcode,
;   toolChangeGcode,
;   endingGcode,; **** Replicator 2 end.gcode ****,M73 P100 ; end build progress,G1 Z155 F1000 ; send Z axis to bottom of machine,M104 S0 T0 ; cool down extruder,M140 S0 T0 ; cool down HBP,M127 ; stop blower fan,G162 X Y F3000 ; home XY maximum,M18 ; disable stepper,M0 ; stop codes,M72 P1 ; play Ta-Da song,; **** end of end.gcode ****
;   exportFileFormat,gcode
;   celebration,0
;   celebrationSong,Random Song
;   postProcessing,
;   defaultSpeed,4800
;   outlineUnderspeed,0.5
;   solidInfillUnderspeed,1
;   supportUnderspeed,1
;   rapidXYspeed,9000
;   rapidZspeed,1200
;   minBridgingArea,50
;   bridgingExtraInflation,0
;   bridgingExtrusionMultiplier,1
;   bridgingSpeedMultiplier,0.8
;   useFixedBridgingAngle,0
;   fixedBridgingAngle,0
;   applyBridgingToPerimeters,0
;   filamentDiameters,1.75|1.75|1.75|1.75|1.75|1.75
;   filamentPricesPerKg,46|46|46|46|46|46
;   filamentDensities,1.25|1.25|1.25|1.25|1.25|1.25
;   useMinPrintHeight,0
;   minPrintHeight,0
;   useMaxPrintHeight,0
;   maxPrintHeight,4.84
;   useDiaphragm,0
;   diaphragmLayerInterval,20
;   robustSlicing,1
;   mergeAllIntoSolid,0
;   onlyRetractWhenCrossingOutline,0
;   retractBetweenLayers,0
;   useRetractionMinTravel,1
;   retractionMinTravel,7
;   retractWhileWiping,1
;   onlyWipeOutlines,1
;   avoidCrossingOutline,0
;   maxMovementDetourFactor,3
;   toolChangeRetractionDistance,12
;   toolChangeExtraRestartDistance,-0.5
;   toolChangeRetractionSpeed,600
;   externalThinWallType,0
;   internalThinWallType,0
;   thinWallAllowedOverlapPercentage,10
;   singleExtrusionMinLength,1
;   singleExtrusionMinPrintingWidthPercentage,50
;   singleExtrusionMaxPrintingWidthPercentage,200
;   singleExtrusionEndpointExtension,0.2
;   horizontalSizeCompensation,0
G90
M83
; **** Replicator 2 start.gcode ****
M73 P0 ; enable build progress
G162 X Y F3000 ; home XY maximum
G161 Z F1200 ; home Z minimum
G92 Z-5 ; set Z to -5
G1 Z0 ; move Z to 0
G161 Z F100 ; home Z slowly
M132 X Y Z A B ; recall home offsets
G1 X-145 Y-75 Z30 F9000 ; move to wait position off table
G130 X20 Y20 Z20 A20 B20 ; lower stepper Vrefs while heating
M126 S65
M140 S60 T0
M134 T0 ; stabilize bed temperature
M104 S230 T0
M133 T0 ; stabilize extruder temperature
G130 X127 Y127 Z40 A127 B127 ; default stepper Vrefs
G92 A0 ; zero extruder
G1 Z0.4 ; position nozzle
G1 E25 F300 ; purge nozzle
G1 X-140 Y-70 Z0.15 F1200 ; slow wipe
G1 X-135 Y-65 Z0.5 F1200 ; lift
G92 A0 ; zero extruder
M73 P1 ;@body (notify GPX body has started)
; **** end of start.gcode ****
; process Process1
; layer 1, Z = 0.200
M135 T0
G1 E-1.9000 F1200
; feature inner perimeter
; tool H0.200 W0.460
G1 Z0.500 F1200
G1 X-3.041 Y-6.440 F9000
G1 Z0.200 F1200
G1 E1.9000 F1200
G1 X-5.859 Y-6.440 E0.1078 F1800
G1 X-5.859 Y-19.858 E0.5132
G1 X-3.041 Y-19.858 E0.1078
G1 X-3.041 Y-6.440 E0.5132
; feature outer perimeter
G1 X-2.581 Y-5.980 F9000
G1 X-6.319 Y-5.980 E0.1430 F1200
G1 X-6.319 Y-20.318 E0.5484
G1 X-2.581 Y-20.318 E0.1430
G1 X-2.581 Y-5.980 E0.5484
G1 E-1.9000 F1200
; feature inner perimeter
G1 Z0.700 F1200
G1 X-3.041 Y-41.642 F9000
G1 Z0.200 F1200
G1 E1.9000 F1200
G1 X-5.859 Y-41.642 E0.1078 F1800
G1 X-5.859 Y-55.060 E0.5132
G1 X-3.041 Y-55.060 E0.1078
G1 X-3.041 Y-41.642 E0.5132
; feature outer perimeter
G1 X-2.581 Y-41.182 F9000
G1 X-6.319 Y-41.182 E0.1430 F1200
G1 X-6.319 Y-55.520 E0.5484
G1 X-2.581 Y-55.520 E0.1430
G1 X-2.581 Y-41.182 E0.5484
; feature solid layer
G1 X-5.084 Y-41.987 F9000
G1 X-5.514 Y-42.417 E0.0232 F2400
G1 X-5.514 Y-43.067 E0.0249
G1 X-4.433 Y-41.987 E0.0584
G1 X-3.783 Y-41.987 E0.0249
G1 X-5.514 Y-43.718 E0.0936
G1 X-5.514 Y-44.368 E0.0249
G1 X-3.386 Y-42.241 E0.1151
G1 X-3.386 Y-42.891 E0.0249
G1 X-5.514 Y-45.019 E0.1151
G1 X-5.514 Y-45.669 E0.0249
G1 X-3.386 Y-43.542 E0.1151
G1 X-3.386 Y-44.192 E0.0249
G1 X-5.514 Y-46.320 E0.1151
G1 X-5.514 Y-46.970 E0.0249
G1 X-3.386 Y-44.843 E0.1151
G1 X-3.386 Y-45.493 E0.0249
G1 X-5.514 Y-47.621 E0.1151
G1 X-5.514 Y-48.271 E0.0249
G1 X-3.386 Y-46.144 E0.1151
G1 X-3.386 Y-46.794 E0.0249
G1 X-5.514 Y-48.922 E0.1151
G1 X-5.514 Y-49.572 E0.0249
G1 X-3.386 Y-47.445 E0.1151
G1 X-3.386 Y-48.095 E0.0249
G1 X-5.514 Y-50.223 E0.1151
G1 X-5.514 Y-50.874 E0.0249
G1 X-3.386 Y-48.746 E0.1151
G1 X-3.386 Y-49.396 E0.0249
G1 X-5.514 Y-51.524 E0.1151
G1 X-5.514 Y-52.175 E0.0249
G1 X-3.386 Y-50.047 E0.1151
G1 X-3.386 Y-50.698 E0.0249
G1 X-5.514 Y-52.825 E0.1151
G1 X-5.514 Y-53.476 E0.0249
G1 X-3.386 Y-51.348 E0.1151
G1 X-3.386 Y-51.999 E0.0249
G1 X-5.514 Y-54.126 E0.1151
G1 X-5.514 Y-54.715 E0.0225
G1 X-5.452 Y-54.715 E0.0024
G1 X-3.386 Y-52.649 E0.1117
G1 X-3.386 Y-53.300 E0.0249
G1 X-4.801 Y-54.715 E0.0766
G1 X-4.151 Y-54.715 E0.0249
G1 X-3.386 Y-53.950 E0.0414
G1 X-3.386 Y-54.601 E0.0249
G1 X-3.500 Y-54.715 E0.0062
G1 E-1.9000 F1200
G1 Z0.700 F1200
G1 X-3.427 Y-19.513 F9000
G1 Z0.200 F1200
G1 E1.9000 F1200
G1 X-3.386 Y-19.472 E0.0022 F2400
G1 X-3.386 Y-18.821 E0.0249
G1 X-4.078 Y-19.513 E0.0374
G1 X-4.729 Y-19.513 E0.0249
G1 X-3.386 Y-18.171 E0.0726
G1 X-3.386 Y-17.520 E0.0249
G1 X-5.379 Y-19.513 E0.1078
G1 X-5.514 Y-19.513 E0.0051
G1 X-5.514 Y-18.997 E0.0197
G1 X-3.386 Y-16.870 E0.1151
G1 X-3.386 Y-16.219 E0.0249
G1 X-5.514 Y-18.347 E0.1151
G1 X-5.514 Y-17.696 E0.0249
G1 X-3.386 Y-15.569 E0.1151
G1 X-3.386 Y-14.918 E0.0249
G1 X-5.514 Y-17.046 E0.1151
G1 X-5.514 Y-16.395 E0.0249
G1 X-3.386 Y-14.267 E0.1151
G1 X-3.386 Y-13.617 E0.0249
G1 X-5.514 Y-15.744 E0.1151
G1 X-5.514 Y-15.094 E0.0249
G1 X-3.386 Y-12.966 E0.1151
G1 X-3.386 Y-12.316 E0.0249
G1 X-5.514 Y-14.443 E0.1151
G1 X-5.514 Y-13.793 E0.0249
G1 X-3.386 Y-11.665 E0.1151
G1 X-3.386 Y-11.015 E0.0249
G1 X-5.514 Y-13.142 E0.1151
G1 X-5.514 Y-12.492 E0.0249
G1 X-3.386 Y-10.364 E0.1151
G1 X-3.386 Y-9.714 E0.0249
G1 X-5.514 Y-11.841 E0.1151
G1 X-5.514 Y-11.191 E0.0249
G1 X-3.386 Y-9.063 E0.1151
G1 X-3.386 Y-8.413 E0.0249
G1 X-5.514 Y-10.540 E0.1151
G1 X-5.514 Y-9.890 E0.0249
G1 X-3.386 Y-7.762 E0.1151
G1 X-3.386 Y-7.112 E0.0249
G1 X-5.514 Y-9.239 E0.1151
G1 X-5.514 Y-8.589 E0.0249
G1 X-3.710 Y-6.785 E0.0976
G1 X-4.361 Y-6.785 E0.0249
G1 X-5.514 Y-7.938 E0.0624
G1 X-5.514 Y-7.287 E0.0249
G1 X-5.011 Y-6.785 E0.0272
G1 E-1.9000 F1200
; feature support
G1 Z0.700 F1200
G1 X6.762 Y-7.395 F9000
G1 Z0.200 F1200
G1 E1.9000 F1200
G1 X8.637 Y-5.520 E0.1014 F2400
G1 X10.522 Y-5.520 E0.0721
G1 X6.762 Y-9.281 E0.2034
G1 X6.762 Y-11.166 E0.0721
G1 X12.408 Y-5.520 E0.3054
G1 X14.294 Y-5.520 E0.0721
G1 X6.762 Y-13.052 E0.4074
G1 X6.762 Y-14.938 E0.0721
G1 X20.179 Y-1.520 E0.7258
G1 X22.065 Y-1.520 E0.0721
G1 X6.762 Y-16.823 E0.8278
G1 X6.762 Y-18.709 E0.0721
G1 X23.950 Y-1.520 E0.9298
G1 X25.836 Y-1.520 E0.0721
G1 X20.876 Y-6.480 E0.2683
G1 X19.722 Y-6.480 E0.0442
G1 X19.722 Y-7.634 E0.0442
G1 X16.876 Y-10.480 E0.1539
G1 X15.722 Y-10.480 E0.0442
G1 X15.722 Y-11.634 E0.0442
G1 X6.762 Y-20.594 E0.4847
G1 X6.762 Y-22.480 E0.0721
G1 X15.722 Y-13.520 E0.4847
G1 X15.722 Y-15.406 E0.0721
G1 X6.762 Y-24.366 E0.4847
G1 X6.762 Y-26.251 E0.0721
G1 X15.722 Y-17.291 E0.4847
G1 X15.722 Y-19.177 E0.0721
G1 X6.762 Y-28.137 E0.4847
G1 X6.762 Y-30.022 E0.0721
G1 X15.722 Y-21.062 E0.4847
G1 X15.722 Y-22.948 E0.0721
G1 X6.762 Y-31.908 E0.4847
G1 X6.762 Y-33.794 E0.0721
G1 X15.722 Y-24.834 E0.4847
G1 X15.722 Y-26.719 E0.0721
G1 X6.762 Y-35.679 E0.4847
G1 X6.762 Y-37.565 E0.0721
G1 X15.722 Y-28.605 E0.4847
G1 X15.722 Y-30.491 E0.0721
G1 X6.762 Y-39.451 E0.4847
G1 X6.762 Y-41.336 E0.0721
G1 X15.722 Y-32.376 E0.4847
G1 X15.722 Y-34.262 E0.0721
G1 X6.762 Y-43.222 E0.4847
G1 X6.762 Y-45.107 E0.0721
G1 X15.722 Y-36.147 E0.4847
G1 X15.722 Y-38.033 E0.0721
G1 X6.762 Y-46.993 E0.4847
G1 X6.762 Y-48.879 E0.0721
G1 X15.722 Y-39.919 E0.4847
G1 X15.722 Y-41.804 E0.0721
G1 X6.762 Y-50.764 E0.4847
G1 X6.762 Y-52.650 E0.0721
G1 X15.722 Y-43.690 E0.4847
G1 X15.722 Y-45.576 E0.0721
G1 X6.817 Y-54.480 E0.4817
G1 X8.703 Y-54.480 E0.0721
G1 X15.722 Y-47.461 E0.3797
G1 X15.722 Y-49.347 E0.0721
G1 X10.588 Y-54.480 E0.2777
G1 X12.474 Y-54.480 E0.0721
G1 X15.722 Y-51.232 E0.1757
G1 X15.722 Y-53.118 E0.0721
G1 X14.360 Y-54.480 E0.0737
G1 E-1.9000 F1200
G1 Z0.700 F1200
G1 X18.762 Y-10.480 F9000
G1 Z0.200 F1200
G1 E1.9000 F1200
G1 X19.722 Y-9.520 E0.0519 F2400
G1 X22.762 Y-6.480 F9000
G1 X31.722 Y2.480 E0.4847 F2400
G1 X33.607 Y2.480 E0.0721
G1 X24.647 Y-6.480 E0.4847
G1 X30.304 Y-6.480 F9000
G1 X31.722 Y-5.062 E0.0767 F2400
G1 X31.722 Y-3.177 E0.0721
G1 X28.419 Y-6.480 E0.1787
G1 X26.533 Y-6.480 E0.0721
G1 X35.493 Y2.480 E0.4847
G1 X37.379 Y2.480 E0.0721
G1 X32.419 Y-2.480 E0.2683
G1 X34.304 Y-2.480 E0.0721
G1 X51.722 Y14.938 E0.9422
G1 X51.722 Y13.052 E0.0721
G1 X36.190 Y-2.480 E0.8402
G1 X41.847 Y-2.480 F9000
G1 X43.722 Y-0.605 E0.1014 F2400
G1 X43.722 Y1.281 E0.0721
G1 X39.961 Y-2.480 E0.2034
G1 X38.075 Y-2.480 E0.0721
G1 X51.722 Y11.166 E0.7382
G1 X51.722 Y9.281 E0.0721
G1 X43.961 Y1.520 E0.4198
G1 X45.847 Y1.520 E0.0721
G1 X51.722 Y7.395 E0.3178
G1 X51.722 Y5.509 E0.0721
G1 X47.732 Y1.520 E0.2158
G1 X49.618 Y1.520 E0.0721
G1 X51.722 Y3.624 E0.1138
G1 X51.722 Y1.738 E0.0721
G1 X51.503 Y1.520 E0.0118
G1 E-1.9000 F1200
G1 Z0.700 F1200
G1 X42.762 Y7.863 F9000
G1 Z0.200 F1200
G1 E1.9000 F1200
G1 X51.722 Y16.823 E0.4847 F2400
G1 X51.722 Y18.709 E0.0721
G1 X42.762 Y9.749 E0.4847
G1 X42.762 Y11.634 E0.0721
G1 X51.722 Y20.594 E0.4847
G1 X51.722 Y22.480 E0.0721
G1 X42.762 Y13.520 E0.4847
G1 X42.762 Y15.406 E0.0721
G1 X51.722 Y24.366 E0.4847
G1 X51.722 Y26.251 E0.0721
G1 X42.762 Y17.291 E0.4847
G1 X42.762 Y19.177 E0.0721
G1 X51.722 Y28.137 E0.4847
G1 X51.722 Y30.022 E0.0721
G1 X42.762 Y21.062 E0.4847
G1 X42.762 Y22.948 E0.0721
G1 X51.722 Y31.908 E0.4847
G1 X51.722 Y33.794 E0.0721
G1 X42.762 Y24.834 E0.4847
G1 X42.762 Y26.719 E0.0721
G1 X51.722 Y35.679 E0.4847
G1 X51.722 Y37.565 E0.0721
G1 X42.762 Y28.605 E0.4847
G1 X42.762 Y30.491 E0.0721
G1 X51.722 Y39.451 E0.4847
G1 X51.722 Y41.336 E0.0721
G1 X42.762 Y32.376 E0.4847
G1 X42.762 Y34.262 E0.0721
G1 X51.722 Y43.222 E0.4847
G1 X51.722 Y45.107 E0.0721
G1 X42.762 Y36.147 E0.4847
G1 X42.762 Y38.033 E0.0721
G1 X51.722 Y46.993 E0.4847
G1 X51.722 Y48.879 E0.0721
G1 X42.762 Y39.919 E0.4847
G1 X42.762 Y41.804 E0.0721
G1 X51.722 Y50.764 E0.4847
G1 X51.722 Y52.650 E0.0721
G1 X42.762 Y43.690 E0.4847
G1 X42.762 Y45.575 E0.0721
G1 X51.666 Y54.480 E0.4817
G1 X49.781 Y54.480 E0.0721
G1 X42.762 Y47.461 E0.3797
G1 X42.762 Y49.347 E0.0721
G1 X47.895 Y54.480 E0.2777
G1 X46.009 Y54.480 E0.0721
G1 X42.762 Y51.232 E0.1757
G1 X42.762 Y53.118 E0.0721
G1 X44.124 Y54.480 E0.0737
G1 E-1.9000 F1200
G1 Z0.700 F1200
G1 X38.762 Y5.749 F9000
G1 Z0.200 F1200
G1 E1.9000 F1200
G1 X39.493 Y6.480 E0.0396 F2400
G1 X41.379 Y6.480 E0.0721
G1 X38.762 Y3.863 E0.1416
G1 E-1.9000 F1200
G1 Z0.700 F1200
G1 X26.762 Y1.291 F9000
G1 Z0.200 F1200
G1 E1.9000 F1200
G1 X27.950 Y2.480 E0.0643 F2400
G1 X29.836 Y2.480 E0.0721
G1 X26.762 Y-0.594 E0.1663
G1 E-1.9000 F1200
G1 Z0.700 F1200
G1 X14.762 Y-3.166 F9000
G1 Z0.200 F1200
G1 E1.9000 F1200
G1 X16.408 Y-1.520 E0.0891 F2400
G1 X18.294 Y-1.520 E0.0721
G1 X14.762 Y-5.052 E0.1911
G1 E-1.9000 F1200
; layer 2, Z = 0.400
M126 S255
; feature inner perimeter
; tool H0.200 W0.400
G1 Z0.700 F1200
G1 X-2.556 Y-6.350 F9000
G1 Z0.400 F1200
G1 E1.9000 F1200
G1 X-5.949 Y-6.350 E0.1128 F3600
G1 X-5.949 Y-19.948 E0.4523
G1 X-2.556 Y-19.948 E0.1128
