; G-Code generated by Simplify3D(R) Version 4.1.2
; Apr 6, 2020 at 11:22:12 AM
; Settings Summary
;   processName,Process1
;   applyToModels,BoP Bracket Prem
;   profileName,MakerBot Replicator 2 HBP (modified)
;   profileVersion,2020-03-12 10:48:50
;   baseProfile,MakerBot Replicator 2(2)
;   printMaterial,PLA
;   printQuality,Medium
;   printExtruders,
;   extruderName,Primary Extruder
;   extruderToolheadNumber,0
;   extruderDiameter,0.4
;   extruderAutoWidth,0
;   extruderWidth,0.4
;   extrusionMultiplier,1
;   extruderUseRetract,1
;   extruderRetractionDistance,1.9
;   extruderExtraRestartDistance,0
;   extruderRetractionZLift,0.5
;   extruderRetractionSpeed,1200
;   extruderUseCoasting,0
;   extruderCoastingDistance,0.2
;   extruderUseWipe,0
;   extruderWipeDistance,5
;   primaryExtruder,0
;   layerHeight,0.2
;   topSolidLayers,3
;   bottomSolidLayers,3
;   perimeterOutlines,2
;   printPerimetersInsideOut,1
;   startPointOption,3
;   startPointOriginX,0
;   startPointOriginY,150
;   sequentialIslands,0
;   spiralVaseMode,0
;   firstLayerHeightPercentage,100
;   firstLayerWidthPercentage,115
;   firstLayerUnderspeed,0.5
;   useRaft,0
;   raftExtruder,0
;   raftTopLayers,2
;   raftBaseLayers,1
;   raftOffset,1
;   raftSeparationDistance,0.14
;   raftTopInfill,90
;   aboveRaftSpeedMultiplier,0.3
;   useSkirt,0
;   skirtExtruder,0
;   skirtLayers,1
;   skirtOutlines,5
;   skirtOffset,0
;   usePrimePillar,0
;   primePillarExtruder,999
;   primePillarWidth,12
;   primePillarLocation,7
;   primePillarSpeedMultiplier,1
;   useOozeShield,0
;   oozeShieldExtruder,999
;   oozeShieldOffset,2
;   oozeShieldOutlines,1
;   oozeShieldSidewallShape,1
;   oozeShieldSidewallAngle,30
;   oozeShieldSpeedMultiplier,1
;   infillExtruder,0
;   internalInfillPattern,Rectilinear
;   externalInfillPattern,Rectilinear
;   infillPercentage,15
;   outlineOverlapPercentage,25
;   infillExtrusionWidthPercentage,100
;   minInfillLength,5
;   infillLayerInterval,1
;   internalInfillAngles,45,-45
;   overlapInternalInfillAngles,0
;   externalInfillAngles,45,-45
;   generateSupport,0
;   supportExtruder,0
;   supportInfillPercentage,5
;   supportExtraInflation,0.5
;   supportBaseLayers,0
;   denseSupportExtruder,0
;   denseSupportLayers,2
;   denseSupportInfillPercentage,90
;   supportLayerInterval,1
;   supportHorizontalPartOffset,0.3
;   supportUpperSeparationLayers,1
;   supportLowerSeparationLayers,1
;   supportType,1
;   supportGridSpacing,2
;   maxOverhangAngle,45
;   supportAngles,45,-45
;   temperatureName,Primary Extruder,Heated Build Platform
;   temperatureNumber,0,0
;   temperatureSetpointCount,1,1
;   temperatureSetpointLayers,1,1
;   temperatureSetpointTemperatures,230,60
;   temperatureStabilizeAtStartup,1,1
;   temperatureHeatedBed,0,1
;   fanLayers,1,2
;   fanSpeeds,0,100
;   blipFanToFullPower,1
;   adjustSpeedForCooling,1
;   minSpeedLayerTime,15
;   minCoolingSpeedSlowdown,20
;   increaseFanForCooling,1
;   minFanLayerTime,45
;   maxCoolingFanSpeed,100
;   increaseFanForBridging,1
;   bridgingFanSpeed,100
;   use5D,1
;   relativeEdistances,1
;   allowEaxisZeroing,0
;   independentExtruderAxes,1
;   includeM10123,0
;   stickySupport,1
;   applyToolheadOffsets,0
;   gcodeXoffset,0
;   gcodeYoffset,0
;   gcodeZoffset,0
;   overrideMachineDefinition,1
;   machineTypeOverride,0
;   strokeXoverride,280
;   strokeYoverride,150
;   strokeZoverride,150
;   originOffsetXoverride,140
;   originOffsetYoverride,75
;   originOffsetZoverride,0
;   homeXdirOverride,1
;   homeYdirOverride,1
;   homeZdirOverride,-1
;   flipXoverride,1
;   flipYoverride,-1
;   flipZoverride,1
;   toolheadOffsets,0,0|0,0|0,0|0,0|0,0|0,0
;   overrideFirmwareConfiguration,1
;   firmwareTypeOverride,MakerBot/Sailfish Firmware
;   GPXconfigOverride,r2h
;   baudRateOverride,115200
;   overridePrinterModels,1
;   printerModelsOverride,MakerBot_Replicator2.stl
;   startingGcode,; **** Replicator 2 start.gcode ****,M73 P0 ; enable build progress,G162 X Y F3000 ; home XY maximum,G161 Z F1200 ; home Z minimum,G92 Z-5 ; set Z to -5,G1 Z0 ; move Z to 0,G161 Z F100 ; home Z slowly,M132 X Y Z A B ; recall home offsets,G1 X-145 Y-75 Z30 F9000 ; move to wait position off table,G130 X20 Y20 Z20 A20 B20 ; lower stepper Vrefs while heating,M126 S[fan_speed_pwm],M140 S[bed0_temperature] T0,M134 T0 ; stabilize bed temperature,M104 S[extruder0_temperature] T0,M133 T0 ; stabilize extruder temperature,G130 X127 Y127 Z40 A127 B127 ; default stepper Vrefs,G92 A0 ; zero extruder,G1 Z0.4 ; position nozzle,G1 E25 F300 ; purge nozzle,G1 X-140 Y-70 Z0.15 F1200 ; slow wipe,G1 X-135 Y-65 Z0.5 F1200 ; lift,G92 A0 ; zero extruder,M73 P1 ;@body (notify GPX body has started),; **** end of start.gcode ****
;   layerChangeGcode,
;   retractionGcode,
;   toolChangeGcode,
;   endingGcode,; **** Replicator 2 end.gcode ****,M73 P100 ; end build progress,G1 Z155 F1000 ; send Z axis to bottom of machine,M104 S0 T0 ; cool down extruder,M140 S0 T0 ; cool down HBP,M127 ; stop blower fan,G162 X Y F3000 ; home XY maximum,M18 ; disable stepper,M0 ; stop codes,M72 P1 ; play Ta-Da song,; **** end of end.gcode ****
;   exportFileFormat,gcode
;   celebration,0
;   celebrationSong,Random Song
;   postProcessing,
;   defaultSpeed,4800
;   outlineUnderspeed,0.5
;   solidInfillUnderspeed,1
;   supportUnderspeed,1
;   rapidXYspeed,9000
;   rapidZspeed,1200
;   minBridgingArea,50
;   bridgingExtraInflation,0
;   bridgingExtrusionMultiplier,1
;   bridgingSpeedMultiplier,0.8
;   useFixedBridgingAngle,0
;   fixedBridgingAngle,0
;   applyBridgingToPerimeters,0
;   filamentDiameters,1.75|1.75|1.75|1.75|1.75|1.75
;   filamentPricesPerKg,46|46|46|46|46|46
;   filamentDensities,1.25|1.25|1.25|1.25|1.25|1.25
;   useMinPrintHeight,0
;   minPrintHeight,0
;   useMaxPrintHeight,0
;   maxPrintHeight,4.84
;   useDiaphragm,0
;   diaphragmLayerInterval,20
;   robustSlicing,1
;   mergeAllIntoSolid,0
;   onlyRetractWhenCrossingOutline,0
;   retractBetweenLayers,0
;   useRetractionMinTravel,1
;   retractionMinTravel,7
;   retractWhileWiping,1
;   onlyWipeOutlines,1
;   avoidCrossingOutline,0
;   maxMovementDetourFactor,3
;   toolChangeRetractionDistance,12
;   toolChangeExtraRestartDistance,-0.5
;   toolChangeRetractionSpeed,600
;   externalThinWallType,0
;   internalThinWallType,0
;   thinWallAllowedOverlapPercentage,10
;   singleExtrusionMinLength,1
;   singleExtrusionMinPrintingWidthPercentage,50
;   singleExtrusionMaxPrintingWidthPercentage,200
;   singleExtrusionEndpointExtension,0.2
;   horizontalSizeCompensation,0
G90
M83
; **** Replicator 2 start.gcode ****
M73 P0 ; enable build progress
G162 X Y F3000 ; home XY maximum
G161 Z F1200 ; home Z minimum
G92 Z-5 ; set Z to -5
G1 Z0 ; move Z to 0
G161 Z F100 ; home Z slowly
M132 X Y Z A B ; recall home offsets
G1 X-145 Y-75 Z30 F9000 ; move to wait position off table
G130 X20 Y20 Z20 A20 B20 ; lower stepper Vrefs while heating
M126 S132
M140 S60 T0
M134 T0 ; stabilize bed temperature
M104 S230 T0
M133 T0 ; stabilize extruder temperature
G130 X127 Y127 Z40 A127 B127 ; default stepper Vrefs
G92 A0 ; zero extruder
G1 Z0.4 ; position nozzle
G1 E25 F300 ; purge nozzle
G1 X-140 Y-70 Z0.15 F1200 ; slow wipe
G1 X-135 Y-65 Z0.5 F1200 ; lift
G92 A0 ; zero extruder
M73 P1 ;@body (notify GPX body has started)
; **** end of start.gcode ****
; process Process1
; layer 1, Z = 0.200
M135 T0
G1 E-1.9000 F1200
; feature inner perimeter
; tool H0.200 W0.460
G1 Z0.500 F1200
G1 X20.320 Y3.325 F9000
G1 Z0.200 F1200
G1 E1.9000 F1200
G1 X-20.320 Y3.325 E1.5545 F1800
G1 X-20.320 Y-3.325 E0.2544
G1 X20.320 Y-3.325 E1.5545
G1 X20.320 Y3.325 E0.2544
; feature outer perimeter
G1 X20.780 Y3.785 F9000
G1 X-20.780 Y3.785 E1.5896 F1200
G1 X-20.780 Y-3.785 E0.2895
G1 X20.780 Y-3.785 E1.5896
G1 X20.780 Y3.785 E0.2895
G1 E-1.9000 F1200
; feature inner perimeter
G1 Z0.700 F1200
G1 X-12.741 Y0.593 F9000
G1 Z0.200 F1200
G1 E1.9000 F1200
G1 X-12.680 Y-0.032 E0.0240 F1800
G1 X-12.741 Y-0.657 E0.0240
G1 X-12.923 Y-1.257 E0.0240
G1 X-13.219 Y-1.811 E0.0240
G1 X-13.618 Y-2.297 E0.0240
G1 X-14.103 Y-2.695 E0.0240
G1 X-14.657 Y-2.991 E0.0240
G1 X-15.258 Y-3.173 E0.0240
G1 X-15.882 Y-3.235 E0.0240
G1 X-16.507 Y-3.173 E0.0240
G1 X-17.108 Y-2.991 E0.0240
G1 X-17.662 Y-2.695 E0.0240
G1 X-18.147 Y-2.297 E0.0240
G1 X-18.545 Y-1.811 E0.0240
G1 X-18.841 Y-1.257 E0.0240
G1 X-19.023 Y-0.657 E0.0240
G1 X-19.085 Y-0.032 E0.0240
G1 X-19.023 Y0.593 E0.0240
G1 X-18.841 Y1.194 E0.0240
G1 X-18.545 Y1.747 E0.0240
G1 X-18.147 Y2.233 E0.0240
G1 X-17.662 Y2.631 E0.0240
G1 X-17.108 Y2.927 E0.0240
G1 X-16.507 Y3.109 E0.0240
G1 X-15.882 Y3.171 E0.0240
G1 X-15.258 Y3.109 E0.0240
G1 X-14.657 Y2.927 E0.0240
G1 X-14.103 Y2.631 E0.0240
G1 X-13.618 Y2.233 E0.0240
G1 X-13.219 Y1.747 E0.0240
G1 X-12.923 Y1.194 E0.0240
G1 X-12.741 Y0.593 E0.0240
; feature outer perimeter
G1 X-13.195 Y0.503 F9000
G1 X-13.142 Y-0.032 E0.0205 F1200
G1 X-13.195 Y-0.567 E0.0205
G1 X-13.351 Y-1.081 E0.0205
G1 X-13.604 Y-1.554 E0.0205
G1 X-13.945 Y-1.970 E0.0205
G1 X-14.360 Y-2.310 E0.0205
G1 X-14.834 Y-2.564 E0.0205
G1 X-15.348 Y-2.720 E0.0205
G1 X-15.882 Y-2.772 E0.0205
G1 X-16.417 Y-2.720 E0.0205
G1 X-16.931 Y-2.564 E0.0205
G1 X-17.405 Y-2.310 E0.0205
G1 X-17.820 Y-1.970 E0.0205
G1 X-18.161 Y-1.554 E0.0205
G1 X-18.414 Y-1.081 E0.0205
G1 X-18.570 Y-0.567 E0.0205
G1 X-18.623 Y-0.032 E0.0205
G1 X-18.570 Y0.503 E0.0205
G1 X-18.414 Y1.017 E0.0205
G1 X-18.161 Y1.491 E0.0205
G1 X-17.820 Y1.906 E0.0205
G1 X-17.405 Y2.247 E0.0205
G1 X-16.931 Y2.500 E0.0205
G1 X-16.417 Y2.656 E0.0205
G1 X-15.882 Y2.709 E0.0205
G1 X-15.348 Y2.656 E0.0205
G1 X-14.834 Y2.500 E0.0205
G1 X-14.360 Y2.247 E0.0205
G1 X-13.945 Y1.906 E0.0205
G1 X-13.604 Y1.491 E0.0205
G1 X-13.351 Y1.017 E0.0205
G1 X-13.195 Y0.503 E0.0205
; feature solid layer
G1 X-13.965 Y2.949 F9000
G1 X-13.934 Y2.980 E0.0017 F2400
G1 X-13.283 Y2.980 E0.0249
G1 X-13.599 Y2.664 E0.0171
G1 X-13.373 Y2.478 E0.0112
G1 X-13.265 Y2.347 E0.0065
G1 X-12.633 Y2.980 E0.0342
G1 X-11.982 Y2.980 E0.0249
G1 X-12.972 Y1.990 E0.0535
G1 X-12.931 Y1.940 E0.0025
G1 X-12.736 Y1.576 E0.0158
G1 X-11.332 Y2.980 E0.0760
G1 X-10.681 Y2.980 E0.0249
G1 X-12.541 Y1.121 E0.1006
G1 X-12.401 Y0.661 E0.0184
G1 X-12.397 Y0.614 E0.0018
G1 X-10.031 Y2.980 E0.1280
G1 X-9.380 Y2.980 E0.0249
G1 X-12.338 Y0.022 E0.1600
G1 X-12.333 Y-0.032 E0.0021
G1 X-12.398 Y-0.688 E0.0252
G1 X-8.730 Y2.980 E0.1984
G1 X-8.079 Y2.980 E0.0249
G1 X-12.780 Y-1.721 E0.2543
G1 X-12.931 Y-2.004 E0.0123
G1 X-13.373 Y-2.542 E0.0266
G1 X-13.907 Y-2.980 E0.0264
G1 X-13.389 Y-2.980 E0.0198
G1 X-7.429 Y2.980 E0.3224
G1 X-6.778 Y2.980 E0.0249
G1 X-12.738 Y-2.980 E0.3224
G1 X-12.087 Y-2.980 E0.0249
G1 X-6.128 Y2.980 E0.3224
G1 X-5.477 Y2.980 E0.0249
G1 X-11.437 Y-2.980 E0.3224
G1 X-10.786 Y-2.980 E0.0249
G1 X-4.826 Y2.980 E0.3224
G1 X-4.176 Y2.980 E0.0249
G1 X-10.136 Y-2.980 E0.3224
G1 X-9.485 Y-2.980 E0.0249
G1 X-3.525 Y2.980 E0.3224
G1 X-2.875 Y2.980 E0.0249
G1 X-8.835 Y-2.980 E0.3224
G1 X-8.184 Y-2.980 E0.0249
G1 X-2.224 Y2.980 E0.3224
G1 X-1.574 Y2.980 E0.0249
G1 X-7.534 Y-2.980 E0.3224
G1 X-6.883 Y-2.980 E0.0249
G1 X-0.923 Y2.980 E0.3224
G1 X-0.273 Y2.980 E0.0249
G1 X-6.233 Y-2.980 E0.3224
G1 X-5.582 Y-2.980 E0.0249
G1 X0.378 Y2.980 E0.3224
G1 X1.028 Y2.980 E0.0249
G1 X-4.932 Y-2.980 E0.3224
G1 X-4.281 Y-2.980 E0.0249
G1 X1.679 Y2.980 E0.3224
G1 X2.329 Y2.980 E0.0249
G1 X-3.630 Y-2.980 E0.3224
G1 X-2.980 Y-2.980 E0.0249
G1 X2.980 Y2.980 E0.3224
G1 X3.630 Y2.980 E0.0249
G1 X-2.329 Y-2.980 E0.3224
G1 X-1.679 Y-2.980 E0.0249
G1 X4.281 Y2.980 E0.3224
G1 X4.932 Y2.980 E0.0249
G1 X-1.028 Y-2.980 E0.3224
G1 X-0.378 Y-2.980 E0.0249
G1 X5.582 Y2.980 E0.3224
G1 X6.233 Y2.980 E0.0249
G1 X0.273 Y-2.980 E0.3224
G1 X0.923 Y-2.980 E0.0249
G1 X6.883 Y2.980 E0.3224
G1 X7.534 Y2.980 E0.0249
G1 X1.574 Y-2.980 E0.3224
G1 X2.224 Y-2.980 E0.0249
G1 X8.184 Y2.980 E0.3224
G1 X8.835 Y2.980 E0.0249
G1 X2.875 Y-2.980 E0.3224
G1 X3.525 Y-2.980 E0.0249
G1 X9.485 Y2.980 E0.3224
G1 X10.136 Y2.980 E0.0249
G1 X4.176 Y-2.980 E0.3224
G1 X4.827 Y-2.980 E0.0249
G1 X10.786 Y2.980 E0.3224
G1 X11.437 Y2.980 E0.0249
G1 X5.477 Y-2.980 E0.3224
G1 X6.128 Y-2.980 E0.0249
G1 X12.087 Y2.980 E0.3224
G1 X12.738 Y2.980 E0.0249
G1 X6.778 Y-2.980 E0.3224
G1 X7.429 Y-2.980 E0.0249
G1 X13.389 Y2.980 E0.3224
G1 X14.039 Y2.980 E0.0249
G1 X8.079 Y-2.980 E0.3224
G1 X8.730 Y-2.980 E0.0249
G1 X14.690 Y2.980 E0.3224
G1 X15.340 Y2.980 E0.0249
G1 X9.380 Y-2.980 E0.3224
G1 X10.031 Y-2.980 E0.0249
G1 X15.991 Y2.980 E0.3224
G1 X16.641 Y2.980 E0.0249
G1 X10.681 Y-2.980 E0.3224
G1 X11.332 Y-2.980 E0.0249
G1 X17.292 Y2.980 E0.3224
G1 X17.942 Y2.980 E0.0249
G1 X11.982 Y-2.980 E0.3224
G1 X12.633 Y-2.980 E0.0249
G1 X18.593 Y2.980 E0.3224
G1 X19.243 Y2.980 E0.0249
G1 X13.284 Y-2.980 E0.3224
G1 X13.934 Y-2.980 E0.0249
G1 X19.894 Y2.980 E0.3224
G1 X19.975 Y2.980 E0.0031
G1 X19.975 Y2.411 E0.0218
G1 X14.585 Y-2.980 E0.2916
G1 X15.235 Y-2.980 E0.0249
G1 X19.975 Y1.760 E0.2564
G1 X19.975 Y1.109 E0.0249
G1 X15.886 Y-2.980 E0.2212
G1 X16.536 Y-2.980 E0.0249
G1 X19.975 Y0.459 E0.1860
G1 X19.975 Y-0.192 E0.0249
G1 X17.187 Y-2.980 E0.1508
G1 X17.837 Y-2.980 E0.0249
G1 X19.975 Y-0.842 E0.1156
G1 X19.975 Y-1.493 E0.0249
G1 X18.488 Y-2.980 E0.0804
G1 X19.138 Y-2.980 E0.0249
G1 X19.975 Y-2.143 E0.0453
G1 X19.975 Y-2.794 E0.0249
G1 X19.789 Y-2.980 E0.0101
G1 E-1.9000 F1200
G1 Z0.700 F1200
G1 X-17.942 Y-2.980 F9000
G1 Z0.200 F1200
G1 E1.9000 F1200
G1 X-17.904 Y-2.942 E0.0021 F2400
G1 X-18.262 Y-2.649 E0.0177
G1 X-18.593 Y-2.980 E0.0179
G1 X-19.243 Y-2.980 E0.0249
G1 X-18.578 Y-2.315 E0.0360
G1 X-18.834 Y-2.004 E0.0154
G1 X-18.863 Y-1.949 E0.0024
G1 X-19.894 Y-2.980 E0.0558
G1 X-19.975 Y-2.980 E0.0031
G1 X-19.975 Y-2.411 E0.0218
G1 X-19.089 Y-1.525 E0.0479
G1 X-19.162 Y-1.390 E0.0058
G1 X-19.265 Y-1.050 E0.0136
G1 X-19.975 Y-1.760 E0.0384
G1 X-19.975 Y-1.109 E0.0249
G1 X-19.384 Y-0.518 E0.0320
G1 X-19.432 Y-0.032 E0.0187
G1 X-19.419 Y0.097 E0.0050
G1 X-19.975 Y-0.459 E0.0301
G1 X-19.975 Y0.192 E0.0249
G1 X-19.301 Y0.865 E0.0364
G1 X-19.162 Y1.326 E0.0184
G1 X-18.834 Y1.940 E0.0266
G1 X-18.634 Y2.183 E0.0120
G1 X-19.975 Y0.842 E0.0726
G1 X-19.975 Y1.493 E0.0249
G1 X-18.488 Y2.980 E0.0804
G1 X-19.138 Y2.980 E0.0249
G1 X-19.975 Y2.143 E0.0453
G1 X-19.975 Y2.794 E0.0249
G1 X-19.789 Y2.980 E0.0101
G1 X-18.098 Y2.720 F9000
G1 X-17.837 Y2.980 E0.0141 F2400
G1 E-1.9000 F1200
; layer 2, Z = 0.400
M126 S255
; feature inner perimeter
; tool H0.200 W0.400
G1 Z0.700 F1200
G1 X20.410 Y3.415 F9000
G1 Z0.400 F1200
G1 E1.9000 F1200
G1 X-20.410 Y3.415 E1.3577 F2925
G1 X-20.410 Y-3.415 E0.2272
G1 X20.410 Y-3.415 E1.3577
G1 X20.410 Y3.415 E0.2272
; feature outer perimeter
G1 X20.810 Y3.815 F9000
G1 X-20.810 Y3.815 E1.3843 F1950
G1 X-20.810 Y-3.815 E0.2538
G1 X20.810 Y-3.815 E1.3843
G1 X20.810 Y3.815 E0.2538
G1 E-1.9000 F1200
; feature inner perimeter
G1 Z0.900 F1200
G1 X-12.830 Y0.575 F9000
G1 Z0.400 F1200
G1 E1.9000 F1200
G1 X-12.770 Y-0.032 E0.0203 F2925
G1 X-12.830 Y-0.639 E0.0203
G1 X-13.007 Y-1.223 E0.0203
G1 X-13.295 Y-1.761 E0.0203
G1 X-13.682 Y-2.233 E0.0203
G1 X-14.153 Y-2.620 E0.0203
G1 X-14.691 Y-2.907 E0.0203
G1 X-15.275 Y-3.084 E0.0203
G1 X-15.882 Y-3.144 E0.0203
G1 X-16.490 Y-3.084 E0.0203
G1 X-17.073 Y-2.907 E0.0203
G1 X-17.611 Y-2.620 E0.0203
G1 X-18.083 Y-2.233 E0.0203
G1 X-18.470 Y-1.761 E0.0203
G1 X-18.758 Y-1.223 E0.0203
G1 X-18.935 Y-0.639 E0.0203
G1 X-18.995 Y-0.032 E0.0203
G1 X-18.935 Y0.575 E0.0203
G1 X-18.758 Y1.159 E0.0203
G1 X-18.470 Y1.697 E0.0203
G1 X-18.083 Y2.169 E0.0203
G1 X-17.611 Y2.556 E0.0203
G1 X-17.073 Y2.843 E0.0203
G1 X-16.490 Y3.021 E0.0203
G1 X-15.882 Y3.080 E0.0203
G1 X-15.275 Y3.021 E0.0203
G1 X-14.691 Y2.843 E0.0203
G1 X-14.153 Y2.556 E0.0203
G1 X-13.682 Y2.169 E0.0203
G1 X-13.295 Y1.697 E0.0203
G1 X-13.007 Y1.159 E0.0203
G1 X-12.830 Y0.575 E0.0203
; feature outer perimeter
G1 X-13.224 Y0.497 F9000
G1 X-13.172 Y-0.032 E0.0177 F1950
G1 X-13.224 Y-0.561 E0.0177
G1 X-13.378 Y-1.069 E0.0177
G1 X-13.629 Y-1.538 E0.0177
G1 X-13.966 Y-1.948 E0.0177
G1 X-14.377 Y-2.285 E0.0177
G1 X-14.845 Y-2.536 E0.0177
G1 X-15.354 Y-2.690 E0.0177
G1 X-15.882 Y-2.742 E0.0177
