; G-Code generated by Simplify3D(R) Version 4.1.2
; Apr 6, 2020 at 11:23:26 AM
; Settings Summary
;   processName,Process1
;   applyToModels,BoP Bracket Pro
;   profileName,MakerBot Replicator 2 HBP (modified)
;   profileVersion,2020-03-12 10:48:50
;   baseProfile,MakerBot Replicator 2(2)
;   printMaterial,PLA
;   printQuality,Medium
;   printExtruders,
;   extruderName,Primary Extruder
;   extruderToolheadNumber,0
;   extruderDiameter,0.4
;   extruderAutoWidth,0
;   extruderWidth,0.4
;   extrusionMultiplier,1
;   extruderUseRetract,1
;   extruderRetractionDistance,1.9
;   extruderExtraRestartDistance,0
;   extruderRetractionZLift,0.5
;   extruderRetractionSpeed,1200
;   extruderUseCoasting,0
;   extruderCoastingDistance,0.2
;   extruderUseWipe,0
;   extruderWipeDistance,5
;   primaryExtruder,0
;   layerHeight,0.2
;   topSolidLayers,3
;   bottomSolidLayers,3
;   perimeterOutlines,2
;   printPerimetersInsideOut,1
;   startPointOption,3
;   startPointOriginX,0
;   startPointOriginY,150
;   sequentialIslands,0
;   spiralVaseMode,0
;   firstLayerHeightPercentage,100
;   firstLayerWidthPercentage,115
;   firstLayerUnderspeed,0.5
;   useRaft,0
;   raftExtruder,0
;   raftTopLayers,2
;   raftBaseLayers,1
;   raftOffset,1
;   raftSeparationDistance,0.14
;   raftTopInfill,90
;   aboveRaftSpeedMultiplier,0.3
;   useSkirt,0
;   skirtExtruder,0
;   skirtLayers,1
;   skirtOutlines,5
;   skirtOffset,0
;   usePrimePillar,0
;   primePillarExtruder,999
;   primePillarWidth,12
;   primePillarLocation,7
;   primePillarSpeedMultiplier,1
;   useOozeShield,0
;   oozeShieldExtruder,999
;   oozeShieldOffset,2
;   oozeShieldOutlines,1
;   oozeShieldSidewallShape,1
;   oozeShieldSidewallAngle,30
;   oozeShieldSpeedMultiplier,1
;   infillExtruder,0
;   internalInfillPattern,Rectilinear
;   externalInfillPattern,Rectilinear
;   infillPercentage,15
;   outlineOverlapPercentage,25
;   infillExtrusionWidthPercentage,100
;   minInfillLength,5
;   infillLayerInterval,1
;   internalInfillAngles,45,-45
;   overlapInternalInfillAngles,0
;   externalInfillAngles,45,-45
;   generateSupport,0
;   supportExtruder,0
;   supportInfillPercentage,5
;   supportExtraInflation,0.5
;   supportBaseLayers,0
;   denseSupportExtruder,0
;   denseSupportLayers,2
;   denseSupportInfillPercentage,90
;   supportLayerInterval,1
;   supportHorizontalPartOffset,0.3
;   supportUpperSeparationLayers,1
;   supportLowerSeparationLayers,1
;   supportType,1
;   supportGridSpacing,2
;   maxOverhangAngle,45
;   supportAngles,45,-45
;   temperatureName,Primary Extruder,Heated Build Platform
;   temperatureNumber,0,0
;   temperatureSetpointCount,1,1
;   temperatureSetpointLayers,1,1
;   temperatureSetpointTemperatures,230,60
;   temperatureStabilizeAtStartup,1,1
;   temperatureHeatedBed,0,1
;   fanLayers,1,2
;   fanSpeeds,0,100
;   blipFanToFullPower,1
;   adjustSpeedForCooling,1
;   minSpeedLayerTime,15
;   minCoolingSpeedSlowdown,20
;   increaseFanForCooling,1
;   minFanLayerTime,45
;   maxCoolingFanSpeed,100
;   increaseFanForBridging,1
;   bridgingFanSpeed,100
;   use5D,1
;   relativeEdistances,1
;   allowEaxisZeroing,0
;   independentExtruderAxes,1
;   includeM10123,0
;   stickySupport,1
;   applyToolheadOffsets,0
;   gcodeXoffset,0
;   gcodeYoffset,0
;   gcodeZoffset,0
;   overrideMachineDefinition,1
;   machineTypeOverride,0
;   strokeXoverride,280
;   strokeYoverride,150
;   strokeZoverride,150
;   originOffsetXoverride,140
;   originOffsetYoverride,75
;   originOffsetZoverride,0
;   homeXdirOverride,1
;   homeYdirOverride,1
;   homeZdirOverride,-1
;   flipXoverride,1
;   flipYoverride,-1
;   flipZoverride,1
;   toolheadOffsets,0,0|0,0|0,0|0,0|0,0|0,0
;   overrideFirmwareConfiguration,1
;   firmwareTypeOverride,MakerBot/Sailfish Firmware
;   GPXconfigOverride,r2h
;   baudRateOverride,115200
;   overridePrinterModels,1
;   printerModelsOverride,MakerBot_Replicator2.stl
;   startingGcode,; **** Replicator 2 start.gcode ****,M73 P0 ; enable build progress,G162 X Y F3000 ; home XY maximum,G161 Z F1200 ; home Z minimum,G92 Z-5 ; set Z to -5,G1 Z0 ; move Z to 0,G161 Z F100 ; home Z slowly,M132 X Y Z A B ; recall home offsets,G1 X-145 Y-75 Z30 F9000 ; move to wait position off table,G130 X20 Y20 Z20 A20 B20 ; lower stepper Vrefs while heating,M126 S[fan_speed_pwm],M140 S[bed0_temperature] T0,M134 T0 ; stabilize bed temperature,M104 S[extruder0_temperature] T0,M133 T0 ; stabilize extruder temperature,G130 X127 Y127 Z40 A127 B127 ; default stepper Vrefs,G92 A0 ; zero extruder,G1 Z0.4 ; position nozzle,G1 E25 F300 ; purge nozzle,G1 X-140 Y-70 Z0.15 F1200 ; slow wipe,G1 X-135 Y-65 Z0.5 F1200 ; lift,G92 A0 ; zero extruder,M73 P1 ;@body (notify GPX body has started),; **** end of start.gcode ****
;   layerChangeGcode,
;   retractionGcode,
;   toolChangeGcode,
;   endingGcode,; **** Replicator 2 end.gcode ****,M73 P100 ; end build progress,G1 Z155 F1000 ; send Z axis to bottom of machine,M104 S0 T0 ; cool down extruder,M140 S0 T0 ; cool down HBP,M127 ; stop blower fan,G162 X Y F3000 ; home XY maximum,M18 ; disable stepper,M0 ; stop codes,M72 P1 ; play Ta-Da song,; **** end of end.gcode ****
;   exportFileFormat,gcode
;   celebration,0
;   celebrationSong,Random Song
;   postProcessing,
;   defaultSpeed,4800
;   outlineUnderspeed,0.5
;   solidInfillUnderspeed,1
;   supportUnderspeed,1
;   rapidXYspeed,9000
;   rapidZspeed,1200
;   minBridgingArea,50
;   bridgingExtraInflation,0
;   bridgingExtrusionMultiplier,1
;   bridgingSpeedMultiplier,0.8
;   useFixedBridgingAngle,0
;   fixedBridgingAngle,0
;   applyBridgingToPerimeters,0
;   filamentDiameters,1.75|1.75|1.75|1.75|1.75|1.75
;   filamentPricesPerKg,46|46|46|46|46|46
;   filamentDensities,1.25|1.25|1.25|1.25|1.25|1.25
;   useMinPrintHeight,0
;   minPrintHeight,0
;   useMaxPrintHeight,0
;   maxPrintHeight,4.84
;   useDiaphragm,0
;   diaphragmLayerInterval,20
;   robustSlicing,1
;   mergeAllIntoSolid,0
;   onlyRetractWhenCrossingOutline,0
;   retractBetweenLayers,0
;   useRetractionMinTravel,1
;   retractionMinTravel,7
;   retractWhileWiping,1
;   onlyWipeOutlines,1
;   avoidCrossingOutline,0
;   maxMovementDetourFactor,3
;   toolChangeRetractionDistance,12
;   toolChangeExtraRestartDistance,-0.5
;   toolChangeRetractionSpeed,600
;   externalThinWallType,0
;   internalThinWallType,0
;   thinWallAllowedOverlapPercentage,10
;   singleExtrusionMinLength,1
;   singleExtrusionMinPrintingWidthPercentage,50
;   singleExtrusionMaxPrintingWidthPercentage,200
;   singleExtrusionEndpointExtension,0.2
;   horizontalSizeCompensation,0
G90
M83
; **** Replicator 2 start.gcode ****
M73 P0 ; enable build progress
G162 X Y F3000 ; home XY maximum
G161 Z F1200 ; home Z minimum
G92 Z-5 ; set Z to -5
G1 Z0 ; move Z to 0
G161 Z F100 ; home Z slowly
M132 X Y Z A B ; recall home offsets
G1 X-145 Y-75 Z30 F9000 ; move to wait position off table
G130 X20 Y20 Z20 A20 B20 ; lower stepper Vrefs while heating
M126 S133
M140 S60 T0
M134 T0 ; stabilize bed temperature
M104 S230 T0
M133 T0 ; stabilize extruder temperature
G130 X127 Y127 Z40 A127 B127 ; default stepper Vrefs
G92 A0 ; zero extruder
G1 Z0.4 ; position nozzle
G1 E25 F300 ; purge nozzle
G1 X-140 Y-70 Z0.15 F1200 ; slow wipe
G1 X-135 Y-65 Z0.5 F1200 ; lift
G92 A0 ; zero extruder
M73 P1 ;@body (notify GPX body has started)
; **** end of start.gcode ****
; process Process1
; layer 1, Z = 0.200
M135 T0
G1 E-1.9000 F1200
; feature inner perimeter
; tool H0.200 W0.460
G1 Z0.500 F1200
G1 X20.070 Y3.325 F9000
G1 Z0.200 F1200
G1 E1.9000 F1200
G1 X-20.070 Y3.325 E1.5353 F1800
G1 X-20.070 Y-3.325 E0.2544
G1 X20.070 Y-3.325 E1.5353
G1 X20.070 Y3.325 E0.2544
; feature outer perimeter
G1 X20.530 Y3.785 F9000
G1 X-20.530 Y3.785 E1.5705 F1200
G1 X-20.530 Y-3.785 E0.2895
G1 X20.530 Y-3.785 E1.5705
G1 X20.530 Y3.785 E0.2895
G1 E-1.9000 F1200
; feature inner perimeter
G1 Z0.700 F1200
G1 X-12.991 Y0.593 F9000
G1 Z0.200 F1200
G1 E1.9000 F1200
G1 X-12.930 Y-0.032 E0.0240 F1800
G1 X-12.991 Y-0.657 E0.0240
G1 X-13.174 Y-1.257 E0.0240
G1 X-13.470 Y-1.811 E0.0240
G1 X-13.868 Y-2.297 E0.0240
G1 X-14.353 Y-2.695 E0.0240
G1 X-14.907 Y-2.991 E0.0240
G1 X-15.508 Y-3.173 E0.0240
G1 X-16.132 Y-3.235 E0.0240
G1 X-16.757 Y-3.173 E0.0240
G1 X-17.358 Y-2.991 E0.0240
G1 X-17.912 Y-2.695 E0.0240
G1 X-18.397 Y-2.297 E0.0240
G1 X-18.795 Y-1.811 E0.0240
G1 X-19.091 Y-1.257 E0.0240
G1 X-19.274 Y-0.657 E0.0240
G1 X-19.335 Y-0.032 E0.0240
G1 X-19.274 Y0.593 E0.0240
G1 X-19.091 Y1.194 E0.0240
G1 X-18.795 Y1.747 E0.0240
G1 X-18.397 Y2.233 E0.0240
G1 X-17.912 Y2.631 E0.0240
G1 X-17.358 Y2.927 E0.0240
G1 X-16.757 Y3.109 E0.0240
G1 X-16.132 Y3.171 E0.0240
G1 X-15.508 Y3.109 E0.0240
G1 X-14.907 Y2.927 E0.0240
G1 X-14.353 Y2.631 E0.0240
G1 X-13.868 Y2.233 E0.0240
G1 X-13.470 Y1.747 E0.0240
G1 X-13.174 Y1.194 E0.0240
G1 X-12.991 Y0.593 E0.0240
; feature outer perimeter
G1 X-13.445 Y0.503 F9000
G1 X-13.392 Y-0.032 E0.0205 F1200
G1 X-13.445 Y-0.567 E0.0205
G1 X-13.601 Y-1.081 E0.0205
G1 X-13.854 Y-1.554 E0.0205
G1 X-14.195 Y-1.970 E0.0205
G1 X-14.610 Y-2.310 E0.0205
G1 X-15.084 Y-2.564 E0.0205
G1 X-15.598 Y-2.720 E0.0205
G1 X-16.132 Y-2.772 E0.0205
G1 X-16.667 Y-2.720 E0.0205
G1 X-17.181 Y-2.564 E0.0205
G1 X-17.655 Y-2.310 E0.0205
G1 X-18.070 Y-1.970 E0.0205
G1 X-18.411 Y-1.554 E0.0205
G1 X-18.664 Y-1.081 E0.0205
G1 X-18.820 Y-0.567 E0.0205
G1 X-18.873 Y-0.032 E0.0205
G1 X-18.820 Y0.503 E0.0205
G1 X-18.664 Y1.017 E0.0205
G1 X-18.411 Y1.491 E0.0205
G1 X-18.070 Y1.906 E0.0205
G1 X-17.655 Y2.247 E0.0205
G1 X-17.181 Y2.500 E0.0205
G1 X-16.667 Y2.656 E0.0205
G1 X-16.132 Y2.709 E0.0205
G1 X-15.598 Y2.656 E0.0205
G1 X-15.084 Y2.500 E0.0205
G1 X-14.610 Y2.247 E0.0205
G1 X-14.195 Y1.906 E0.0205
G1 X-13.854 Y1.491 E0.0205
G1 X-13.601 Y1.017 E0.0205
G1 X-13.445 Y0.503 E0.0205
; feature solid layer
G1 X-13.934 Y2.980 F9000
G1 X-14.069 Y2.845 E0.0073 F2400
G1 X-13.712 Y2.551 E0.0177
G1 X-13.283 Y2.980 E0.0232
G1 X-12.633 Y2.980 E0.0249
G1 X-13.403 Y2.210 E0.0416
G1 X-13.181 Y1.940 E0.0134
G1 X-13.126 Y1.836 E0.0045
G1 X-11.982 Y2.980 E0.0619
G1 X-11.332 Y2.980 E0.0249
G1 X-12.899 Y1.412 E0.0848
G1 X-12.853 Y1.326 E0.0037
G1 X-12.733 Y0.929 E0.0159
G1 X-10.681 Y2.980 E0.1110
G1 X-10.031 Y2.980 E0.0249
G1 X-12.624 Y0.386 E0.1403
G1 X-12.583 Y-0.032 E0.0161
G1 X-12.604 Y-0.244 E0.0081
G1 X-9.380 Y2.980 E0.1744
G1 X-8.730 Y2.980 E0.0249
G1 X-12.746 Y-1.036 E0.2172
G1 X-12.853 Y-1.390 E0.0141
G1 X-13.181 Y-2.004 E0.0266
G1 X-13.623 Y-2.542 E0.0266
G1 X-14.157 Y-2.980 E0.0264
G1 X-14.039 Y-2.980 E0.0045
G1 X-8.079 Y2.980 E0.3224
G1 X-7.429 Y2.980 E0.0249
G1 X-13.389 Y-2.980 E0.3224
G1 X-12.738 Y-2.980 E0.0249
G1 X-6.778 Y2.980 E0.3224
G1 X-6.128 Y2.980 E0.0249
G1 X-12.087 Y-2.980 E0.3224
G1 X-11.437 Y-2.980 E0.0249
G1 X-5.477 Y2.980 E0.3224
G1 X-4.826 Y2.980 E0.0249
G1 X-10.786 Y-2.980 E0.3224
G1 X-10.136 Y-2.980 E0.0249
G1 X-4.176 Y2.980 E0.3224
G1 X-3.525 Y2.980 E0.0249
G1 X-9.485 Y-2.980 E0.3224
G1 X-8.835 Y-2.980 E0.0249
G1 X-2.875 Y2.980 E0.3224
G1 X-2.224 Y2.980 E0.0249
G1 X-8.184 Y-2.980 E0.3224
G1 X-7.534 Y-2.980 E0.0249
G1 X-1.574 Y2.980 E0.3224
G1 X-0.923 Y2.980 E0.0249
G1 X-6.883 Y-2.980 E0.3224
G1 X-6.233 Y-2.980 E0.0249
G1 X-0.273 Y2.980 E0.3224
G1 X0.378 Y2.980 E0.0249
G1 X-5.582 Y-2.980 E0.3224
G1 X-4.932 Y-2.980 E0.0249
G1 X1.028 Y2.980 E0.3224
G1 X1.679 Y2.980 E0.0249
G1 X-4.281 Y-2.980 E0.3224
G1 X-3.630 Y-2.980 E0.0249
G1 X2.329 Y2.980 E0.3224
G1 X2.980 Y2.980 E0.0249
G1 X-2.980 Y-2.980 E0.3224
G1 X-2.329 Y-2.980 E0.0249
G1 X3.631 Y2.980 E0.3224
G1 X4.281 Y2.980 E0.0249
G1 X-1.679 Y-2.980 E0.3224
G1 X-1.028 Y-2.980 E0.0249
G1 X4.932 Y2.980 E0.3224
G1 X5.582 Y2.980 E0.0249
G1 X-0.378 Y-2.980 E0.3224
G1 X0.273 Y-2.980 E0.0249
G1 X6.233 Y2.980 E0.3224
G1 X6.883 Y2.980 E0.0249
G1 X0.923 Y-2.980 E0.3224
G1 X1.574 Y-2.980 E0.0249
G1 X7.534 Y2.980 E0.3224
G1 X8.184 Y2.980 E0.0249
G1 X2.224 Y-2.980 E0.3224
G1 X2.875 Y-2.980 E0.0249
G1 X8.835 Y2.980 E0.3224
G1 X9.485 Y2.980 E0.0249
G1 X3.525 Y-2.980 E0.3224
G1 X4.176 Y-2.980 E0.0249
G1 X10.136 Y2.980 E0.3224
G1 X10.786 Y2.980 E0.0249
G1 X4.827 Y-2.980 E0.3224
G1 X5.477 Y-2.980 E0.0249
G1 X11.437 Y2.980 E0.3224
G1 X12.087 Y2.980 E0.0249
G1 X6.128 Y-2.980 E0.3224
G1 X6.778 Y-2.980 E0.0249
G1 X12.738 Y2.980 E0.3224
G1 X13.389 Y2.980 E0.0249
G1 X7.429 Y-2.980 E0.3224
G1 X8.079 Y-2.980 E0.0249
G1 X14.039 Y2.980 E0.3224
G1 X14.690 Y2.980 E0.0249
G1 X8.730 Y-2.980 E0.3224
G1 X9.380 Y-2.980 E0.0249
G1 X15.340 Y2.980 E0.3224
G1 X15.991 Y2.980 E0.0249
G1 X10.031 Y-2.980 E0.3224
G1 X10.681 Y-2.980 E0.0249
G1 X16.641 Y2.980 E0.3224
G1 X17.292 Y2.980 E0.0249
G1 X11.332 Y-2.980 E0.3224
G1 X11.982 Y-2.980 E0.0249
G1 X17.942 Y2.980 E0.3224
G1 X18.593 Y2.980 E0.0249
G1 X12.633 Y-2.980 E0.3224
G1 X13.284 Y-2.980 E0.0249
G1 X19.243 Y2.980 E0.3224
G1 X19.725 Y2.980 E0.0184
G1 X19.725 Y2.811 E0.0065
G1 X13.934 Y-2.980 E0.3132
G1 X14.585 Y-2.980 E0.0249
G1 X19.725 Y2.160 E0.2781
G1 X19.725 Y1.510 E0.0249
G1 X15.235 Y-2.980 E0.2429
G1 X15.886 Y-2.980 E0.0249
G1 X19.725 Y0.859 E0.2077
G1 X19.725 Y0.209 E0.0249
G1 X16.536 Y-2.980 E0.1725
G1 X17.187 Y-2.980 E0.0249
G1 X19.725 Y-0.442 E0.1373
G1 X19.725 Y-1.092 E0.0249
G1 X17.837 Y-2.980 E0.1021
G1 X18.488 Y-2.980 E0.0249
G1 X19.725 Y-1.743 E0.0669
G1 X19.725 Y-2.393 E0.0249
G1 X19.138 Y-2.980 E0.0317
G1 E-1.9000 F1200
G1 Z0.700 F1200
G1 X-18.593 Y-2.980 F9000
G1 Z0.200 F1200
G1 E1.9000 F1200
G1 X-18.374 Y-2.761 E0.0118 F2400
G1 X-18.642 Y-2.542 E0.0133
G1 X-18.716 Y-2.452 E0.0044
G1 X-19.243 Y-2.980 E0.0285
G1 X-19.725 Y-2.980 E0.0184
G1 X-19.725 Y-2.811 E0.0065
G1 X-19.009 Y-2.095 E0.0387
G1 X-19.084 Y-2.004 E0.0045
G1 X-19.252 Y-1.688 E0.0137
G1 X-19.725 Y-2.160 E0.0256
G1 X-19.725 Y-1.510 E0.0249
G1 X-19.457 Y-1.242 E0.0145
G1 X-19.608 Y-0.743 E0.0200
G1 X-19.725 Y-0.859 E0.0063
G1 X-19.725 Y-0.209 E0.0249
G1 X-19.670 Y-0.154 E0.0030
G1 X-19.682 Y-0.032 E0.0047
G1 X-19.625 Y0.541 E0.0220
G1 X-19.725 Y0.442 E0.0054
G1 X-19.725 Y1.092 E0.0249
G1 X-19.321 Y1.496 E0.0219
G1 X-19.084 Y1.940 E0.0192
G1 X-18.642 Y2.478 E0.0266
G1 X-18.104 Y2.919 E0.0266
G1 X-17.991 Y2.980 E0.0049
G1 X-18.488 Y2.980 E0.0190
G1 X-19.725 Y1.743 E0.0669
G1 X-19.725 Y2.393 E0.0249
G1 X-19.138 Y2.980 E0.0317
G1 E-1.9000 F1200
; layer 2, Z = 0.400
M126 S255
; feature inner perimeter
; tool H0.200 W0.400
G1 Z0.700 F1200
G1 X20.160 Y3.415 F9000
G1 Z0.400 F1200
G1 E1.9000 F1200
G1 X-20.160 Y3.415 E1.3410 F2880
G1 X-20.160 Y-3.415 E0.2272
G1 X20.160 Y-3.415 E1.3410
G1 X20.160 Y3.415 E0.2272
; feature outer perimeter
G1 X20.560 Y3.815 F9000
G1 X-20.560 Y3.815 E1.3677 F1920
G1 X-20.560 Y-3.815 E0.2538
G1 X20.560 Y-3.815 E1.3677
G1 X20.560 Y3.815 E0.2538
G1 E-1.9000 F1200
; feature inner perimeter
G1 Z0.900 F1200
G1 X-13.080 Y0.575 F9000
G1 Z0.400 F1200
G1 E1.9000 F1200
G1 X-13.020 Y-0.032 E0.0203 F2880
G1 X-13.080 Y-0.639 E0.0203
G1 X-13.257 Y-1.223 E0.0203
G1 X-13.545 Y-1.761 E0.0203
G1 X-13.932 Y-2.233 E0.0203
G1 X-14.403 Y-2.620 E0.0203
G1 X-14.941 Y-2.907 E0.0203
G1 X-15.525 Y-3.084 E0.0203
G1 X-16.132 Y-3.144 E0.0203
G1 X-16.740 Y-3.084 E0.0203
G1 X-17.323 Y-2.907 E0.0203
G1 X-17.862 Y-2.620 E0.0203
G1 X-18.333 Y-2.233 E0.0203
G1 X-18.720 Y-1.761 E0.0203
G1 X-19.008 Y-1.223 E0.0203
G1 X-19.185 Y-0.639 E0.0203
G1 X-19.245 Y-0.032 E0.0203
G1 X-19.185 Y0.575 E0.0203
G1 X-19.008 Y1.159 E0.0203
G1 X-18.720 Y1.697 E0.0203
G1 X-18.333 Y2.169 E0.0203
G1 X-17.862 Y2.556 E0.0203
G1 X-17.323 Y2.843 E0.0203
G1 X-16.740 Y3.021 E0.0203
G1 X-16.132 Y3.080 E0.0203
G1 X-15.525 Y3.021 E0.0203
G1 X-14.941 Y2.843 E0.0203
G1 X-14.403 Y2.556 E0.0203
G1 X-13.932 Y2.169 E0.0203
G1 X-13.545 Y1.697 E0.0203
G1 X-13.257 Y1.159 E0.0203
G1 X-13.080 Y0.575 E0.0203
; feature outer perimeter
G1 X-13.474 Y0.497 F9000
G1 X-13.422 Y-0.032 E0.0177 F1920
G1 X-13.474 Y-0.561 E0.0177
G1 X-13.628 Y-1.069 E0.0177
G1 X-13.879 Y-1.538 E0.0177
G1 X-14.216 Y-1.948 E0.0177
G1 X-14.627 Y-2.285 E0.0177
G1 X-15.095 Y-2.536 E0.0177
G1 X-15.604 Y-2.690 E0.0177
G1 X-16.132 Y-2.742 E0.0177
G1 X-16.661 Y-2.690 E0.0177
G1 X-17.170 Y-2.536 E0.0177
G1 X-17.638 Y-2.285 E0.0177
G1 X-18.049 Y-1.948 E0.0177
G1 X-18.386 Y-1.538 E0.0177
G1 X-18.636 Y-1.069 E0.0177
