; G-Code generated by Simplify3D(R) Version 4.1.2
; Apr 6, 2020 at 11:25:01 AM
; Settings Summary
;   processName,Process1
;   applyToModels,diffuserBox
;   profileName,MakerBot Replicator 2 HBP (modified)
;   profileVersion,2020-03-12 10:48:50
;   baseProfile,MakerBot Replicator 2(2)
;   printMaterial,PLA
;   printQuality,Medium
;   printExtruders,
;   extruderName,Primary Extruder
;   extruderToolheadNumber,0
;   extruderDiameter,0.4
;   extruderAutoWidth,0
;   extruderWidth,0.4
;   extrusionMultiplier,1
;   extruderUseRetract,1
;   extruderRetractionDistance,1.9
;   extruderExtraRestartDistance,0
;   extruderRetractionZLift,0.5
;   extruderRetractionSpeed,1200
;   extruderUseCoasting,0
;   extruderCoastingDistance,0.2
;   extruderUseWipe,0
;   extruderWipeDistance,5
;   primaryExtruder,0
;   layerHeight,0.2
;   topSolidLayers,3
;   bottomSolidLayers,3
;   perimeterOutlines,2
;   printPerimetersInsideOut,1
;   startPointOption,3
;   startPointOriginX,0
;   startPointOriginY,150
;   sequentialIslands,0
;   spiralVaseMode,0
;   firstLayerHeightPercentage,100
;   firstLayerWidthPercentage,115
;   firstLayerUnderspeed,0.5
;   useRaft,0
;   raftExtruder,0
;   raftTopLayers,2
;   raftBaseLayers,1
;   raftOffset,1
;   raftSeparationDistance,0.14
;   raftTopInfill,90
;   aboveRaftSpeedMultiplier,0.3
;   useSkirt,0
;   skirtExtruder,0
;   skirtLayers,1
;   skirtOutlines,5
;   skirtOffset,0
;   usePrimePillar,0
;   primePillarExtruder,999
;   primePillarWidth,12
;   primePillarLocation,7
;   primePillarSpeedMultiplier,1
;   useOozeShield,0
;   oozeShieldExtruder,999
;   oozeShieldOffset,2
;   oozeShieldOutlines,1
;   oozeShieldSidewallShape,1
;   oozeShieldSidewallAngle,30
;   oozeShieldSpeedMultiplier,1
;   infillExtruder,0
;   internalInfillPattern,Rectilinear
;   externalInfillPattern,Rectilinear
;   infillPercentage,15
;   outlineOverlapPercentage,25
;   infillExtrusionWidthPercentage,100
;   minInfillLength,5
;   infillLayerInterval,1
;   internalInfillAngles,45,-45
;   overlapInternalInfillAngles,0
;   externalInfillAngles,45,-45
;   generateSupport,0
;   supportExtruder,0
;   supportInfillPercentage,5
;   supportExtraInflation,0.5
;   supportBaseLayers,0
;   denseSupportExtruder,0
;   denseSupportLayers,2
;   denseSupportInfillPercentage,90
;   supportLayerInterval,1
;   supportHorizontalPartOffset,0.3
;   supportUpperSeparationLayers,1
;   supportLowerSeparationLayers,1
;   supportType,1
;   supportGridSpacing,2
;   maxOverhangAngle,45
;   supportAngles,45,-45
;   temperatureName,Primary Extruder,Heated Build Platform
;   temperatureNumber,0,0
;   temperatureSetpointCount,1,1
;   temperatureSetpointLayers,1,1
;   temperatureSetpointTemperatures,230,60
;   temperatureStabilizeAtStartup,1,1
;   temperatureHeatedBed,0,1
;   fanLayers,1,2
;   fanSpeeds,0,100
;   blipFanToFullPower,1
;   adjustSpeedForCooling,1
;   minSpeedLayerTime,15
;   minCoolingSpeedSlowdown,20
;   increaseFanForCooling,1
;   minFanLayerTime,45
;   maxCoolingFanSpeed,100
;   increaseFanForBridging,1
;   bridgingFanSpeed,100
;   use5D,1
;   relativeEdistances,1
;   allowEaxisZeroing,0
;   independentExtruderAxes,1
;   includeM10123,0
;   stickySupport,1
;   applyToolheadOffsets,0
;   gcodeXoffset,0
;   gcodeYoffset,0
;   gcodeZoffset,0
;   overrideMachineDefinition,1
;   machineTypeOverride,0
;   strokeXoverride,280
;   strokeYoverride,150
;   strokeZoverride,150
;   originOffsetXoverride,140
;   originOffsetYoverride,75
;   originOffsetZoverride,0
;   homeXdirOverride,1
;   homeYdirOverride,1
;   homeZdirOverride,-1
;   flipXoverride,1
;   flipYoverride,-1
;   flipZoverride,1
;   toolheadOffsets,0,0|0,0|0,0|0,0|0,0|0,0
;   overrideFirmwareConfiguration,1
;   firmwareTypeOverride,MakerBot/Sailfish Firmware
;   GPXconfigOverride,r2h
;   baudRateOverride,115200
;   overridePrinterModels,1
;   printerModelsOverride,MakerBot_Replicator2.stl
;   startingGcode,; **** Replicator 2 start.gcode ****,M73 P0 ; enable build progress,G162 X Y F3000 ; home XY maximum,G161 Z F1200 ; home Z minimum,G92 Z-5 ; set Z to -5,G1 Z0 ; move Z to 0,G161 Z F100 ; home Z slowly,M132 X Y Z A B ; recall home offsets,G1 X-145 Y-75 Z30 F9000 ; move to wait position off table,G130 X20 Y20 Z20 A20 B20 ; lower stepper Vrefs while heating,M126 S[fan_speed_pwm],M140 S[bed0_temperature] T0,M134 T0 ; stabilize bed temperature,M104 S[extruder0_temperature] T0,M133 T0 ; stabilize extruder temperature,G130 X127 Y127 Z40 A127 B127 ; default stepper Vrefs,G92 A0 ; zero extruder,G1 Z0.4 ; position nozzle,G1 E25 F300 ; purge nozzle,G1 X-140 Y-70 Z0.15 F1200 ; slow wipe,G1 X-135 Y-65 Z0.5 F1200 ; lift,G92 A0 ; zero extruder,M73 P1 ;@body (notify GPX body has started),; **** end of start.gcode ****
;   layerChangeGcode,
;   retractionGcode,
;   toolChangeGcode,
;   endingGcode,; **** Replicator 2 end.gcode ****,M73 P100 ; end build progress,G1 Z155 F1000 ; send Z axis to bottom of machine,M104 S0 T0 ; cool down extruder,M140 S0 T0 ; cool down HBP,M127 ; stop blower fan,G162 X Y F3000 ; home XY maximum,M18 ; disable stepper,M0 ; stop codes,M72 P1 ; play Ta-Da song,; **** end of end.gcode ****
;   exportFileFormat,gcode
;   celebration,0
;   celebrationSong,Random Song
;   postProcessing,
;   defaultSpeed,4800
;   outlineUnderspeed,0.5
;   solidInfillUnderspeed,1
;   supportUnderspeed,1
;   rapidXYspeed,9000
;   rapidZspeed,1200
;   minBridgingArea,50
;   bridgingExtraInflation,0
;   bridgingExtrusionMultiplier,1
;   bridgingSpeedMultiplier,0.8
;   useFixedBridgingAngle,0
;   fixedBridgingAngle,0
;   applyBridgingToPerimeters,0
;   filamentDiameters,1.75|1.75|1.75|1.75|1.75|1.75
;   filamentPricesPerKg,46|46|46|46|46|46
;   filamentDensities,1.25|1.25|1.25|1.25|1.25|1.25
;   useMinPrintHeight,0
;   minPrintHeight,0
;   useMaxPrintHeight,0
;   maxPrintHeight,4.84
;   useDiaphragm,0
;   diaphragmLayerInterval,20
;   robustSlicing,1
;   mergeAllIntoSolid,0
;   onlyRetractWhenCrossingOutline,0
;   retractBetweenLayers,0
;   useRetractionMinTravel,1
;   retractionMinTravel,7
;   retractWhileWiping,1
;   onlyWipeOutlines,1
;   avoidCrossingOutline,0
;   maxMovementDetourFactor,3
;   toolChangeRetractionDistance,12
;   toolChangeExtraRestartDistance,-0.5
;   toolChangeRetractionSpeed,600
;   externalThinWallType,0
;   internalThinWallType,0
;   thinWallAllowedOverlapPercentage,10
;   singleExtrusionMinLength,1
;   singleExtrusionMinPrintingWidthPercentage,50
;   singleExtrusionMaxPrintingWidthPercentage,200
;   singleExtrusionEndpointExtension,0.2
;   horizontalSizeCompensation,0
G90
M83
; **** Replicator 2 start.gcode ****
M73 P0 ; enable build progress
G162 X Y F3000 ; home XY maximum
G161 Z F1200 ; home Z minimum
G92 Z-5 ; set Z to -5
G1 Z0 ; move Z to 0
G161 Z F100 ; home Z slowly
M132 X Y Z A B ; recall home offsets
G1 X-145 Y-75 Z30 F9000 ; move to wait position off table
G130 X20 Y20 Z20 A20 B20 ; lower stepper Vrefs while heating
M127
M140 S60 T0
M134 T0 ; stabilize bed temperature
M104 S230 T0
M133 T0 ; stabilize extruder temperature
G130 X127 Y127 Z40 A127 B127 ; default stepper Vrefs
G92 A0 ; zero extruder
G1 Z0.4 ; position nozzle
G1 E25 F300 ; purge nozzle
G1 X-140 Y-70 Z0.15 F1200 ; slow wipe
G1 X-135 Y-65 Z0.5 F1200 ; lift
G92 A0 ; zero extruder
M73 P1 ;@body (notify GPX body has started)
; **** end of start.gcode ****
; process Process1
; layer 1, Z = 0.200
M135 T0
G1 E-1.9000 F1200
; feature inner perimeter
; tool H0.200 W0.460
G1 Z0.500 F1200
G1 X28.810 Y27.508 F9000
G1 Z0.200 F1200
G1 E1.9000 F1200
G1 X-28.810 Y27.508 E2.2039 F1800
G1 X-28.810 Y-36.810 E2.4601
G1 X28.810 Y-36.810 E2.2039
G1 X28.810 Y27.508 E2.4601
; feature outer perimeter
G1 X29.270 Y27.968 F9000
G1 X-29.270 Y27.968 E2.2391 F1200
G1 X-29.270 Y-37.270 E2.4953
G1 X29.270 Y-37.270 E2.2391
G1 X29.270 Y27.968 E2.4953
G1 E-1.9000 F1200
; feature solid layer
G1 Z0.700 F1200
G1 X-28.132 Y27.163 F9000
G1 Z0.200 F1200
G1 E1.9000 F1200
G1 X-28.465 Y26.831 E0.0180 F2400
G1 X-28.465 Y26.180 E0.0249
G1 X-27.482 Y27.163 E0.0532
G1 X-26.831 Y27.163 E0.0249
G1 X-28.465 Y25.530 E0.0884
G1 X-28.465 Y24.879 E0.0249
G1 X-26.181 Y27.163 E0.1236
G1 X-25.530 Y27.163 E0.0249
G1 X-28.465 Y24.229 E0.1587
G1 X-28.465 Y23.578 E0.0249
G1 X-24.880 Y27.163 E0.1939
G1 X-24.229 Y27.163 E0.0249
G1 X-28.465 Y22.927 E0.2291
G1 X-28.465 Y22.277 E0.0249
G1 X-23.579 Y27.163 E0.2643
G1 X-22.928 Y27.163 E0.0249
G1 X-28.465 Y21.626 E0.2995
G1 X-28.465 Y20.976 E0.0249
G1 X-22.278 Y27.163 E0.3347
G1 X-21.627 Y27.163 E0.0249
G1 X-28.465 Y20.325 E0.3699
G1 X-28.465 Y19.675 E0.0249
G1 X-20.976 Y27.163 E0.4051
G1 X-20.326 Y27.163 E0.0249
G1 X-28.465 Y19.024 E0.4403
G1 X-28.465 Y18.374 E0.0249
G1 X-19.675 Y27.163 E0.4755
G1 X-19.025 Y27.163 E0.0249
G1 X-28.465 Y17.723 E0.5106
G1 X-28.465 Y17.073 E0.0249
G1 X-18.374 Y27.163 E0.5458
G1 X-17.724 Y27.163 E0.0249
G1 X-28.465 Y16.422 E0.5810
G1 X-28.465 Y15.772 E0.0249
G1 X-17.073 Y27.163 E0.6162
G1 X-16.423 Y27.163 E0.0249
G1 X-28.465 Y15.121 E0.6514
G1 X-28.465 Y14.470 E0.0249
G1 X-15.772 Y27.163 E0.6866
G1 X-15.122 Y27.163 E0.0249
G1 X-28.465 Y13.820 E0.7218
G1 X-28.465 Y13.169 E0.0249
G1 X-14.471 Y27.163 E0.7570
G1 X-13.821 Y27.163 E0.0249
G1 X-28.465 Y12.519 E0.7922
G1 X-28.465 Y11.868 E0.0249
G1 X-13.170 Y27.163 E0.8273
G1 X-12.519 Y27.163 E0.0249
G1 X-28.465 Y11.218 E0.8625
G1 X-28.465 Y10.567 E0.0249
G1 X-11.869 Y27.163 E0.8977
G1 X-11.218 Y27.163 E0.0249
G1 X-28.465 Y9.917 E0.9329
G1 X-28.465 Y9.266 E0.0249
G1 X-10.568 Y27.163 E0.9681
G1 X-9.917 Y27.163 E0.0249
G1 X-28.465 Y8.616 E1.0033
G1 X-28.465 Y7.965 E0.0249
G1 X-9.267 Y27.163 E1.0385
G1 X-8.616 Y27.163 E0.0249
G1 X-28.465 Y7.315 E1.0737
G1 X-28.465 Y6.664 E0.0249
G1 X-7.966 Y27.163 E1.1089
G1 X-7.315 Y27.163 E0.0249
G1 X-28.465 Y6.014 E1.1440
G1 X-28.465 Y5.363 E0.0249
G1 X-6.665 Y27.163 E1.1792
G1 X-6.014 Y27.163 E0.0249
G1 X-28.465 Y4.712 E1.2144
G1 X-28.465 Y4.062 E0.0249
G1 X-5.364 Y27.163 E1.2496
G1 X-4.713 Y27.163 E0.0249
G1 X-28.465 Y3.411 E1.2848
G1 X-28.465 Y2.761 E0.0249
G1 X-4.062 Y27.163 E1.3200
G1 X-3.412 Y27.163 E0.0249
G1 X-28.465 Y2.110 E1.3552
G1 X-28.465 Y1.460 E0.0249
G1 X-2.761 Y27.163 E1.3904
G1 X-2.111 Y27.163 E0.0249
G1 X-28.465 Y0.809 E1.4256
G1 X-28.465 Y0.159 E0.0249
G1 X-1.460 Y27.163 E1.4607
G1 X-0.810 Y27.163 E0.0249
G1 X-28.465 Y-0.492 E1.4959
G1 X-28.465 Y-1.142 E0.0249
G1 X-0.159 Y27.163 E1.5311
G1 X0.491 Y27.163 E0.0249
G1 X-28.465 Y-1.793 E1.5663
G1 X-28.465 Y-2.443 E0.0249
G1 X1.142 Y27.163 E1.6015
G1 X1.792 Y27.163 E0.0249
G1 X-28.465 Y-3.094 E1.6367
G1 X-28.465 Y-3.745 E0.0249
G1 X2.443 Y27.163 E1.6719
G1 X3.093 Y27.163 E0.0249
G1 X-28.465 Y-4.395 E1.7071
G1 X-28.465 Y-5.046 E0.0249
G1 X3.744 Y27.163 E1.7423
G1 X4.395 Y27.163 E0.0249
G1 X-28.465 Y-5.696 E1.7775
G1 X-28.465 Y-6.347 E0.0249
G1 X5.045 Y27.163 E1.8126
G1 X5.696 Y27.163 E0.0249
G1 X-28.465 Y-6.997 E1.8478
G1 X-28.465 Y-7.648 E0.0249
G1 X6.346 Y27.163 E1.8830
G1 X6.997 Y27.163 E0.0249
G1 X-28.465 Y-8.298 E1.9182
G1 X-28.465 Y-8.949 E0.0249
G1 X7.647 Y27.163 E1.9534
G1 X8.298 Y27.163 E0.0249
G1 X-28.465 Y-9.599 E1.9886
G1 X-28.465 Y-10.250 E0.0249
G1 X8.948 Y27.163 E2.0238
G1 X9.599 Y27.163 E0.0249
G1 X-28.465 Y-10.900 E2.0590
G1 X-28.465 Y-11.551 E0.0249
G1 X10.249 Y27.163 E2.0942
G1 X10.900 Y27.163 E0.0249
G1 X-28.465 Y-12.202 E2.1293
G1 X-28.465 Y-12.852 E0.0249
G1 X11.550 Y27.163 E2.1645
G1 X12.201 Y27.163 E0.0249
G1 X-28.465 Y-13.503 E2.1997
G1 X-28.465 Y-14.153 E0.0249
G1 X12.852 Y27.163 E2.2349
G1 X13.502 Y27.163 E0.0249
G1 X-28.465 Y-14.804 E2.2701
G1 X-28.465 Y-15.454 E0.0249
G1 X14.153 Y27.163 E2.3053
G1 X14.803 Y27.163 E0.0249
G1 X-28.465 Y-16.105 E2.3405
G1 X-28.465 Y-16.755 E0.0249
G1 X15.454 Y27.163 E2.3757
G1 X16.104 Y27.163 E0.0249
G1 X-28.465 Y-17.406 E2.4109
G1 X-28.465 Y-18.056 E0.0249
G1 X16.755 Y27.163 E2.4460
G1 X17.405 Y27.163 E0.0249
G1 X-28.465 Y-18.707 E2.4812
G1 X-28.465 Y-19.357 E0.0249
G1 X18.056 Y27.163 E2.5164
G1 X18.706 Y27.163 E0.0249
G1 X-28.465 Y-20.008 E2.5516
G1 X-28.465 Y-20.659 E0.0249
G1 X19.357 Y27.163 E2.5868
G1 X20.007 Y27.163 E0.0249
G1 X-28.465 Y-21.309 E2.6220
G1 X-28.465 Y-21.960 E0.0249
G1 X20.658 Y27.163 E2.6572
G1 X21.309 Y27.163 E0.0249
G1 X-28.465 Y-22.610 E2.6924
G1 X-28.465 Y-23.261 E0.0249
G1 X21.959 Y27.163 E2.7276
G1 X22.610 Y27.163 E0.0249
G1 X-28.465 Y-23.911 E2.7628
G1 X-28.465 Y-24.562 E0.0249
G1 X23.260 Y27.163 E2.7979
G1 X23.911 Y27.163 E0.0249
G1 X-28.465 Y-25.212 E2.8331
G1 X-28.465 Y-25.863 E0.0249
G1 X24.561 Y27.163 E2.8683
G1 X25.212 Y27.163 E0.0249
G1 X-28.465 Y-26.513 E2.9035
G1 X-28.465 Y-27.164 E0.0249
G1 X25.862 Y27.163 E2.9387
G1 X26.513 Y27.163 E0.0249
G1 X-28.465 Y-27.814 E2.9739
G1 X-28.465 Y-28.465 E0.0249
G1 X27.163 Y27.163 E3.0091
G1 X27.814 Y27.163 E0.0249
G1 X-28.465 Y-29.115 E3.0443
G1 X-28.465 Y-29.766 E0.0249
G1 X28.464 Y27.163 E3.0795
G1 X28.465 Y26.513 E0.0249
G1 X-28.465 Y-30.417 E3.0795
G1 X-28.465 Y-31.067 E0.0249
G1 X28.465 Y25.863 E3.0795
G1 X28.465 Y25.212 E0.0249
G1 X-28.465 Y-31.718 E3.0795
G1 X-28.465 Y-32.368 E0.0249
G1 X28.465 Y24.562 E3.0795
G1 X28.465 Y23.911 E0.0249
G1 X-28.465 Y-33.019 E3.0795
G1 X-28.465 Y-33.669 E0.0249
G1 X28.465 Y23.261 E3.0795
G1 X28.465 Y22.610 E0.0249
G1 X-28.465 Y-34.320 E3.0795
G1 X-28.465 Y-34.970 E0.0249
G1 X28.465 Y21.960 E3.0795
G1 X28.465 Y21.309 E0.0249
G1 X-28.465 Y-35.621 E3.0795
G1 X-28.465 Y-36.271 E0.0249
G1 X28.465 Y20.658 E3.0795
G1 X28.465 Y20.008 E0.0249
G1 X-28.008 Y-36.465 E3.0548
G1 X-27.357 Y-36.465 E0.0249
G1 X28.465 Y19.357 E3.0196
G1 X28.465 Y18.707 E0.0249
G1 X-26.707 Y-36.465 E2.9844
G1 X-26.056 Y-36.465 E0.0249
G1 X28.465 Y18.056 E2.9492
G1 X28.465 Y17.406 E0.0249
G1 X-25.406 Y-36.465 E2.9140
G1 X-24.755 Y-36.465 E0.0249
G1 X28.465 Y16.755 E2.8788
G1 X28.465 Y16.105 E0.0249
G1 X-24.105 Y-36.465 E2.8436
G1 X-23.454 Y-36.465 E0.0249
G1 X28.465 Y15.454 E2.8084
G1 X28.465 Y14.804 E0.0249
G1 X-22.804 Y-36.465 E2.7733
G1 X-22.153 Y-36.465 E0.0249
G1 X28.465 Y14.153 E2.7381
G1 X28.465 Y13.503 E0.0249
G1 X-21.503 Y-36.465 E2.7029
G1 X-20.852 Y-36.465 E0.0249
G1 X28.465 Y12.852 E2.6677
G1 X28.465 Y12.202 E0.0249
G1 X-20.202 Y-36.465 E2.6325
G1 X-19.551 Y-36.465 E0.0249
G1 X28.465 Y11.551 E2.5973
G1 X28.465 Y10.900 E0.0249
G1 X-18.900 Y-36.465 E2.5621
G1 X-18.250 Y-36.465 E0.0249
G1 X28.465 Y10.250 E2.5269
G1 X28.465 Y9.599 E0.0249
G1 X-17.599 Y-36.465 E2.4917
G1 X-16.949 Y-36.465 E0.0249
G1 X28.465 Y8.949 E2.4565
G1 X28.465 Y8.298 E0.0249
G1 X-16.298 Y-36.465 E2.4214
G1 X-15.648 Y-36.465 E0.0249
G1 X28.465 Y7.648 E2.3862
G1 X28.465 Y6.997 E0.0249
G1 X-14.997 Y-36.465 E2.3510
G1 X-14.347 Y-36.465 E0.0249
G1 X28.465 Y6.347 E2.3158
G1 X28.465 Y5.696 E0.0249
G1 X-13.696 Y-36.465 E2.2806
G1 X-13.046 Y-36.465 E0.0249
G1 X28.465 Y5.046 E2.2454
G1 X28.465 Y4.395 E0.0249
G1 X-12.395 Y-36.465 E2.2102
G1 X-11.745 Y-36.465 E0.0249
G1 X28.465 Y3.745 E2.1750
G1 X28.465 Y3.094 E0.0249
G1 X-11.094 Y-36.465 E2.1398
G1 X-10.443 Y-36.465 E0.0249
G1 X28.465 Y2.443 E2.1047
G1 X28.465 Y1.793 E0.0249
G1 X-9.793 Y-36.465 E2.0695
G1 X-9.142 Y-36.465 E0.0249
G1 X28.465 Y1.142 E2.0343
G1 X28.465 Y0.492 E0.0249
G1 X-8.492 Y-36.465 E1.9991
G1 X-7.841 Y-36.465 E0.0249
G1 X28.465 Y-0.159 E1.9639
G1 X28.465 Y-0.809 E0.0249
G1 X-7.191 Y-36.465 E1.9287
G1 X-6.540 Y-36.465 E0.0249
G1 X28.465 Y-1.460 E1.8935
G1 X28.465 Y-2.110 E0.0249
G1 X-5.890 Y-36.465 E1.8583
G1 X-5.239 Y-36.465 E0.0249
G1 X28.465 Y-2.761 E1.8231
G1 X28.465 Y-3.411 E0.0249
G1 X-4.589 Y-36.465 E1.7880
G1 X-3.938 Y-36.465 E0.0249
G1 X28.465 Y-4.062 E1.7528
G1 X28.465 Y-4.712 E0.0249
G1 X-3.288 Y-36.465 E1.7176
G1 X-2.637 Y-36.465 E0.0249
G1 X28.465 Y-5.363 E1.6824
G1 X28.465 Y-6.014 E0.0249
G1 X-1.986 Y-36.465 E1.6472
G1 X-1.336 Y-36.465 E0.0249
G1 X28.465 Y-6.664 E1.6120
G1 X28.465 Y-7.315 E0.0249
G1 X-0.685 Y-36.465 E1.5768
G1 X-0.035 Y-36.465 E0.0249
G1 X28.465 Y-7.965 E1.5416
G1 X28.465 Y-8.616 E0.0249
G1 X0.616 Y-36.465 E1.5064
G1 X1.266 Y-36.465 E0.0249
G1 X28.465 Y-9.266 E1.4712
G1 X28.465 Y-9.917 E0.0249
G1 X1.917 Y-36.465 E1.4361
G1 X2.567 Y-36.465 E0.0249
G1 X28.465 Y-10.567 E1.4009
G1 X28.465 Y-11.218 E0.0249
G1 X3.218 Y-36.465 E1.3657
