; G-Code generated by Simplify3D(R) Version 4.1.2
; Apr 6, 2020 at 11:24:17 AM
; Settings Summary
;   processName,Process1
;   applyToModels,diffuser
;   profileName,MakerBot Replicator 2 HBP (modified)
;   profileVersion,2020-03-12 10:48:50
;   baseProfile,MakerBot Replicator 2(2)
;   printMaterial,PLA
;   printQuality,Medium
;   printExtruders,
;   extruderName,Primary Extruder
;   extruderToolheadNumber,0
;   extruderDiameter,0.4
;   extruderAutoWidth,0
;   extruderWidth,0.4
;   extrusionMultiplier,1
;   extruderUseRetract,1
;   extruderRetractionDistance,1.9
;   extruderExtraRestartDistance,0
;   extruderRetractionZLift,0.5
;   extruderRetractionSpeed,1200
;   extruderUseCoasting,0
;   extruderCoastingDistance,0.2
;   extruderUseWipe,0
;   extruderWipeDistance,5
;   primaryExtruder,0
;   layerHeight,0.2
;   topSolidLayers,3
;   bottomSolidLayers,3
;   perimeterOutlines,2
;   printPerimetersInsideOut,1
;   startPointOption,3
;   startPointOriginX,0
;   startPointOriginY,150
;   sequentialIslands,0
;   spiralVaseMode,0
;   firstLayerHeightPercentage,100
;   firstLayerWidthPercentage,115
;   firstLayerUnderspeed,0.5
;   useRaft,0
;   raftExtruder,0
;   raftTopLayers,2
;   raftBaseLayers,1
;   raftOffset,1
;   raftSeparationDistance,0.14
;   raftTopInfill,90
;   aboveRaftSpeedMultiplier,0.3
;   useSkirt,0
;   skirtExtruder,0
;   skirtLayers,1
;   skirtOutlines,5
;   skirtOffset,0
;   usePrimePillar,0
;   primePillarExtruder,999
;   primePillarWidth,12
;   primePillarLocation,7
;   primePillarSpeedMultiplier,1
;   useOozeShield,0
;   oozeShieldExtruder,999
;   oozeShieldOffset,2
;   oozeShieldOutlines,1
;   oozeShieldSidewallShape,1
;   oozeShieldSidewallAngle,30
;   oozeShieldSpeedMultiplier,1
;   infillExtruder,0
;   internalInfillPattern,Rectilinear
;   externalInfillPattern,Rectilinear
;   infillPercentage,15
;   outlineOverlapPercentage,25
;   infillExtrusionWidthPercentage,100
;   minInfillLength,5
;   infillLayerInterval,1
;   internalInfillAngles,45,-45
;   overlapInternalInfillAngles,0
;   externalInfillAngles,45,-45
;   generateSupport,0
;   supportExtruder,0
;   supportInfillPercentage,5
;   supportExtraInflation,0.5
;   supportBaseLayers,0
;   denseSupportExtruder,0
;   denseSupportLayers,2
;   denseSupportInfillPercentage,90
;   supportLayerInterval,1
;   supportHorizontalPartOffset,0.3
;   supportUpperSeparationLayers,1
;   supportLowerSeparationLayers,1
;   supportType,1
;   supportGridSpacing,2
;   maxOverhangAngle,45
;   supportAngles,45,-45
;   temperatureName,Primary Extruder,Heated Build Platform
;   temperatureNumber,0,0
;   temperatureSetpointCount,1,1
;   temperatureSetpointLayers,1,1
;   temperatureSetpointTemperatures,230,60
;   temperatureStabilizeAtStartup,1,1
;   temperatureHeatedBed,0,1
;   fanLayers,1,2
;   fanSpeeds,0,100
;   blipFanToFullPower,1
;   adjustSpeedForCooling,1
;   minSpeedLayerTime,15
;   minCoolingSpeedSlowdown,20
;   increaseFanForCooling,1
;   minFanLayerTime,45
;   maxCoolingFanSpeed,100
;   increaseFanForBridging,1
;   bridgingFanSpeed,100
;   use5D,1
;   relativeEdistances,1
;   allowEaxisZeroing,0
;   independentExtruderAxes,1
;   includeM10123,0
;   stickySupport,1
;   applyToolheadOffsets,0
;   gcodeXoffset,0
;   gcodeYoffset,0
;   gcodeZoffset,0
;   overrideMachineDefinition,1
;   machineTypeOverride,0
;   strokeXoverride,280
;   strokeYoverride,150
;   strokeZoverride,150
;   originOffsetXoverride,140
;   originOffsetYoverride,75
;   originOffsetZoverride,0
;   homeXdirOverride,1
;   homeYdirOverride,1
;   homeZdirOverride,-1
;   flipXoverride,1
;   flipYoverride,-1
;   flipZoverride,1
;   toolheadOffsets,0,0|0,0|0,0|0,0|0,0|0,0
;   overrideFirmwareConfiguration,1
;   firmwareTypeOverride,MakerBot/Sailfish Firmware
;   GPXconfigOverride,r2h
;   baudRateOverride,115200
;   overridePrinterModels,1
;   printerModelsOverride,MakerBot_Replicator2.stl
;   startingGcode,; **** Replicator 2 start.gcode ****,M73 P0 ; enable build progress,G162 X Y F3000 ; home XY maximum,G161 Z F1200 ; home Z minimum,G92 Z-5 ; set Z to -5,G1 Z0 ; move Z to 0,G161 Z F100 ; home Z slowly,M132 X Y Z A B ; recall home offsets,G1 X-145 Y-75 Z30 F9000 ; move to wait position off table,G130 X20 Y20 Z20 A20 B20 ; lower stepper Vrefs while heating,M126 S[fan_speed_pwm],M140 S[bed0_temperature] T0,M134 T0 ; stabilize bed temperature,M104 S[extruder0_temperature] T0,M133 T0 ; stabilize extruder temperature,G130 X127 Y127 Z40 A127 B127 ; default stepper Vrefs,G92 A0 ; zero extruder,G1 Z0.4 ; position nozzle,G1 E25 F300 ; purge nozzle,G1 X-140 Y-70 Z0.15 F1200 ; slow wipe,G1 X-135 Y-65 Z0.5 F1200 ; lift,G92 A0 ; zero extruder,M73 P1 ;@body (notify GPX body has started),; **** end of start.gcode ****
;   layerChangeGcode,
;   retractionGcode,
;   toolChangeGcode,
;   endingGcode,; **** Replicator 2 end.gcode ****,M73 P100 ; end build progress,G1 Z155 F1000 ; send Z axis to bottom of machine,M104 S0 T0 ; cool down extruder,M140 S0 T0 ; cool down HBP,M127 ; stop blower fan,G162 X Y F3000 ; home XY maximum,M18 ; disable stepper,M0 ; stop codes,M72 P1 ; play Ta-Da song,; **** end of end.gcode ****
;   exportFileFormat,gcode
;   celebration,0
;   celebrationSong,Random Song
;   postProcessing,
;   defaultSpeed,4800
;   outlineUnderspeed,0.5
;   solidInfillUnderspeed,1
;   supportUnderspeed,1
;   rapidXYspeed,9000
;   rapidZspeed,1200
;   minBridgingArea,50
;   bridgingExtraInflation,0
;   bridgingExtrusionMultiplier,1
;   bridgingSpeedMultiplier,0.8
;   useFixedBridgingAngle,0
;   fixedBridgingAngle,0
;   applyBridgingToPerimeters,0
;   filamentDiameters,1.75|1.75|1.75|1.75|1.75|1.75
;   filamentPricesPerKg,46|46|46|46|46|46
;   filamentDensities,1.25|1.25|1.25|1.25|1.25|1.25
;   useMinPrintHeight,0
;   minPrintHeight,0
;   useMaxPrintHeight,0
;   maxPrintHeight,4.84
;   useDiaphragm,0
;   diaphragmLayerInterval,20
;   robustSlicing,1
;   mergeAllIntoSolid,0
;   onlyRetractWhenCrossingOutline,0
;   retractBetweenLayers,0
;   useRetractionMinTravel,1
;   retractionMinTravel,7
;   retractWhileWiping,1
;   onlyWipeOutlines,1
;   avoidCrossingOutline,0
;   maxMovementDetourFactor,3
;   toolChangeRetractionDistance,12
;   toolChangeExtraRestartDistance,-0.5
;   toolChangeRetractionSpeed,600
;   externalThinWallType,0
;   internalThinWallType,0
;   thinWallAllowedOverlapPercentage,10
;   singleExtrusionMinLength,1
;   singleExtrusionMinPrintingWidthPercentage,50
;   singleExtrusionMaxPrintingWidthPercentage,200
;   singleExtrusionEndpointExtension,0.2
;   horizontalSizeCompensation,0
G90
M83
; **** Replicator 2 start.gcode ****
M73 P0 ; enable build progress
G162 X Y F3000 ; home XY maximum
G161 Z F1200 ; home Z minimum
G92 Z-5 ; set Z to -5
G1 Z0 ; move Z to 0
G161 Z F100 ; home Z slowly
M132 X Y Z A B ; recall home offsets
G1 X-145 Y-75 Z30 F9000 ; move to wait position off table
G130 X20 Y20 Z20 A20 B20 ; lower stepper Vrefs while heating
M127
M140 S60 T0
M134 T0 ; stabilize bed temperature
M104 S230 T0
M133 T0 ; stabilize extruder temperature
G130 X127 Y127 Z40 A127 B127 ; default stepper Vrefs
G92 A0 ; zero extruder
G1 Z0.4 ; position nozzle
G1 E25 F300 ; purge nozzle
G1 X-140 Y-70 Z0.15 F1200 ; slow wipe
G1 X-135 Y-65 Z0.5 F1200 ; lift
G92 A0 ; zero extruder
M73 P1 ;@body (notify GPX body has started)
; **** end of start.gcode ****
; process Process1
; layer 1, Z = 0.200
M135 T0
G1 E-1.9000 F1200
; feature inner perimeter
; tool H0.200 W0.460
G1 Z0.500 F1200
G1 X-20.310 Y32.060 F9000
G1 Z0.200 F1200
G1 E1.9000 F1200
G1 X-20.310 Y-16.205 E1.8461 F1800
G1 X1.717 Y-16.131 E0.8425
G1 X1.717 Y-32.060 E0.6093
G1 X20.310 Y-32.060 E0.7112
G1 X20.310 Y1.744 E1.2930
G1 X15.754 Y6.334 E0.2474
G1 X12.846 Y6.334 E0.1113
G1 X12.665 Y18.190 E0.4535
G1 X20.310 Y18.190 E0.2924
G1 X20.310 Y32.060 E0.5305
G1 X-20.310 Y32.060 E1.5537
; feature outer perimeter
G1 X-20.770 Y32.520 F9000
G1 X-20.770 Y-16.666 E1.8813 F1200
G1 X1.257 Y-16.592 E0.8425
G1 X1.257 Y-32.520 E0.6092
G1 X20.770 Y-32.520 E0.7463
G1 X20.770 Y1.933 E1.3178
G1 X15.946 Y6.794 E0.2619
G1 X13.299 Y6.794 E0.1013
G1 X13.132 Y17.730 E0.4183
G1 X20.770 Y17.730 E0.2921
G1 X20.770 Y32.520 E0.5657
G1 X-20.770 Y32.520 E1.5889
; feature solid layer
G1 X-19.678 Y31.715 F9000
G1 X-19.965 Y31.428 E0.0155 F2400
G1 X-19.965 Y30.777 E0.0249
G1 X-19.027 Y31.715 E0.0507
G1 X-18.376 Y31.715 E0.0249
G1 X-19.965 Y30.126 E0.0859
G1 X-19.965 Y29.476 E0.0249
G1 X-17.726 Y31.715 E0.1211
G1 X-17.075 Y31.715 E0.0249
G1 X-19.965 Y28.825 E0.1563
G1 X-19.965 Y28.175 E0.0249
G1 X-16.425 Y31.715 E0.1915
G1 X-15.774 Y31.715 E0.0249
G1 X-19.965 Y27.524 E0.2267
G1 X-19.965 Y26.874 E0.0249
G1 X-15.124 Y31.715 E0.2619
G1 X-14.473 Y31.715 E0.0249
G1 X-19.965 Y26.223 E0.2971
G1 X-19.965 Y25.573 E0.0249
G1 X-13.823 Y31.715 E0.3323
G1 X-13.172 Y31.715 E0.0249
G1 X-19.965 Y24.922 E0.3674
G1 X-19.965 Y24.272 E0.0249
G1 X-12.522 Y31.715 E0.4026
G1 X-11.871 Y31.715 E0.0249
G1 X-19.965 Y23.621 E0.4378
G1 X-19.965 Y22.971 E0.0249
G1 X-11.221 Y31.715 E0.4730
G1 X-10.570 Y31.715 E0.0249
G1 X-19.965 Y22.320 E0.5082
G1 X-19.965 Y21.669 E0.0249
G1 X-9.919 Y31.715 E0.5434
G1 X-9.269 Y31.715 E0.0249
G1 X-19.965 Y21.019 E0.5786
G1 X-19.965 Y20.368 E0.0249
G1 X-8.618 Y31.715 E0.6138
G1 X-7.968 Y31.715 E0.0249
G1 X-19.965 Y19.718 E0.6490
G1 X-19.965 Y19.067 E0.0249
G1 X-7.317 Y31.715 E0.6841
G1 X-6.667 Y31.715 E0.0249
G1 X-19.965 Y18.417 E0.7193
G1 X-19.965 Y17.766 E0.0249
G1 X-6.016 Y31.715 E0.7545
G1 X-5.366 Y31.715 E0.0249
G1 X-19.965 Y17.116 E0.7897
G1 X-19.965 Y16.465 E0.0249
G1 X-4.715 Y31.715 E0.8249
G1 X-4.065 Y31.715 E0.0249
G1 X-19.965 Y15.815 E0.8601
G1 X-19.965 Y15.164 E0.0249
G1 X-3.414 Y31.715 E0.8953
G1 X-2.764 Y31.715 E0.0249
G1 X-19.965 Y14.514 E0.9305
G1 X-19.965 Y13.863 E0.0249
G1 X-2.113 Y31.715 E0.9657
G1 X-1.462 Y31.715 E0.0249
G1 X-19.965 Y13.212 E1.0008
G1 X-19.965 Y12.562 E0.0249
G1 X-0.812 Y31.715 E1.0360
G1 X-0.161 Y31.715 E0.0249
G1 X-19.965 Y11.911 E1.0712
G1 X-19.965 Y11.261 E0.0249
G1 X0.489 Y31.715 E1.1064
G1 X1.140 Y31.715 E0.0249
G1 X-19.965 Y10.610 E1.1416
G1 X-19.965 Y9.960 E0.0249
G1 X1.790 Y31.715 E1.1768
G1 X2.441 Y31.715 E0.0249
G1 X-19.965 Y9.309 E1.2120
G1 X-19.965 Y8.659 E0.0249
G1 X3.091 Y31.715 E1.2472
G1 X3.742 Y31.715 E0.0249
G1 X-19.965 Y8.008 E1.2824
G1 X-19.965 Y7.358 E0.0249
G1 X4.392 Y31.715 E1.3176
G1 X5.043 Y31.715 E0.0249
G1 X-19.965 Y6.707 E1.3527
G1 X-19.965 Y6.057 E0.0249
G1 X5.693 Y31.715 E1.3879
G1 X6.344 Y31.715 E0.0249
G1 X-19.965 Y5.406 E1.4231
G1 X-19.965 Y4.755 E0.0249
G1 X6.995 Y31.715 E1.4583
G1 X7.645 Y31.715 E0.0249
G1 X-19.965 Y4.105 E1.4935
G1 X-19.965 Y3.454 E0.0249
G1 X8.296 Y31.715 E1.5287
G1 X8.946 Y31.715 E0.0249
G1 X-19.965 Y2.804 E1.5639
G1 X-19.965 Y2.153 E0.0249
G1 X9.597 Y31.715 E1.5991
G1 X10.247 Y31.715 E0.0249
G1 X-19.965 Y1.503 E1.6343
G1 X-19.965 Y0.852 E0.0249
G1 X10.898 Y31.715 E1.6694
G1 X11.548 Y31.715 E0.0249
G1 X-19.965 Y0.202 E1.7046
G1 X-19.965 Y-0.449 E0.0249
G1 X12.199 Y31.715 E1.7398
G1 X12.849 Y31.715 E0.0249
G1 X-19.965 Y-1.099 E1.7750
G1 X-19.965 Y-1.750 E0.0249
G1 X13.500 Y31.715 E1.8102
G1 X14.150 Y31.715 E0.0249
G1 X-19.965 Y-2.400 E1.8454
G1 X-19.965 Y-3.051 E0.0249
G1 X14.801 Y31.715 E1.8806
G1 X15.452 Y31.715 E0.0249
G1 X-19.965 Y-3.702 E1.9158
G1 X-19.965 Y-4.352 E0.0249
G1 X16.102 Y31.715 E1.9510
G1 X16.753 Y31.715 E0.0249
G1 X-19.965 Y-5.003 E1.9861
G1 X-19.965 Y-5.653 E0.0249
G1 X17.403 Y31.715 E2.0213
G1 X18.054 Y31.715 E0.0249
G1 X-19.965 Y-6.304 E2.0565
G1 X-19.965 Y-6.954 E0.0249
G1 X18.704 Y31.715 E2.0917
G1 X19.355 Y31.715 E0.0249
G1 X-19.965 Y-7.605 E2.1269
G1 X-19.965 Y-8.255 E0.0249
G1 X19.965 Y31.675 E2.1599
G1 X19.965 Y31.024 E0.0249
G1 X-19.965 Y-8.906 E2.1599
G1 X-19.965 Y-9.556 E0.0249
G1 X19.965 Y30.374 E2.1599
G1 X19.965 Y29.723 E0.0249
G1 X-19.965 Y-10.207 E2.1599
G1 X-19.965 Y-10.857 E0.0249
G1 X19.965 Y29.073 E2.1599
G1 X19.965 Y28.422 E0.0249
G1 X-19.965 Y-11.508 E2.1599
G1 X-19.965 Y-12.159 E0.0249
G1 X19.965 Y27.771 E2.1599
G1 X19.965 Y27.121 E0.0249
G1 X-19.965 Y-12.809 E2.1599
G1 X-19.965 Y-13.460 E0.0249
G1 X19.965 Y26.470 E2.1599
G1 X19.965 Y25.820 E0.0249
G1 X12.680 Y18.535 E0.3941
G1 X12.315 Y18.535 E0.0140
G1 X12.320 Y18.175 E0.0138
G1 X-19.965 Y-14.110 E1.7464
G1 X-19.965 Y-14.761 E0.0249
G1 X12.330 Y17.534 E1.7469
G1 X12.340 Y16.893 E0.0245
G1 X-19.965 Y-15.411 E1.7474
G1 X-19.965 Y-15.859 E0.0171
G1 X-19.761 Y-15.858 E0.0078
G1 X12.349 Y16.253 E1.7369
G1 X12.359 Y15.612 E0.0245
G1 X-19.109 Y-15.856 E1.7022
G1 X-18.456 Y-15.854 E0.0250
G1 X12.369 Y14.971 E1.6674
G1 X12.379 Y14.330 E0.0245
G1 X-17.803 Y-15.851 E1.6326
G1 X-17.150 Y-15.849 E0.0250
G1 X12.388 Y13.690 E1.5978
G1 X12.398 Y13.049 E0.0245
G1 X-16.498 Y-15.847 E1.5630
G1 X-15.845 Y-15.845 E0.0250
G1 X12.408 Y12.408 E1.5283
G1 X12.418 Y11.767 E0.0245
G1 X-15.192 Y-15.843 E1.4935
G1 X-14.539 Y-15.840 E0.0250
G1 X12.428 Y11.126 E1.4587
G1 X12.437 Y10.486 E0.0245
G1 X-13.887 Y-15.838 E1.4239
G1 X-13.234 Y-15.836 E0.0250
G1 X12.447 Y9.845 E1.3891
G1 X12.457 Y9.204 E0.0245
G1 X-12.581 Y-15.834 E1.3544
G1 X-11.928 Y-15.832 E0.0250
G1 X12.467 Y8.563 E1.3196
G1 X12.476 Y7.923 E0.0245
G1 X-11.276 Y-15.829 E1.2848
G1 X-10.623 Y-15.827 E0.0250
G1 X12.486 Y7.282 E1.2500
G1 X12.496 Y6.641 E0.0245
G1 X-9.970 Y-15.825 E1.2152
G1 X-9.317 Y-15.823 E0.0250
G1 X12.506 Y6.000 E1.1805
G1 X12.506 Y5.989 E0.0004
G1 X13.145 Y5.989 E0.0244
G1 X-8.665 Y-15.821 E1.1797
G1 X-8.012 Y-15.818 E0.0250
G1 X13.796 Y5.989 E1.1796
G1 X14.446 Y5.989 E0.0249
G1 X-7.359 Y-15.816 E1.1795
G1 X-6.706 Y-15.814 E0.0250
G1 X15.097 Y5.989 E1.1794
G1 X15.611 Y5.989 E0.0197
G1 X15.679 Y5.921 E0.0037
G1 X-6.054 Y-15.812 E1.1756
G1 X-5.401 Y-15.810 E0.0250
G1 X16.003 Y5.594 E1.1578
G1 X16.327 Y5.268 E0.0176
G1 X-4.748 Y-15.807 E1.1400
G1 X-4.095 Y-15.805 E0.0250
G1 X16.651 Y4.941 E1.1222
G1 X16.975 Y4.615 E0.0176
G1 X-3.443 Y-15.803 E1.1044
G1 X-2.790 Y-15.801 E0.0250
G1 X17.299 Y4.288 E1.0867
G1 X17.623 Y3.962 E0.0176
G1 X-2.137 Y-15.799 E1.0689
G1 X-1.484 Y-15.796 E0.0250
G1 X17.947 Y3.635 E1.0511
G1 X18.271 Y3.309 E0.0176
G1 X-0.832 Y-15.794 E1.0333
G1 X-0.179 Y-15.792 E0.0250
G1 X18.595 Y2.982 E1.0155
G1 X18.919 Y2.656 E0.0176
G1 X0.474 Y-15.790 E0.9977
G1 X1.127 Y-15.788 E0.0250
G1 X19.243 Y2.329 E0.9800
G1 X19.567 Y2.002 E0.0176
G1 X1.779 Y-15.785 E0.9622
G1 X2.062 Y-15.784 E0.0108
G1 X2.062 Y-16.153 E0.0141
G1 X19.891 Y1.676 E0.9644
G1 X19.965 Y1.601 E0.0040
G1 X19.965 Y1.099 E0.0192
G1 X2.062 Y-16.803 E0.9684
G1 X2.062 Y-17.454 E0.0249
G1 X19.965 Y0.449 E0.9684
G1 X19.965 Y-0.202 E0.0249
G1 X2.062 Y-18.104 E0.9684
G1 X2.062 Y-18.755 E0.0249
G1 X19.965 Y-0.852 E0.9684
G1 X19.965 Y-1.503 E0.0249
G1 X2.062 Y-19.405 E0.9684
G1 X2.062 Y-20.056 E0.0249
G1 X19.965 Y-2.153 E0.9684
G1 X19.965 Y-2.804 E0.0249
G1 X2.062 Y-20.707 E0.9684
G1 X2.062 Y-21.357 E0.0249
G1 X19.965 Y-3.454 E0.9684
G1 X19.965 Y-4.105 E0.0249
G1 X2.062 Y-22.008 E0.9684
G1 X2.062 Y-22.658 E0.0249
G1 X19.965 Y-4.755 E0.9684
G1 X19.965 Y-5.406 E0.0249
G1 X2.062 Y-23.309 E0.9684
G1 X2.062 Y-23.959 E0.0249
G1 X19.965 Y-6.057 E0.9684
G1 X19.965 Y-6.707 E0.0249
G1 X2.062 Y-24.610 E0.9684
G1 X2.062 Y-25.260 E0.0249
G1 X19.965 Y-7.358 E0.9684
G1 X19.965 Y-8.008 E0.0249
G1 X2.062 Y-25.911 E0.9684
G1 X2.062 Y-26.561 E0.0249
G1 X19.965 Y-8.659 E0.9684
G1 X19.965 Y-9.309 E0.0249
G1 X2.062 Y-27.212 E0.9684
G1 X2.062 Y-27.862 E0.0249
G1 X19.965 Y-9.960 E0.9684
G1 X19.965 Y-10.610 E0.0249
G1 X2.062 Y-28.513 E0.9684
G1 X2.062 Y-29.164 E0.0249
G1 X19.965 Y-11.261 E0.9684
G1 X19.965 Y-11.911 E0.0249
G1 X2.062 Y-29.814 E0.9684
G1 X2.062 Y-30.465 E0.0249
G1 X19.965 Y-12.562 E0.9684
G1 X19.965 Y-13.212 E0.0249
G1 X2.062 Y-31.115 E0.9684
G1 X2.062 Y-31.715 E0.0229
G1 X2.113 Y-31.715 E0.0019
G1 X19.965 Y-13.863 E0.9657
G1 X19.965 Y-14.514 E0.0249
G1 X2.764 Y-31.715 E0.9305
G1 X3.414 Y-31.715 E0.0249
G1 X19.965 Y-15.164 E0.8953
G1 X19.965 Y-15.815 E0.0249
G1 X4.065 Y-31.715 E0.8601
G1 X4.715 Y-31.715 E0.0249
G1 X19.965 Y-16.465 E0.8249
G1 X19.965 Y-17.116 E0.0249
G1 X5.366 Y-31.715 E0.7897
G1 X6.016 Y-31.715 E0.0249
G1 X19.965 Y-17.766 E0.7545
G1 X19.965 Y-18.417 E0.0249
G1 X6.667 Y-31.715 E0.7193
