; G-Code generated by Simplify3D(R) Version 4.1.2
; Apr 6, 2020 at 11:29:43 AM
; Settings Summary
;   processName,Process1
;   applyToModels,Explosion Pro Bracket
;   profileName,MakerBot Replicator 2 HBP (modified)
;   profileVersion,2020-03-12 10:48:50
;   baseProfile,MakerBot Replicator 2(2)
;   printMaterial,PLA
;   printQuality,Medium
;   printExtruders,
;   extruderName,Primary Extruder
;   extruderToolheadNumber,0
;   extruderDiameter,0.4
;   extruderAutoWidth,0
;   extruderWidth,0.4
;   extrusionMultiplier,1
;   extruderUseRetract,1
;   extruderRetractionDistance,1.9
;   extruderExtraRestartDistance,0
;   extruderRetractionZLift,0.5
;   extruderRetractionSpeed,1200
;   extruderUseCoasting,0
;   extruderCoastingDistance,0.2
;   extruderUseWipe,0
;   extruderWipeDistance,5
;   primaryExtruder,0
;   layerHeight,0.2
;   topSolidLayers,3
;   bottomSolidLayers,3
;   perimeterOutlines,2
;   printPerimetersInsideOut,1
;   startPointOption,3
;   startPointOriginX,0
;   startPointOriginY,150
;   sequentialIslands,0
;   spiralVaseMode,0
;   firstLayerHeightPercentage,100
;   firstLayerWidthPercentage,115
;   firstLayerUnderspeed,0.5
;   useRaft,0
;   raftExtruder,0
;   raftTopLayers,2
;   raftBaseLayers,1
;   raftOffset,1
;   raftSeparationDistance,0.14
;   raftTopInfill,90
;   aboveRaftSpeedMultiplier,0.3
;   useSkirt,0
;   skirtExtruder,0
;   skirtLayers,1
;   skirtOutlines,5
;   skirtOffset,0
;   usePrimePillar,0
;   primePillarExtruder,999
;   primePillarWidth,12
;   primePillarLocation,7
;   primePillarSpeedMultiplier,1
;   useOozeShield,0
;   oozeShieldExtruder,999
;   oozeShieldOffset,2
;   oozeShieldOutlines,1
;   oozeShieldSidewallShape,1
;   oozeShieldSidewallAngle,30
;   oozeShieldSpeedMultiplier,1
;   infillExtruder,0
;   internalInfillPattern,Rectilinear
;   externalInfillPattern,Rectilinear
;   infillPercentage,15
;   outlineOverlapPercentage,25
;   infillExtrusionWidthPercentage,100
;   minInfillLength,5
;   infillLayerInterval,1
;   internalInfillAngles,45,-45
;   overlapInternalInfillAngles,0
;   externalInfillAngles,45,-45
;   generateSupport,0
;   supportExtruder,0
;   supportInfillPercentage,5
;   supportExtraInflation,0.5
;   supportBaseLayers,0
;   denseSupportExtruder,0
;   denseSupportLayers,2
;   denseSupportInfillPercentage,90
;   supportLayerInterval,1
;   supportHorizontalPartOffset,0.3
;   supportUpperSeparationLayers,1
;   supportLowerSeparationLayers,1
;   supportType,1
;   supportGridSpacing,2
;   maxOverhangAngle,45
;   supportAngles,45,-45
;   temperatureName,Primary Extruder,Heated Build Platform
;   temperatureNumber,0,0
;   temperatureSetpointCount,1,1
;   temperatureSetpointLayers,1,1
;   temperatureSetpointTemperatures,230,60
;   temperatureStabilizeAtStartup,1,1
;   temperatureHeatedBed,0,1
;   fanLayers,1,2
;   fanSpeeds,0,100
;   blipFanToFullPower,1
;   adjustSpeedForCooling,1
;   minSpeedLayerTime,15
;   minCoolingSpeedSlowdown,20
;   increaseFanForCooling,1
;   minFanLayerTime,45
;   maxCoolingFanSpeed,100
;   increaseFanForBridging,1
;   bridgingFanSpeed,100
;   use5D,1
;   relativeEdistances,1
;   allowEaxisZeroing,0
;   independentExtruderAxes,1
;   includeM10123,0
;   stickySupport,1
;   applyToolheadOffsets,0
;   gcodeXoffset,0
;   gcodeYoffset,0
;   gcodeZoffset,0
;   overrideMachineDefinition,1
;   machineTypeOverride,0
;   strokeXoverride,280
;   strokeYoverride,150
;   strokeZoverride,150
;   originOffsetXoverride,140
;   originOffsetYoverride,75
;   originOffsetZoverride,0
;   homeXdirOverride,1
;   homeYdirOverride,1
;   homeZdirOverride,-1
;   flipXoverride,1
;   flipYoverride,-1
;   flipZoverride,1
;   toolheadOffsets,0,0|0,0|0,0|0,0|0,0|0,0
;   overrideFirmwareConfiguration,1
;   firmwareTypeOverride,MakerBot/Sailfish Firmware
;   GPXconfigOverride,r2h
;   baudRateOverride,115200
;   overridePrinterModels,1
;   printerModelsOverride,MakerBot_Replicator2.stl
;   startingGcode,; **** Replicator 2 start.gcode ****,M73 P0 ; enable build progress,G162 X Y F3000 ; home XY maximum,G161 Z F1200 ; home Z minimum,G92 Z-5 ; set Z to -5,G1 Z0 ; move Z to 0,G161 Z F100 ; home Z slowly,M132 X Y Z A B ; recall home offsets,G1 X-145 Y-75 Z30 F9000 ; move to wait position off table,G130 X20 Y20 Z20 A20 B20 ; lower stepper Vrefs while heating,M126 S[fan_speed_pwm],M140 S[bed0_temperature] T0,M134 T0 ; stabilize bed temperature,M104 S[extruder0_temperature] T0,M133 T0 ; stabilize extruder temperature,G130 X127 Y127 Z40 A127 B127 ; default stepper Vrefs,G92 A0 ; zero extruder,G1 Z0.4 ; position nozzle,G1 E25 F300 ; purge nozzle,G1 X-140 Y-70 Z0.15 F1200 ; slow wipe,G1 X-135 Y-65 Z0.5 F1200 ; lift,G92 A0 ; zero extruder,M73 P1 ;@body (notify GPX body has started),; **** end of start.gcode ****
;   layerChangeGcode,
;   retractionGcode,
;   toolChangeGcode,
;   endingGcode,; **** Replicator 2 end.gcode ****,M73 P100 ; end build progress,G1 Z155 F1000 ; send Z axis to bottom of machine,M104 S0 T0 ; cool down extruder,M140 S0 T0 ; cool down HBP,M127 ; stop blower fan,G162 X Y F3000 ; home XY maximum,M18 ; disable stepper,M0 ; stop codes,M72 P1 ; play Ta-Da song,; **** end of end.gcode ****
;   exportFileFormat,gcode
;   celebration,0
;   celebrationSong,Random Song
;   postProcessing,
;   defaultSpeed,4800
;   outlineUnderspeed,0.5
;   solidInfillUnderspeed,1
;   supportUnderspeed,1
;   rapidXYspeed,9000
;   rapidZspeed,1200
;   minBridgingArea,50
;   bridgingExtraInflation,0
;   bridgingExtrusionMultiplier,1
;   bridgingSpeedMultiplier,0.8
;   useFixedBridgingAngle,0
;   fixedBridgingAngle,0
;   applyBridgingToPerimeters,0
;   filamentDiameters,1.75|1.75|1.75|1.75|1.75|1.75
;   filamentPricesPerKg,46|46|46|46|46|46
;   filamentDensities,1.25|1.25|1.25|1.25|1.25|1.25
;   useMinPrintHeight,0
;   minPrintHeight,0
;   useMaxPrintHeight,0
;   maxPrintHeight,4.84
;   useDiaphragm,0
;   diaphragmLayerInterval,20
;   robustSlicing,1
;   mergeAllIntoSolid,0
;   onlyRetractWhenCrossingOutline,0
;   retractBetweenLayers,0
;   useRetractionMinTravel,1
;   retractionMinTravel,7
;   retractWhileWiping,1
;   onlyWipeOutlines,1
;   avoidCrossingOutline,0
;   maxMovementDetourFactor,3
;   toolChangeRetractionDistance,12
;   toolChangeExtraRestartDistance,-0.5
;   toolChangeRetractionSpeed,600
;   externalThinWallType,0
;   internalThinWallType,0
;   thinWallAllowedOverlapPercentage,10
;   singleExtrusionMinLength,1
;   singleExtrusionMinPrintingWidthPercentage,50
;   singleExtrusionMaxPrintingWidthPercentage,200
;   singleExtrusionEndpointExtension,0.2
;   horizontalSizeCompensation,0
G90
M83
; **** Replicator 2 start.gcode ****
M73 P0 ; enable build progress
G162 X Y F3000 ; home XY maximum
G161 Z F1200 ; home Z minimum
G92 Z-5 ; set Z to -5
G1 Z0 ; move Z to 0
G161 Z F100 ; home Z slowly
M132 X Y Z A B ; recall home offsets
G1 X-145 Y-75 Z30 F9000 ; move to wait position off table
G130 X20 Y20 Z20 A20 B20 ; lower stepper Vrefs while heating
M127
M140 S60 T0
M134 T0 ; stabilize bed temperature
M104 S230 T0
M133 T0 ; stabilize extruder temperature
G130 X127 Y127 Z40 A127 B127 ; default stepper Vrefs
G92 A0 ; zero extruder
G1 Z0.4 ; position nozzle
G1 E25 F300 ; purge nozzle
G1 X-140 Y-70 Z0.15 F1200 ; slow wipe
G1 X-135 Y-65 Z0.5 F1200 ; lift
G92 A0 ; zero extruder
M73 P1 ;@body (notify GPX body has started)
; **** end of start.gcode ****
; process Process1
; layer 1, Z = 0.200
M135 T0
G1 E-1.9000 F1200
; feature inner perimeter
; tool H0.200 W0.460
G1 Z0.500 F1200
G1 X-21.081 Y17.060 F9000
G1 Z0.200 F1200
G1 E1.9000 F1200
G1 X-22.034 Y16.867 E0.0372 F1800
G1 X-22.604 Y16.437 E0.0273
G1 X-22.810 Y15.856 E0.0236
G1 X-22.810 Y-15.856 E1.2130
G1 X-22.604 Y-16.437 E0.0236
G1 X-22.034 Y-16.867 E0.0273
G1 X-21.081 Y-17.060 E0.0372
G1 X21.081 Y-17.060 E1.6126
G1 X22.034 Y-16.867 E0.0372
G1 X22.604 Y-16.437 E0.0273
G1 X22.810 Y-15.856 E0.0236
G1 X22.810 Y15.856 E1.2130
G1 X22.604 Y16.437 E0.0236
G1 X22.034 Y16.867 E0.0273
G1 X21.081 Y17.060 E0.0372
G1 X-21.081 Y17.060 E1.6126
; feature outer perimeter
G1 X-21.127 Y17.520 F9000
G1 X-22.228 Y17.297 E0.0430 F1200
G1 X-22.991 Y16.721 E0.0366
G1 X-23.270 Y15.935 E0.0319
G1 X-23.270 Y-15.935 E1.2190
G1 X-22.991 Y-16.721 E0.0319
G1 X-22.228 Y-17.297 E0.0366
G1 X-21.127 Y-17.520 E0.0430
G1 X21.127 Y-17.520 E1.6162
G1 X22.228 Y-17.297 E0.0430
G1 X22.991 Y-16.721 E0.0366
G1 X23.270 Y-15.935 E0.0319
G1 X23.270 Y15.935 E1.2190
G1 X22.991 Y16.721 E0.0319
G1 X22.244 Y17.285 E0.0358
G1 X22.228 Y17.297 E0.0007
G1 X21.127 Y17.520 E0.0430
G1 X-21.127 Y17.520 E1.6162
; feature inner perimeter
G1 X-16.655 Y14.524 F9000
G1 X-16.258 Y15.008 E0.0239 F1800
G1 X-15.774 Y15.405 E0.0239
G1 X-15.222 Y15.700 E0.0239
G1 X-14.623 Y15.882 E0.0239
G1 X-14.000 Y15.943 E0.0239
G1 X-13.377 Y15.882 E0.0239
G1 X-12.778 Y15.700 E0.0239
G1 X-12.226 Y15.405 E0.0239
G1 X-11.742 Y15.008 E0.0239
G1 X-11.345 Y14.524 E0.0239
G1 X-11.050 Y13.972 E0.0239
G1 X-10.868 Y13.373 E0.0239
G1 X-10.807 Y12.750 E0.0239
G1 X-10.868 Y12.127 E0.0239
G1 X-11.050 Y11.528 E0.0239
G1 X-11.345 Y10.976 E0.0239
G1 X-11.742 Y10.492 E0.0239
G1 X-12.226 Y10.095 E0.0239
G1 X-12.778 Y9.800 E0.0239
G1 X-13.377 Y9.618 E0.0239
G1 X-14.000 Y9.557 E0.0239
G1 X-14.623 Y9.618 E0.0239
G1 X-15.222 Y9.800 E0.0239
G1 X-15.774 Y10.095 E0.0239
G1 X-16.258 Y10.492 E0.0239
G1 X-16.655 Y10.976 E0.0239
G1 X-16.950 Y11.528 E0.0239
G1 X-17.132 Y12.127 E0.0239
G1 X-17.193 Y12.750 E0.0239
G1 X-17.132 Y13.373 E0.0239
G1 X-16.950 Y13.972 E0.0239
G1 X-16.655 Y14.524 E0.0239
; feature outer perimeter
G1 X-16.271 Y14.267 F9000
G1 X-15.931 Y14.681 E0.0205 F1200
G1 X-15.517 Y15.021 E0.0205
G1 X-15.045 Y15.273 E0.0205
G1 X-14.533 Y15.429 E0.0205
G1 X-14.000 Y15.481 E0.0205
G1 X-13.467 Y15.429 E0.0205
G1 X-12.955 Y15.273 E0.0205
G1 X-12.483 Y15.021 E0.0205
G1 X-12.069 Y14.681 E0.0205
G1 X-11.729 Y14.267 E0.0205
G1 X-11.477 Y13.795 E0.0205
G1 X-11.321 Y13.283 E0.0205
G1 X-11.269 Y12.750 E0.0205
G1 X-11.321 Y12.217 E0.0205
G1 X-11.477 Y11.705 E0.0205
G1 X-11.729 Y11.233 E0.0205
G1 X-12.069 Y10.819 E0.0205
G1 X-12.483 Y10.479 E0.0205
G1 X-12.955 Y10.227 E0.0205
G1 X-13.467 Y10.071 E0.0205
G1 X-14.000 Y10.019 E0.0205
G1 X-14.533 Y10.071 E0.0205
G1 X-15.045 Y10.227 E0.0205
G1 X-15.517 Y10.479 E0.0205
G1 X-15.931 Y10.819 E0.0205
G1 X-16.271 Y11.233 E0.0205
G1 X-16.523 Y11.705 E0.0205
G1 X-16.679 Y12.217 E0.0205
G1 X-16.731 Y12.750 E0.0205
G1 X-16.679 Y13.283 E0.0205
G1 X-16.523 Y13.795 E0.0205
G1 X-16.271 Y14.267 E0.0205
G1 E-1.9000 F1200
; feature inner perimeter
G1 Z0.700 F1200
G1 X-6.147 Y6.147 F9000
G1 Z0.200 F1200
G1 E1.9000 F1200
G1 X-4.830 Y7.228 E0.0652 F1800
G1 X-3.327 Y8.032 E0.0652
G1 X-1.696 Y8.526 E0.0652
G1 X0.000 Y8.693 E0.0652
G1 X1.696 Y8.526 E0.0652
G1 X3.327 Y8.032 E0.0652
G1 X4.830 Y7.228 E0.0652
G1 X6.147 Y6.147 E0.0652
G1 X7.228 Y4.830 E0.0652
G1 X8.032 Y3.327 E0.0652
G1 X8.526 Y1.696 E0.0652
G1 X8.693 Y0.000 E0.0652
G1 X8.526 Y-1.696 E0.0652
G1 X8.032 Y-3.327 E0.0652
G1 X7.228 Y-4.830 E0.0652
G1 X6.147 Y-6.147 E0.0652
G1 X4.830 Y-7.228 E0.0652
G1 X3.327 Y-8.032 E0.0652
G1 X1.696 Y-8.526 E0.0652
G1 X0.000 Y-8.693 E0.0652
G1 X-1.696 Y-8.526 E0.0652
G1 X-3.327 Y-8.032 E0.0652
G1 X-4.830 Y-7.228 E0.0652
G1 X-6.147 Y-6.147 E0.0652
G1 X-7.228 Y-4.830 E0.0652
G1 X-8.032 Y-3.327 E0.0652
G1 X-8.526 Y-1.696 E0.0652
G1 X-8.693 Y0.000 E0.0652
G1 X-8.526 Y1.696 E0.0652
G1 X-8.032 Y3.327 E0.0652
G1 X-7.228 Y4.830 E0.0652
G1 X-6.147 Y6.147 E0.0652
; feature outer perimeter
G1 X-5.820 Y5.820 F9000
G1 X-4.573 Y6.844 E0.0617 F1200
G1 X-3.150 Y7.605 E0.0617
G1 X-1.606 Y8.073 E0.0617
G1 X0.000 Y8.231 E0.0617
G1 X1.606 Y8.073 E0.0617
G1 X3.150 Y7.605 E0.0617
G1 X4.573 Y6.844 E0.0617
G1 X5.820 Y5.820 E0.0617
G1 X6.844 Y4.573 E0.0617
G1 X7.605 Y3.150 E0.0617
G1 X8.073 Y1.606 E0.0617
G1 X8.231 Y0.000 E0.0617
G1 X8.073 Y-1.606 E0.0617
G1 X7.605 Y-3.150 E0.0617
G1 X6.844 Y-4.573 E0.0617
G1 X5.820 Y-5.820 E0.0617
G1 X4.573 Y-6.844 E0.0617
G1 X3.150 Y-7.605 E0.0617
G1 X1.606 Y-8.073 E0.0617
G1 X0.000 Y-8.231 E0.0617
G1 X-1.606 Y-8.073 E0.0617
G1 X-3.150 Y-7.605 E0.0617
G1 X-4.573 Y-6.844 E0.0617
G1 X-5.820 Y-5.820 E0.0617
G1 X-6.844 Y-4.573 E0.0617
G1 X-7.605 Y-3.150 E0.0617
G1 X-8.073 Y-1.606 E0.0617
G1 X-8.231 Y0.000 E0.0617
G1 X-8.073 Y1.606 E0.0617
G1 X-7.605 Y3.150 E0.0617
G1 X-6.844 Y4.573 E0.0617
G1 X-5.820 Y5.820 E0.0617
G1 E-1.9000 F1200
; feature inner perimeter
G1 Z0.700 F1200
G1 X11.050 Y11.528 F9000
G1 Z0.200 F1200
G1 E1.9000 F1200
G1 X10.868 Y12.127 E0.0239 F1800
G1 X10.807 Y12.750 E0.0239
G1 X10.868 Y13.373 E0.0239
G1 X11.050 Y13.972 E0.0239
G1 X11.345 Y14.524 E0.0239
G1 X11.742 Y15.008 E0.0239
G1 X12.226 Y15.405 E0.0239
G1 X12.778 Y15.700 E0.0239
G1 X13.377 Y15.882 E0.0239
G1 X14.000 Y15.943 E0.0239
G1 X14.623 Y15.882 E0.0239
G1 X15.222 Y15.700 E0.0239
G1 X15.774 Y15.405 E0.0239
G1 X16.258 Y15.008 E0.0239
G1 X16.655 Y14.524 E0.0239
G1 X16.950 Y13.972 E0.0239
G1 X17.132 Y13.373 E0.0239
G1 X17.193 Y12.750 E0.0239
G1 X17.132 Y12.127 E0.0239
G1 X16.950 Y11.528 E0.0239
G1 X16.655 Y10.976 E0.0239
G1 X16.258 Y10.492 E0.0239
G1 X15.774 Y10.095 E0.0239
G1 X15.222 Y9.800 E0.0239
G1 X14.623 Y9.618 E0.0239
G1 X14.000 Y9.557 E0.0239
G1 X13.377 Y9.618 E0.0239
G1 X12.778 Y9.800 E0.0239
G1 X12.226 Y10.095 E0.0239
G1 X11.742 Y10.492 E0.0239
G1 X11.345 Y10.976 E0.0239
G1 X11.050 Y11.528 E0.0239
; feature outer perimeter
G1 X11.477 Y11.705 F9000
G1 X11.321 Y12.217 E0.0205 F1200
G1 X11.269 Y12.750 E0.0205
G1 X11.321 Y13.283 E0.0205
G1 X11.477 Y13.795 E0.0205
G1 X11.729 Y14.267 E0.0205
G1 X12.069 Y14.681 E0.0205
G1 X12.483 Y15.021 E0.0205
G1 X12.955 Y15.273 E0.0205
G1 X13.467 Y15.429 E0.0205
G1 X14.000 Y15.481 E0.0205
G1 X14.533 Y15.429 E0.0205
G1 X15.045 Y15.273 E0.0205
G1 X15.517 Y15.021 E0.0205
G1 X15.931 Y14.681 E0.0205
G1 X16.271 Y14.267 E0.0205
G1 X16.523 Y13.795 E0.0205
G1 X16.679 Y13.283 E0.0205
G1 X16.731 Y12.750 E0.0205
G1 X16.679 Y12.217 E0.0205
G1 X16.523 Y11.705 E0.0205
G1 X16.271 Y11.233 E0.0205
G1 X15.931 Y10.819 E0.0205
G1 X15.517 Y10.479 E0.0205
G1 X15.045 Y10.227 E0.0205
G1 X14.533 Y10.071 E0.0205
G1 X14.000 Y10.019 E0.0205
G1 X13.467 Y10.071 E0.0205
G1 X12.955 Y10.227 E0.0205
G1 X12.483 Y10.479 E0.0205
G1 X12.069 Y10.819 E0.0205
G1 X11.729 Y11.233 E0.0205
G1 X11.477 Y11.705 E0.0205
; feature solid layer
G1 X13.654 Y16.256 F9000
G1 X14.113 Y16.715 E0.0248 F2400
G1 X14.763 Y16.715 E0.0249
G1 X14.308 Y16.260 E0.0246
G1 X14.691 Y16.222 E0.0147
G1 X14.867 Y16.168 E0.0071
G1 X15.414 Y16.715 E0.0296
G1 X16.064 Y16.715 E0.0249
G1 X15.365 Y16.015 E0.0379
G1 X15.789 Y15.789 E0.0184
G1 X16.715 Y16.715 E0.0501
G1 X17.366 Y16.715 E0.0249
G1 X16.174 Y15.523 E0.0645
G1 X16.503 Y15.253 E0.0163
G1 X16.526 Y15.225 E0.0014
G1 X18.016 Y16.715 E0.0806
G1 X18.667 Y16.715 E0.0249
G1 X16.819 Y14.868 E0.0999
G1 X16.943 Y14.717 E0.0075
G1 X17.074 Y14.472 E0.0106
G1 X19.317 Y16.715 E0.1213
G1 X19.968 Y16.715 E0.0249
G1 X17.291 Y14.038 E0.1448
G1 X17.442 Y13.539 E0.0200
G1 X20.618 Y16.715 E0.1718
G1 X21.046 Y16.715 E0.0164
G1 X21.231 Y16.678 E0.0072
G1 X17.519 Y12.965 E0.2008
G1 X17.540 Y12.750 E0.0083
G1 X17.495 Y12.290 E0.0177
G1 X21.772 Y16.568 E0.2314
G1 X21.889 Y16.544 E0.0046
G1 X22.180 Y16.325 E0.0139
G1 X17.279 Y11.425 E0.2651
G1 E-1.9000 F1200
G1 Z0.700 F1200
G1 X7.722 Y-4.639 F9000
G1 Z0.200 F1200
G1 E1.9000 F1200
G1 X22.465 Y10.105 E0.7975 F2400
G1 X22.465 Y10.755 E0.0249
G1 X8.396 Y-3.314 E0.7610
G1 X8.679 Y-2.380 E0.0373
G1 X22.465 Y11.406 E0.7457
G1 X22.465 Y12.056 E0.0249
G1 X8.890 Y-1.518 E0.7343
G1 X8.962 Y-0.797 E0.0277
G1 X22.465 Y12.707 E0.7304
G1 X22.465 Y13.357 E0.0249
G1 X9.033 Y-0.075 E0.7266
G1 X9.040 Y0.000 E0.0029
G1 X8.988 Y0.531 E0.0204
G1 X22.465 Y14.008 E0.7290
G1 X22.465 Y14.659 E0.0249
G1 X8.929 Y1.123 E0.7322
G1 X8.871 Y1.715 E0.0228
G1 X22.465 Y15.309 E0.7353
G1 X22.465 Y15.797 E0.0187
G1 X22.422 Y15.917 E0.0049
G1 X8.727 Y2.222 E0.7408
G1 X8.576 Y2.721 E0.0200
G1 X15.325 Y9.471 E0.3651
G1 X14.691 Y9.278 E0.0254
G1 X14.460 Y9.255 E0.0089
G1 X8.424 Y3.220 E0.3265
G1 X8.352 Y3.459 E0.0096
G1 X8.234 Y3.680 E0.0096
G1 X13.785 Y9.231 E0.3003
G1 X13.309 Y9.278 E0.0183
G1 X13.211 Y9.308 E0.0039
G1 X8.007 Y4.104 E0.2815
