; G-Code generated by Simplify3D(R) Version 4.1.2
; Apr 6, 2020 at 11:30:34 AM
; Settings Summary
;   processName,Process1
;   applyToModels,Explosion Prem
;   profileName,MakerBot Replicator 2 HBP (modified)
;   profileVersion,2020-03-12 10:48:50
;   baseProfile,MakerBot Replicator 2(2)
;   printMaterial,PLA
;   printQuality,Medium
;   printExtruders,
;   extruderName,Primary Extruder
;   extruderToolheadNumber,0
;   extruderDiameter,0.4
;   extruderAutoWidth,0
;   extruderWidth,0.4
;   extrusionMultiplier,1
;   extruderUseRetract,1
;   extruderRetractionDistance,1.9
;   extruderExtraRestartDistance,0
;   extruderRetractionZLift,0.5
;   extruderRetractionSpeed,1200
;   extruderUseCoasting,0
;   extruderCoastingDistance,0.2
;   extruderUseWipe,0
;   extruderWipeDistance,5
;   primaryExtruder,0
;   layerHeight,0.2
;   topSolidLayers,3
;   bottomSolidLayers,3
;   perimeterOutlines,2
;   printPerimetersInsideOut,1
;   startPointOption,3
;   startPointOriginX,0
;   startPointOriginY,150
;   sequentialIslands,0
;   spiralVaseMode,0
;   firstLayerHeightPercentage,100
;   firstLayerWidthPercentage,115
;   firstLayerUnderspeed,0.5
;   useRaft,0
;   raftExtruder,0
;   raftTopLayers,2
;   raftBaseLayers,1
;   raftOffset,1
;   raftSeparationDistance,0.14
;   raftTopInfill,90
;   aboveRaftSpeedMultiplier,0.3
;   useSkirt,0
;   skirtExtruder,0
;   skirtLayers,1
;   skirtOutlines,5
;   skirtOffset,0
;   usePrimePillar,0
;   primePillarExtruder,999
;   primePillarWidth,12
;   primePillarLocation,7
;   primePillarSpeedMultiplier,1
;   useOozeShield,0
;   oozeShieldExtruder,999
;   oozeShieldOffset,2
;   oozeShieldOutlines,1
;   oozeShieldSidewallShape,1
;   oozeShieldSidewallAngle,30
;   oozeShieldSpeedMultiplier,1
;   infillExtruder,0
;   internalInfillPattern,Rectilinear
;   externalInfillPattern,Rectilinear
;   infillPercentage,15
;   outlineOverlapPercentage,25
;   infillExtrusionWidthPercentage,100
;   minInfillLength,5
;   infillLayerInterval,1
;   internalInfillAngles,45,-45
;   overlapInternalInfillAngles,0
;   externalInfillAngles,45,-45
;   generateSupport,0
;   supportExtruder,0
;   supportInfillPercentage,5
;   supportExtraInflation,0.5
;   supportBaseLayers,0
;   denseSupportExtruder,0
;   denseSupportLayers,2
;   denseSupportInfillPercentage,90
;   supportLayerInterval,1
;   supportHorizontalPartOffset,0.3
;   supportUpperSeparationLayers,1
;   supportLowerSeparationLayers,1
;   supportType,1
;   supportGridSpacing,2
;   maxOverhangAngle,45
;   supportAngles,45,-45
;   temperatureName,Primary Extruder,Heated Build Platform
;   temperatureNumber,0,0
;   temperatureSetpointCount,1,1
;   temperatureSetpointLayers,1,1
;   temperatureSetpointTemperatures,230,60
;   temperatureStabilizeAtStartup,1,1
;   temperatureHeatedBed,0,1
;   fanLayers,1,2
;   fanSpeeds,0,100
;   blipFanToFullPower,1
;   adjustSpeedForCooling,1
;   minSpeedLayerTime,15
;   minCoolingSpeedSlowdown,20
;   increaseFanForCooling,1
;   minFanLayerTime,45
;   maxCoolingFanSpeed,100
;   increaseFanForBridging,1
;   bridgingFanSpeed,100
;   use5D,1
;   relativeEdistances,1
;   allowEaxisZeroing,0
;   independentExtruderAxes,1
;   includeM10123,0
;   stickySupport,1
;   applyToolheadOffsets,0
;   gcodeXoffset,0
;   gcodeYoffset,0
;   gcodeZoffset,0
;   overrideMachineDefinition,1
;   machineTypeOverride,0
;   strokeXoverride,280
;   strokeYoverride,150
;   strokeZoverride,150
;   originOffsetXoverride,140
;   originOffsetYoverride,75
;   originOffsetZoverride,0
;   homeXdirOverride,1
;   homeYdirOverride,1
;   homeZdirOverride,-1
;   flipXoverride,1
;   flipYoverride,-1
;   flipZoverride,1
;   toolheadOffsets,0,0|0,0|0,0|0,0|0,0|0,0
;   overrideFirmwareConfiguration,1
;   firmwareTypeOverride,MakerBot/Sailfish Firmware
;   GPXconfigOverride,r2h
;   baudRateOverride,115200
;   overridePrinterModels,1
;   printerModelsOverride,MakerBot_Replicator2.stl
;   startingGcode,; **** Replicator 2 start.gcode ****,M73 P0 ; enable build progress,G162 X Y F3000 ; home XY maximum,G161 Z F1200 ; home Z minimum,G92 Z-5 ; set Z to -5,G1 Z0 ; move Z to 0,G161 Z F100 ; home Z slowly,M132 X Y Z A B ; recall home offsets,G1 X-145 Y-75 Z30 F9000 ; move to wait position off table,G130 X20 Y20 Z20 A20 B20 ; lower stepper Vrefs while heating,M126 S[fan_speed_pwm],M140 S[bed0_temperature] T0,M134 T0 ; stabilize bed temperature,M104 S[extruder0_temperature] T0,M133 T0 ; stabilize extruder temperature,G130 X127 Y127 Z40 A127 B127 ; default stepper Vrefs,G92 A0 ; zero extruder,G1 Z0.4 ; position nozzle,G1 E25 F300 ; purge nozzle,G1 X-140 Y-70 Z0.15 F1200 ; slow wipe,G1 X-135 Y-65 Z0.5 F1200 ; lift,G92 A0 ; zero extruder,M73 P1 ;@body (notify GPX body has started),; **** end of start.gcode ****
;   layerChangeGcode,
;   retractionGcode,
;   toolChangeGcode,
;   endingGcode,; **** Replicator 2 end.gcode ****,M73 P100 ; end build progress,G1 Z155 F1000 ; send Z axis to bottom of machine,M104 S0 T0 ; cool down extruder,M140 S0 T0 ; cool down HBP,M127 ; stop blower fan,G162 X Y F3000 ; home XY maximum,M18 ; disable stepper,M0 ; stop codes,M72 P1 ; play Ta-Da song,; **** end of end.gcode ****
;   exportFileFormat,gcode
;   celebration,0
;   celebrationSong,Random Song
;   postProcessing,
;   defaultSpeed,4800
;   outlineUnderspeed,0.5
;   solidInfillUnderspeed,1
;   supportUnderspeed,1
;   rapidXYspeed,9000
;   rapidZspeed,1200
;   minBridgingArea,50
;   bridgingExtraInflation,0
;   bridgingExtrusionMultiplier,1
;   bridgingSpeedMultiplier,0.8
;   useFixedBridgingAngle,0
;   fixedBridgingAngle,0
;   applyBridgingToPerimeters,0
;   filamentDiameters,1.75|1.75|1.75|1.75|1.75|1.75
;   filamentPricesPerKg,46|46|46|46|46|46
;   filamentDensities,1.25|1.25|1.25|1.25|1.25|1.25
;   useMinPrintHeight,0
;   minPrintHeight,0
;   useMaxPrintHeight,0
;   maxPrintHeight,4.84
;   useDiaphragm,0
;   diaphragmLayerInterval,20
;   robustSlicing,1
;   mergeAllIntoSolid,0
;   onlyRetractWhenCrossingOutline,0
;   retractBetweenLayers,0
;   useRetractionMinTravel,1
;   retractionMinTravel,7
;   retractWhileWiping,1
;   onlyWipeOutlines,1
;   avoidCrossingOutline,0
;   maxMovementDetourFactor,3
;   toolChangeRetractionDistance,12
;   toolChangeExtraRestartDistance,-0.5
;   toolChangeRetractionSpeed,600
;   externalThinWallType,0
;   internalThinWallType,0
;   thinWallAllowedOverlapPercentage,10
;   singleExtrusionMinLength,1
;   singleExtrusionMinPrintingWidthPercentage,50
;   singleExtrusionMaxPrintingWidthPercentage,200
;   singleExtrusionEndpointExtension,0.2
;   horizontalSizeCompensation,0
G90
M83
; **** Replicator 2 start.gcode ****
M73 P0 ; enable build progress
G162 X Y F3000 ; home XY maximum
G161 Z F1200 ; home Z minimum
G92 Z-5 ; set Z to -5
G1 Z0 ; move Z to 0
G161 Z F100 ; home Z slowly
M132 X Y Z A B ; recall home offsets
G1 X-145 Y-75 Z30 F9000 ; move to wait position off table
G130 X20 Y20 Z20 A20 B20 ; lower stepper Vrefs while heating
M126 S118
M140 S60 T0
M134 T0 ; stabilize bed temperature
M104 S230 T0
M133 T0 ; stabilize extruder temperature
G130 X127 Y127 Z40 A127 B127 ; default stepper Vrefs
G92 A0 ; zero extruder
G1 Z0.4 ; position nozzle
G1 E25 F300 ; purge nozzle
G1 X-140 Y-70 Z0.15 F1200 ; slow wipe
G1 X-135 Y-65 Z0.5 F1200 ; lift
G92 A0 ; zero extruder
M73 P1 ;@body (notify GPX body has started)
; **** end of start.gcode ****
; process Process1
; layer 1, Z = 0.200
M135 T0
G1 E-1.9000 F1200
; feature inner perimeter
; tool H0.200 W0.460
G1 Z0.500 F1200
G1 X1.256 Y10.217 F9000
G1 Z0.200 F1200
G1 E1.9000 F1200
G1 X-2.686 Y3.063 E0.3124 F1800
G1 X-6.606 Y6.256 E0.1934
G1 X-6.454 Y1.394 E0.1860
G1 X-13.648 Y3.357 E0.2852
G1 X-8.469 Y-0.605 E0.2494
G1 X-11.873 Y-2.108 E0.1423
G1 X-7.690 Y-3.432 E0.1678
G1 X-13.709 Y-6.531 E0.2589
G1 X-6.405 Y-6.460 E0.2794
G1 X-5.866 Y-10.871 E0.1700
G1 X-2.265 Y-7.278 E0.1946
G1 X0.309 Y-8.977 E0.1180
G1 X1.049 Y-7.378 E0.0674
G1 X5.995 Y-9.474 E0.2055
G1 X6.036 Y-7.236 E0.0856
G1 X13.880 Y-9.657 E0.3140
G1 X8.453 Y-5.020 E0.2730
G1 X12.506 Y-2.521 E0.1821
G1 X7.353 Y-1.799 E0.1990
G1 X11.882 Y2.140 E0.2296
G1 X4.916 Y1.213 E0.2688
G1 X6.248 Y6.115 E0.1943
G1 X2.191 Y3.658 E0.1814
G1 X1.256 Y10.217 E0.2534
; feature outer perimeter
G1 X1.517 Y11.644 F9000
G1 X-2.823 Y3.768 E0.3440 F1200
G1 X-7.097 Y7.249 E0.2109
G1 X-6.933 Y2.002 E0.2008
G1 X-15.793 Y4.420 E0.3513
G1 X-9.366 Y-0.498 E0.3095
G1 X-13.172 Y-2.180 E0.1592
G1 X-8.893 Y-3.534 E0.1717
G1 X-15.644 Y-7.010 E0.2904
G1 X-6.812 Y-6.924 E0.3378
G1 X-6.208 Y-11.862 E0.1903
G1 X-2.205 Y-7.869 E0.2163
G1 X0.502 Y-9.656 E0.1241
G1 X1.279 Y-7.975 E0.0708
G1 X6.443 Y-10.163 E0.2145
G1 X6.485 Y-7.856 E0.0882
G1 X15.871 Y-10.753 E0.3757
G1 X9.232 Y-5.080 E0.3340
G1 X13.834 Y-2.243 E0.2068
G1 X8.416 Y-1.483 E0.2092
G1 X13.340 Y2.798 E0.2495
G1 X5.541 Y1.760 E0.3009
G1 X6.994 Y7.105 E0.2118
G1 X2.548 Y4.412 E0.1988
G1 X1.517 Y11.644 E0.2794
; feature solid layer
G1 X1.095 Y8.902 F9000
G1 X0.716 Y8.522 E0.0205 F2400
G1 X-0.082 Y7.074 E0.0633
G1 X1.176 Y8.332 E0.0681
G1 X1.257 Y7.763 E0.0220
G1 X-0.881 Y5.625 E0.1157
G1 X-1.679 Y4.176 E0.0633
G1 X1.339 Y7.193 E0.1632
G1 X1.420 Y6.624 E0.0220
G1 X-2.477 Y2.727 E0.2108
G1 X-6.118 Y1.688 F9000
G1 X-4.065 Y3.742 E0.1111 F2400
G1 X-4.423 Y4.034 E0.0177
G1 X-6.138 Y2.319 E0.0927
G1 X-6.158 Y2.950 E0.0241
G1 X-4.782 Y4.326 E0.0744
G1 X-5.140 Y4.618 E0.0177
G1 X-6.177 Y3.581 E0.0561
G1 X-6.197 Y4.212 E0.0241
G1 X-5.499 Y4.910 E0.0378
G1 X-5.858 Y5.202 E0.0177
G1 X-6.217 Y4.842 E0.0194
G1 X-6.236 Y5.473 E0.0241
G1 X-6.216 Y5.494 E0.0011
G1 X-8.190 Y-0.384 F9000
G1 X-6.702 Y1.104 E0.0805 F2400
G1 X-7.213 Y1.244 E0.0203
G1 X-8.559 Y-0.102 E0.0728
G1 X-8.927 Y0.180 E0.0177
G1 X-7.724 Y1.383 E0.0651
G1 X-8.235 Y1.523 E0.0203
G1 X-9.296 Y0.462 E0.0574
G1 X-9.664 Y0.744 E0.0177
G1 X-8.746 Y1.662 E0.0497
G1 X-9.257 Y1.802 E0.0203
G1 X-10.033 Y1.026 E0.0419
G1 X-10.401 Y1.308 E0.0177
G1 X-9.768 Y1.941 E0.0342
G1 X-10.280 Y2.081 E0.0203
G1 X-10.770 Y1.590 E0.0265
G1 X-11.139 Y1.872 E0.0177
G1 X-10.791 Y2.220 E0.0188
G1 X-11.302 Y2.360 E0.0203
G1 X-11.507 Y2.154 E0.0111
G1 X-11.876 Y2.436 E0.0177
G1 X-11.813 Y2.499 E0.0034
G1 X-10.605 Y-2.148 F9000
G1 X-10.206 Y-1.749 E0.0216 F2400
G1 X-9.041 Y-1.234 E0.0487
G1 X-10.111 Y-2.304 E0.0579
G1 X-9.617 Y-2.461 E0.0198
G1 X-7.875 Y-0.719 E0.0942
G1 X-7.797 Y-0.685 E0.0033
G1 X-7.821 Y-0.666 E0.0012
G1 X-6.191 Y0.965 E0.0882
G1 X-6.095 Y0.939 E0.0038
G1 X-6.098 Y1.057 E0.0045
G1 X-3.706 Y3.450 E0.1294
G1 X-3.348 Y3.158 E0.0177
G1 X-9.123 Y-2.617 E0.3124
G1 X-8.628 Y-2.774 E0.0198
G1 X-2.989 Y2.866 E0.3050
G1 X-2.631 Y2.574 E0.0177
G1 X-8.134 Y-2.930 E0.2977
G1 X-7.640 Y-3.087 E0.0198
G1 X1.501 Y6.055 E0.4945
G1 X1.582 Y5.485 E0.0220
G1 X-7.146 Y-3.243 E0.4721
G1 X-12.025 Y-6.170 F9000
G1 X-11.782 Y-5.927 E0.0131 F2400
G1 X-10.441 Y-5.237 E0.0577
G1 X-11.368 Y-6.163 E0.0501
G1 X-10.711 Y-6.157 E0.0251
G1 X-9.100 Y-4.546 E0.0871
G1 X-7.759 Y-3.856 E0.0577
G1 X-10.054 Y-6.151 E0.1241
G1 X-9.397 Y-6.144 E0.0251
G1 X1.663 Y4.916 E0.5983
G1 X1.745 Y4.347 E0.0220
G1 X-8.740 Y-6.138 E0.5671
G1 X-8.083 Y-6.132 E0.0251
G1 X1.826 Y3.777 E0.5360
G1 X1.907 Y3.208 E0.0220
G1 X-7.426 Y-6.125 E0.5049
G1 X-6.769 Y-6.119 E0.0251
G1 X3.238 Y3.889 E0.5413
G1 X4.888 Y4.888 E0.0738
G1 X-6.112 Y-6.113 E0.5951
G1 X-6.100 Y-6.112 E0.0005
G1 X-6.030 Y-6.681 E0.0219
G1 X5.564 Y4.914 E0.6272
G1 X5.322 Y4.020 E0.0354
G1 X-5.960 Y-7.261 E0.6102
G1 X-5.889 Y-7.840 E0.0223
G1 X5.079 Y3.127 E0.5933
G1 X4.836 Y2.234 E0.0354
G1 X-5.818 Y-8.420 E0.5763
G1 X-5.747 Y-9.000 E0.0223
G1 X4.593 Y1.340 E0.5593
G1 X4.447 Y0.803 E0.0213
G1 X4.745 Y0.842 E0.0115
G1 X-5.676 Y-9.579 E0.5637
G1 X-5.609 Y-10.128 E0.0211
G1 X-2.309 Y-6.835 E0.1783
G1 X-2.293 Y-6.846 E0.0008
G1 X5.496 Y0.942 E0.4213
G1 X6.246 Y1.042 E0.0290
G1 X-1.901 Y-7.105 E0.4407
G1 X-1.509 Y-7.364 E0.0180
G1 X6.997 Y1.142 E0.4601
G1 X7.747 Y1.242 E0.0290
G1 X-1.117 Y-7.622 E0.4795
G1 X0.058 Y-8.399 F9000
G1 X0.315 Y-8.142 E0.0139 F2400
G1 X0.876 Y-6.931 E0.0510
G1 X-0.333 Y-8.140 E0.0654
G1 X-0.725 Y-7.881 E0.0180
G1 X8.497 Y1.341 E0.4989
G1 X9.248 Y1.441 E0.0290
G1 X0.876 Y-6.930 E0.4528
G1 X1.333 Y-7.124 E0.0190
G1 X9.998 Y1.541 E0.4687
G1 X10.748 Y1.641 E0.0290
G1 X10.522 Y1.415 E0.0122
G1 X6.555 Y-2.035 E0.2011
G1 X7.009 Y-2.099 E0.0175
G1 X1.790 Y-7.317 E0.2823
G1 X2.247 Y-7.511 E0.0190
G1 X7.579 Y-2.179 E0.2884
G1 X8.150 Y-2.259 E0.0220
G1 X2.704 Y-7.705 E0.2946
G1 X3.161 Y-7.898 E0.0190
G1 X8.720 Y-2.339 E0.3007
G1 X9.291 Y-2.419 E0.0220
G1 X3.618 Y-8.092 E0.3069
G1 X5.665 Y-8.647 F9000
G1 X5.446 Y-8.866 E0.0119 F2400
G1 X4.989 Y-8.673 E0.0190
G1 X5.677 Y-7.984 E0.0372
G1 X5.689 Y-7.322 E0.0253
G1 X4.532 Y-8.479 E0.0626
G1 X4.075 Y-8.285 E0.0190
G1 X9.861 Y-2.499 E0.3130
G1 X10.432 Y-2.579 E0.0220
G1 X8.304 Y-4.707 E0.1151
G1 X7.869 Y-4.975 E0.0195
G1 X7.959 Y-5.052 E0.0045
G1 X6.112 Y-6.899 E0.0999
G1 X6.609 Y-7.052 E0.0199
G1 X8.310 Y-5.351 E0.0920
G1 X8.661 Y-5.651 E0.0176
G1 X7.106 Y-7.206 E0.0841
G1 X7.603 Y-7.359 E0.0199
G1 X9.012 Y-5.951 E0.0762
G1 X9.362 Y-6.251 E0.0176
G1 X8.100 Y-7.513 E0.0683
G1 X8.598 Y-7.666 E0.0199
G1 X9.713 Y-6.550 E0.0603
G1 X10.064 Y-6.850 E0.0176
G1 X9.095 Y-7.819 E0.0524
G1 X9.592 Y-7.973 E0.0199
G1 X10.415 Y-7.150 E0.0445
G1 X10.766 Y-7.450 E0.0176
G1 X10.089 Y-8.126 E0.0366
G1 X10.586 Y-8.280 E0.0199
G1 X11.116 Y-7.749 E0.0287
G1 X11.467 Y-8.049 E0.0176
G1 X11.083 Y-8.433 E0.0208
G1 X11.580 Y-8.586 E0.0199
G1 X11.818 Y-8.349 E0.0129
G1 X12.169 Y-8.648 E0.0176
G1 X12.077 Y-8.740 E0.0049
G1 X10.001 Y-3.661 F9000
G1 X11.002 Y-2.659 E0.0542 F2400
G1 E-1.9000 F1200
; layer 2, Z = 0.400
M126 S255
; feature inner perimeter
; tool H0.200 W0.400
G1 Z0.700 F1200
G1 X1.307 Y10.497 F9000
G1 Z0.400 F1200
G1 E1.9000 F1200
G1 X-2.713 Y3.201 E0.2770 F3254
G1 X-6.702 Y6.450 E0.1711
G1 X-6.548 Y1.513 E0.1643
G1 X-14.067 Y3.565 E0.2592
G1 X-8.644 Y-0.584 E0.2271
G1 X-12.127 Y-2.122 E0.1266
G1 X-7.926 Y-3.452 E0.1466
G1 X-14.087 Y-6.625 E0.2305
G1 X-6.484 Y-6.551 E0.2529
G1 X-5.933 Y-11.065 E0.1513
G1 X-2.253 Y-7.394 E0.1729
G1 X0.347 Y-9.110 E0.1036
G1 X1.094 Y-7.495 E0.0592
G1 X6.083 Y-9.609 E0.1802
G1 X6.124 Y-7.358 E0.0749
G1 X14.270 Y-9.871 E0.2835
G1 X8.606 Y-5.032 E0.2478
G1 X12.766 Y-2.467 E0.1625
G1 X7.561 Y-1.737 E0.1748
G1 X12.167 Y2.268 E0.2030
G1 X5.038 Y1.320 E0.2392
G1 X6.394 Y6.309 E0.1720
G1 X2.261 Y3.806 E0.1607
G1 X1.307 Y10.497 E0.2248
; feature outer perimeter
G1 X1.534 Y11.738 F9000
G1 X-2.832 Y3.814 E0.3009 F2169
G1 X-7.129 Y7.314 E0.1843
G1 X-6.965 Y2.042 E0.1755
G1 X-15.933 Y4.489 E0.3092
G1 X-9.424 Y-0.491 E0.2726
G1 X-13.257 Y-2.184 E0.1394
G1 X-8.971 Y-3.541 E0.1495
G1 X-15.770 Y-7.041 E0.2543
G1 X-6.838 Y-6.955 E0.2971
G1 X-6.230 Y-11.927 E0.1666
G1 X-2.201 Y-7.907 E0.1893
G1 X0.514 Y-9.700 E0.1082
G1 X1.294 Y-8.014 E0.0618
G1 X6.472 Y-10.208 E0.1870
G1 X6.514 Y-7.897 E0.0769
G1 X16.000 Y-10.824 E0.3302
G1 X9.283 Y-5.084 E0.2939
G1 X13.920 Y-2.225 E0.1812
G1 X8.486 Y-1.463 E0.1825
G1 X13.435 Y2.841 E0.2181
G1 X5.582 Y1.796 E0.2635
G1 X7.043 Y7.169 E0.1852
G1 X2.572 Y4.461 E0.1739
G1 X1.534 Y11.738 E0.2445
; feature solid layer
G1 X0.952 Y9.230 F9000
G1 X1.223 Y8.959 E0.0128 F4339
G1 X1.317 Y8.299 E0.0222
G1 X0.751 Y8.866 E0.0266
G1 X0.550 Y8.501 E0.0139
G1 X1.411 Y7.640 E0.0405
G1 X1.505 Y6.980 E0.0222
G1 X0.349 Y8.136 E0.0544
G1 X0.148 Y7.772 E0.0139
G1 X1.600 Y6.320 E0.0683
G1 X1.694 Y5.660 E0.0222
G1 X-0.053 Y7.407 E0.0822
G1 X-0.254 Y7.042 E0.0139
G1 X1.788 Y5.001 E0.0960
G1 X1.882 Y4.341 E0.0222
G1 X-0.455 Y6.677 E0.1099
G1 X-0.656 Y6.313 E0.0139
G1 X1.976 Y3.681 E0.1238
G1 X2.028 Y3.314 E0.0123
G1 X2.224 Y3.433 E0.0076
G1 X4.644 Y1.013 E0.1138
G1 X4.630 Y0.963 E0.0017
G1 X4.686 Y0.971 E0.0019
G1 X7.259 Y-1.602 E0.1210
G1 X6.956 Y-1.865 E0.0133
G1 X-0.857 Y5.948 E0.3675
G1 X-1.058 Y5.583 E0.0139
G1 X8.976 Y-4.451 E0.4720
G1 X8.626 Y-4.667 E0.0137
G1 X-1.259 Y5.218 E0.4650
G1 X-1.460 Y4.854 E0.0139
G1 X8.276 Y-4.882 E0.4580
G1 X8.098 Y-4.993 E0.0070
G1 X10.083 Y-6.689 E0.0868
G1 X12.363 Y-8.969 E0.1073
G1 X11.545 Y-8.717 E0.0285
G1 X-1.661 Y4.489 E0.6212
G1 X-1.862 Y4.124 E0.0139
G1 X10.727 Y-8.464 E0.5921
G1 X9.909 Y-8.212 E0.0285
