; G-Code generated by Simplify3D(R) Version 4.1.2
; Apr 6, 2020 at 11:28:51 AM
; Settings Summary
;   processName,Process1
;   applyToModels,Explosion Prem Bracket
;   profileName,MakerBot Replicator 2 HBP (modified)
;   profileVersion,2020-03-12 10:48:50
;   baseProfile,MakerBot Replicator 2(2)
;   printMaterial,PLA
;   printQuality,Medium
;   printExtruders,
;   extruderName,Primary Extruder
;   extruderToolheadNumber,0
;   extruderDiameter,0.4
;   extruderAutoWidth,0
;   extruderWidth,0.4
;   extrusionMultiplier,1
;   extruderUseRetract,1
;   extruderRetractionDistance,1.9
;   extruderExtraRestartDistance,0
;   extruderRetractionZLift,0.5
;   extruderRetractionSpeed,1200
;   extruderUseCoasting,0
;   extruderCoastingDistance,0.2
;   extruderUseWipe,0
;   extruderWipeDistance,5
;   primaryExtruder,0
;   layerHeight,0.2
;   topSolidLayers,3
;   bottomSolidLayers,3
;   perimeterOutlines,2
;   printPerimetersInsideOut,1
;   startPointOption,3
;   startPointOriginX,0
;   startPointOriginY,150
;   sequentialIslands,0
;   spiralVaseMode,0
;   firstLayerHeightPercentage,100
;   firstLayerWidthPercentage,115
;   firstLayerUnderspeed,0.5
;   useRaft,0
;   raftExtruder,0
;   raftTopLayers,2
;   raftBaseLayers,1
;   raftOffset,1
;   raftSeparationDistance,0.14
;   raftTopInfill,90
;   aboveRaftSpeedMultiplier,0.3
;   useSkirt,0
;   skirtExtruder,0
;   skirtLayers,1
;   skirtOutlines,5
;   skirtOffset,0
;   usePrimePillar,0
;   primePillarExtruder,999
;   primePillarWidth,12
;   primePillarLocation,7
;   primePillarSpeedMultiplier,1
;   useOozeShield,0
;   oozeShieldExtruder,999
;   oozeShieldOffset,2
;   oozeShieldOutlines,1
;   oozeShieldSidewallShape,1
;   oozeShieldSidewallAngle,30
;   oozeShieldSpeedMultiplier,1
;   infillExtruder,0
;   internalInfillPattern,Rectilinear
;   externalInfillPattern,Rectilinear
;   infillPercentage,15
;   outlineOverlapPercentage,25
;   infillExtrusionWidthPercentage,100
;   minInfillLength,5
;   infillLayerInterval,1
;   internalInfillAngles,45,-45
;   overlapInternalInfillAngles,0
;   externalInfillAngles,45,-45
;   generateSupport,0
;   supportExtruder,0
;   supportInfillPercentage,5
;   supportExtraInflation,0.5
;   supportBaseLayers,0
;   denseSupportExtruder,0
;   denseSupportLayers,2
;   denseSupportInfillPercentage,90
;   supportLayerInterval,1
;   supportHorizontalPartOffset,0.3
;   supportUpperSeparationLayers,1
;   supportLowerSeparationLayers,1
;   supportType,1
;   supportGridSpacing,2
;   maxOverhangAngle,45
;   supportAngles,45,-45
;   temperatureName,Primary Extruder,Heated Build Platform
;   temperatureNumber,0,0
;   temperatureSetpointCount,1,1
;   temperatureSetpointLayers,1,1
;   temperatureSetpointTemperatures,230,60
;   temperatureStabilizeAtStartup,1,1
;   temperatureHeatedBed,0,1
;   fanLayers,1,2
;   fanSpeeds,0,100
;   blipFanToFullPower,1
;   adjustSpeedForCooling,1
;   minSpeedLayerTime,15
;   minCoolingSpeedSlowdown,20
;   increaseFanForCooling,1
;   minFanLayerTime,45
;   maxCoolingFanSpeed,100
;   increaseFanForBridging,1
;   bridgingFanSpeed,100
;   use5D,1
;   relativeEdistances,1
;   allowEaxisZeroing,0
;   independentExtruderAxes,1
;   includeM10123,0
;   stickySupport,1
;   applyToolheadOffsets,0
;   gcodeXoffset,0
;   gcodeYoffset,0
;   gcodeZoffset,0
;   overrideMachineDefinition,1
;   machineTypeOverride,0
;   strokeXoverride,280
;   strokeYoverride,150
;   strokeZoverride,150
;   originOffsetXoverride,140
;   originOffsetYoverride,75
;   originOffsetZoverride,0
;   homeXdirOverride,1
;   homeYdirOverride,1
;   homeZdirOverride,-1
;   flipXoverride,1
;   flipYoverride,-1
;   flipZoverride,1
;   toolheadOffsets,0,0|0,0|0,0|0,0|0,0|0,0
;   overrideFirmwareConfiguration,1
;   firmwareTypeOverride,MakerBot/Sailfish Firmware
;   GPXconfigOverride,r2h
;   baudRateOverride,115200
;   overridePrinterModels,1
;   printerModelsOverride,MakerBot_Replicator2.stl
;   startingGcode,; **** Replicator 2 start.gcode ****,M73 P0 ; enable build progress,G162 X Y F3000 ; home XY maximum,G161 Z F1200 ; home Z minimum,G92 Z-5 ; set Z to -5,G1 Z0 ; move Z to 0,G161 Z F100 ; home Z slowly,M132 X Y Z A B ; recall home offsets,G1 X-145 Y-75 Z30 F9000 ; move to wait position off table,G130 X20 Y20 Z20 A20 B20 ; lower stepper Vrefs while heating,M126 S[fan_speed_pwm],M140 S[bed0_temperature] T0,M134 T0 ; stabilize bed temperature,M104 S[extruder0_temperature] T0,M133 T0 ; stabilize extruder temperature,G130 X127 Y127 Z40 A127 B127 ; default stepper Vrefs,G92 A0 ; zero extruder,G1 Z0.4 ; position nozzle,G1 E25 F300 ; purge nozzle,G1 X-140 Y-70 Z0.15 F1200 ; slow wipe,G1 X-135 Y-65 Z0.5 F1200 ; lift,G92 A0 ; zero extruder,M73 P1 ;@body (notify GPX body has started),; **** end of start.gcode ****
;   layerChangeGcode,
;   retractionGcode,
;   toolChangeGcode,
;   endingGcode,; **** Replicator 2 end.gcode ****,M73 P100 ; end build progress,G1 Z155 F1000 ; send Z axis to bottom of machine,M104 S0 T0 ; cool down extruder,M140 S0 T0 ; cool down HBP,M127 ; stop blower fan,G162 X Y F3000 ; home XY maximum,M18 ; disable stepper,M0 ; stop codes,M72 P1 ; play Ta-Da song,; **** end of end.gcode ****
;   exportFileFormat,gcode
;   celebration,0
;   celebrationSong,Random Song
;   postProcessing,
;   defaultSpeed,4800
;   outlineUnderspeed,0.5
;   solidInfillUnderspeed,1
;   supportUnderspeed,1
;   rapidXYspeed,9000
;   rapidZspeed,1200
;   minBridgingArea,50
;   bridgingExtraInflation,0
;   bridgingExtrusionMultiplier,1
;   bridgingSpeedMultiplier,0.8
;   useFixedBridgingAngle,0
;   fixedBridgingAngle,0
;   applyBridgingToPerimeters,0
;   filamentDiameters,1.75|1.75|1.75|1.75|1.75|1.75
;   filamentPricesPerKg,46|46|46|46|46|46
;   filamentDensities,1.25|1.25|1.25|1.25|1.25|1.25
;   useMinPrintHeight,0
;   minPrintHeight,0
;   useMaxPrintHeight,0
;   maxPrintHeight,4.84
;   useDiaphragm,0
;   diaphragmLayerInterval,20
;   robustSlicing,1
;   mergeAllIntoSolid,0
;   onlyRetractWhenCrossingOutline,0
;   retractBetweenLayers,0
;   useRetractionMinTravel,1
;   retractionMinTravel,7
;   retractWhileWiping,1
;   onlyWipeOutlines,1
;   avoidCrossingOutline,0
;   maxMovementDetourFactor,3
;   toolChangeRetractionDistance,12
;   toolChangeExtraRestartDistance,-0.5
;   toolChangeRetractionSpeed,600
;   externalThinWallType,0
;   internalThinWallType,0
;   thinWallAllowedOverlapPercentage,10
;   singleExtrusionMinLength,1
;   singleExtrusionMinPrintingWidthPercentage,50
;   singleExtrusionMaxPrintingWidthPercentage,200
;   singleExtrusionEndpointExtension,0.2
;   horizontalSizeCompensation,0
G90
M83
; **** Replicator 2 start.gcode ****
M73 P0 ; enable build progress
G162 X Y F3000 ; home XY maximum
G161 Z F1200 ; home Z minimum
G92 Z-5 ; set Z to -5
G1 Z0 ; move Z to 0
G161 Z F100 ; home Z slowly
M132 X Y Z A B ; recall home offsets
G1 X-145 Y-75 Z30 F9000 ; move to wait position off table
G130 X20 Y20 Z20 A20 B20 ; lower stepper Vrefs while heating
M127
M140 S60 T0
M134 T0 ; stabilize bed temperature
M104 S230 T0
M133 T0 ; stabilize extruder temperature
G130 X127 Y127 Z40 A127 B127 ; default stepper Vrefs
G92 A0 ; zero extruder
G1 Z0.4 ; position nozzle
G1 E25 F300 ; purge nozzle
G1 X-140 Y-70 Z0.15 F1200 ; slow wipe
G1 X-135 Y-65 Z0.5 F1200 ; lift
G92 A0 ; zero extruder
M73 P1 ;@body (notify GPX body has started)
; **** end of start.gcode ****
; process Process1
; layer 1, Z = 0.200
M135 T0
G1 E-1.9000 F1200
; feature inner perimeter
; tool H0.200 W0.460
G1 Z0.500 F1200
G1 X-29.090 Y16.810 F9000
G1 Z0.200 F1200
G1 E1.9000 F1200
G1 X-32.909 Y16.810 E0.1461 F1800
G1 X-33.143 Y16.747 E0.0093
G1 X-33.247 Y16.643 E0.0057
G1 X-33.310 Y16.409 E0.0093
G1 X-33.310 Y10.309 E0.2333
G1 X-33.515 Y9.542 E0.0303
G1 X-34.143 Y8.915 E0.0339
G1 X-34.909 Y8.709 E0.0303
G1 X-41.922 Y8.709 E0.2682
G1 X-42.156 Y8.647 E0.0093
G1 X-42.260 Y8.542 E0.0057
G1 X-42.323 Y8.309 E0.0093
G1 X-42.323 Y-0.609 E0.3411
G1 X-42.260 Y-0.843 E0.0093
G1 X-42.156 Y-0.948 E0.0057
G1 X-41.922 Y-1.010 E0.0093
G1 X-34.909 Y-1.010 E0.2682
G1 X-34.143 Y-1.216 E0.0303
G1 X-33.515 Y-1.843 E0.0339
G1 X-33.310 Y-2.609 E0.0303
G1 X-33.310 Y-16.409 E0.5278
G1 X-33.247 Y-16.643 E0.0093
G1 X-33.143 Y-16.747 E0.0057
G1 X-32.909 Y-16.810 E0.0093
G1 X32.909 Y-16.810 E2.5175
G1 X33.143 Y-16.747 E0.0093
G1 X33.247 Y-16.643 E0.0057
G1 X33.310 Y-16.409 E0.0093
G1 X33.310 Y-2.609 E0.5278
G1 X33.515 Y-1.843 E0.0303
G1 X34.143 Y-1.216 E0.0339
G1 X34.909 Y-1.010 E0.0303
G1 X41.922 Y-1.010 E0.2682
G1 X42.156 Y-0.948 E0.0093
G1 X42.260 Y-0.843 E0.0057
G1 X42.323 Y-0.609 E0.0093
G1 X42.323 Y8.309 E0.3411
G1 X42.260 Y8.542 E0.0093
G1 X42.156 Y8.647 E0.0057
G1 X41.922 Y8.709 E0.0093
G1 X34.909 Y8.709 E0.2682
G1 X34.143 Y8.915 E0.0303
G1 X33.515 Y9.542 E0.0339
G1 X33.310 Y10.309 E0.0303
G1 X33.310 Y16.409 E0.2333
G1 X33.247 Y16.643 E0.0093
G1 X33.143 Y16.747 E0.0057
G1 X32.909 Y16.810 E0.0093
G1 X29.092 Y16.810 E0.1460
G1 X28.859 Y16.747 E0.0093
G1 X28.754 Y16.643 E0.0057
G1 X28.692 Y16.409 E0.0093
G1 X28.692 Y10.309 E0.2333
G1 X28.486 Y9.542 E0.0303
G1 X27.859 Y8.915 E0.0339
G1 X27.092 Y8.709 E0.0303
G1 X-27.090 Y8.709 E2.0724
G1 X-27.856 Y8.915 E0.0303
G1 X-28.483 Y9.542 E0.0339
G1 X-28.689 Y10.309 E0.0303
G1 X-28.689 Y16.409 E0.2333
G1 X-28.751 Y16.643 E0.0093
G1 X-28.856 Y16.747 E0.0057
G1 X-29.090 Y16.810 E0.0093
; feature outer perimeter
G1 X-29.029 Y17.270 F9000
G1 X-32.970 Y17.270 E0.1507 F1200
G1 X-33.381 Y17.160 E0.0163
G1 X-33.660 Y16.881 E0.0151
G1 X-33.770 Y16.470 E0.0163
G1 X-33.770 Y10.369 E0.2333
G1 X-33.928 Y9.780 E0.0233
G1 X-34.381 Y9.327 E0.0245
G1 X-34.970 Y9.169 E0.0233
G1 X-41.982 Y9.169 E0.2682
G1 X-42.394 Y9.059 E0.0163
G1 X-42.673 Y8.780 E0.0151
G1 X-42.783 Y8.369 E0.0163
G1 X-42.783 Y-0.670 E0.3457
G1 X-42.673 Y-1.081 E0.0163
G1 X-42.394 Y-1.360 E0.0151
G1 X-41.982 Y-1.470 E0.0163
G1 X-34.970 Y-1.470 E0.2682
G1 X-34.381 Y-1.628 E0.0233
G1 X-33.928 Y-2.081 E0.0245
G1 X-33.770 Y-2.670 E0.0233
G1 X-33.770 Y-16.470 E0.5278
G1 X-33.660 Y-16.881 E0.0163
G1 X-33.381 Y-17.160 E0.0151
G1 X-32.970 Y-17.270 E0.0163
G1 X32.970 Y-17.270 E2.5221
G1 X33.381 Y-17.160 E0.0163
G1 X33.660 Y-16.881 E0.0151
G1 X33.770 Y-16.470 E0.0163
G1 X33.770 Y-2.670 E0.5278
G1 X33.928 Y-2.081 E0.0233
G1 X34.381 Y-1.628 E0.0245
G1 X34.970 Y-1.470 E0.0233
G1 X41.982 Y-1.470 E0.2682
G1 X42.394 Y-1.360 E0.0163
G1 X42.673 Y-1.081 E0.0151
G1 X42.783 Y-0.670 E0.0163
G1 X42.783 Y8.369 E0.3457
G1 X42.673 Y8.780 E0.0163
G1 X42.394 Y9.059 E0.0151
G1 X41.982 Y9.169 E0.0163
G1 X34.970 Y9.169 E0.2682
G1 X34.381 Y9.327 E0.0233
G1 X33.928 Y9.780 E0.0245
G1 X33.770 Y10.369 E0.0233
G1 X33.770 Y16.470 E0.2333
G1 X33.660 Y16.881 E0.0163
G1 X33.381 Y17.160 E0.0151
G1 X32.970 Y17.270 E0.0163
G1 X29.032 Y17.270 E0.1506
G1 X28.621 Y17.160 E0.0163
G1 X28.342 Y16.881 E0.0151
G1 X28.232 Y16.470 E0.0163
G1 X28.232 Y10.369 E0.2333
G1 X28.074 Y9.780 E0.0233
G1 X27.621 Y9.327 E0.0245
G1 X27.032 Y9.169 E0.0233
G1 X-27.029 Y9.169 E2.0678
G1 X-27.618 Y9.327 E0.0233
G1 X-28.071 Y9.780 E0.0245
G1 X-28.229 Y10.369 E0.0233
G1 X-28.229 Y16.470 E0.2333
G1 X-28.339 Y16.881 E0.0163
G1 X-28.618 Y17.160 E0.0151
G1 X-29.029 Y17.270 E0.0163
G1 E-1.9000 F1200
; feature inner perimeter
G1 Z0.700 F1200
G1 X-33.291 Y6.800 F9000
G1 Z0.200 F1200
G1 E1.9000 F1200
G1 X-32.739 Y6.505 E0.0239 F1800
G1 X-32.255 Y6.108 E0.0239
G1 X-31.858 Y5.624 E0.0239
G1 X-31.562 Y5.072 E0.0239
G1 X-31.381 Y4.473 E0.0239
G1 X-31.319 Y3.850 E0.0239
G1 X-31.381 Y3.227 E0.0239
G1 X-31.562 Y2.628 E0.0239
G1 X-31.858 Y2.075 E0.0239
G1 X-32.255 Y1.592 E0.0239
G1 X-32.739 Y1.194 E0.0239
G1 X-33.291 Y0.899 E0.0239
G1 X-33.861 Y0.726 E0.0228
G1 X-34.509 Y0.656 E0.0249
G1 X-35.136 Y0.718 E0.0241
G1 X-35.735 Y0.899 E0.0239
G1 X-36.287 Y1.194 E0.0239
G1 X-36.771 Y1.592 E0.0239
G1 X-37.168 Y2.075 E0.0239
G1 X-37.463 Y2.628 E0.0239
G1 X-37.645 Y3.227 E0.0239
G1 X-37.706 Y3.850 E0.0239
G1 X-37.645 Y4.473 E0.0239
G1 X-37.463 Y5.072 E0.0239
G1 X-37.168 Y5.624 E0.0239
G1 X-36.771 Y6.108 E0.0239
G1 X-36.287 Y6.505 E0.0239
G1 X-35.735 Y6.800 E0.0239
G1 X-35.136 Y6.982 E0.0239
G1 X-34.513 Y7.043 E0.0239
G1 X-33.890 Y6.982 E0.0239
G1 X-33.291 Y6.800 E0.0239
; feature outer perimeter
G1 X-33.468 Y6.373 F9000
G1 X-32.995 Y6.120 E0.0205 F1200
G1 X-32.582 Y5.781 E0.0205
G1 X-32.242 Y5.367 E0.0205
G1 X-31.990 Y4.895 E0.0205
G1 X-31.834 Y4.382 E0.0205
G1 X-31.782 Y3.850 E0.0205
G1 X-31.834 Y3.317 E0.0205
G1 X-31.990 Y2.804 E0.0205
G1 X-32.242 Y2.332 E0.0205
G1 X-32.582 Y1.918 E0.0205
G1 X-32.995 Y1.579 E0.0205
G1 X-33.468 Y1.326 E0.0205
G1 X-33.954 Y1.179 E0.0194
G1 X-34.512 Y1.118 E0.0215
G1 X-35.046 Y1.171 E0.0205
G1 X-35.558 Y1.326 E0.0205
G1 X-36.030 Y1.579 E0.0205
G1 X-36.444 Y1.918 E0.0205
G1 X-36.784 Y2.332 E0.0205
G1 X-37.036 Y2.804 E0.0205
G1 X-37.191 Y3.317 E0.0205
G1 X-37.244 Y3.850 E0.0205
G1 X-37.191 Y4.382 E0.0205
G1 X-37.036 Y4.895 E0.0205
G1 X-36.784 Y5.367 E0.0205
G1 X-36.444 Y5.781 E0.0205
G1 X-36.030 Y6.120 E0.0205
G1 X-35.558 Y6.373 E0.0205
G1 X-35.046 Y6.528 E0.0205
G1 X-34.513 Y6.581 E0.0205
G1 X-33.980 Y6.528 E0.0205
G1 X-33.468 Y6.373 E0.0205
G1 E-1.9000 F1200
; feature inner perimeter
G1 Z0.700 F1200
G1 X-6.184 Y-2.439 F9000
G1 Z0.200 F1200
G1 E1.9000 F1200
G1 X-5.565 Y-1.281 E0.0502 F1800
G1 X-4.733 Y-0.267 E0.0502
G1 X-3.719 Y0.565 E0.0502
G1 X-2.561 Y1.184 E0.0502
G1 X-1.306 Y1.565 E0.0502
G1 X0.000 Y1.693 E0.0502
G1 X1.306 Y1.565 E0.0502
G1 X2.561 Y1.184 E0.0502
G1 X3.719 Y0.565 E0.0502
G1 X4.733 Y-0.267 E0.0502
G1 X5.565 Y-1.281 E0.0502
G1 X6.184 Y-2.439 E0.0502
G1 X6.565 Y-3.694 E0.0502
G1 X6.693 Y-5.000 E0.0502
G1 X6.565 Y-6.306 E0.0502
G1 X6.184 Y-7.561 E0.0502
G1 X5.565 Y-8.719 E0.0502
G1 X4.733 Y-9.733 E0.0502
G1 X3.719 Y-10.565 E0.0502
G1 X2.561 Y-11.184 E0.0502
G1 X1.306 Y-11.565 E0.0502
G1 X0.000 Y-11.693 E0.0502
G1 X-1.306 Y-11.565 E0.0502
G1 X-2.561 Y-11.184 E0.0502
G1 X-3.719 Y-10.565 E0.0502
G1 X-4.733 Y-9.733 E0.0502
G1 X-5.565 Y-8.719 E0.0502
G1 X-6.184 Y-7.561 E0.0502
G1 X-6.565 Y-6.306 E0.0502
G1 X-6.693 Y-5.000 E0.0502
G1 X-6.565 Y-3.694 E0.0502
G1 X-6.184 Y-2.439 E0.0502
; feature outer perimeter
G1 X-5.757 Y-2.615 F9000
G1 X-5.181 Y-1.538 E0.0467 F1200
G1 X-4.406 Y-0.594 E0.0467
G1 X-3.462 Y0.181 E0.0467
G1 X-2.385 Y0.757 E0.0467
G1 X-1.216 Y1.111 E0.0467
G1 X0.000 Y1.231 E0.0467
G1 X1.216 Y1.111 E0.0467
G1 X2.385 Y0.757 E0.0467
G1 X3.462 Y0.181 E0.0467
G1 X4.406 Y-0.594 E0.0467
G1 X5.181 Y-1.538 E0.0467
G1 X5.757 Y-2.615 E0.0467
G1 X6.111 Y-3.784 E0.0467
G1 X6.231 Y-5.000 E0.0467
G1 X6.111 Y-6.216 E0.0467
G1 X5.757 Y-7.385 E0.0467
G1 X5.181 Y-8.462 E0.0467
G1 X4.406 Y-9.406 E0.0467
G1 X3.462 Y-10.181 E0.0467
G1 X2.385 Y-10.757 E0.0467
G1 X1.216 Y-11.111 E0.0467
G1 X0.000 Y-11.231 E0.0467
G1 X-1.216 Y-11.111 E0.0467
G1 X-2.385 Y-10.757 E0.0467
G1 X-3.462 Y-10.181 E0.0467
G1 X-4.406 Y-9.406 E0.0467
G1 X-5.181 Y-8.462 E0.0467
G1 X-5.757 Y-7.385 E0.0467
G1 X-6.111 Y-6.216 E0.0467
G1 X-6.231 Y-5.000 E0.0467
G1 X-6.111 Y-3.784 E0.0467
G1 X-5.757 Y-2.615 E0.0467
G1 E-1.9000 F1200
; feature inner perimeter
G1 Z0.700 F1200
G1 X31.381 Y3.227 F9000
G1 Z0.200 F1200
G1 E1.9000 F1200
G1 X31.319 Y3.850 E0.0239 F1800
G1 X31.381 Y4.473 E0.0239
G1 X31.562 Y5.072 E0.0239
G1 X31.858 Y5.624 E0.0239
G1 X32.255 Y6.108 E0.0239
G1 X32.739 Y6.505 E0.0239
G1 X33.291 Y6.800 E0.0239
G1 X33.890 Y6.982 E0.0239
G1 X34.513 Y7.043 E0.0239
G1 X35.136 Y6.982 E0.0239
G1 X35.735 Y6.800 E0.0239
G1 X36.287 Y6.505 E0.0239
G1 X36.771 Y6.108 E0.0239
G1 X37.168 Y5.624 E0.0239
G1 X37.463 Y5.072 E0.0239
G1 X37.645 Y4.473 E0.0239
G1 X37.706 Y3.850 E0.0239
G1 X37.645 Y3.227 E0.0239
G1 X37.463 Y2.628 E0.0239
G1 X37.168 Y2.075 E0.0239
G1 X36.771 Y1.592 E0.0239
G1 X36.287 Y1.194 E0.0239
G1 X35.735 Y0.899 E0.0239
G1 X35.136 Y0.718 E0.0239
G1 X34.513 Y0.656 E0.0239
G1 X33.890 Y0.718 E0.0239
G1 X33.291 Y0.899 E0.0239
G1 X32.739 Y1.194 E0.0239
G1 X32.255 Y1.592 E0.0239
G1 X31.858 Y2.075 E0.0239
G1 X31.562 Y2.628 E0.0239
G1 X31.381 Y3.227 E0.0239
; feature outer perimeter
G1 X31.834 Y3.317 F9000
G1 X31.782 Y3.850 E0.0205 F1200
G1 X31.834 Y4.382 E0.0205
G1 X31.990 Y4.895 E0.0205
G1 X32.242 Y5.367 E0.0205
G1 X32.582 Y5.781 E0.0205
G1 X32.995 Y6.120 E0.0205
