; G-Code generated by Simplify3D(R) Version 4.1.2
; Apr 2, 2020 at 1:01:05 PM
; Settings Summary
;   processName,Process1
;   applyToModels,signBracket,signBracket(2),signBracket(3),signBracket(4),signBracket(5),signBracket(6),signBracket(7),signBracket(8),signBracket(9),signBracket(10),signBracket(11)
;   profileName,MakerBot Replicator 2 HBP (modified)
;   profileVersion,2020-03-12 10:48:50
;   baseProfile,MakerBot Replicator 2(2)
;   printMaterial,PLA
;   printQuality,Medium
;   printExtruders,
;   extruderName,Primary Extruder
;   extruderToolheadNumber,0
;   extruderDiameter,0.4
;   extruderAutoWidth,0
;   extruderWidth,0.4
;   extrusionMultiplier,1
;   extruderUseRetract,1
;   extruderRetractionDistance,1.9
;   extruderExtraRestartDistance,0
;   extruderRetractionZLift,0.5
;   extruderRetractionSpeed,1200
;   extruderUseCoasting,0
;   extruderCoastingDistance,0.2
;   extruderUseWipe,0
;   extruderWipeDistance,5
;   primaryExtruder,0
;   layerHeight,0.2
;   topSolidLayers,3
;   bottomSolidLayers,3
;   perimeterOutlines,2
;   printPerimetersInsideOut,1
;   startPointOption,3
;   startPointOriginX,0
;   startPointOriginY,150
;   sequentialIslands,0
;   spiralVaseMode,0
;   firstLayerHeightPercentage,100
;   firstLayerWidthPercentage,115
;   firstLayerUnderspeed,0.5
;   useRaft,0
;   raftExtruder,0
;   raftTopLayers,2
;   raftBaseLayers,1
;   raftOffset,1
;   raftSeparationDistance,0.14
;   raftTopInfill,90
;   aboveRaftSpeedMultiplier,0.3
;   useSkirt,0
;   skirtExtruder,0
;   skirtLayers,1
;   skirtOutlines,5
;   skirtOffset,0
;   usePrimePillar,0
;   primePillarExtruder,999
;   primePillarWidth,12
;   primePillarLocation,7
;   primePillarSpeedMultiplier,1
;   useOozeShield,0
;   oozeShieldExtruder,999
;   oozeShieldOffset,2
;   oozeShieldOutlines,1
;   oozeShieldSidewallShape,1
;   oozeShieldSidewallAngle,30
;   oozeShieldSpeedMultiplier,1
;   infillExtruder,0
;   internalInfillPattern,Rectilinear
;   externalInfillPattern,Rectilinear
;   infillPercentage,15
;   outlineOverlapPercentage,25
;   infillExtrusionWidthPercentage,100
;   minInfillLength,5
;   infillLayerInterval,1
;   internalInfillAngles,45,-45
;   overlapInternalInfillAngles,0
;   externalInfillAngles,45,-45
;   generateSupport,1
;   supportExtruder,0
;   supportInfillPercentage,30
;   supportExtraInflation,0.5
;   supportBaseLayers,0
;   denseSupportExtruder,0
;   denseSupportLayers,2
;   denseSupportInfillPercentage,90
;   supportLayerInterval,1
;   supportHorizontalPartOffset,0.3
;   supportUpperSeparationLayers,1
;   supportLowerSeparationLayers,1
;   supportType,1
;   supportGridSpacing,2
;   maxOverhangAngle,45
;   supportAngles,45,-45
;   temperatureName,Primary Extruder,Heated Build Platform
;   temperatureNumber,0,0
;   temperatureSetpointCount,1,1
;   temperatureSetpointLayers,1,1
;   temperatureSetpointTemperatures,230,60
;   temperatureStabilizeAtStartup,1,1
;   temperatureHeatedBed,0,1
;   fanLayers,1,2
;   fanSpeeds,0,100
;   blipFanToFullPower,1
;   adjustSpeedForCooling,1
;   minSpeedLayerTime,15
;   minCoolingSpeedSlowdown,20
;   increaseFanForCooling,1
;   minFanLayerTime,45
;   maxCoolingFanSpeed,100
;   increaseFanForBridging,1
;   bridgingFanSpeed,100
;   use5D,1
;   relativeEdistances,1
;   allowEaxisZeroing,0
;   independentExtruderAxes,1
;   includeM10123,0
;   stickySupport,1
;   applyToolheadOffsets,0
;   gcodeXoffset,0
;   gcodeYoffset,0
;   gcodeZoffset,0
;   overrideMachineDefinition,1
;   machineTypeOverride,0
;   strokeXoverride,280
;   strokeYoverride,150
;   strokeZoverride,150
;   originOffsetXoverride,140
;   originOffsetYoverride,75
;   originOffsetZoverride,0
;   homeXdirOverride,1
;   homeYdirOverride,1
;   homeZdirOverride,-1
;   flipXoverride,1
;   flipYoverride,-1
;   flipZoverride,1
;   toolheadOffsets,0,0|0,0|0,0|0,0|0,0|0,0
;   overrideFirmwareConfiguration,1
;   firmwareTypeOverride,MakerBot/Sailfish Firmware
;   GPXconfigOverride,r2h
;   baudRateOverride,115200
;   overridePrinterModels,1
;   printerModelsOverride,MakerBot_Replicator2.stl
;   startingGcode,; **** Replicator 2 start.gcode ****,M73 P0 ; enable build progress,G162 X Y F3000 ; home XY maximum,G161 Z F1200 ; home Z minimum,G92 Z-5 ; set Z to -5,G1 Z0 ; move Z to 0,G161 Z F100 ; home Z slowly,M132 X Y Z A B ; recall home offsets,G1 X-145 Y-75 Z30 F9000 ; move to wait position off table,G130 X20 Y20 Z20 A20 B20 ; lower stepper Vrefs while heating,M126 S[fan_speed_pwm],M140 S[bed0_temperature] T0,M134 T0 ; stabilize bed temperature,M104 S[extruder0_temperature] T0,M133 T0 ; stabilize extruder temperature,G130 X127 Y127 Z40 A127 B127 ; default stepper Vrefs,G92 A0 ; zero extruder,G1 Z0.4 ; position nozzle,G1 E25 F300 ; purge nozzle,G1 X-140 Y-70 Z0.15 F1200 ; slow wipe,G1 X-135 Y-65 Z0.5 F1200 ; lift,G92 A0 ; zero extruder,M73 P1 ;@body (notify GPX body has started),; **** end of start.gcode ****
;   layerChangeGcode,
;   retractionGcode,
;   toolChangeGcode,
;   endingGcode,; **** Replicator 2 end.gcode ****,M73 P100 ; end build progress,G1 Z155 F1000 ; send Z axis to bottom of machine,M104 S0 T0 ; cool down extruder,M140 S0 T0 ; cool down HBP,M127 ; stop blower fan,G162 X Y F3000 ; home XY maximum,M18 ; disable stepper,M0 ; stop codes,M72 P1 ; play Ta-Da song,; **** end of end.gcode ****
;   exportFileFormat,gcode
;   celebration,0
;   celebrationSong,Random Song
;   postProcessing,
;   defaultSpeed,4800
;   outlineUnderspeed,0.5
;   solidInfillUnderspeed,1
;   supportUnderspeed,1
;   rapidXYspeed,9000
;   rapidZspeed,1200
;   minBridgingArea,50
;   bridgingExtraInflation,0
;   bridgingExtrusionMultiplier,1
;   bridgingSpeedMultiplier,0.8
;   useFixedBridgingAngle,0
;   fixedBridgingAngle,0
;   applyBridgingToPerimeters,0
;   filamentDiameters,1.75|1.75|1.75|1.75|1.75|1.75
;   filamentPricesPerKg,46|46|46|46|46|46
;   filamentDensities,1.25|1.25|1.25|1.25|1.25|1.25
;   useMinPrintHeight,0
;   minPrintHeight,0
;   useMaxPrintHeight,0
;   maxPrintHeight,4.84
;   useDiaphragm,0
;   diaphragmLayerInterval,20
;   robustSlicing,1
;   mergeAllIntoSolid,0
;   onlyRetractWhenCrossingOutline,0
;   retractBetweenLayers,0
;   useRetractionMinTravel,1
;   retractionMinTravel,7
;   retractWhileWiping,1
;   onlyWipeOutlines,1
;   avoidCrossingOutline,0
;   maxMovementDetourFactor,3
;   toolChangeRetractionDistance,12
;   toolChangeExtraRestartDistance,-0.5
;   toolChangeRetractionSpeed,600
;   externalThinWallType,0
;   internalThinWallType,0
;   thinWallAllowedOverlapPercentage,10
;   singleExtrusionMinLength,1
;   singleExtrusionMinPrintingWidthPercentage,50
;   singleExtrusionMaxPrintingWidthPercentage,200
;   singleExtrusionEndpointExtension,0.2
;   horizontalSizeCompensation,0
G90
M83
; **** Replicator 2 start.gcode ****
M73 P0 ; enable build progress
G162 X Y F3000 ; home XY maximum
G161 Z F1200 ; home Z minimum
G92 Z-5 ; set Z to -5
G1 Z0 ; move Z to 0
G161 Z F100 ; home Z slowly
M132 X Y Z A B ; recall home offsets
G1 X-145 Y-75 Z30 F9000 ; move to wait position off table
G130 X20 Y20 Z20 A20 B20 ; lower stepper Vrefs while heating
M127
M140 S60 T0
M134 T0 ; stabilize bed temperature
M104 S230 T0
M133 T0 ; stabilize extruder temperature
G130 X127 Y127 Z40 A127 B127 ; default stepper Vrefs
G92 A0 ; zero extruder
G1 Z0.4 ; position nozzle
G1 E25 F300 ; purge nozzle
G1 X-140 Y-70 Z0.15 F1200 ; slow wipe
G1 X-135 Y-65 Z0.5 F1200 ; lift
G92 A0 ; zero extruder
M73 P1 ;@body (notify GPX body has started)
; **** end of start.gcode ****
; process Process1
; layer 1, Z = 0.200
M135 T0
G1 E-1.9000 F1200
; feature inner perimeter
; tool H0.200 W0.460
G1 Z0.500 F1200
G1 X10.560 Y10.560 F9000
G1 Z0.200 F1200
G1 E1.9000 F1200
G1 X-10.560 Y10.560 E0.8078 F1800
G1 X-10.560 Y9.440 E0.0428
G1 X9.440 Y9.440 E0.7650
G1 X9.440 Y-10.560 E0.7650
G1 X10.560 Y-10.560 E0.0428
G1 X10.560 Y10.560 E0.8078
; feature outer perimeter
G1 X11.020 Y11.020 F9000
G1 X-11.020 Y11.020 E0.8430 F1200
G1 X-11.020 Y8.980 E0.0780
G1 X8.980 Y8.980 E0.7650
G1 X8.980 Y-11.020 E0.7650
G1 X11.020 Y-11.020 E0.0780
G1 X11.020 Y11.020 E0.8430
G1 E-1.9000 F1200
; feature solid layer
G1 Z0.700 F1200
G1 X-9.952 Y10.215 F9000
G1 Z0.200 F1200
G1 E1.9000 F1200
G1 X-10.215 Y9.952 E0.0142 F2400
G1 X-10.215 Y9.785 E0.0064
G1 X-9.731 Y9.785 E0.0185
G1 X-9.301 Y10.215 E0.0233
G1 X-8.651 Y10.215 E0.0249
G1 X-9.081 Y9.785 E0.0233
G1 X-8.430 Y9.785 E0.0249
G1 X-8.000 Y10.215 E0.0233
G1 X-7.350 Y10.215 E0.0249
G1 X-7.780 Y9.785 E0.0233
G1 X-7.129 Y9.785 E0.0249
G1 X-6.699 Y10.215 E0.0233
G1 X-6.048 Y10.215 E0.0249
G1 X-6.478 Y9.785 E0.0233
G1 X-5.828 Y9.785 E0.0249
G1 X-5.398 Y10.215 E0.0233
G1 X-4.747 Y10.215 E0.0249
G1 X-5.177 Y9.785 E0.0233
G1 X-4.527 Y9.785 E0.0249
G1 X-4.097 Y10.215 E0.0233
G1 X-3.446 Y10.215 E0.0249
G1 X-3.876 Y9.785 E0.0233
G1 X-3.226 Y9.785 E0.0249
G1 X-2.796 Y10.215 E0.0233
G1 X-2.145 Y10.215 E0.0249
G1 X-2.575 Y9.785 E0.0233
G1 X-1.925 Y9.785 E0.0249
G1 X-1.495 Y10.215 E0.0233
G1 X-0.844 Y10.215 E0.0249
G1 X-1.274 Y9.785 E0.0233
G1 X-0.624 Y9.785 E0.0249
G1 X-0.194 Y10.215 E0.0233
G1 X0.457 Y10.215 E0.0249
G1 X0.027 Y9.785 E0.0233
G1 X0.677 Y9.785 E0.0249
G1 X1.107 Y10.215 E0.0233
G1 X1.758 Y10.215 E0.0249
G1 X1.328 Y9.785 E0.0233
G1 X1.979 Y9.785 E0.0249
G1 X2.409 Y10.215 E0.0233
G1 X3.059 Y10.215 E0.0249
G1 X2.629 Y9.785 E0.0233
G1 X3.280 Y9.785 E0.0249
G1 X3.710 Y10.215 E0.0233
G1 X4.360 Y10.215 E0.0249
G1 X3.930 Y9.785 E0.0233
G1 X4.581 Y9.785 E0.0249
G1 X5.011 Y10.215 E0.0233
G1 X5.661 Y10.215 E0.0249
G1 X5.231 Y9.785 E0.0233
G1 X5.882 Y9.785 E0.0249
G1 X6.312 Y10.215 E0.0233
G1 X6.962 Y10.215 E0.0249
G1 X6.532 Y9.785 E0.0233
G1 X7.183 Y9.785 E0.0249
G1 X7.613 Y10.215 E0.0233
G1 X8.263 Y10.215 E0.0249
G1 X7.833 Y9.785 E0.0233
G1 X8.484 Y9.785 E0.0249
G1 X8.914 Y10.215 E0.0233
G1 X9.564 Y10.215 E0.0249
G1 X9.134 Y9.785 E0.0233
G1 X9.785 Y9.785 E0.0249
G1 X10.215 Y10.215 E0.0233
G1 X10.215 Y9.564 E0.0249
G1 X9.785 Y9.135 E0.0232
G1 X9.785 Y8.484 E0.0249
G1 X10.215 Y8.914 E0.0232
G1 X10.215 Y8.263 E0.0249
G1 X9.785 Y7.834 E0.0232
G1 X9.785 Y7.183 E0.0249
G1 X10.215 Y7.613 E0.0232
G1 X10.215 Y6.962 E0.0249
G1 X9.785 Y6.533 E0.0232
G1 X9.785 Y5.882 E0.0249
G1 X10.215 Y6.312 E0.0232
G1 X10.215 Y5.661 E0.0249
G1 X9.785 Y5.231 E0.0232
G1 X9.785 Y4.581 E0.0249
G1 X10.215 Y5.011 E0.0232
G1 X10.215 Y4.360 E0.0249
G1 X9.785 Y3.930 E0.0232
G1 X9.785 Y3.280 E0.0249
G1 X10.215 Y3.709 E0.0232
G1 X10.215 Y3.059 E0.0249
G1 X9.785 Y2.629 E0.0232
G1 X9.785 Y1.979 E0.0249
G1 X10.215 Y2.408 E0.0232
G1 X10.215 Y1.758 E0.0249
G1 X9.785 Y1.328 E0.0232
G1 X9.785 Y0.678 E0.0249
G1 X10.215 Y1.107 E0.0232
G1 X10.215 Y0.457 E0.0249
G1 X9.785 Y0.027 E0.0232
G1 X9.785 Y-0.623 E0.0249
G1 X10.215 Y-0.194 E0.0232
G1 X10.215 Y-0.844 E0.0249
G1 X9.785 Y-1.274 E0.0232
G1 X9.785 Y-1.924 E0.0249
G1 X10.215 Y-1.495 E0.0232
G1 X10.215 Y-2.145 E0.0249
G1 X9.785 Y-2.575 E0.0232
G1 X9.785 Y-3.226 E0.0249
G1 X10.215 Y-2.796 E0.0232
G1 X10.215 Y-3.446 E0.0249
G1 X9.785 Y-3.876 E0.0232
G1 X9.785 Y-4.527 E0.0249
G1 X10.215 Y-4.097 E0.0232
G1 X10.215 Y-4.748 E0.0249
G1 X9.785 Y-5.177 E0.0232
G1 X9.785 Y-5.828 E0.0249
G1 X10.215 Y-5.398 E0.0232
G1 X10.215 Y-6.049 E0.0249
G1 X9.785 Y-6.478 E0.0232
G1 X9.785 Y-7.129 E0.0249
G1 X10.215 Y-6.699 E0.0232
G1 X10.215 Y-7.350 E0.0249
G1 X9.785 Y-7.779 E0.0232
G1 X9.785 Y-8.430 E0.0249
G1 X10.215 Y-8.000 E0.0232
G1 X10.215 Y-8.651 E0.0249
G1 X9.785 Y-9.080 E0.0232
G1 X9.785 Y-9.731 E0.0249
G1 X10.215 Y-9.301 E0.0232
G1 X10.215 Y-9.952 E0.0249
G1 X9.952 Y-10.215 E0.0142
; feature inner perimeter
G1 X10.560 Y-16.940 F9000
G1 X-10.560 Y-16.940 E0.8078 F1800
G1 X-10.560 Y-18.060 E0.0428
G1 X9.440 Y-18.060 E0.7650
G1 X9.440 Y-38.060 E0.7650
G1 X10.560 Y-38.060 E0.0428
G1 X10.560 Y-16.940 E0.8078
; feature outer perimeter
G1 X11.020 Y-16.480 F9000
G1 X-11.020 Y-16.480 E0.8430 F1200
G1 X-11.020 Y-18.520 E0.0780
G1 X8.980 Y-18.520 E0.7650
G1 X8.980 Y-38.520 E0.7650
G1 X11.020 Y-38.520 E0.0780
G1 X11.020 Y-16.480 E0.8430
G1 E-1.9000 F1200
; feature solid layer
G1 Z0.700 F1200
G1 X-10.129 Y-17.285 F9000
G1 Z0.200 F1200
G1 E1.9000 F1200
G1 X-10.215 Y-17.371 E0.0046 F2400
G1 X-10.215 Y-17.715 E0.0132
G1 X-9.908 Y-17.715 E0.0117
G1 X-9.478 Y-17.285 E0.0233
G1 X-8.828 Y-17.285 E0.0249
G1 X-9.258 Y-17.715 E0.0233
G1 X-8.607 Y-17.715 E0.0249
G1 X-8.177 Y-17.285 E0.0233
G1 X-7.527 Y-17.285 E0.0249
G1 X-7.957 Y-17.715 E0.0233
G1 X-7.306 Y-17.715 E0.0249
G1 X-6.876 Y-17.285 E0.0233
G1 X-6.226 Y-17.285 E0.0249
G1 X-6.656 Y-17.715 E0.0233
G1 X-6.005 Y-17.715 E0.0249
G1 X-5.575 Y-17.285 E0.0233
G1 X-4.925 Y-17.285 E0.0249
G1 X-5.355 Y-17.715 E0.0233
G1 X-4.704 Y-17.715 E0.0249
G1 X-4.274 Y-17.285 E0.0233
G1 X-3.624 Y-17.285 E0.0249
G1 X-4.054 Y-17.715 E0.0233
G1 X-3.403 Y-17.715 E0.0249
G1 X-2.973 Y-17.285 E0.0233
G1 X-2.323 Y-17.285 E0.0249
G1 X-2.753 Y-17.715 E0.0233
G1 X-2.102 Y-17.715 E0.0249
G1 X-1.672 Y-17.285 E0.0233
G1 X-1.021 Y-17.285 E0.0249
G1 X-1.451 Y-17.715 E0.0233
G1 X-0.801 Y-17.715 E0.0249
G1 X-0.371 Y-17.285 E0.0233
G1 X0.280 Y-17.285 E0.0249
G1 X-0.150 Y-17.715 E0.0233
G1 X0.500 Y-17.715 E0.0249
G1 X0.930 Y-17.285 E0.0233
G1 X1.581 Y-17.285 E0.0249
G1 X1.151 Y-17.715 E0.0233
G1 X1.801 Y-17.715 E0.0249
G1 X2.231 Y-17.285 E0.0233
G1 X2.882 Y-17.285 E0.0249
G1 X2.452 Y-17.715 E0.0233
G1 X3.102 Y-17.715 E0.0249
G1 X3.532 Y-17.285 E0.0233
G1 X4.183 Y-17.285 E0.0249
G1 X3.753 Y-17.715 E0.0233
G1 X4.403 Y-17.715 E0.0249
G1 X4.833 Y-17.285 E0.0233
G1 X5.484 Y-17.285 E0.0249
G1 X5.054 Y-17.715 E0.0233
G1 X5.704 Y-17.715 E0.0249
G1 X6.134 Y-17.285 E0.0233
G1 X6.785 Y-17.285 E0.0249
G1 X6.355 Y-17.715 E0.0233
G1 X7.006 Y-17.715 E0.0249
G1 X7.436 Y-17.285 E0.0233
G1 X8.086 Y-17.285 E0.0249
G1 X7.656 Y-17.715 E0.0233
G1 X8.307 Y-17.715 E0.0249
G1 X8.737 Y-17.285 E0.0233
G1 X9.387 Y-17.285 E0.0249
G1 X8.957 Y-17.715 E0.0233
G1 X9.608 Y-17.715 E0.0249
G1 X10.038 Y-17.285 E0.0233
G1 X10.215 Y-17.285 E0.0068
G1 X10.215 Y-17.758 E0.0181
G1 X9.785 Y-18.188 E0.0232
G1 X9.785 Y-18.838 E0.0249
G1 X10.215 Y-18.409 E0.0232
G1 X10.215 Y-19.059 E0.0249
G1 X9.785 Y-19.489 E0.0232
G1 X9.785 Y-20.140 E0.0249
G1 X10.215 Y-19.710 E0.0232
G1 X10.215 Y-20.360 E0.0249
G1 X9.785 Y-20.790 E0.0232
G1 X9.785 Y-21.441 E0.0249
G1 X10.215 Y-21.011 E0.0232
G1 X10.215 Y-21.662 E0.0249
G1 X9.785 Y-22.091 E0.0232
G1 X9.785 Y-22.742 E0.0249
G1 X10.215 Y-22.312 E0.0232
G1 X10.215 Y-22.963 E0.0249
G1 X9.785 Y-23.392 E0.0232
G1 X9.785 Y-24.043 E0.0249
G1 X10.215 Y-23.613 E0.0232
G1 X10.215 Y-24.264 E0.0249
G1 X9.785 Y-24.693 E0.0232
G1 X9.785 Y-25.344 E0.0249
G1 X10.215 Y-24.914 E0.0232
G1 X10.215 Y-25.565 E0.0249
G1 X9.785 Y-25.994 E0.0232
G1 X9.785 Y-26.645 E0.0249
G1 X10.215 Y-26.215 E0.0232
G1 X10.215 Y-26.866 E0.0249
G1 X9.785 Y-27.295 E0.0232
G1 X9.785 Y-27.946 E0.0249
G1 X10.215 Y-27.516 E0.0232
G1 X10.215 Y-28.167 E0.0249
G1 X9.785 Y-28.596 E0.0232
G1 X9.785 Y-29.247 E0.0249
G1 X10.215 Y-28.817 E0.0232
G1 X10.215 Y-29.468 E0.0249
G1 X9.785 Y-29.898 E0.0232
G1 X9.785 Y-30.548 E0.0249
G1 X10.215 Y-30.119 E0.0232
G1 X10.215 Y-30.769 E0.0249
G1 X9.785 Y-31.199 E0.0232
G1 X9.785 Y-31.849 E0.0249
G1 X10.215 Y-31.420 E0.0232
G1 X10.215 Y-32.070 E0.0249
G1 X9.785 Y-32.500 E0.0232
G1 X9.785 Y-33.150 E0.0249
G1 X10.215 Y-32.721 E0.0232
G1 X10.215 Y-33.371 E0.0249
G1 X9.785 Y-33.801 E0.0232
G1 X9.785 Y-34.451 E0.0249
G1 X10.215 Y-34.022 E0.0232
G1 X10.215 Y-34.672 E0.0249
G1 X9.785 Y-35.102 E0.0232
G1 X9.785 Y-35.752 E0.0249
G1 X10.215 Y-35.323 E0.0232
G1 X10.215 Y-35.973 E0.0249
G1 X9.785 Y-36.403 E0.0232
G1 X9.785 Y-37.053 E0.0249
G1 X10.215 Y-36.624 E0.0232
G1 X10.215 Y-37.274 E0.0249
G1 X9.785 Y-37.704 E0.0232
G1 E-1.9000 F1200
; feature inner perimeter
G1 Z0.700 F1200
G1 X16.940 Y-16.940 F9000
G1 Z0.200 F1200
G1 E1.9000 F1200
G1 X16.940 Y-18.060 E0.0428 F1800
G1 X36.940 Y-18.060 E0.7650
G1 X36.940 Y-38.060 E0.7650
G1 X38.060 Y-38.060 E0.0428
G1 X38.060 Y-16.940 E0.8078
G1 X16.940 Y-16.940 E0.8078
; feature outer perimeter
G1 X16.480 Y-16.480 F9000
G1 X16.480 Y-18.520 E0.0780 F1200
G1 X36.480 Y-18.520 E0.7650
G1 X36.480 Y-38.520 E0.7650
G1 X38.520 Y-38.520 E0.0780
G1 X38.520 Y-16.480 E0.8430
G1 X16.480 Y-16.480 E0.8430
