; G-Code generated by Simplify3D(R) Version 4.1.2
; Apr 2, 2020 at 1:01:19 PM
; Settings Summary
;   processName,Process1
;   applyToModels,signBracket,signBracket(2),signBracket(3),signBracket(4),signBracket(5),signBracket(6),signBracket(7),signBracket(8),signBracket(9),signBracket(10),signBracket(11),signBracket(12),signBracket(2)(2),signBracket(3)(2),signBracket(4)(2),signBracket(5)(2),signBracket(6)(2),signBracket(7)(2),signBracket(8)(2),signBracket(9)(2),signBracket(10)(2),signBracket(11)(2)
;   profileName,MakerBot Replicator 2 HBP (modified)
;   profileVersion,2020-03-12 10:48:50
;   baseProfile,MakerBot Replicator 2(2)
;   printMaterial,PLA
;   printQuality,Medium
;   printExtruders,
;   extruderName,Primary Extruder
;   extruderToolheadNumber,0
;   extruderDiameter,0.4
;   extruderAutoWidth,0
;   extruderWidth,0.4
;   extrusionMultiplier,1
;   extruderUseRetract,1
;   extruderRetractionDistance,1.9
;   extruderExtraRestartDistance,0
;   extruderRetractionZLift,0.5
;   extruderRetractionSpeed,1200
;   extruderUseCoasting,0
;   extruderCoastingDistance,0.2
;   extruderUseWipe,0
;   extruderWipeDistance,5
;   primaryExtruder,0
;   layerHeight,0.2
;   topSolidLayers,3
;   bottomSolidLayers,3
;   perimeterOutlines,2
;   printPerimetersInsideOut,1
;   startPointOption,3
;   startPointOriginX,0
;   startPointOriginY,150
;   sequentialIslands,0
;   spiralVaseMode,0
;   firstLayerHeightPercentage,100
;   firstLayerWidthPercentage,115
;   firstLayerUnderspeed,0.5
;   useRaft,0
;   raftExtruder,0
;   raftTopLayers,2
;   raftBaseLayers,1
;   raftOffset,1
;   raftSeparationDistance,0.14
;   raftTopInfill,90
;   aboveRaftSpeedMultiplier,0.3
;   useSkirt,0
;   skirtExtruder,0
;   skirtLayers,1
;   skirtOutlines,5
;   skirtOffset,0
;   usePrimePillar,0
;   primePillarExtruder,999
;   primePillarWidth,12
;   primePillarLocation,7
;   primePillarSpeedMultiplier,1
;   useOozeShield,0
;   oozeShieldExtruder,999
;   oozeShieldOffset,2
;   oozeShieldOutlines,1
;   oozeShieldSidewallShape,1
;   oozeShieldSidewallAngle,30
;   oozeShieldSpeedMultiplier,1
;   infillExtruder,0
;   internalInfillPattern,Rectilinear
;   externalInfillPattern,Rectilinear
;   infillPercentage,15
;   outlineOverlapPercentage,25
;   infillExtrusionWidthPercentage,100
;   minInfillLength,5
;   infillLayerInterval,1
;   internalInfillAngles,45,-45
;   overlapInternalInfillAngles,0
;   externalInfillAngles,45,-45
;   generateSupport,1
;   supportExtruder,0
;   supportInfillPercentage,30
;   supportExtraInflation,0.5
;   supportBaseLayers,0
;   denseSupportExtruder,0
;   denseSupportLayers,2
;   denseSupportInfillPercentage,90
;   supportLayerInterval,1
;   supportHorizontalPartOffset,0.3
;   supportUpperSeparationLayers,1
;   supportLowerSeparationLayers,1
;   supportType,1
;   supportGridSpacing,2
;   maxOverhangAngle,45
;   supportAngles,45,-45
;   temperatureName,Primary Extruder,Heated Build Platform
;   temperatureNumber,0,0
;   temperatureSetpointCount,1,1
;   temperatureSetpointLayers,1,1
;   temperatureSetpointTemperatures,230,60
;   temperatureStabilizeAtStartup,1,1
;   temperatureHeatedBed,0,1
;   fanLayers,1,2
;   fanSpeeds,0,100
;   blipFanToFullPower,1
;   adjustSpeedForCooling,1
;   minSpeedLayerTime,15
;   minCoolingSpeedSlowdown,20
;   increaseFanForCooling,1
;   minFanLayerTime,45
;   maxCoolingFanSpeed,100
;   increaseFanForBridging,1
;   bridgingFanSpeed,100
;   use5D,1
;   relativeEdistances,1
;   allowEaxisZeroing,0
;   independentExtruderAxes,1
;   includeM10123,0
;   stickySupport,1
;   applyToolheadOffsets,0
;   gcodeXoffset,0
;   gcodeYoffset,0
;   gcodeZoffset,0
;   overrideMachineDefinition,1
;   machineTypeOverride,0
;   strokeXoverride,280
;   strokeYoverride,150
;   strokeZoverride,150
;   originOffsetXoverride,140
;   originOffsetYoverride,75
;   originOffsetZoverride,0
;   homeXdirOverride,1
;   homeYdirOverride,1
;   homeZdirOverride,-1
;   flipXoverride,1
;   flipYoverride,-1
;   flipZoverride,1
;   toolheadOffsets,0,0|0,0|0,0|0,0|0,0|0,0
;   overrideFirmwareConfiguration,1
;   firmwareTypeOverride,MakerBot/Sailfish Firmware
;   GPXconfigOverride,r2h
;   baudRateOverride,115200
;   overridePrinterModels,1
;   printerModelsOverride,MakerBot_Replicator2.stl
;   startingGcode,; **** Replicator 2 start.gcode ****,M73 P0 ; enable build progress,G162 X Y F3000 ; home XY maximum,G161 Z F1200 ; home Z minimum,G92 Z-5 ; set Z to -5,G1 Z0 ; move Z to 0,G161 Z F100 ; home Z slowly,M132 X Y Z A B ; recall home offsets,G1 X-145 Y-75 Z30 F9000 ; move to wait position off table,G130 X20 Y20 Z20 A20 B20 ; lower stepper Vrefs while heating,M126 S[fan_speed_pwm],M140 S[bed0_temperature] T0,M134 T0 ; stabilize bed temperature,M104 S[extruder0_temperature] T0,M133 T0 ; stabilize extruder temperature,G130 X127 Y127 Z40 A127 B127 ; default stepper Vrefs,G92 A0 ; zero extruder,G1 Z0.4 ; position nozzle,G1 E25 F300 ; purge nozzle,G1 X-140 Y-70 Z0.15 F1200 ; slow wipe,G1 X-135 Y-65 Z0.5 F1200 ; lift,G92 A0 ; zero extruder,M73 P1 ;@body (notify GPX body has started),; **** end of start.gcode ****
;   layerChangeGcode,
;   retractionGcode,
;   toolChangeGcode,
;   endingGcode,; **** Replicator 2 end.gcode ****,M73 P100 ; end build progress,G1 Z155 F1000 ; send Z axis to bottom of machine,M104 S0 T0 ; cool down extruder,M140 S0 T0 ; cool down HBP,M127 ; stop blower fan,G162 X Y F3000 ; home XY maximum,M18 ; disable stepper,M0 ; stop codes,M72 P1 ; play Ta-Da song,; **** end of end.gcode ****
;   exportFileFormat,gcode
;   celebration,0
;   celebrationSong,Random Song
;   postProcessing,
;   defaultSpeed,4800
;   outlineUnderspeed,0.5
;   solidInfillUnderspeed,1
;   supportUnderspeed,1
;   rapidXYspeed,9000
;   rapidZspeed,1200
;   minBridgingArea,50
;   bridgingExtraInflation,0
;   bridgingExtrusionMultiplier,1
;   bridgingSpeedMultiplier,0.8
;   useFixedBridgingAngle,0
;   fixedBridgingAngle,0
;   applyBridgingToPerimeters,0
;   filamentDiameters,1.75|1.75|1.75|1.75|1.75|1.75
;   filamentPricesPerKg,46|46|46|46|46|46
;   filamentDensities,1.25|1.25|1.25|1.25|1.25|1.25
;   useMinPrintHeight,0
;   minPrintHeight,0
;   useMaxPrintHeight,0
;   maxPrintHeight,4.84
;   useDiaphragm,0
;   diaphragmLayerInterval,20
;   robustSlicing,1
;   mergeAllIntoSolid,0
;   onlyRetractWhenCrossingOutline,0
;   retractBetweenLayers,0
;   useRetractionMinTravel,1
;   retractionMinTravel,7
;   retractWhileWiping,1
;   onlyWipeOutlines,1
;   avoidCrossingOutline,0
;   maxMovementDetourFactor,3
;   toolChangeRetractionDistance,12
;   toolChangeExtraRestartDistance,-0.5
;   toolChangeRetractionSpeed,600
;   externalThinWallType,0
;   internalThinWallType,0
;   thinWallAllowedOverlapPercentage,10
;   singleExtrusionMinLength,1
;   singleExtrusionMinPrintingWidthPercentage,50
;   singleExtrusionMaxPrintingWidthPercentage,200
;   singleExtrusionEndpointExtension,0.2
;   horizontalSizeCompensation,0
G90
M83
; **** Replicator 2 start.gcode ****
M73 P0 ; enable build progress
G162 X Y F3000 ; home XY maximum
G161 Z F1200 ; home Z minimum
G92 Z-5 ; set Z to -5
G1 Z0 ; move Z to 0
G161 Z F100 ; home Z slowly
M132 X Y Z A B ; recall home offsets
G1 X-145 Y-75 Z30 F9000 ; move to wait position off table
G130 X20 Y20 Z20 A20 B20 ; lower stepper Vrefs while heating
M127
M140 S60 T0
M134 T0 ; stabilize bed temperature
M104 S230 T0
M133 T0 ; stabilize extruder temperature
G130 X127 Y127 Z40 A127 B127 ; default stepper Vrefs
G92 A0 ; zero extruder
G1 Z0.4 ; position nozzle
G1 E25 F300 ; purge nozzle
G1 X-140 Y-70 Z0.15 F1200 ; slow wipe
G1 X-135 Y-65 Z0.5 F1200 ; lift
G92 A0 ; zero extruder
M73 P1 ;@body (notify GPX body has started)
; **** end of start.gcode ****
; process Process1
; layer 1, Z = 0.200
M135 T0
G1 E-1.9000 F1200
; feature inner perimeter
; tool H0.200 W0.460
G1 Z0.500 F1200
G1 X3.190 Y10.560 F9000
G1 Z0.200 F1200
G1 E1.9000 F1200
G1 X3.190 Y9.440 E0.0428 F1800
G1 X23.190 Y9.440 E0.7650
G1 X23.190 Y-10.560 E0.7650
G1 X24.310 Y-10.560 E0.0428
G1 X24.310 Y10.560 E0.8078
G1 X3.190 Y10.560 E0.8078
; feature outer perimeter
G1 X2.730 Y11.020 F9000
G1 X2.730 Y8.980 E0.0780 F1200
G1 X22.730 Y8.980 E0.7650
G1 X22.730 Y-11.020 E0.7650
G1 X24.770 Y-11.020 E0.0780
G1 X24.770 Y11.020 E0.8430
G1 X2.730 Y11.020 E0.8430
; feature solid layer
G1 X3.710 Y10.215 F9000
G1 X3.535 Y10.040 E0.0094 F2400
G1 X3.535 Y9.785 E0.0098
G1 X3.930 Y9.785 E0.0151
G1 X4.360 Y10.215 E0.0233
G1 X5.011 Y10.215 E0.0249
G1 X4.581 Y9.785 E0.0233
G1 X5.231 Y9.785 E0.0249
G1 X5.661 Y10.215 E0.0233
G1 X6.312 Y10.215 E0.0249
G1 X5.882 Y9.785 E0.0233
G1 X6.532 Y9.785 E0.0249
G1 X6.962 Y10.215 E0.0233
G1 X7.613 Y10.215 E0.0249
G1 X7.183 Y9.785 E0.0233
G1 X7.833 Y9.785 E0.0249
G1 X8.263 Y10.215 E0.0233
G1 X8.914 Y10.215 E0.0249
G1 X8.484 Y9.785 E0.0233
G1 X9.134 Y9.785 E0.0249
G1 X9.564 Y10.215 E0.0233
G1 X10.215 Y10.215 E0.0249
G1 X9.785 Y9.785 E0.0233
G1 X10.436 Y9.785 E0.0249
G1 X10.866 Y10.215 E0.0233
G1 X11.516 Y10.215 E0.0249
G1 X11.086 Y9.785 E0.0233
G1 X11.737 Y9.785 E0.0249
G1 X12.167 Y10.215 E0.0233
G1 X12.817 Y10.215 E0.0249
G1 X12.387 Y9.785 E0.0233
G1 X13.038 Y9.785 E0.0249
G1 X13.468 Y10.215 E0.0233
G1 X14.118 Y10.215 E0.0249
G1 X13.688 Y9.785 E0.0233
G1 X14.339 Y9.785 E0.0249
G1 X14.769 Y10.215 E0.0233
G1 X15.419 Y10.215 E0.0249
G1 X14.989 Y9.785 E0.0233
G1 X15.640 Y9.785 E0.0249
G1 X16.070 Y10.215 E0.0233
G1 X16.720 Y10.215 E0.0249
G1 X16.290 Y9.785 E0.0233
G1 X16.941 Y9.785 E0.0249
G1 X17.371 Y10.215 E0.0233
G1 X18.021 Y10.215 E0.0249
G1 X17.591 Y9.785 E0.0233
G1 X18.242 Y9.785 E0.0249
G1 X18.672 Y10.215 E0.0233
G1 X19.322 Y10.215 E0.0249
G1 X18.892 Y9.785 E0.0233
G1 X19.543 Y9.785 E0.0249
G1 X19.973 Y10.215 E0.0233
G1 X20.624 Y10.215 E0.0249
G1 X20.194 Y9.785 E0.0233
G1 X20.844 Y9.785 E0.0249
G1 X21.274 Y10.215 E0.0233
G1 X21.925 Y10.215 E0.0249
G1 X21.495 Y9.785 E0.0233
G1 X22.145 Y9.785 E0.0249
G1 X22.575 Y10.215 E0.0233
G1 X23.226 Y10.215 E0.0249
G1 X22.796 Y9.785 E0.0233
G1 X23.446 Y9.785 E0.0249
G1 X23.876 Y10.215 E0.0233
G1 X23.965 Y10.215 E0.0034
G1 X23.965 Y9.653 E0.0215
G1 X23.535 Y9.223 E0.0232
G1 X23.535 Y8.573 E0.0249
G1 X23.965 Y9.002 E0.0232
G1 X23.965 Y8.352 E0.0249
G1 X23.535 Y7.922 E0.0232
G1 X23.535 Y7.272 E0.0249
G1 X23.965 Y7.701 E0.0232
G1 X23.965 Y7.051 E0.0249
G1 X23.535 Y6.621 E0.0232
G1 X23.535 Y5.971 E0.0249
G1 X23.965 Y6.400 E0.0232
G1 X23.965 Y5.750 E0.0249
G1 X23.535 Y5.320 E0.0232
G1 X23.535 Y4.669 E0.0249
G1 X23.965 Y5.099 E0.0232
G1 X23.965 Y4.449 E0.0249
G1 X23.535 Y4.019 E0.0232
G1 X23.535 Y3.368 E0.0249
G1 X23.965 Y3.798 E0.0232
G1 X23.965 Y3.147 E0.0249
G1 X23.535 Y2.718 E0.0232
G1 X23.535 Y2.067 E0.0249
G1 X23.965 Y2.497 E0.0232
G1 X23.965 Y1.846 E0.0249
G1 X23.535 Y1.417 E0.0232
G1 X23.535 Y0.766 E0.0249
G1 X23.965 Y1.196 E0.0232
G1 X23.965 Y0.545 E0.0249
G1 X23.535 Y0.116 E0.0232
G1 X23.535 Y-0.535 E0.0249
G1 X23.965 Y-0.105 E0.0232
G1 X23.965 Y-0.756 E0.0249
G1 X23.535 Y-1.185 E0.0232
G1 X23.535 Y-1.836 E0.0249
G1 X23.965 Y-1.406 E0.0232
G1 X23.965 Y-2.057 E0.0249
G1 X23.535 Y-2.486 E0.0232
G1 X23.535 Y-3.137 E0.0249
G1 X23.965 Y-2.707 E0.0232
G1 X23.965 Y-3.358 E0.0249
G1 X23.535 Y-3.787 E0.0232
G1 X23.535 Y-4.438 E0.0249
G1 X23.965 Y-4.008 E0.0232
G1 X23.965 Y-4.659 E0.0249
G1 X23.535 Y-5.089 E0.0232
G1 X23.535 Y-5.739 E0.0249
G1 X23.965 Y-5.310 E0.0232
G1 X23.965 Y-5.960 E0.0249
G1 X23.535 Y-6.390 E0.0232
G1 X23.535 Y-7.040 E0.0249
G1 X23.965 Y-6.611 E0.0232
G1 X23.965 Y-7.261 E0.0249
G1 X23.535 Y-7.691 E0.0232
G1 X23.535 Y-8.341 E0.0249
G1 X23.965 Y-7.912 E0.0232
G1 X23.965 Y-8.562 E0.0249
G1 X23.535 Y-8.992 E0.0232
G1 X23.535 Y-9.642 E0.0249
G1 X23.965 Y-9.213 E0.0232
G1 X23.965 Y-9.863 E0.0249
G1 X23.613 Y-10.215 E0.0190
G1 E-1.9000 F1200
; feature inner perimeter
G1 Z0.700 F1200
G1 X3.190 Y-16.940 F9000
G1 Z0.200 F1200
G1 E1.9000 F1200
G1 X3.190 Y-18.060 E0.0428 F1800
G1 X23.190 Y-18.060 E0.7650
G1 X23.190 Y-38.060 E0.7650
G1 X24.310 Y-38.060 E0.0428
G1 X24.310 Y-16.940 E0.8078
G1 X3.190 Y-16.940 E0.8078
; feature outer perimeter
G1 X2.730 Y-16.480 F9000
G1 X2.730 Y-18.520 E0.0780 F1200
G1 X22.730 Y-18.520 E0.7650
G1 X22.730 Y-38.520 E0.7650
G1 X24.770 Y-38.520 E0.0780
G1 X24.770 Y-16.480 E0.8430
G1 X2.730 Y-16.480 E0.8430
; feature solid layer
G1 X3.753 Y-17.715 F9000
G1 X4.183 Y-17.285 E0.0233 F2400
G1 X4.833 Y-17.285 E0.0249
G1 X4.403 Y-17.715 E0.0233
G1 X5.054 Y-17.715 E0.0249
G1 X5.484 Y-17.285 E0.0233
G1 X6.134 Y-17.285 E0.0249
G1 X5.704 Y-17.715 E0.0233
G1 X6.355 Y-17.715 E0.0249
G1 X6.785 Y-17.285 E0.0233
G1 X7.436 Y-17.285 E0.0249
G1 X7.006 Y-17.715 E0.0233
G1 X7.656 Y-17.715 E0.0249
G1 X8.086 Y-17.285 E0.0233
G1 X8.737 Y-17.285 E0.0249
G1 X8.307 Y-17.715 E0.0233
G1 X8.957 Y-17.715 E0.0249
G1 X9.387 Y-17.285 E0.0233
G1 X10.038 Y-17.285 E0.0249
G1 X9.608 Y-17.715 E0.0233
G1 X10.258 Y-17.715 E0.0249
G1 X10.688 Y-17.285 E0.0233
G1 X11.339 Y-17.285 E0.0249
G1 X10.909 Y-17.715 E0.0233
G1 X11.559 Y-17.715 E0.0249
G1 X11.989 Y-17.285 E0.0233
G1 X12.640 Y-17.285 E0.0249
G1 X12.210 Y-17.715 E0.0233
G1 X12.860 Y-17.715 E0.0249
G1 X13.290 Y-17.285 E0.0233
G1 X13.941 Y-17.285 E0.0249
G1 X13.511 Y-17.715 E0.0233
G1 X14.161 Y-17.715 E0.0249
G1 X14.591 Y-17.285 E0.0233
G1 X15.242 Y-17.285 E0.0249
G1 X14.812 Y-17.715 E0.0233
G1 X15.463 Y-17.715 E0.0249
G1 X15.893 Y-17.285 E0.0233
G1 X16.543 Y-17.285 E0.0249
G1 X16.113 Y-17.715 E0.0233
G1 X16.764 Y-17.715 E0.0249
G1 X17.194 Y-17.285 E0.0233
G1 X17.844 Y-17.285 E0.0249
G1 X17.414 Y-17.715 E0.0233
G1 X18.065 Y-17.715 E0.0249
G1 X18.495 Y-17.285 E0.0233
G1 X19.145 Y-17.285 E0.0249
G1 X18.715 Y-17.715 E0.0233
G1 X19.366 Y-17.715 E0.0249
G1 X19.796 Y-17.285 E0.0233
G1 X20.446 Y-17.285 E0.0249
G1 X20.016 Y-17.715 E0.0233
G1 X20.667 Y-17.715 E0.0249
G1 X21.097 Y-17.285 E0.0233
G1 X21.747 Y-17.285 E0.0249
G1 X21.317 Y-17.715 E0.0233
G1 X21.968 Y-17.715 E0.0249
G1 X22.398 Y-17.285 E0.0233
G1 X23.048 Y-17.285 E0.0249
G1 X22.618 Y-17.715 E0.0233
G1 X23.269 Y-17.715 E0.0249
G1 X23.699 Y-17.285 E0.0233
G1 X23.965 Y-17.285 E0.0102
G1 X23.965 Y-17.670 E0.0147
G1 X23.535 Y-18.099 E0.0232
G1 X23.535 Y-18.750 E0.0249
G1 X23.965 Y-18.320 E0.0232
G1 X23.965 Y-18.971 E0.0249
G1 X23.535 Y-19.400 E0.0232
G1 X23.535 Y-20.051 E0.0249
G1 X23.965 Y-19.621 E0.0232
G1 X23.965 Y-20.272 E0.0249
G1 X23.535 Y-20.701 E0.0232
G1 X23.535 Y-21.352 E0.0249
G1 X23.965 Y-20.922 E0.0232
G1 X23.965 Y-21.573 E0.0249
G1 X23.535 Y-22.003 E0.0232
G1 X23.535 Y-22.653 E0.0249
G1 X23.965 Y-22.224 E0.0232
G1 X23.965 Y-22.874 E0.0249
G1 X23.535 Y-23.304 E0.0232
G1 X23.535 Y-23.954 E0.0249
G1 X23.965 Y-23.525 E0.0232
G1 X23.965 Y-24.175 E0.0249
G1 X23.535 Y-24.605 E0.0232
G1 X23.535 Y-25.255 E0.0249
G1 X23.965 Y-24.826 E0.0232
G1 X23.965 Y-25.476 E0.0249
G1 X23.535 Y-25.906 E0.0232
G1 X23.535 Y-26.556 E0.0249
G1 X23.965 Y-26.127 E0.0232
G1 X23.965 Y-26.777 E0.0249
G1 X23.535 Y-27.207 E0.0232
G1 X23.535 Y-27.857 E0.0249
G1 X23.965 Y-27.428 E0.0232
G1 X23.965 Y-28.078 E0.0249
G1 X23.535 Y-28.508 E0.0232
G1 X23.535 Y-29.158 E0.0249
G1 X23.965 Y-28.729 E0.0232
G1 X23.965 Y-29.379 E0.0249
G1 X23.535 Y-29.809 E0.0232
G1 X23.535 Y-30.460 E0.0249
G1 X23.965 Y-30.030 E0.0232
G1 X23.965 Y-30.681 E0.0249
G1 X23.535 Y-31.110 E0.0232
G1 X23.535 Y-31.761 E0.0249
G1 X23.965 Y-31.331 E0.0232
G1 X23.965 Y-31.982 E0.0249
G1 X23.535 Y-32.411 E0.0232
G1 X23.535 Y-33.062 E0.0249
G1 X23.965 Y-32.632 E0.0232
G1 X23.965 Y-33.283 E0.0249
G1 X23.535 Y-33.712 E0.0232
G1 X23.535 Y-34.363 E0.0249
G1 X23.965 Y-33.933 E0.0232
G1 X23.965 Y-34.584 E0.0249
G1 X23.535 Y-35.013 E0.0232
G1 X23.535 Y-35.664 E0.0249
G1 X23.965 Y-35.234 E0.0232
G1 X23.965 Y-35.885 E0.0249
G1 X23.535 Y-36.314 E0.0232
G1 X23.535 Y-36.965 E0.0249
G1 X23.965 Y-36.535 E0.0232
G1 X23.965 Y-37.186 E0.0249
G1 X23.535 Y-37.615 E0.0232
G1 E-1.9000 F1200
; feature inner perimeter
G1 Z0.700 F1200
G1 X30.690 Y-16.940 F9000
G1 Z0.200 F1200
G1 E1.9000 F1200
G1 X30.690 Y-18.060 E0.0428 F1800
G1 X50.690 Y-18.060 E0.7650
G1 X50.690 Y-38.060 E0.7650
G1 X51.809 Y-38.060 E0.0428
G1 X51.809 Y-16.940 E0.8078
G1 X30.690 Y-16.940 E0.8078
; feature outer perimeter
G1 X30.230 Y-16.480 F9000
G1 X30.230 Y-18.520 E0.0780 F1200
