; G-Code generated by Simplify3D(R) Version 4.1.2
; Apr 2, 2020 at 4:12:25 PM
; Settings Summary
;   processName,Process1
;   applyToModels,Conveter bracket
;   profileName,MakerBot Replicator 2 HBP (modified)
;   profileVersion,2020-03-12 10:48:50
;   baseProfile,MakerBot Replicator 2(2)
;   printMaterial,PLA
;   printQuality,Medium
;   printExtruders,
;   extruderName,Primary Extruder
;   extruderToolheadNumber,0
;   extruderDiameter,0.4
;   extruderAutoWidth,0
;   extruderWidth,0.4
;   extrusionMultiplier,1
;   extruderUseRetract,1
;   extruderRetractionDistance,1.9
;   extruderExtraRestartDistance,0
;   extruderRetractionZLift,0.5
;   extruderRetractionSpeed,1200
;   extruderUseCoasting,0
;   extruderCoastingDistance,0.2
;   extruderUseWipe,0
;   extruderWipeDistance,5
;   primaryExtruder,0
;   layerHeight,0.2
;   topSolidLayers,3
;   bottomSolidLayers,3
;   perimeterOutlines,2
;   printPerimetersInsideOut,1
;   startPointOption,3
;   startPointOriginX,0
;   startPointOriginY,150
;   sequentialIslands,0
;   spiralVaseMode,0
;   firstLayerHeightPercentage,100
;   firstLayerWidthPercentage,115
;   firstLayerUnderspeed,0.5
;   useRaft,0
;   raftExtruder,0
;   raftTopLayers,2
;   raftBaseLayers,1
;   raftOffset,1
;   raftSeparationDistance,0.14
;   raftTopInfill,90
;   aboveRaftSpeedMultiplier,0.3
;   useSkirt,0
;   skirtExtruder,0
;   skirtLayers,1
;   skirtOutlines,5
;   skirtOffset,0
;   usePrimePillar,0
;   primePillarExtruder,999
;   primePillarWidth,12
;   primePillarLocation,7
;   primePillarSpeedMultiplier,1
;   useOozeShield,0
;   oozeShieldExtruder,999
;   oozeShieldOffset,2
;   oozeShieldOutlines,1
;   oozeShieldSidewallShape,1
;   oozeShieldSidewallAngle,30
;   oozeShieldSpeedMultiplier,1
;   infillExtruder,0
;   internalInfillPattern,Rectilinear
;   externalInfillPattern,Rectilinear
;   infillPercentage,15
;   outlineOverlapPercentage,25
;   infillExtrusionWidthPercentage,100
;   minInfillLength,5
;   infillLayerInterval,1
;   internalInfillAngles,45,-45
;   overlapInternalInfillAngles,0
;   externalInfillAngles,45,-45
;   generateSupport,1
;   supportExtruder,0
;   supportInfillPercentage,30
;   supportExtraInflation,0.5
;   supportBaseLayers,0
;   denseSupportExtruder,0
;   denseSupportLayers,2
;   denseSupportInfillPercentage,90
;   supportLayerInterval,1
;   supportHorizontalPartOffset,0.3
;   supportUpperSeparationLayers,1
;   supportLowerSeparationLayers,1
;   supportType,1
;   supportGridSpacing,2
;   maxOverhangAngle,45
;   supportAngles,45,-45
;   temperatureName,Primary Extruder,Heated Build Platform
;   temperatureNumber,0,0
;   temperatureSetpointCount,1,1
;   temperatureSetpointLayers,1,1
;   temperatureSetpointTemperatures,230,60
;   temperatureStabilizeAtStartup,1,1
;   temperatureHeatedBed,0,1
;   fanLayers,1,2
;   fanSpeeds,0,100
;   blipFanToFullPower,1
;   adjustSpeedForCooling,1
;   minSpeedLayerTime,15
;   minCoolingSpeedSlowdown,20
;   increaseFanForCooling,1
;   minFanLayerTime,45
;   maxCoolingFanSpeed,100
;   increaseFanForBridging,1
;   bridgingFanSpeed,100
;   use5D,1
;   relativeEdistances,1
;   allowEaxisZeroing,0
;   independentExtruderAxes,1
;   includeM10123,0
;   stickySupport,1
;   applyToolheadOffsets,0
;   gcodeXoffset,0
;   gcodeYoffset,0
;   gcodeZoffset,0
;   overrideMachineDefinition,1
;   machineTypeOverride,0
;   strokeXoverride,280
;   strokeYoverride,150
;   strokeZoverride,150
;   originOffsetXoverride,140
;   originOffsetYoverride,75
;   originOffsetZoverride,0
;   homeXdirOverride,1
;   homeYdirOverride,1
;   homeZdirOverride,-1
;   flipXoverride,1
;   flipYoverride,-1
;   flipZoverride,1
;   toolheadOffsets,0,0|0,0|0,0|0,0|0,0|0,0
;   overrideFirmwareConfiguration,1
;   firmwareTypeOverride,MakerBot/Sailfish Firmware
;   GPXconfigOverride,r2h
;   baudRateOverride,115200
;   overridePrinterModels,1
;   printerModelsOverride,MakerBot_Replicator2.stl
;   startingGcode,; **** Replicator 2 start.gcode ****,M73 P0 ; enable build progress,G162 X Y F3000 ; home XY maximum,G161 Z F1200 ; home Z minimum,G92 Z-5 ; set Z to -5,G1 Z0 ; move Z to 0,G161 Z F100 ; home Z slowly,M132 X Y Z A B ; recall home offsets,G1 X-145 Y-75 Z30 F9000 ; move to wait position off table,G130 X20 Y20 Z20 A20 B20 ; lower stepper Vrefs while heating,M126 S[fan_speed_pwm],M140 S[bed0_temperature] T0,M134 T0 ; stabilize bed temperature,M104 S[extruder0_temperature] T0,M133 T0 ; stabilize extruder temperature,G130 X127 Y127 Z40 A127 B127 ; default stepper Vrefs,G92 A0 ; zero extruder,G1 Z0.4 ; position nozzle,G1 E25 F300 ; purge nozzle,G1 X-140 Y-70 Z0.15 F1200 ; slow wipe,G1 X-135 Y-65 Z0.5 F1200 ; lift,G92 A0 ; zero extruder,M73 P1 ;@body (notify GPX body has started),; **** end of start.gcode ****
;   layerChangeGcode,
;   retractionGcode,
;   toolChangeGcode,
;   endingGcode,; **** Replicator 2 end.gcode ****,M73 P100 ; end build progress,G1 Z155 F1000 ; send Z axis to bottom of machine,M104 S0 T0 ; cool down extruder,M140 S0 T0 ; cool down HBP,M127 ; stop blower fan,G162 X Y F3000 ; home XY maximum,M18 ; disable stepper,M0 ; stop codes,M72 P1 ; play Ta-Da song,; **** end of end.gcode ****
;   exportFileFormat,gcode
;   celebration,0
;   celebrationSong,Random Song
;   postProcessing,
;   defaultSpeed,4800
;   outlineUnderspeed,0.5
;   solidInfillUnderspeed,1
;   supportUnderspeed,1
;   rapidXYspeed,9000
;   rapidZspeed,1200
;   minBridgingArea,50
;   bridgingExtraInflation,0
;   bridgingExtrusionMultiplier,1
;   bridgingSpeedMultiplier,0.8
;   useFixedBridgingAngle,0
;   fixedBridgingAngle,0
;   applyBridgingToPerimeters,0
;   filamentDiameters,1.75|1.75|1.75|1.75|1.75|1.75
;   filamentPricesPerKg,46|46|46|46|46|46
;   filamentDensities,1.25|1.25|1.25|1.25|1.25|1.25
;   useMinPrintHeight,0
;   minPrintHeight,0
;   useMaxPrintHeight,0
;   maxPrintHeight,4.84
;   useDiaphragm,0
;   diaphragmLayerInterval,20
;   robustSlicing,1
;   mergeAllIntoSolid,0
;   onlyRetractWhenCrossingOutline,0
;   retractBetweenLayers,0
;   useRetractionMinTravel,1
;   retractionMinTravel,7
;   retractWhileWiping,1
;   onlyWipeOutlines,1
;   avoidCrossingOutline,0
;   maxMovementDetourFactor,3
;   toolChangeRetractionDistance,12
;   toolChangeExtraRestartDistance,-0.5
;   toolChangeRetractionSpeed,600
;   externalThinWallType,0
;   internalThinWallType,0
;   thinWallAllowedOverlapPercentage,10
;   singleExtrusionMinLength,1
;   singleExtrusionMinPrintingWidthPercentage,50
;   singleExtrusionMaxPrintingWidthPercentage,200
;   singleExtrusionEndpointExtension,0.2
;   horizontalSizeCompensation,0
G90
M83
; **** Replicator 2 start.gcode ****
M73 P0 ; enable build progress
G162 X Y F3000 ; home XY maximum
G161 Z F1200 ; home Z minimum
G92 Z-5 ; set Z to -5
G1 Z0 ; move Z to 0
G161 Z F100 ; home Z slowly
M132 X Y Z A B ; recall home offsets
G1 X-145 Y-75 Z30 F9000 ; move to wait position off table
G130 X20 Y20 Z20 A20 B20 ; lower stepper Vrefs while heating
M127
M140 S60 T0
M134 T0 ; stabilize bed temperature
M104 S230 T0
M133 T0 ; stabilize extruder temperature
G130 X127 Y127 Z40 A127 B127 ; default stepper Vrefs
G92 A0 ; zero extruder
G1 Z0.4 ; position nozzle
G1 E25 F300 ; purge nozzle
G1 X-140 Y-70 Z0.15 F1200 ; slow wipe
G1 X-135 Y-65 Z0.5 F1200 ; lift
G92 A0 ; zero extruder
M73 P1 ;@body (notify GPX body has started)
; **** end of start.gcode ****
; process Process1
; layer 1, Z = 0.200
M135 T0
G1 E-1.9000 F1200
; feature inner perimeter
; tool H0.200 W0.460
G1 Z0.500 F1200
G1 X7.299 Y53.934 F9000
G1 Z0.200 F1200
G1 E1.9000 F1200
G1 X-7.433 Y53.934 E0.5635 F1800
G1 X-7.433 Y28.896 E0.9577
G1 X-15.493 Y28.896 E0.3083
G1 X-15.493 Y-53.934 E3.1682
G1 X15.493 Y-53.934 E1.1852
G1 X15.493 Y28.896 E3.1682
G1 X7.299 Y28.896 E0.3134
G1 X7.299 Y53.934 E0.9577
; feature outer perimeter
G1 X7.759 Y54.394 F9000
G1 X-7.893 Y54.394 E0.5987 F1200
G1 X-7.893 Y29.357 E0.9577
G1 X-15.953 Y29.357 E0.3083
G1 X-15.953 Y-54.394 E3.2034
G1 X15.953 Y-54.394 E1.2204
G1 X15.953 Y29.357 E3.2034
G1 X7.759 Y29.357 E0.3134
G1 X7.759 Y54.394 E0.9577
G1 E-1.9000 F1200
; feature inner perimeter
G1 Z0.700 F1200
G1 X2.340 Y49.501 F9000
G1 Z0.200 F1200
G1 E1.9000 F1200
G1 X2.759 Y48.990 E0.0253 F1800
G1 X3.071 Y48.407 E0.0253
G1 X3.263 Y47.775 E0.0253
G1 X3.327 Y47.117 E0.0253
G1 X3.263 Y46.459 E0.0253
G1 X3.071 Y45.827 E0.0253
G1 X2.759 Y45.244 E0.0253
G1 X2.340 Y44.733 E0.0253
G1 X1.829 Y44.314 E0.0253
G1 X1.246 Y44.002 E0.0253
G1 X0.614 Y43.811 E0.0253
G1 X-0.044 Y43.746 E0.0253
G1 X-0.702 Y43.811 E0.0253
G1 X-1.334 Y44.002 E0.0253
G1 X-1.917 Y44.314 E0.0253
G1 X-2.428 Y44.733 E0.0253
G1 X-2.847 Y45.244 E0.0253
G1 X-3.158 Y45.827 E0.0253
G1 X-3.350 Y46.459 E0.0253
G1 X-3.415 Y47.117 E0.0253
G1 X-3.350 Y47.775 E0.0253
G1 X-3.158 Y48.407 E0.0253
G1 X-2.847 Y48.990 E0.0253
G1 X-2.428 Y49.501 E0.0253
G1 X-1.917 Y49.920 E0.0253
G1 X-1.334 Y50.232 E0.0253
G1 X-0.702 Y50.423 E0.0253
G1 X-0.044 Y50.488 E0.0253
G1 X0.614 Y50.423 E0.0253
G1 X1.246 Y50.232 E0.0253
G1 X1.829 Y49.920 E0.0253
G1 X2.340 Y49.501 E0.0253
; feature outer perimeter
G1 X2.013 Y49.174 F9000
G1 X2.375 Y48.733 E0.0218 F1200
G1 X2.644 Y48.230 E0.0218
G1 X2.809 Y47.684 E0.0218
G1 X2.865 Y47.117 E0.0218
G1 X2.809 Y46.549 E0.0218
G1 X2.644 Y46.004 E0.0218
G1 X2.375 Y45.501 E0.0218
G1 X2.013 Y45.060 E0.0218
G1 X1.572 Y44.698 E0.0218
G1 X1.069 Y44.429 E0.0218
G1 X0.524 Y44.264 E0.0218
G1 X-0.044 Y44.208 E0.0218
G1 X-0.611 Y44.264 E0.0218
G1 X-1.157 Y44.429 E0.0218
G1 X-1.660 Y44.698 E0.0218
G1 X-2.101 Y45.060 E0.0218
G1 X-2.463 Y45.501 E0.0218
G1 X-2.731 Y46.004 E0.0218
G1 X-2.897 Y46.549 E0.0218
G1 X-2.953 Y47.117 E0.0218
G1 X-2.897 Y47.684 E0.0218
G1 X-2.731 Y48.230 E0.0218
G1 X-2.463 Y48.733 E0.0218
G1 X-2.101 Y49.174 E0.0218
G1 X-1.660 Y49.536 E0.0218
G1 X-1.157 Y49.804 E0.0218
G1 X-0.611 Y49.970 E0.0218
G1 X-0.044 Y50.026 E0.0218
G1 X0.524 Y49.970 E0.0218
G1 X1.069 Y49.804 E0.0218
G1 X1.572 Y49.536 E0.0218
G1 X2.013 Y49.174 E0.0218
G1 E-1.9000 F1200
; feature inner perimeter
G1 Z0.700 F1200
G1 X13.453 Y26.268 F9000
G1 Z0.200 F1200
G1 E1.9000 F1200
G1 X13.453 Y-51.426 E2.9717 F1800
G1 X-13.453 Y-51.426 E1.0291
G1 X-13.453 Y26.268 E2.9717
G1 X13.453 Y26.268 E1.0291
; feature outer perimeter
G1 X12.993 Y25.808 F9000
G1 X12.993 Y-50.966 E2.9365 F1200
G1 X-12.993 Y-50.966 E0.9939
G1 X-12.993 Y25.808 E2.9365
G1 X12.993 Y25.808 E0.9939
G1 E-1.9000 F1200
; feature solid layer
G1 Z0.700 F1200
G1 X-7.088 Y28.692 F9000
G1 Z0.200 F1200
G1 E1.9000 F1200
G1 X6.954 Y42.733 E0.7595 F2400
G1 X6.954 Y43.384 E0.0249
G1 X-7.088 Y29.343 E0.7595
G1 X-7.088 Y29.993 E0.0249
G1 X6.954 Y44.035 E0.7595
G1 X6.954 Y44.685 E0.0249
G1 X-7.088 Y30.644 E0.7595
G1 X-7.088 Y31.294 E0.0249
G1 X6.954 Y45.336 E0.7595
G1 X6.954 Y45.986 E0.0249
G1 X-7.088 Y31.945 E0.7595
G1 X-7.088 Y32.595 E0.0249
G1 X6.954 Y46.637 E0.7595
G1 X6.954 Y47.287 E0.0249
G1 X-7.088 Y33.246 E0.7595
G1 X-7.088 Y33.896 E0.0249
G1 X6.954 Y47.938 E0.7595
G1 X6.954 Y48.588 E0.0249
G1 X-7.088 Y34.547 E0.7595
G1 X-7.088 Y35.197 E0.0249
G1 X1.418 Y43.703 E0.4601
G1 X1.379 Y43.682 E0.0017
G1 X0.681 Y43.471 E0.0279
G1 X0.519 Y43.455 E0.0062
G1 X-7.088 Y35.848 E0.4115
G1 X-7.088 Y36.499 E0.0249
G1 X-0.174 Y43.412 E0.3740
G1 X-0.766 Y43.470 E0.0228
G1 X-7.088 Y37.149 E0.3419
G1 X-7.088 Y37.800 E0.0249
G1 X-1.266 Y43.621 E0.3149
G1 X-1.467 Y43.682 E0.0080
G1 X-1.720 Y43.818 E0.0110
G1 X-7.088 Y38.450 E0.2903
G1 X-7.088 Y39.101 E0.0249
G1 X-2.139 Y44.050 E0.2677
G1 X-2.496 Y44.343 E0.0177
G1 X-7.088 Y39.751 E0.2484
G1 X-7.088 Y40.402 E0.0249
G1 X-2.821 Y44.668 E0.2308
G1 X-3.114 Y45.026 E0.0177
G1 X-7.088 Y41.052 E0.2149
G1 X-7.088 Y41.703 E0.0249
G1 X-3.345 Y45.445 E0.2024
G1 X-3.479 Y45.694 E0.0108
G1 X-3.541 Y45.900 E0.0082
G1 X-7.088 Y42.353 E0.1918
G1 X-7.088 Y43.004 E0.0249
G1 X-3.691 Y46.400 E0.1837
G1 X-3.749 Y46.992 E0.0228
G1 X-7.088 Y43.654 E0.1806
G1 X-7.088 Y44.305 E0.0249
G1 X-3.706 Y47.687 E0.1829
G1 X-3.690 Y47.842 E0.0060
G1 X-3.479 Y48.540 E0.0279
G1 X-3.451 Y48.593 E0.0023
G1 X-7.088 Y44.956 E0.1967
G1 X-7.088 Y45.606 E0.0249
G1 X0.896 Y53.589 E0.4318
G1 X0.245 Y53.589 E0.0249
G1 X-7.088 Y46.257 E0.3966
G1 X-7.088 Y46.907 E0.0249
G1 X-0.405 Y53.589 E0.3615
G1 X-1.056 Y53.589 E0.0249
G1 X-7.088 Y47.558 E0.3263
G1 X-7.088 Y48.208 E0.0249
G1 X-1.706 Y53.589 E0.2911
G1 X-2.357 Y53.589 E0.0249
G1 X-7.088 Y48.859 E0.2559
G1 X-7.088 Y49.509 E0.0249
G1 X-3.007 Y53.589 E0.2207
G1 X-3.658 Y53.589 E0.0249
G1 X-7.088 Y50.160 E0.1855
G1 X-7.088 Y50.810 E0.0249
G1 X-4.309 Y53.589 E0.1503
G1 X-4.959 Y53.589 E0.0249
G1 X-7.088 Y51.461 E0.1151
G1 X-7.088 Y52.111 E0.0249
G1 X-5.610 Y53.589 E0.0799
G1 X-6.260 Y53.589 E0.0249
G1 X-7.088 Y52.762 E0.0448
G1 X-7.088 Y53.413 E0.0249
G1 X-6.911 Y53.589 E0.0096
G1 X-1.519 Y50.524 F9000
G1 X1.546 Y53.589 E0.1658 F2400
G1 X2.197 Y53.589 E0.0249
G1 X-0.614 Y50.779 E0.1520
G1 X-0.044 Y50.835 E0.0219
G1 X0.081 Y50.823 E0.0048
G1 X2.847 Y53.589 E0.1497
G1 X3.498 Y53.589 E0.0249
G1 X0.673 Y50.764 E0.1528
G1 X0.681 Y50.763 E0.0003
G1 X1.173 Y50.614 E0.0197
G1 X4.148 Y53.589 E0.1609
G1 X4.799 Y53.589 E0.0249
G1 X1.628 Y50.419 E0.1715
G1 X2.022 Y50.208 E0.0171
G1 X2.047 Y50.187 E0.0013
G1 X5.450 Y53.589 E0.1840
G1 X6.100 Y53.589 E0.0249
G1 X2.405 Y49.894 E0.1999
G1 X2.585 Y49.746 E0.0089
G1 X2.730 Y49.569 E0.0088
G1 X6.751 Y53.589 E0.2175
G1 X6.954 Y53.589 E0.0078
G1 X6.954 Y53.142 E0.0171
G1 X3.023 Y49.212 E0.2126
G1 X3.047 Y49.182 E0.0014
G1 X3.256 Y48.793 E0.0169
G1 X6.954 Y52.492 E0.2001
G1 X6.954 Y51.841 E0.0249
G1 X3.452 Y48.339 E0.1894
G1 X3.603 Y47.842 E0.0199
G1 X6.954 Y51.190 E0.1814
G1 X6.954 Y50.540 E0.0249
G1 X3.661 Y47.247 E0.1781
G1 X3.674 Y47.117 E0.0050
G1 X3.619 Y46.554 E0.0216
G1 X6.954 Y49.889 E0.1804
G1 X6.954 Y49.239 E0.0249
G1 X3.370 Y45.655 E0.1939
G1 E-1.9000 F1200
G1 Z0.700 F1200
G1 X-15.035 Y28.552 F9000
G1 Z0.200 F1200
G1 E1.9000 F1200
G1 X-15.148 Y28.438 E0.0062 F2400
G1 X-15.148 Y27.787 E0.0249
G1 X-14.384 Y28.552 E0.0413
G1 X-13.733 Y28.552 E0.0249
G1 X-15.148 Y27.137 E0.0765
G1 X-15.148 Y26.486 E0.0249
G1 X-13.083 Y28.552 E0.1117
G1 X-12.432 Y28.552 E0.0249
G1 X-15.148 Y25.835 E0.1469
G1 X-15.148 Y25.185 E0.0249
G1 X-13.798 Y26.536 E0.0731
G1 X-13.798 Y25.885 E0.0249
G1 X-15.148 Y24.534 E0.0731
G1 X-15.148 Y23.884 E0.0249
G1 X-13.798 Y25.235 E0.0731
G1 X-13.798 Y24.584 E0.0249
G1 X-15.148 Y23.233 E0.0731
G1 X-15.148 Y22.583 E0.0249
G1 X-13.798 Y23.934 E0.0731
G1 X-13.798 Y23.283 E0.0249
G1 X-15.148 Y21.932 E0.0731
G1 X-15.148 Y21.282 E0.0249
G1 X-13.798 Y22.632 E0.0731
G1 X-13.798 Y21.982 E0.0249
G1 X-15.148 Y20.631 E0.0731
G1 X-15.148 Y19.981 E0.0249
G1 X-13.798 Y21.331 E0.0731
G1 X-13.798 Y20.681 E0.0249
G1 X-15.148 Y19.330 E0.0731
G1 X-15.148 Y18.680 E0.0249
G1 X-13.798 Y20.030 E0.0731
G1 X-13.798 Y19.380 E0.0249
G1 X-15.148 Y18.029 E0.0731
G1 X-15.148 Y17.378 E0.0249
G1 X-13.798 Y18.729 E0.0731
G1 X-13.798 Y18.079 E0.0249
G1 X-15.148 Y16.728 E0.0731
G1 X-15.148 Y16.077 E0.0249
G1 X-13.798 Y17.428 E0.0731
G1 X-13.798 Y16.778 E0.0249
G1 X-15.148 Y15.427 E0.0731
G1 X-15.148 Y14.776 E0.0249
G1 X-13.798 Y16.127 E0.0731
G1 X-13.798 Y15.477 E0.0249
G1 X-15.148 Y14.126 E0.0731
G1 X-15.148 Y13.475 E0.0249
G1 X-13.798 Y14.826 E0.0731
G1 X-13.798 Y14.175 E0.0249
G1 X-15.148 Y12.825 E0.0731
G1 X-15.148 Y12.174 E0.0249
G1 X-13.798 Y13.525 E0.0731
G1 X-13.798 Y12.874 E0.0249
G1 X-15.148 Y11.524 E0.0731
G1 X-15.148 Y10.873 E0.0249
G1 X-13.798 Y12.224 E0.0731
G1 X-13.798 Y11.573 E0.0249
G1 X-15.148 Y10.223 E0.0731
G1 X-15.148 Y9.572 E0.0249
G1 X-13.798 Y10.923 E0.0731
G1 X-13.798 Y10.272 E0.0249
G1 X-15.148 Y8.921 E0.0731
G1 X-15.148 Y8.271 E0.0249
G1 X-13.798 Y9.622 E0.0731
G1 X-13.798 Y8.971 E0.0249
G1 X-15.148 Y7.620 E0.0731
G1 X-15.148 Y6.970 E0.0249
G1 X-13.798 Y8.321 E0.0731
G1 X-13.798 Y7.670 E0.0249
G1 X-15.148 Y6.319 E0.0731
G1 X-15.148 Y5.669 E0.0249
G1 X-13.798 Y7.020 E0.0731
G1 X-13.798 Y6.369 E0.0249
G1 X-15.148 Y5.018 E0.0731
G1 X-15.148 Y4.368 E0.0249
G1 X-13.798 Y5.718 E0.0731
G1 X-13.798 Y5.068 E0.0249
G1 X-15.148 Y3.717 E0.0731
G1 X-15.148 Y3.067 E0.0249
G1 X-13.798 Y4.417 E0.0731
G1 X-13.798 Y3.767 E0.0249
G1 X-15.148 Y2.416 E0.0731
G1 X-15.148 Y1.766 E0.0249
