; G-Code generated by Simplify3D(R) Version 4.1.2
; Apr 2, 2020 at 4:14:13 PM
; Settings Summary
;   processName,Process1
;   applyToModels,Scoop BracketV1R2
;   profileName,MakerBot Replicator 2 HBP (modified)
;   profileVersion,2020-03-12 10:48:50
;   baseProfile,MakerBot Replicator 2(2)
;   printMaterial,PLA
;   printQuality,Medium
;   printExtruders,
;   extruderName,Primary Extruder
;   extruderToolheadNumber,0
;   extruderDiameter,0.4
;   extruderAutoWidth,0
;   extruderWidth,0.4
;   extrusionMultiplier,1
;   extruderUseRetract,1
;   extruderRetractionDistance,1.9
;   extruderExtraRestartDistance,0
;   extruderRetractionZLift,0.5
;   extruderRetractionSpeed,1200
;   extruderUseCoasting,0
;   extruderCoastingDistance,0.2
;   extruderUseWipe,0
;   extruderWipeDistance,5
;   primaryExtruder,0
;   layerHeight,0.2
;   topSolidLayers,3
;   bottomSolidLayers,3
;   perimeterOutlines,2
;   printPerimetersInsideOut,1
;   startPointOption,3
;   startPointOriginX,0
;   startPointOriginY,150
;   sequentialIslands,0
;   spiralVaseMode,0
;   firstLayerHeightPercentage,100
;   firstLayerWidthPercentage,115
;   firstLayerUnderspeed,0.5
;   useRaft,0
;   raftExtruder,0
;   raftTopLayers,2
;   raftBaseLayers,1
;   raftOffset,1
;   raftSeparationDistance,0.14
;   raftTopInfill,90
;   aboveRaftSpeedMultiplier,0.3
;   useSkirt,0
;   skirtExtruder,0
;   skirtLayers,1
;   skirtOutlines,5
;   skirtOffset,0
;   usePrimePillar,0
;   primePillarExtruder,999
;   primePillarWidth,12
;   primePillarLocation,7
;   primePillarSpeedMultiplier,1
;   useOozeShield,0
;   oozeShieldExtruder,999
;   oozeShieldOffset,2
;   oozeShieldOutlines,1
;   oozeShieldSidewallShape,1
;   oozeShieldSidewallAngle,30
;   oozeShieldSpeedMultiplier,1
;   infillExtruder,0
;   internalInfillPattern,Rectilinear
;   externalInfillPattern,Rectilinear
;   infillPercentage,15
;   outlineOverlapPercentage,25
;   infillExtrusionWidthPercentage,100
;   minInfillLength,5
;   infillLayerInterval,1
;   internalInfillAngles,45,-45
;   overlapInternalInfillAngles,0
;   externalInfillAngles,45,-45
;   generateSupport,1
;   supportExtruder,0
;   supportInfillPercentage,30
;   supportExtraInflation,0.5
;   supportBaseLayers,0
;   denseSupportExtruder,0
;   denseSupportLayers,2
;   denseSupportInfillPercentage,90
;   supportLayerInterval,1
;   supportHorizontalPartOffset,0.3
;   supportUpperSeparationLayers,1
;   supportLowerSeparationLayers,1
;   supportType,1
;   supportGridSpacing,2
;   maxOverhangAngle,45
;   supportAngles,45,-45
;   temperatureName,Primary Extruder,Heated Build Platform
;   temperatureNumber,0,0
;   temperatureSetpointCount,1,1
;   temperatureSetpointLayers,1,1
;   temperatureSetpointTemperatures,230,60
;   temperatureStabilizeAtStartup,1,1
;   temperatureHeatedBed,0,1
;   fanLayers,1,2
;   fanSpeeds,0,100
;   blipFanToFullPower,1
;   adjustSpeedForCooling,1
;   minSpeedLayerTime,15
;   minCoolingSpeedSlowdown,20
;   increaseFanForCooling,1
;   minFanLayerTime,45
;   maxCoolingFanSpeed,100
;   increaseFanForBridging,1
;   bridgingFanSpeed,100
;   use5D,1
;   relativeEdistances,1
;   allowEaxisZeroing,0
;   independentExtruderAxes,1
;   includeM10123,0
;   stickySupport,1
;   applyToolheadOffsets,0
;   gcodeXoffset,0
;   gcodeYoffset,0
;   gcodeZoffset,0
;   overrideMachineDefinition,1
;   machineTypeOverride,0
;   strokeXoverride,280
;   strokeYoverride,150
;   strokeZoverride,150
;   originOffsetXoverride,140
;   originOffsetYoverride,75
;   originOffsetZoverride,0
;   homeXdirOverride,1
;   homeYdirOverride,1
;   homeZdirOverride,-1
;   flipXoverride,1
;   flipYoverride,-1
;   flipZoverride,1
;   toolheadOffsets,0,0|0,0|0,0|0,0|0,0|0,0
;   overrideFirmwareConfiguration,1
;   firmwareTypeOverride,MakerBot/Sailfish Firmware
;   GPXconfigOverride,r2h
;   baudRateOverride,115200
;   overridePrinterModels,1
;   printerModelsOverride,MakerBot_Replicator2.stl
;   startingGcode,; **** Replicator 2 start.gcode ****,M73 P0 ; enable build progress,G162 X Y F3000 ; home XY maximum,G161 Z F1200 ; home Z minimum,G92 Z-5 ; set Z to -5,G1 Z0 ; move Z to 0,G161 Z F100 ; home Z slowly,M132 X Y Z A B ; recall home offsets,G1 X-145 Y-75 Z30 F9000 ; move to wait position off table,G130 X20 Y20 Z20 A20 B20 ; lower stepper Vrefs while heating,M126 S[fan_speed_pwm],M140 S[bed0_temperature] T0,M134 T0 ; stabilize bed temperature,M104 S[extruder0_temperature] T0,M133 T0 ; stabilize extruder temperature,G130 X127 Y127 Z40 A127 B127 ; default stepper Vrefs,G92 A0 ; zero extruder,G1 Z0.4 ; position nozzle,G1 E25 F300 ; purge nozzle,G1 X-140 Y-70 Z0.15 F1200 ; slow wipe,G1 X-135 Y-65 Z0.5 F1200 ; lift,G92 A0 ; zero extruder,M73 P1 ;@body (notify GPX body has started),; **** end of start.gcode ****
;   layerChangeGcode,
;   retractionGcode,
;   toolChangeGcode,
;   endingGcode,; **** Replicator 2 end.gcode ****,M73 P100 ; end build progress,G1 Z155 F1000 ; send Z axis to bottom of machine,M104 S0 T0 ; cool down extruder,M140 S0 T0 ; cool down HBP,M127 ; stop blower fan,G162 X Y F3000 ; home XY maximum,M18 ; disable stepper,M0 ; stop codes,M72 P1 ; play Ta-Da song,; **** end of end.gcode ****
;   exportFileFormat,gcode
;   celebration,0
;   celebrationSong,Random Song
;   postProcessing,
;   defaultSpeed,4800
;   outlineUnderspeed,0.5
;   solidInfillUnderspeed,1
;   supportUnderspeed,1
;   rapidXYspeed,9000
;   rapidZspeed,1200
;   minBridgingArea,50
;   bridgingExtraInflation,0
;   bridgingExtrusionMultiplier,1
;   bridgingSpeedMultiplier,0.8
;   useFixedBridgingAngle,0
;   fixedBridgingAngle,0
;   applyBridgingToPerimeters,0
;   filamentDiameters,1.75|1.75|1.75|1.75|1.75|1.75
;   filamentPricesPerKg,46|46|46|46|46|46
;   filamentDensities,1.25|1.25|1.25|1.25|1.25|1.25
;   useMinPrintHeight,0
;   minPrintHeight,0
;   useMaxPrintHeight,0
;   maxPrintHeight,4.84
;   useDiaphragm,0
;   diaphragmLayerInterval,20
;   robustSlicing,1
;   mergeAllIntoSolid,0
;   onlyRetractWhenCrossingOutline,0
;   retractBetweenLayers,0
;   useRetractionMinTravel,1
;   retractionMinTravel,7
;   retractWhileWiping,1
;   onlyWipeOutlines,1
;   avoidCrossingOutline,0
;   maxMovementDetourFactor,3
;   toolChangeRetractionDistance,12
;   toolChangeExtraRestartDistance,-0.5
;   toolChangeRetractionSpeed,600
;   externalThinWallType,0
;   internalThinWallType,0
;   thinWallAllowedOverlapPercentage,10
;   singleExtrusionMinLength,1
;   singleExtrusionMinPrintingWidthPercentage,50
;   singleExtrusionMaxPrintingWidthPercentage,200
;   singleExtrusionEndpointExtension,0.2
;   horizontalSizeCompensation,0
G90
M83
; **** Replicator 2 start.gcode ****
M73 P0 ; enable build progress
G162 X Y F3000 ; home XY maximum
G161 Z F1200 ; home Z minimum
G92 Z-5 ; set Z to -5
G1 Z0 ; move Z to 0
G161 Z F100 ; home Z slowly
M132 X Y Z A B ; recall home offsets
G1 X-145 Y-75 Z30 F9000 ; move to wait position off table
G130 X20 Y20 Z20 A20 B20 ; lower stepper Vrefs while heating
M126 S170
M140 S60 T0
M134 T0 ; stabilize bed temperature
M104 S230 T0
M133 T0 ; stabilize extruder temperature
G130 X127 Y127 Z40 A127 B127 ; default stepper Vrefs
G92 A0 ; zero extruder
G1 Z0.4 ; position nozzle
G1 E25 F300 ; purge nozzle
G1 X-140 Y-70 Z0.15 F1200 ; slow wipe
G1 X-135 Y-65 Z0.5 F1200 ; lift
G92 A0 ; zero extruder
M73 P1 ;@body (notify GPX body has started)
; **** end of start.gcode ****
; process Process1
; layer 1, Z = 0.200
M135 T0
G1 E-1.9000 F1200
; feature inner perimeter
; tool H0.200 W0.460
G1 Z0.500 F1200
G1 X-2.946 Y11.108 F9000
G1 Z0.200 F1200
G1 E1.9000 F1200
G1 X-3.402 Y11.036 E0.0177 F1798
G1 X-3.765 Y10.851 E0.0156
G1 X-4.053 Y10.563 E0.0156
G1 X-4.230 Y10.216 E0.0149
G1 X-4.310 Y9.740 E0.0184
G1 X-4.310 Y-9.744 E0.7453
G1 X-4.238 Y-10.200 E0.0177
G1 X-4.053 Y-10.563 E0.0156
G1 X-3.765 Y-10.851 E0.0156
G1 X-3.402 Y-11.036 E0.0156
G1 X-2.946 Y-11.108 E0.0177
G1 X2.946 Y-11.108 E0.2253
G1 X3.402 Y-11.036 E0.0177
G1 X3.765 Y-10.851 E0.0156
G1 X4.053 Y-10.563 E0.0156
G1 X4.238 Y-10.200 E0.0156
G1 X4.310 Y-9.744 E0.0177
G1 X4.310 Y9.744 E0.7454
G1 X4.238 Y10.200 E0.0177
G1 X4.053 Y10.563 E0.0156
G1 X3.765 Y10.851 E0.0156
G1 X3.402 Y11.036 E0.0156
G1 X2.946 Y11.108 E0.0177
G1 X-2.946 Y11.108 E0.2253
; feature outer perimeter
G1 X-2.982 Y11.568 F9000
G1 X-3.546 Y11.479 E0.0218 F1199
G1 X-4.039 Y11.228 E0.0211
G1 X-4.430 Y10.837 E0.0211
G1 X-4.672 Y10.362 E0.0204
G1 X-4.770 Y9.779 E0.0226
G1 X-4.770 Y-9.780 E0.7481
G1 X-4.681 Y-10.344 E0.0218
G1 X-4.430 Y-10.837 E0.0211
G1 X-4.039 Y-11.228 E0.0211
G1 X-3.546 Y-11.479 E0.0211
G1 X-2.982 Y-11.568 E0.0218
G1 X2.982 Y-11.568 E0.2281
G1 X3.546 Y-11.479 E0.0218
G1 X4.039 Y-11.228 E0.0211
G1 X4.430 Y-10.837 E0.0211
G1 X4.681 Y-10.344 E0.0211
G1 X4.770 Y-9.780 E0.0218
G1 X4.770 Y9.780 E0.7482
G1 X4.681 Y10.344 E0.0218
G1 X4.430 Y10.837 E0.0211
G1 X4.039 Y11.228 E0.0211
G1 X3.546 Y11.479 E0.0211
G1 X2.982 Y11.568 E0.0218
G1 X-2.982 Y11.568 E0.2281
; feature solid layer
G1 X-2.898 Y10.763 F9000
G1 X-3.965 Y9.696 E0.0577 F2398
G1 X-3.965 Y9.046 E0.0249
G1 X-2.248 Y10.763 E0.0929
G1 X-1.597 Y10.763 E0.0249
G1 X-3.965 Y8.395 E0.1281
G1 X-3.965 Y7.745 E0.0249
G1 X-0.946 Y10.763 E0.1633
G1 X-0.296 Y10.763 E0.0249
G1 X-3.965 Y7.094 E0.1985
G1 X-3.965 Y6.444 E0.0249
G1 X0.355 Y10.763 E0.2337
G1 X1.005 Y10.763 E0.0249
G1 X-3.965 Y5.793 E0.2688
G1 X-3.965 Y5.143 E0.0249
G1 X1.656 Y10.763 E0.3040
G1 X2.306 Y10.763 E0.0249
G1 X-3.965 Y4.492 E0.3392
G1 X-3.965 Y3.841 E0.0249
G1 X2.952 Y10.758 E0.3741
G1 X3.294 Y10.704 E0.0133
G1 X3.462 Y10.618 E0.0072
G1 X-3.965 Y3.191 E0.4018
G1 X-3.965 Y2.540 E0.0249
G1 X3.798 Y10.303 E0.4199
G1 X3.905 Y10.092 E0.0091
G1 X3.951 Y9.806 E0.0111
G1 X-3.965 Y1.890 E0.4282
G1 X-3.965 Y1.239 E0.0249
G1 X3.965 Y9.169 E0.4290
G1 X3.965 Y8.519 E0.0249
G1 X-3.965 Y0.589 E0.4290
G1 X-3.965 Y-0.062 E0.0249
G1 X3.965 Y7.868 E0.4290
G1 X3.965 Y7.218 E0.0249
G1 X-3.965 Y-0.712 E0.4290
G1 X-3.965 Y-1.363 E0.0249
G1 X3.965 Y6.567 E0.4290
G1 X3.965 Y5.917 E0.0249
G1 X-3.965 Y-2.013 E0.4290
G1 X-3.965 Y-2.664 E0.0249
G1 X3.965 Y5.266 E0.4290
G1 X3.965 Y4.616 E0.0249
G1 X-3.965 Y-3.314 E0.4290
G1 X-3.965 Y-3.965 E0.0249
G1 X3.965 Y3.965 E0.4290
G1 X3.965 Y3.314 E0.0249
G1 X-3.965 Y-4.616 E0.4290
G1 X-3.965 Y-5.266 E0.0249
G1 X3.965 Y2.664 E0.4290
G1 X3.965 Y2.013 E0.0249
G1 X-3.965 Y-5.917 E0.4290
G1 X-3.965 Y-6.567 E0.0249
G1 X3.965 Y1.363 E0.4290
G1 X3.965 Y0.712 E0.0249
G1 X-3.965 Y-7.218 E0.4290
G1 X-3.965 Y-7.868 E0.0249
G1 X3.965 Y0.062 E0.4290
G1 X3.965 Y-0.589 E0.0249
G1 X-3.965 Y-8.519 E0.4290
G1 X-3.965 Y-9.169 E0.0249
G1 X3.965 Y-1.239 E0.4290
G1 X3.965 Y-1.890 E0.0249
G1 X-3.951 Y-9.806 E0.4282
G1 X-3.905 Y-10.092 E0.0111
G1 X-3.798 Y-10.303 E0.0091
G1 X3.965 Y-2.540 E0.4199
G1 X3.965 Y-3.191 E0.0249
G1 X-3.462 Y-10.618 E0.4018
G1 X-3.294 Y-10.704 E0.0072
G1 X-2.952 Y-10.758 E0.0133
G1 X3.965 Y-3.841 E0.3741
G1 X3.965 Y-4.492 E0.0249
G1 X-2.306 Y-10.763 E0.3392
G1 X-1.656 Y-10.763 E0.0249
G1 X3.965 Y-5.143 E0.3040
G1 X3.965 Y-5.793 E0.0249
G1 X-1.005 Y-10.763 E0.2688
G1 X-0.355 Y-10.763 E0.0249
G1 X3.965 Y-6.444 E0.2337
G1 X3.965 Y-7.094 E0.0249
G1 X0.296 Y-10.763 E0.1985
G1 X0.947 Y-10.763 E0.0249
G1 X3.965 Y-7.745 E0.1633
G1 X3.965 Y-8.395 E0.0249
G1 X1.597 Y-10.763 E0.1281
G1 X2.248 Y-10.763 E0.0249
G1 X3.965 Y-9.046 E0.0929
G1 X3.965 Y-9.696 E0.0249
G1 X2.898 Y-10.763 E0.0577
G1 E-1.9000 F1200
; layer 2, Z = 0.400
M126 S255
; feature inner perimeter
; tool H0.200 W0.400
G1 Z0.700 F1200
G1 X-2.953 Y11.198 F9000
G1 Z0.400 F1200
G1 E1.9000 F1200
G1 X-3.430 Y11.123 E0.0161 F2031
G1 X-3.818 Y10.925 E0.0145
G1 X-4.127 Y10.617 E0.0145
G1 X-4.324 Y10.229 E0.0145
G1 X-4.400 Y9.751 E0.0161
G1 X-4.400 Y-9.751 E0.6486
G1 X-4.324 Y-10.229 E0.0161
G1 X-4.127 Y-10.617 E0.0145
G1 X-3.818 Y-10.925 E0.0145
G1 X-3.430 Y-11.123 E0.0145
G1 X-2.953 Y-11.198 E0.0161
G1 X2.953 Y-11.198 E0.1964
G1 X3.430 Y-11.123 E0.0161
G1 X3.818 Y-10.925 E0.0145
G1 X4.127 Y-10.617 E0.0145
G1 X4.324 Y-10.229 E0.0145
G1 X4.400 Y-9.751 E0.0161
G1 X4.400 Y9.751 E0.6486
G1 X4.324 Y10.229 E0.0161
G1 X4.127 Y10.617 E0.0145
G1 X3.818 Y10.925 E0.0145
G1 X3.430 Y11.123 E0.0145
G1 X2.953 Y11.198 E0.0161
G1 X-2.953 Y11.198 E0.1964
; feature outer perimeter
G1 X-2.984 Y11.598 F9000
G1 X-3.555 Y11.508 E0.0192 F1354
G1 X-4.057 Y11.252 E0.0187
G1 X-4.454 Y10.855 E0.0187
G1 X-4.696 Y10.381 E0.0177
G1 X-4.710 Y10.354 E0.0010
G1 X-4.800 Y9.782 E0.0192
G1 X-4.800 Y-9.782 E0.6507
G1 X-4.710 Y-10.354 E0.0192
G1 X-4.454 Y-10.855 E0.0187
G1 X-4.057 Y-11.252 E0.0187
G1 X-3.555 Y-11.508 E0.0187
G1 X-2.984 Y-11.598 E0.0192
G1 X2.984 Y-11.598 E0.1985
G1 X3.555 Y-11.508 E0.0192
G1 X4.057 Y-11.252 E0.0187
G1 X4.454 Y-10.855 E0.0187
G1 X4.710 Y-10.354 E0.0187
G1 X4.800 Y-9.782 E0.0192
G1 X4.800 Y9.782 E0.6507
G1 X4.710 Y10.354 E0.0192
G1 X4.454 Y10.855 E0.0187
G1 X4.057 Y11.252 E0.0187
G1 X3.555 Y11.508 E0.0187
G1 X2.984 Y11.598 E0.0192
G1 X-2.984 Y11.598 E0.1985
G1 E-1.9000 F1200
; feature solid layer
G1 Z0.900 F1200
G1 X4.041 Y10.101 F9000
G1 Z0.400 F1200
G1 E1.9000 F1200
G1 X3.303 Y10.839 E0.0347 F2708
G1 X2.929 Y10.898 E0.0126
G1 X2.678 Y10.898 E0.0083
G1 X4.100 Y9.476 E0.0669
G1 X4.100 Y8.911 E0.0188
G1 X2.113 Y10.898 E0.0935
G1 X1.547 Y10.898 E0.0188
G1 X4.100 Y8.345 E0.1201
G1 X4.100 Y7.779 E0.0188
G1 X0.981 Y10.898 E0.1467
G1 X0.416 Y10.898 E0.0188
G1 X4.100 Y7.214 E0.1733
G1 X4.100 Y6.648 E0.0188
G1 X-0.150 Y10.898 E0.1999
G1 X-0.716 Y10.898 E0.0188
G1 X4.100 Y6.082 E0.2265
G1 X4.100 Y5.517 E0.0188
G1 X-1.282 Y10.898 E0.2531
G1 X-1.847 Y10.898 E0.0188
G1 X4.100 Y4.951 E0.2797
G1 X4.100 Y4.385 E0.0188
G1 X-2.413 Y10.898 E0.3063
G1 X-2.929 Y10.898 E0.0172
G1 X-2.972 Y10.891 E0.0014
G1 X4.100 Y3.820 E0.3326
G1 X4.100 Y3.254 E0.0188
G1 X-3.431 Y10.785 E0.3543
G1 X-3.640 Y10.679 E0.0078
G1 X-3.765 Y10.554 E0.0059
G1 X4.100 Y2.688 E0.3700
G1 X4.100 Y2.123 E0.0188
G1 X-3.994 Y10.216 E0.3807
G1 X-4.035 Y10.135 E0.0031
G1 X-4.096 Y9.753 E0.0129
G1 X4.100 Y1.557 E0.3855
G1 X4.100 Y0.991 E0.0188
G1 X-4.100 Y9.191 E0.3857
G1 X-4.100 Y8.626 E0.0188
G1 X4.100 Y0.426 E0.3857
G1 X4.100 Y-0.140 E0.0188
G1 X-4.100 Y8.060 E0.3857
G1 X-4.100 Y7.494 E0.0188
G1 X4.100 Y-0.706 E0.3857
G1 X4.100 Y-1.272 E0.0188
G1 X-4.100 Y6.928 E0.3857
G1 X-4.100 Y6.363 E0.0188
G1 X4.100 Y-1.837 E0.3857
G1 X4.100 Y-2.403 E0.0188
G1 X-4.100 Y5.797 E0.3857
G1 X-4.100 Y5.231 E0.0188
G1 X4.100 Y-2.969 E0.3857
G1 X4.100 Y-3.534 E0.0188
G1 X-4.100 Y4.666 E0.3857
G1 X-4.100 Y4.100 E0.0188
G1 X4.100 Y-4.100 E0.3857
G1 X4.100 Y-4.666 E0.0188
G1 X-4.100 Y3.534 E0.3857
G1 X-4.100 Y2.969 E0.0188
G1 X4.100 Y-5.231 E0.3857
G1 X4.100 Y-5.797 E0.0188
G1 X-4.100 Y2.403 E0.3857
G1 X-4.100 Y1.837 E0.0188
G1 X4.100 Y-6.363 E0.3857
G1 X4.100 Y-6.928 E0.0188
G1 X-4.100 Y1.272 E0.3857
G1 X-4.100 Y0.706 E0.0188
G1 X4.100 Y-7.494 E0.3857
G1 X4.100 Y-8.060 E0.0188
G1 X-4.100 Y0.140 E0.3857
G1 X-4.100 Y-0.425 E0.0188
G1 X4.100 Y-8.625 E0.3857
G1 X4.100 Y-9.191 E0.0188
G1 X-4.100 Y-0.991 E0.3857
G1 X-4.100 Y-1.557 E0.0188
G1 X4.096 Y-9.753 E0.3855
G1 X4.035 Y-10.135 E0.0129
G1 X3.994 Y-10.216 E0.0030
G1 X-4.100 Y-2.123 E0.3807
G1 X-4.100 Y-2.688 E0.0188
G1 X3.765 Y-10.554 E0.3700
G1 X3.640 Y-10.679 E0.0059
G1 X3.431 Y-10.785 E0.0078
G1 X-4.100 Y-3.254 E0.3543
G1 X-4.100 Y-3.820 E0.0188
G1 X2.972 Y-10.891 E0.3326
G1 X2.929 Y-10.898 E0.0014
G1 X2.413 Y-10.898 E0.0172
G1 X-4.100 Y-4.385 E0.3063
G1 X-4.100 Y-4.951 E0.0188
G1 X1.847 Y-10.898 E0.2797
G1 X1.282 Y-10.898 E0.0188
G1 X-4.100 Y-5.517 E0.2531
G1 X-4.100 Y-6.082 E0.0188
G1 X0.716 Y-10.898 E0.2265
G1 X0.150 Y-10.898 E0.0188
G1 X-4.100 Y-6.648 E0.1999
G1 X-4.100 Y-7.214 E0.0188
G1 X-0.415 Y-10.898 E0.1733
G1 X-0.981 Y-10.898 E0.0188
G1 X-4.100 Y-7.779 E0.1467
G1 X-4.100 Y-8.345 E0.0188
G1 X-1.547 Y-10.898 E0.1201
G1 X-2.113 Y-10.898 E0.0188
G1 X-4.100 Y-8.911 E0.0935
G1 X-4.100 Y-9.476 E0.0188
G1 X-2.678 Y-10.898 E0.0669
G1 X-2.929 Y-10.898 E0.0083
G1 X-3.303 Y-10.839 E0.0126
G1 X-4.041 Y-10.101 E0.0347
G1 E-1.9000 F1200
; layer 3, Z = 0.600
; feature inner perimeter
G1 Z0.900 F1200
G1 X-2.953 Y11.198 F9000
G1 Z0.600 F1200
G1 E1.9000 F1200
G1 X-3.430 Y11.123 E0.0161 F2031
G1 X-3.818 Y10.925 E0.0145
G1 X-4.127 Y10.617 E0.0145
