; G-Code generated by Simplify3D(R) Version 4.1.2
; Apr 2, 2020 at 4:19:51 PM
; Settings Summary
;   processName,Process1
;   applyToModels,splint 1p
;   profileName,MakerBot Replicator 2 HBP (modified)
;   profileVersion,2020-03-12 10:48:50
;   baseProfile,MakerBot Replicator 2(2)
;   printMaterial,PLA
;   printQuality,Medium
;   printExtruders,
;   extruderName,Primary Extruder
;   extruderToolheadNumber,0
;   extruderDiameter,0.4
;   extruderAutoWidth,0
;   extruderWidth,0.4
;   extrusionMultiplier,1
;   extruderUseRetract,1
;   extruderRetractionDistance,1.9
;   extruderExtraRestartDistance,0
;   extruderRetractionZLift,0.5
;   extruderRetractionSpeed,1200
;   extruderUseCoasting,0
;   extruderCoastingDistance,0.2
;   extruderUseWipe,0
;   extruderWipeDistance,5
;   primaryExtruder,0
;   layerHeight,0.2
;   topSolidLayers,3
;   bottomSolidLayers,3
;   perimeterOutlines,2
;   printPerimetersInsideOut,1
;   startPointOption,3
;   startPointOriginX,0
;   startPointOriginY,150
;   sequentialIslands,0
;   spiralVaseMode,0
;   firstLayerHeightPercentage,100
;   firstLayerWidthPercentage,115
;   firstLayerUnderspeed,0.5
;   useRaft,0
;   raftExtruder,0
;   raftTopLayers,2
;   raftBaseLayers,1
;   raftOffset,1
;   raftSeparationDistance,0.14
;   raftTopInfill,90
;   aboveRaftSpeedMultiplier,0.3
;   useSkirt,0
;   skirtExtruder,0
;   skirtLayers,1
;   skirtOutlines,5
;   skirtOffset,0
;   usePrimePillar,0
;   primePillarExtruder,999
;   primePillarWidth,12
;   primePillarLocation,7
;   primePillarSpeedMultiplier,1
;   useOozeShield,0
;   oozeShieldExtruder,999
;   oozeShieldOffset,2
;   oozeShieldOutlines,1
;   oozeShieldSidewallShape,1
;   oozeShieldSidewallAngle,30
;   oozeShieldSpeedMultiplier,1
;   infillExtruder,0
;   internalInfillPattern,Rectilinear
;   externalInfillPattern,Rectilinear
;   infillPercentage,15
;   outlineOverlapPercentage,25
;   infillExtrusionWidthPercentage,100
;   minInfillLength,5
;   infillLayerInterval,1
;   internalInfillAngles,45,-45
;   overlapInternalInfillAngles,0
;   externalInfillAngles,45,-45
;   generateSupport,1
;   supportExtruder,0
;   supportInfillPercentage,30
;   supportExtraInflation,0.5
;   supportBaseLayers,0
;   denseSupportExtruder,0
;   denseSupportLayers,2
;   denseSupportInfillPercentage,90
;   supportLayerInterval,1
;   supportHorizontalPartOffset,0.3
;   supportUpperSeparationLayers,1
;   supportLowerSeparationLayers,1
;   supportType,1
;   supportGridSpacing,2
;   maxOverhangAngle,45
;   supportAngles,45,-45
;   temperatureName,Primary Extruder,Heated Build Platform
;   temperatureNumber,0,0
;   temperatureSetpointCount,1,1
;   temperatureSetpointLayers,1,1
;   temperatureSetpointTemperatures,230,60
;   temperatureStabilizeAtStartup,1,1
;   temperatureHeatedBed,0,1
;   fanLayers,1,2
;   fanSpeeds,0,100
;   blipFanToFullPower,1
;   adjustSpeedForCooling,1
;   minSpeedLayerTime,15
;   minCoolingSpeedSlowdown,20
;   increaseFanForCooling,1
;   minFanLayerTime,45
;   maxCoolingFanSpeed,100
;   increaseFanForBridging,1
;   bridgingFanSpeed,100
;   use5D,1
;   relativeEdistances,1
;   allowEaxisZeroing,0
;   independentExtruderAxes,1
;   includeM10123,0
;   stickySupport,1
;   applyToolheadOffsets,0
;   gcodeXoffset,0
;   gcodeYoffset,0
;   gcodeZoffset,0
;   overrideMachineDefinition,1
;   machineTypeOverride,0
;   strokeXoverride,280
;   strokeYoverride,150
;   strokeZoverride,150
;   originOffsetXoverride,140
;   originOffsetYoverride,75
;   originOffsetZoverride,0
;   homeXdirOverride,1
;   homeYdirOverride,1
;   homeZdirOverride,-1
;   flipXoverride,1
;   flipYoverride,-1
;   flipZoverride,1
;   toolheadOffsets,0,0|0,0|0,0|0,0|0,0|0,0
;   overrideFirmwareConfiguration,1
;   firmwareTypeOverride,MakerBot/Sailfish Firmware
;   GPXconfigOverride,r2h
;   baudRateOverride,115200
;   overridePrinterModels,1
;   printerModelsOverride,MakerBot_Replicator2.stl
;   startingGcode,; **** Replicator 2 start.gcode ****,M73 P0 ; enable build progress,G162 X Y F3000 ; home XY maximum,G161 Z F1200 ; home Z minimum,G92 Z-5 ; set Z to -5,G1 Z0 ; move Z to 0,G161 Z F100 ; home Z slowly,M132 X Y Z A B ; recall home offsets,G1 X-145 Y-75 Z30 F9000 ; move to wait position off table,G130 X20 Y20 Z20 A20 B20 ; lower stepper Vrefs while heating,M126 S[fan_speed_pwm],M140 S[bed0_temperature] T0,M134 T0 ; stabilize bed temperature,M104 S[extruder0_temperature] T0,M133 T0 ; stabilize extruder temperature,G130 X127 Y127 Z40 A127 B127 ; default stepper Vrefs,G92 A0 ; zero extruder,G1 Z0.4 ; position nozzle,G1 E25 F300 ; purge nozzle,G1 X-140 Y-70 Z0.15 F1200 ; slow wipe,G1 X-135 Y-65 Z0.5 F1200 ; lift,G92 A0 ; zero extruder,M73 P1 ;@body (notify GPX body has started),; **** end of start.gcode ****
;   layerChangeGcode,
;   retractionGcode,
;   toolChangeGcode,
;   endingGcode,; **** Replicator 2 end.gcode ****,M73 P100 ; end build progress,G1 Z155 F1000 ; send Z axis to bottom of machine,M104 S0 T0 ; cool down extruder,M140 S0 T0 ; cool down HBP,M127 ; stop blower fan,G162 X Y F3000 ; home XY maximum,M18 ; disable stepper,M0 ; stop codes,M72 P1 ; play Ta-Da song,; **** end of end.gcode ****
;   exportFileFormat,gcode
;   celebration,0
;   celebrationSong,Random Song
;   postProcessing,
;   defaultSpeed,4800
;   outlineUnderspeed,0.5
;   solidInfillUnderspeed,1
;   supportUnderspeed,1
;   rapidXYspeed,9000
;   rapidZspeed,1200
;   minBridgingArea,50
;   bridgingExtraInflation,0
;   bridgingExtrusionMultiplier,1
;   bridgingSpeedMultiplier,0.8
;   useFixedBridgingAngle,0
;   fixedBridgingAngle,0
;   applyBridgingToPerimeters,0
;   filamentDiameters,1.75|1.75|1.75|1.75|1.75|1.75
;   filamentPricesPerKg,46|46|46|46|46|46
;   filamentDensities,1.25|1.25|1.25|1.25|1.25|1.25
;   useMinPrintHeight,0
;   minPrintHeight,0
;   useMaxPrintHeight,0
;   maxPrintHeight,4.84
;   useDiaphragm,0
;   diaphragmLayerInterval,20
;   robustSlicing,1
;   mergeAllIntoSolid,0
;   onlyRetractWhenCrossingOutline,0
;   retractBetweenLayers,0
;   useRetractionMinTravel,1
;   retractionMinTravel,7
;   retractWhileWiping,1
;   onlyWipeOutlines,1
;   avoidCrossingOutline,0
;   maxMovementDetourFactor,3
;   toolChangeRetractionDistance,12
;   toolChangeExtraRestartDistance,-0.5
;   toolChangeRetractionSpeed,600
;   externalThinWallType,0
;   internalThinWallType,0
;   thinWallAllowedOverlapPercentage,10
;   singleExtrusionMinLength,1
;   singleExtrusionMinPrintingWidthPercentage,50
;   singleExtrusionMaxPrintingWidthPercentage,200
;   singleExtrusionEndpointExtension,0.2
;   horizontalSizeCompensation,0
G90
M83
; **** Replicator 2 start.gcode ****
M73 P0 ; enable build progress
G162 X Y F3000 ; home XY maximum
G161 Z F1200 ; home Z minimum
G92 Z-5 ; set Z to -5
G1 Z0 ; move Z to 0
G161 Z F100 ; home Z slowly
M132 X Y Z A B ; recall home offsets
G1 X-145 Y-75 Z30 F9000 ; move to wait position off table
G130 X20 Y20 Z20 A20 B20 ; lower stepper Vrefs while heating
M126 S154
M140 S60 T0
M134 T0 ; stabilize bed temperature
M104 S230 T0
M133 T0 ; stabilize extruder temperature
G130 X127 Y127 Z40 A127 B127 ; default stepper Vrefs
G92 A0 ; zero extruder
G1 Z0.4 ; position nozzle
G1 E25 F300 ; purge nozzle
G1 X-140 Y-70 Z0.15 F1200 ; slow wipe
G1 X-135 Y-65 Z0.5 F1200 ; lift
G92 A0 ; zero extruder
M73 P1 ;@body (notify GPX body has started)
; **** end of start.gcode ****
; process Process1
; layer 1, Z = 0.200
M135 T0
G1 E-1.9000 F1200
; feature inner perimeter
; tool H0.200 W0.460
G1 Z0.500 F1200
G1 X-4.840 Y10.362 F9000
G1 Z0.200 F1200
G1 E1.9000 F1200
G1 X-4.840 Y5.563 E0.1836 F1800
G1 X0.814 Y5.563 E0.2163
G1 X0.814 Y7.220 E0.0634
G1 X8.577 Y7.226 E0.2969
G1 X8.577 Y-7.226 E0.5528
G1 X0.814 Y-7.220 E0.2969
G1 X0.814 Y-5.563 E0.0634
G1 X-4.840 Y-5.563 E0.2163
G1 X-4.840 Y-10.362 E0.1836
G1 X8.659 Y-10.362 E0.5163
G1 X8.659 Y10.362 E0.7927
G1 X-4.840 Y10.362 E0.5163
G1 X-8.444 Y10.362 F9000
G1 X-8.659 Y10.362 E0.0082 F1800
G1 X-8.659 Y-10.362 E0.7927
G1 X-8.444 Y-10.362 E0.0082
G1 X-8.444 Y10.362 E0.7927
; feature outer perimeter
G1 X-9.119 Y10.822 F9000
G1 X-9.119 Y-10.822 E0.8279 F1200
G1 X9.119 Y-10.822 E0.6976
G1 X9.119 Y10.822 E0.8279
G1 X-9.119 Y10.822 E0.6976
G1 X-7.984 Y10.177 F9000
G1 X-5.300 Y10.177 E0.1026 F1200
G1 X-5.300 Y5.103 E0.1941
G1 X1.274 Y5.103 E0.2515
G1 X1.274 Y6.761 E0.0634
G1 X8.117 Y6.766 E0.2617
G1 X8.117 Y-6.766 E0.5176
G1 X1.274 Y-6.761 E0.2617
G1 X1.274 Y-5.103 E0.0634
G1 X-5.300 Y-5.103 E0.2515
G1 X-5.300 Y-10.177 E0.1941
G1 X-7.984 Y-10.177 E0.1026
G1 X-7.984 Y10.177 E0.7785
; feature solid layer
G1 X-4.495 Y9.817 F9000
G1 X-4.295 Y10.017 E0.0108 F2400
G1 X-3.644 Y10.017 E0.0249
G1 X-4.495 Y9.166 E0.0460
G1 X-4.495 Y8.516 E0.0249
G1 X-2.994 Y10.017 E0.0812
G1 X-2.343 Y10.017 E0.0249
G1 X-4.495 Y7.865 E0.1164
G1 X-4.495 Y7.214 E0.0249
G1 X-1.693 Y10.017 E0.1516
G1 X-1.042 Y10.017 E0.0249
G1 X-4.495 Y6.564 E0.1868
G1 X-4.495 Y5.913 E0.0249
G1 X-0.392 Y10.017 E0.2220
G1 X0.259 Y10.017 E0.0249
G1 X-3.850 Y5.908 E0.2223
G1 X-3.200 Y5.908 E0.0249
G1 X0.909 Y10.017 E0.2223
G1 X1.560 Y10.017 E0.0249
G1 X-2.549 Y5.908 E0.2223
G1 X-1.899 Y5.908 E0.0249
G1 X2.211 Y10.017 E0.2223
G1 X2.861 Y10.017 E0.0249
G1 X-1.248 Y5.908 E0.2223
G1 X0.469 Y6.324 F9000
G1 X0.053 Y5.908 E0.0225 F2400
G1 X-0.597 Y5.908 E0.0249
G1 X0.469 Y6.975 E0.0577
G1 X0.469 Y7.565 E0.0226
G1 X1.060 Y7.565 E0.0226
G1 X3.512 Y10.017 E0.1326
G1 X4.162 Y10.017 E0.0249
G1 X1.711 Y7.566 E0.1326
G1 X2.362 Y7.566 E0.0249
G1 X4.813 Y10.017 E0.1326
G1 X5.463 Y10.017 E0.0249
G1 X3.013 Y7.567 E0.1325
G1 X3.664 Y7.567 E0.0249
G1 X6.114 Y10.017 E0.1325
G1 X6.764 Y10.017 E0.0249
G1 X4.315 Y7.568 E0.1325
G1 X4.966 Y7.568 E0.0249
G1 X7.415 Y10.017 E0.1324
G1 X8.065 Y10.017 E0.0249
G1 X5.617 Y7.569 E0.1324
G1 X6.268 Y7.569 E0.0249
G1 X8.314 Y9.615 E0.1106
G1 X8.314 Y8.964 E0.0249
G1 X6.919 Y7.570 E0.0754
G1 X7.570 Y7.570 E0.0249
G1 X8.314 Y8.314 E0.0402
G1 X8.314 Y7.663 E0.0249
G1 X8.222 Y7.571 E0.0050
G1 E-1.9000 F1200
G1 Z0.700 F1200
G1 X8.198 Y-10.017 F9000
G1 Z0.200 F1200
G1 E1.9000 F1200
G1 X8.314 Y-9.902 E0.0062 F2400
G1 X8.314 Y-9.251 E0.0249
G1 X7.548 Y-10.017 E0.0414
G1 X6.897 Y-10.017 E0.0249
G1 X8.314 Y-8.600 E0.0766
G1 X8.314 Y-7.950 E0.0249
G1 X6.246 Y-10.017 E0.1118
G1 X5.596 Y-10.017 E0.0249
G1 X8.042 Y-7.571 E0.1323
G1 X7.392 Y-7.570 E0.0249
G1 X4.945 Y-10.017 E0.1323
G1 X4.295 Y-10.017 E0.0249
G1 X6.742 Y-7.570 E0.1324
G1 X6.092 Y-7.569 E0.0249
G1 X3.644 Y-10.017 E0.1324
G1 X2.994 Y-10.017 E0.0249
G1 X5.442 Y-7.569 E0.1324
G1 X4.792 Y-7.568 E0.0249
G1 X2.343 Y-10.017 E0.1325
G1 X1.693 Y-10.017 E0.0249
G1 X4.142 Y-7.568 E0.1325
G1 X3.492 Y-7.567 E0.0249
G1 X1.042 Y-10.017 E0.1325
G1 X0.392 Y-10.017 E0.0249
G1 X2.842 Y-7.567 E0.1325
G1 X2.192 Y-7.566 E0.0249
G1 X-0.259 Y-10.017 E0.1326
G1 X-0.909 Y-10.017 E0.0249
G1 X1.542 Y-7.566 E0.1326
G1 X0.892 Y-7.565 E0.0249
G1 X-1.560 Y-10.017 E0.1326
G1 X-2.211 Y-10.017 E0.0249
G1 X0.469 Y-7.337 E0.1450
G1 X0.469 Y-6.687 E0.0249
G1 X-2.861 Y-10.017 E0.1802
G1 X-3.512 Y-10.017 E0.0249
G1 X0.469 Y-6.036 E0.2153
G1 X0.469 Y-5.908 E0.0049
G1 X-0.053 Y-5.908 E0.0200
G1 X-4.162 Y-10.017 E0.2223
G1 X-4.495 Y-10.017 E0.0127
G1 X-4.495 Y-9.700 E0.0121
G1 X-0.704 Y-5.908 E0.2051
G1 X-1.354 Y-5.908 E0.0249
G1 X-4.495 Y-9.049 E0.1699
G1 X-4.495 Y-8.399 E0.0249
G1 X-2.005 Y-5.908 E0.1347
G1 X-2.655 Y-5.908 E0.0249
G1 X-4.495 Y-7.748 E0.0995
G1 X-4.495 Y-7.097 E0.0249
G1 X-3.306 Y-5.908 E0.0643
G1 X-3.956 Y-5.908 E0.0249
G1 X-4.495 Y-6.447 E0.0292
G1 E-1.9000 F1200
; layer 2, Z = 0.400
M126 S255
; feature inner perimeter
; tool H0.200 W0.400
G1 Z0.700 F1200
G1 X-4.930 Y10.452 F9000
G1 Z0.400 F1200
G1 E1.9000 F1200
G1 X-4.930 Y5.473 E0.1656 F2299
G1 X0.904 Y5.473 E0.1941
G1 X0.904 Y7.130 E0.0551
G1 X8.487 Y7.136 E0.2522
G1 X8.487 Y-7.136 E0.4747
G1 X0.904 Y-7.130 E0.2522
G1 X0.904 Y-5.473 E0.0551
G1 X-4.930 Y-5.473 E0.1941
G1 X-4.930 Y-10.452 E0.1656
G1 X8.749 Y-10.452 E0.4550
G1 X8.749 Y10.452 E0.6953
G1 X-4.930 Y10.452 E0.4550
G1 X-8.354 Y10.452 F9000
G1 X-8.749 Y10.452 E0.0131 F2299
G1 X-8.749 Y-10.452 E0.6953
G1 X-8.354 Y-10.452 E0.0131
G1 X-8.354 Y10.452 E0.6953
; feature outer perimeter
G1 X-9.149 Y10.852 F9000
G1 X-9.149 Y-10.852 E0.7219 F1533
G1 X9.149 Y-10.852 E0.6086
G1 X9.149 Y10.852 E0.7219
G1 X-9.149 Y10.852 E0.6086
G1 X-7.954 Y10.147 F9000
G1 X-5.330 Y10.147 E0.0873 F1533
G1 X-5.330 Y5.073 E0.1688
G1 X1.304 Y5.073 E0.2207
G1 X1.304 Y6.731 E0.0551
G1 X8.087 Y6.736 E0.2256
G1 X8.087 Y-6.736 E0.4481
G1 X1.304 Y-6.731 E0.2256
G1 X1.304 Y-5.073 E0.0551
G1 X-5.330 Y-5.073 E0.2207
G1 X-5.330 Y-10.147 E0.1688
G1 X-7.954 Y-10.147 E0.0873
G1 X-7.954 Y10.147 E0.6750
; feature solid layer
G1 X-4.630 Y6.327 F9000
G1 X-4.076 Y5.773 E0.0261 F3065
G1 X-3.510 Y5.773 E0.0188
G1 X-4.630 Y6.893 E0.0527
G1 X-4.630 Y7.459 E0.0188
G1 X-2.944 Y5.773 E0.0793
G1 X-2.379 Y5.773 E0.0188
G1 X-4.630 Y8.024 E0.1059
G1 X-4.630 Y8.590 E0.0188
G1 X-1.813 Y5.773 E0.1325
G1 X-1.247 Y5.773 E0.0188
G1 X-4.630 Y9.156 E0.1591
G1 X-4.630 Y9.721 E0.0188
G1 X-0.682 Y5.773 E0.1857
G1 X-0.116 Y5.773 E0.0188
G1 X-4.495 Y10.152 E0.2060
G1 X-3.929 Y10.152 E0.0188
G1 X0.450 Y5.773 E0.2060
G1 X0.604 Y5.773 E0.0051
G1 X0.604 Y6.184 E0.0137
G1 X-3.364 Y10.152 E0.1866
G1 X-2.798 Y10.152 E0.0188
G1 X0.604 Y6.750 E0.1600
G1 X0.604 Y7.315 E0.0188
G1 X-2.232 Y10.152 E0.1334
G1 X-1.667 Y10.152 E0.0188
G1 X1.055 Y7.430 E0.1280
G1 X1.620 Y7.431 E0.0188
G1 X-1.101 Y10.152 E0.1280
G1 X-0.535 Y10.152 E0.0188
G1 X2.185 Y7.431 E0.1280
G1 X2.751 Y7.432 E0.0188
G1 X0.030 Y10.152 E0.1280
G1 X0.596 Y10.152 E0.0188
G1 X3.316 Y7.432 E0.1279
G1 X3.881 Y7.433 E0.0188
G1 X1.162 Y10.152 E0.1279
G1 X1.727 Y10.152 E0.0188
G1 X4.446 Y7.433 E0.1279
G1 X5.012 Y7.433 E0.0188
G1 X2.293 Y10.152 E0.1279
G1 X2.859 Y10.152 E0.0188
G1 X5.577 Y7.434 E0.1278
G1 X6.142 Y7.434 E0.0188
G1 X3.424 Y10.152 E0.1278
G1 X3.990 Y10.152 E0.0188
G1 X6.707 Y7.435 E0.1278
G1 X7.273 Y7.435 E0.0188
G1 X4.556 Y10.152 E0.1278
G1 X5.122 Y10.152 E0.0188
G1 X7.838 Y7.436 E0.1278
G1 X8.403 Y7.436 E0.0188
G1 X5.687 Y10.152 E0.1277
G1 X6.253 Y10.152 E0.0188
G1 X8.449 Y7.956 E0.1033
G1 X8.449 Y8.522 E0.0188
G1 X6.819 Y10.152 E0.0767
G1 X7.384 Y10.152 E0.0188
G1 X8.449 Y9.088 E0.0501
G1 X8.449 Y9.653 E0.0188
G1 X7.950 Y10.152 E0.0235
G1 E-1.9000 F1200
G1 Z0.900 F1200
G1 X8.002 Y-7.436 F9000
G1 Z0.400 F1200
G1 E1.9000 F1200
G1 X8.449 Y-7.883 E0.0210 F3065
G1 X8.449 Y-8.449 E0.0188
G1 X7.435 Y-7.435 E0.0477
G1 X6.869 Y-7.435 E0.0188
G1 X8.449 Y-9.014 E0.0743
G1 X8.449 Y-9.580 E0.0188
G1 X6.303 Y-7.434 E0.1009
G1 X5.737 Y-7.434 E0.0188
G1 X8.449 Y-10.146 E0.1275
G1 X8.449 Y-10.152 E0.0002
G1 X7.889 Y-10.152 E0.0186
G1 X5.171 Y-7.434 E0.1279
G1 X4.605 Y-7.433 E0.0188
G1 X7.324 Y-10.152 E0.1279
G1 X6.758 Y-10.152 E0.0188
G1 X4.039 Y-7.433 E0.1279
G1 X3.473 Y-7.432 E0.0188
G1 X6.192 Y-10.152 E0.1279
G1 X5.627 Y-10.152 E0.0188
G1 X2.906 Y-7.432 E0.1279
G1 X2.340 Y-7.431 E0.0188
G1 X5.061 Y-10.152 E0.1280
G1 X4.495 Y-10.152 E0.0188
G1 X1.774 Y-7.431 E0.1280
G1 X1.208 Y-7.430 E0.0188
G1 X3.929 Y-10.152 E0.1280
G1 X3.364 Y-10.152 E0.0188
G1 X0.642 Y-7.430 E0.1280
G1 X0.604 Y-6.261 F9000
G1 X0.116 Y-5.773 E0.0230 F3065
G1 X-0.450 Y-5.773 E0.0188
G1 X0.604 Y-6.827 E0.0496
G1 X0.604 Y-7.393 E0.0188
G1 X-1.015 Y-5.773 E0.0762
G1 X-1.581 Y-5.773 E0.0188
G1 X2.798 Y-10.152 E0.2060
G1 X2.232 Y-10.152 E0.0188
G1 X-2.147 Y-5.773 E0.2060
G1 X-2.712 Y-5.773 E0.0188
G1 X1.667 Y-10.152 E0.2060
G1 X1.101 Y-10.152 E0.0188
G1 X-3.278 Y-5.773 E0.2060
G1 X-3.844 Y-5.773 E0.0188
G1 X0.535 Y-10.152 E0.2060
G1 X-0.030 Y-10.152 E0.0188
G1 X-4.409 Y-5.773 E0.2060
G1 X-4.630 Y-5.773 E0.0073
G1 X-4.630 Y-6.118 E0.0115
G1 X-0.596 Y-10.152 E0.1898
G1 X-1.162 Y-10.152 E0.0188
G1 X-4.630 Y-6.683 E0.1632
G1 X-4.630 Y-7.249 E0.0188
G1 X-1.727 Y-10.152 E0.1365
G1 X-2.293 Y-10.152 E0.0188
G1 X-4.630 Y-7.815 E0.1099
G1 X-4.630 Y-8.380 E0.0188
G1 X-2.859 Y-10.152 E0.0833
G1 X-3.424 Y-10.152 E0.0188
G1 X-4.630 Y-8.946 E0.0567
G1 X-4.630 Y-9.512 E0.0188
G1 X-3.990 Y-10.152 E0.0301
G1 X-4.556 Y-10.152 E0.0188
G1 X-4.630 Y-10.078 E0.0035
G1 E-1.9000 F1200
; layer 3, Z = 0.600
; feature inner perimeter
G1 Z0.900 F1200
G1 X-4.930 Y10.452 F9000
