; G-Code generated by Simplify3D(R) Version 4.1.2
; Apr 2, 2020 at 4:15:53 PM
; Settings Summary
;   processName,Process1
;   applyToModels,MasherBig,MasherBig(2),MasherBig(3),MasherBig(4),MasherBig(5),MasherBig(6),MasherBig(7)
;   profileName,MakerBot Replicator 2 HBP (modified)
;   profileVersion,2020-03-12 10:48:50
;   baseProfile,MakerBot Replicator 2(2)
;   printMaterial,PLA
;   printQuality,Medium
;   printExtruders,
;   extruderName,Primary Extruder
;   extruderToolheadNumber,0
;   extruderDiameter,0.4
;   extruderAutoWidth,0
;   extruderWidth,0.4
;   extrusionMultiplier,1
;   extruderUseRetract,1
;   extruderRetractionDistance,1.9
;   extruderExtraRestartDistance,0
;   extruderRetractionZLift,0.5
;   extruderRetractionSpeed,1200
;   extruderUseCoasting,0
;   extruderCoastingDistance,0.2
;   extruderUseWipe,0
;   extruderWipeDistance,5
;   primaryExtruder,0
;   layerHeight,0.2
;   topSolidLayers,3
;   bottomSolidLayers,3
;   perimeterOutlines,2
;   printPerimetersInsideOut,1
;   startPointOption,3
;   startPointOriginX,0
;   startPointOriginY,150
;   sequentialIslands,0
;   spiralVaseMode,0
;   firstLayerHeightPercentage,100
;   firstLayerWidthPercentage,115
;   firstLayerUnderspeed,0.5
;   useRaft,0
;   raftExtruder,0
;   raftTopLayers,2
;   raftBaseLayers,1
;   raftOffset,1
;   raftSeparationDistance,0.14
;   raftTopInfill,90
;   aboveRaftSpeedMultiplier,0.3
;   useSkirt,0
;   skirtExtruder,0
;   skirtLayers,1
;   skirtOutlines,5
;   skirtOffset,0
;   usePrimePillar,0
;   primePillarExtruder,999
;   primePillarWidth,12
;   primePillarLocation,7
;   primePillarSpeedMultiplier,1
;   useOozeShield,0
;   oozeShieldExtruder,999
;   oozeShieldOffset,2
;   oozeShieldOutlines,1
;   oozeShieldSidewallShape,1
;   oozeShieldSidewallAngle,30
;   oozeShieldSpeedMultiplier,1
;   infillExtruder,0
;   internalInfillPattern,Rectilinear
;   externalInfillPattern,Rectilinear
;   infillPercentage,15
;   outlineOverlapPercentage,25
;   infillExtrusionWidthPercentage,100
;   minInfillLength,5
;   infillLayerInterval,1
;   internalInfillAngles,45,-45
;   overlapInternalInfillAngles,0
;   externalInfillAngles,45,-45
;   generateSupport,1
;   supportExtruder,0
;   supportInfillPercentage,30
;   supportExtraInflation,0.5
;   supportBaseLayers,0
;   denseSupportExtruder,0
;   denseSupportLayers,2
;   denseSupportInfillPercentage,90
;   supportLayerInterval,1
;   supportHorizontalPartOffset,0.3
;   supportUpperSeparationLayers,1
;   supportLowerSeparationLayers,1
;   supportType,1
;   supportGridSpacing,2
;   maxOverhangAngle,45
;   supportAngles,45,-45
;   temperatureName,Primary Extruder,Heated Build Platform
;   temperatureNumber,0,0
;   temperatureSetpointCount,1,1
;   temperatureSetpointLayers,1,1
;   temperatureSetpointTemperatures,230,60
;   temperatureStabilizeAtStartup,1,1
;   temperatureHeatedBed,0,1
;   fanLayers,1,2
;   fanSpeeds,0,100
;   blipFanToFullPower,1
;   adjustSpeedForCooling,1
;   minSpeedLayerTime,15
;   minCoolingSpeedSlowdown,20
;   increaseFanForCooling,1
;   minFanLayerTime,45
;   maxCoolingFanSpeed,100
;   increaseFanForBridging,1
;   bridgingFanSpeed,100
;   use5D,1
;   relativeEdistances,1
;   allowEaxisZeroing,0
;   independentExtruderAxes,1
;   includeM10123,0
;   stickySupport,1
;   applyToolheadOffsets,0
;   gcodeXoffset,0
;   gcodeYoffset,0
;   gcodeZoffset,0
;   overrideMachineDefinition,1
;   machineTypeOverride,0
;   strokeXoverride,280
;   strokeYoverride,150
;   strokeZoverride,150
;   originOffsetXoverride,140
;   originOffsetYoverride,75
;   originOffsetZoverride,0
;   homeXdirOverride,1
;   homeYdirOverride,1
;   homeZdirOverride,-1
;   flipXoverride,1
;   flipYoverride,-1
;   flipZoverride,1
;   toolheadOffsets,0,0|0,0|0,0|0,0|0,0|0,0
;   overrideFirmwareConfiguration,1
;   firmwareTypeOverride,MakerBot/Sailfish Firmware
;   GPXconfigOverride,r2h
;   baudRateOverride,115200
;   overridePrinterModels,1
;   printerModelsOverride,MakerBot_Replicator2.stl
;   startingGcode,; **** Replicator 2 start.gcode ****,M73 P0 ; enable build progress,G162 X Y F3000 ; home XY maximum,G161 Z F1200 ; home Z minimum,G92 Z-5 ; set Z to -5,G1 Z0 ; move Z to 0,G161 Z F100 ; home Z slowly,M132 X Y Z A B ; recall home offsets,G1 X-145 Y-75 Z30 F9000 ; move to wait position off table,G130 X20 Y20 Z20 A20 B20 ; lower stepper Vrefs while heating,M126 S[fan_speed_pwm],M140 S[bed0_temperature] T0,M134 T0 ; stabilize bed temperature,M104 S[extruder0_temperature] T0,M133 T0 ; stabilize extruder temperature,G130 X127 Y127 Z40 A127 B127 ; default stepper Vrefs,G92 A0 ; zero extruder,G1 Z0.4 ; position nozzle,G1 E25 F300 ; purge nozzle,G1 X-140 Y-70 Z0.15 F1200 ; slow wipe,G1 X-135 Y-65 Z0.5 F1200 ; lift,G92 A0 ; zero extruder,M73 P1 ;@body (notify GPX body has started),; **** end of start.gcode ****
;   layerChangeGcode,
;   retractionGcode,
;   toolChangeGcode,
;   endingGcode,; **** Replicator 2 end.gcode ****,M73 P100 ; end build progress,G1 Z155 F1000 ; send Z axis to bottom of machine,M104 S0 T0 ; cool down extruder,M140 S0 T0 ; cool down HBP,M127 ; stop blower fan,G162 X Y F3000 ; home XY maximum,M18 ; disable stepper,M0 ; stop codes,M72 P1 ; play Ta-Da song,; **** end of end.gcode ****
;   exportFileFormat,gcode
;   celebration,0
;   celebrationSong,Random Song
;   postProcessing,
;   defaultSpeed,4800
;   outlineUnderspeed,0.5
;   solidInfillUnderspeed,1
;   supportUnderspeed,1
;   rapidXYspeed,9000
;   rapidZspeed,1200
;   minBridgingArea,50
;   bridgingExtraInflation,0
;   bridgingExtrusionMultiplier,1
;   bridgingSpeedMultiplier,0.8
;   useFixedBridgingAngle,0
;   fixedBridgingAngle,0
;   applyBridgingToPerimeters,0
;   filamentDiameters,1.75|1.75|1.75|1.75|1.75|1.75
;   filamentPricesPerKg,46|46|46|46|46|46
;   filamentDensities,1.25|1.25|1.25|1.25|1.25|1.25
;   useMinPrintHeight,0
;   minPrintHeight,0
;   useMaxPrintHeight,0
;   maxPrintHeight,4.84
;   useDiaphragm,0
;   diaphragmLayerInterval,20
;   robustSlicing,1
;   mergeAllIntoSolid,0
;   onlyRetractWhenCrossingOutline,0
;   retractBetweenLayers,0
;   useRetractionMinTravel,1
;   retractionMinTravel,7
;   retractWhileWiping,1
;   onlyWipeOutlines,1
;   avoidCrossingOutline,0
;   maxMovementDetourFactor,3
;   toolChangeRetractionDistance,12
;   toolChangeExtraRestartDistance,-0.5
;   toolChangeRetractionSpeed,600
;   externalThinWallType,0
;   internalThinWallType,0
;   thinWallAllowedOverlapPercentage,10
;   singleExtrusionMinLength,1
;   singleExtrusionMinPrintingWidthPercentage,50
;   singleExtrusionMaxPrintingWidthPercentage,200
;   singleExtrusionEndpointExtension,0.2
;   horizontalSizeCompensation,0
G90
M83
; **** Replicator 2 start.gcode ****
M73 P0 ; enable build progress
G162 X Y F3000 ; home XY maximum
G161 Z F1200 ; home Z minimum
G92 Z-5 ; set Z to -5
G1 Z0 ; move Z to 0
G161 Z F100 ; home Z slowly
M132 X Y Z A B ; recall home offsets
G1 X-145 Y-75 Z30 F9000 ; move to wait position off table
G130 X20 Y20 Z20 A20 B20 ; lower stepper Vrefs while heating
M127
M140 S60 T0
M134 T0 ; stabilize bed temperature
M104 S230 T0
M133 T0 ; stabilize extruder temperature
G130 X127 Y127 Z40 A127 B127 ; default stepper Vrefs
G92 A0 ; zero extruder
G1 Z0.4 ; position nozzle
G1 E25 F300 ; purge nozzle
G1 X-140 Y-70 Z0.15 F1200 ; slow wipe
G1 X-135 Y-65 Z0.5 F1200 ; lift
G92 A0 ; zero extruder
M73 P1 ;@body (notify GPX body has started)
; **** end of start.gcode ****
; process Process1
; layer 1, Z = 0.200
M135 T0
G1 E-1.9000 F1200
; feature inner perimeter
; tool H0.200 W0.460
G1 Z0.500 F1200
G1 X-14.023 Y27.152 F9000
G1 Z0.200 F1200
G1 E1.9000 F1200
G1 X-14.611 Y27.195 E0.0225 F1800
G1 X-15.200 Y27.210 E0.0225
G1 X-15.789 Y27.195 E0.0225
G1 X-16.377 Y27.152 E0.0225
G1 X-16.962 Y27.080 E0.0225
G1 X-17.543 Y26.979 E0.0225
G1 X-18.118 Y26.850 E0.0225
G1 X-18.686 Y26.693 E0.0226
G1 X-19.246 Y26.508 E0.0225
G1 X-19.796 Y26.296 E0.0225
G1 X-20.335 Y26.057 E0.0226
G1 X-20.861 Y25.792 E0.0225
G1 X-21.374 Y25.501 E0.0225
G1 X-21.872 Y25.186 E0.0226
G1 X-22.354 Y24.846 E0.0225
G1 X-22.819 Y24.484 E0.0225
G1 X-23.265 Y24.099 E0.0226
G1 X-23.692 Y23.692 E0.0225
G1 X-24.099 Y23.265 E0.0225
G1 X-24.484 Y22.819 E0.0226
G1 X-24.846 Y22.354 E0.0225
G1 X-25.186 Y21.872 E0.0225
G1 X-25.501 Y21.374 E0.0226
G1 X-25.792 Y20.861 E0.0225
G1 X-26.057 Y20.335 E0.0225
G1 X-26.296 Y19.796 E0.0225
G1 X-26.508 Y19.246 E0.0226
G1 X-26.693 Y18.686 E0.0225
G1 X-26.850 Y18.118 E0.0226
G1 X-26.979 Y17.543 E0.0225
G1 X-27.080 Y16.962 E0.0225
G1 X-27.152 Y16.377 E0.0225
G1 X-27.195 Y15.789 E0.0225
G1 X-27.210 Y15.200 E0.0225
G1 X-27.195 Y14.611 E0.0225
G1 X-27.152 Y14.023 E0.0225
G1 X-27.080 Y13.438 E0.0225
G1 X-26.979 Y12.857 E0.0225
G1 X-26.850 Y12.282 E0.0225
G1 X-26.693 Y11.713 E0.0226
G1 X-26.508 Y11.154 E0.0225
G1 X-26.296 Y10.604 E0.0226
G1 X-26.057 Y10.065 E0.0225
G1 X-25.792 Y9.539 E0.0225
G1 X-25.501 Y9.026 E0.0225
G1 X-25.186 Y8.528 E0.0226
G1 X-24.846 Y8.046 E0.0225
G1 X-24.484 Y7.581 E0.0226
G1 X-24.118 Y7.158 E0.0214
G1 X-23.692 Y6.707 E0.0237
G1 X-23.265 Y6.301 E0.0225
G1 X-22.819 Y5.916 E0.0225
G1 X-22.354 Y5.554 E0.0226
G1 X-21.872 Y5.214 E0.0225
G1 X-21.374 Y4.899 E0.0225
G1 X-20.861 Y4.608 E0.0225
G1 X-20.335 Y4.343 E0.0225
G1 X-19.796 Y4.104 E0.0226
G1 X-19.246 Y3.892 E0.0225
G1 X-18.686 Y3.707 E0.0225
G1 X-18.118 Y3.550 E0.0226
G1 X-17.543 Y3.421 E0.0225
G1 X-16.962 Y3.320 E0.0225
G1 X-16.377 Y3.248 E0.0225
G1 X-15.789 Y3.205 E0.0226
G1 X-15.200 Y3.190 E0.0225
G1 X-14.611 Y3.205 E0.0225
G1 X-14.023 Y3.248 E0.0226
G1 X-13.438 Y3.320 E0.0225
G1 X-12.857 Y3.421 E0.0225
G1 X-12.282 Y3.550 E0.0225
G1 X-11.714 Y3.707 E0.0226
G1 X-11.154 Y3.892 E0.0225
G1 X-10.604 Y4.104 E0.0226
G1 X-10.065 Y4.343 E0.0225
G1 X-9.539 Y4.608 E0.0225
G1 X-9.026 Y4.899 E0.0226
G1 X-8.528 Y5.214 E0.0225
G1 X-8.046 Y5.554 E0.0225
G1 X-7.581 Y5.916 E0.0225
G1 X-7.135 Y6.301 E0.0225
G1 X-6.708 Y6.708 E0.0226
G1 X-6.301 Y7.135 E0.0226
G1 X-5.916 Y7.581 E0.0225
G1 X-5.554 Y8.046 E0.0226
G1 X-5.214 Y8.528 E0.0225
G1 X-4.899 Y9.026 E0.0226
G1 X-4.608 Y9.539 E0.0225
G1 X-4.343 Y10.065 E0.0225
G1 X-4.104 Y10.604 E0.0225
G1 X-3.892 Y11.154 E0.0226
G1 X-3.707 Y11.714 E0.0225
G1 X-3.550 Y12.282 E0.0226
G1 X-3.421 Y12.857 E0.0225
G1 X-3.320 Y13.438 E0.0225
G1 X-3.248 Y14.023 E0.0225
G1 X-3.205 Y14.611 E0.0225
G1 X-3.190 Y15.200 E0.0225
G1 X-3.205 Y15.789 E0.0225
G1 X-3.248 Y16.377 E0.0225
G1 X-3.320 Y16.962 E0.0225
G1 X-3.421 Y17.543 E0.0225
G1 X-3.550 Y18.118 E0.0225
G1 X-3.707 Y18.686 E0.0226
G1 X-3.892 Y19.246 E0.0225
G1 X-4.104 Y19.796 E0.0226
G1 X-4.343 Y20.335 E0.0225
G1 X-4.608 Y20.861 E0.0225
G1 X-4.899 Y21.374 E0.0225
G1 X-5.214 Y21.872 E0.0226
G1 X-5.554 Y22.354 E0.0225
G1 X-5.916 Y22.819 E0.0225
G1 X-6.301 Y23.265 E0.0225
G1 X-6.708 Y23.692 E0.0226
G1 X-7.135 Y24.099 E0.0226
G1 X-7.581 Y24.484 E0.0225
G1 X-8.046 Y24.846 E0.0225
G1 X-8.528 Y25.186 E0.0225
G1 X-9.026 Y25.501 E0.0226
G1 X-9.539 Y25.792 E0.0225
G1 X-10.065 Y26.057 E0.0225
G1 X-10.604 Y26.296 E0.0225
G1 X-11.154 Y26.508 E0.0226
G1 X-11.714 Y26.693 E0.0225
G1 X-12.282 Y26.850 E0.0226
G1 X-12.857 Y26.979 E0.0225
G1 X-13.438 Y27.080 E0.0225
G1 X-14.023 Y27.152 E0.0225
; feature outer perimeter
G1 X-13.978 Y27.610 F9000
G1 X-14.588 Y27.655 E0.0234 F1200
G1 X-15.200 Y27.670 E0.0234
G1 X-15.812 Y27.655 E0.0234
G1 X-16.422 Y27.610 E0.0234
G1 X-17.030 Y27.535 E0.0234
G1 X-17.633 Y27.430 E0.0234
G1 X-18.230 Y27.296 E0.0234
G1 X-18.820 Y27.133 E0.0234
G1 X-19.401 Y26.941 E0.0234
G1 X-19.972 Y26.721 E0.0234
G1 X-20.532 Y26.473 E0.0234
G1 X-21.078 Y26.197 E0.0234
G1 X-21.611 Y25.896 E0.0234
G1 X-22.128 Y25.568 E0.0234
G1 X-22.628 Y25.216 E0.0234
G1 X-23.111 Y24.839 E0.0234
G1 X-23.574 Y24.440 E0.0234
G1 X-24.018 Y24.018 E0.0234
G1 X-24.440 Y23.574 E0.0234
G1 X-24.839 Y23.111 E0.0234
G1 X-25.216 Y22.628 E0.0234
G1 X-25.568 Y22.128 E0.0234
G1 X-25.896 Y21.611 E0.0234
G1 X-26.198 Y21.078 E0.0234
G1 X-26.473 Y20.532 E0.0234
G1 X-26.721 Y19.972 E0.0234
G1 X-26.941 Y19.401 E0.0234
G1 X-27.133 Y18.820 E0.0234
G1 X-27.296 Y18.230 E0.0234
G1 X-27.430 Y17.633 E0.0234
G1 X-27.535 Y17.030 E0.0234
G1 X-27.610 Y16.422 E0.0234
G1 X-27.655 Y15.812 E0.0234
G1 X-27.670 Y15.200 E0.0234
G1 X-27.655 Y14.588 E0.0234
G1 X-27.610 Y13.978 E0.0234
G1 X-27.535 Y13.370 E0.0234
G1 X-27.430 Y12.767 E0.0234
G1 X-27.296 Y12.170 E0.0234
G1 X-27.133 Y11.580 E0.0234
G1 X-26.941 Y10.999 E0.0234
G1 X-26.721 Y10.428 E0.0234
G1 X-26.473 Y9.868 E0.0234
G1 X-26.198 Y9.322 E0.0234
G1 X-25.896 Y8.789 E0.0234
G1 X-25.568 Y8.272 E0.0234
G1 X-25.216 Y7.772 E0.0234
G1 X-24.839 Y7.289 E0.0234
G1 X-24.460 Y6.849 E0.0222
G1 X-24.017 Y6.382 E0.0246
G1 X-23.574 Y5.960 E0.0234
G1 X-23.111 Y5.561 E0.0234
G1 X-22.628 Y5.184 E0.0234
G1 X-22.128 Y4.832 E0.0234
G1 X-21.611 Y4.504 E0.0234
G1 X-21.078 Y4.202 E0.0234
G1 X-20.532 Y3.927 E0.0234
G1 X-19.972 Y3.679 E0.0234
G1 X-19.401 Y3.459 E0.0234
G1 X-18.820 Y3.267 E0.0234
G1 X-18.230 Y3.104 E0.0234
G1 X-17.633 Y2.970 E0.0234
G1 X-17.030 Y2.865 E0.0234
G1 X-16.422 Y2.790 E0.0234
G1 X-15.812 Y2.745 E0.0234
G1 X-15.200 Y2.730 E0.0234
G1 X-14.588 Y2.745 E0.0234
G1 X-13.978 Y2.790 E0.0234
G1 X-13.370 Y2.865 E0.0234
G1 X-12.767 Y2.970 E0.0234
G1 X-12.170 Y3.104 E0.0234
G1 X-11.580 Y3.267 E0.0234
G1 X-10.999 Y3.459 E0.0234
G1 X-10.428 Y3.679 E0.0234
G1 X-9.868 Y3.927 E0.0234
G1 X-9.322 Y4.202 E0.0234
G1 X-8.789 Y4.504 E0.0234
G1 X-8.272 Y4.832 E0.0234
G1 X-7.772 Y5.184 E0.0234
G1 X-7.289 Y5.561 E0.0234
G1 X-6.826 Y5.960 E0.0234
G1 X-6.382 Y6.382 E0.0234
G1 X-5.960 Y6.826 E0.0234
G1 X-5.561 Y7.289 E0.0234
G1 X-5.184 Y7.772 E0.0234
G1 X-4.832 Y8.272 E0.0234
G1 X-4.504 Y8.789 E0.0234
G1 X-4.202 Y9.322 E0.0234
G1 X-3.927 Y9.868 E0.0234
G1 X-3.679 Y10.428 E0.0234
G1 X-3.459 Y10.999 E0.0234
G1 X-3.267 Y11.580 E0.0234
G1 X-3.104 Y12.170 E0.0234
G1 X-2.970 Y12.767 E0.0234
G1 X-2.865 Y13.370 E0.0234
G1 X-2.790 Y13.978 E0.0234
G1 X-2.745 Y14.588 E0.0234
G1 X-2.730 Y15.200 E0.0234
G1 X-2.745 Y15.812 E0.0234
G1 X-2.790 Y16.422 E0.0234
G1 X-2.865 Y17.030 E0.0234
G1 X-2.970 Y17.633 E0.0234
G1 X-3.104 Y18.230 E0.0234
G1 X-3.267 Y18.820 E0.0234
G1 X-3.459 Y19.401 E0.0234
G1 X-3.679 Y19.972 E0.0234
G1 X-3.927 Y20.532 E0.0234
G1 X-4.203 Y21.078 E0.0234
G1 X-4.504 Y21.611 E0.0234
G1 X-4.832 Y22.128 E0.0234
G1 X-5.184 Y22.628 E0.0234
G1 X-5.561 Y23.111 E0.0234
G1 X-5.960 Y23.574 E0.0234
G1 X-6.382 Y24.018 E0.0234
G1 X-6.826 Y24.440 E0.0234
G1 X-7.289 Y24.839 E0.0234
G1 X-7.772 Y25.216 E0.0234
G1 X-8.272 Y25.568 E0.0234
G1 X-8.789 Y25.896 E0.0234
G1 X-9.322 Y26.197 E0.0234
G1 X-9.868 Y26.473 E0.0234
G1 X-10.428 Y26.721 E0.0234
G1 X-10.999 Y26.941 E0.0234
G1 X-11.580 Y27.133 E0.0234
G1 X-12.170 Y27.296 E0.0234
G1 X-12.767 Y27.430 E0.0234
G1 X-13.370 Y27.535 E0.0234
G1 X-13.978 Y27.610 E0.0234
G1 E-1.9000 F1200
; feature inner perimeter
G1 Z0.700 F1200
G1 X-14.887 Y18.375 F9000
G1 Z0.200 F1200
G1 E1.9000 F1200
G1 X-14.577 Y18.329 E0.0120 F1800
G1 X-14.274 Y18.253 E0.0120
G1 X-13.979 Y18.148 E0.0120
G1 X-13.696 Y18.014 E0.0120
G1 X-13.427 Y17.853 E0.0120
G1 X-13.176 Y17.667 E0.0120
G1 X-12.944 Y17.456 E0.0120
G1 X-12.733 Y17.224 E0.0120
G1 X-12.547 Y16.973 E0.0120
G1 X-12.386 Y16.704 E0.0120
G1 X-12.252 Y16.421 E0.0120
G1 X-12.147 Y16.126 E0.0120
G1 X-12.070 Y15.822 E0.0120
G1 X-12.025 Y15.513 E0.0120
G1 X-12.009 Y15.200 E0.0120
G1 X-12.025 Y14.887 E0.0120
G1 X-12.070 Y14.577 E0.0120
G1 X-12.147 Y14.274 E0.0120
G1 X-12.252 Y13.979 E0.0120
G1 X-12.386 Y13.696 E0.0120
G1 X-12.547 Y13.427 E0.0120
G1 X-12.733 Y13.176 E0.0120
G1 X-12.944 Y12.944 E0.0120
G1 X-13.176 Y12.733 E0.0120
G1 X-13.427 Y12.547 E0.0120
G1 X-13.696 Y12.386 E0.0120
G1 X-13.979 Y12.252 E0.0120
G1 X-14.274 Y12.147 E0.0120
G1 X-14.577 Y12.070 E0.0120
G1 X-14.887 Y12.025 E0.0120
G1 X-15.200 Y12.009 E0.0120
G1 X-15.513 Y12.025 E0.0120
G1 X-15.822 Y12.070 E0.0120
G1 X-16.126 Y12.147 E0.0120
G1 X-16.421 Y12.252 E0.0120
G1 X-16.704 Y12.386 E0.0120
G1 X-16.973 Y12.547 E0.0120
G1 X-17.224 Y12.733 E0.0120
G1 X-17.456 Y12.944 E0.0120
G1 X-17.667 Y13.176 E0.0120
G1 X-17.853 Y13.427 E0.0120
G1 X-18.014 Y13.696 E0.0120
G1 X-18.148 Y13.979 E0.0120
G1 X-18.253 Y14.274 E0.0120
G1 X-18.329 Y14.577 E0.0120
