; G-Code generated by Simplify3D(R) Version 4.1.2
; Apr 2, 2020 at 4:16:45 PM
; Settings Summary
;   processName,Process1
;   applyToModels,MasherSmall,MasherSmall(2),MasherSmall(3),MasherSmall(4),MasherSmall(5),MasherSmall(6),MasherSmall(7)
;   profileName,MakerBot Replicator 2 HBP (modified)
;   profileVersion,2020-03-12 10:48:50
;   baseProfile,MakerBot Replicator 2(2)
;   printMaterial,PLA
;   printQuality,Medium
;   printExtruders,
;   extruderName,Primary Extruder
;   extruderToolheadNumber,0
;   extruderDiameter,0.4
;   extruderAutoWidth,0
;   extruderWidth,0.4
;   extrusionMultiplier,1
;   extruderUseRetract,1
;   extruderRetractionDistance,1.9
;   extruderExtraRestartDistance,0
;   extruderRetractionZLift,0.5
;   extruderRetractionSpeed,1200
;   extruderUseCoasting,0
;   extruderCoastingDistance,0.2
;   extruderUseWipe,0
;   extruderWipeDistance,5
;   primaryExtruder,0
;   layerHeight,0.2
;   topSolidLayers,3
;   bottomSolidLayers,3
;   perimeterOutlines,2
;   printPerimetersInsideOut,1
;   startPointOption,3
;   startPointOriginX,0
;   startPointOriginY,150
;   sequentialIslands,0
;   spiralVaseMode,0
;   firstLayerHeightPercentage,100
;   firstLayerWidthPercentage,115
;   firstLayerUnderspeed,0.5
;   useRaft,0
;   raftExtruder,0
;   raftTopLayers,2
;   raftBaseLayers,1
;   raftOffset,1
;   raftSeparationDistance,0.14
;   raftTopInfill,90
;   aboveRaftSpeedMultiplier,0.3
;   useSkirt,0
;   skirtExtruder,0
;   skirtLayers,1
;   skirtOutlines,5
;   skirtOffset,0
;   usePrimePillar,0
;   primePillarExtruder,999
;   primePillarWidth,12
;   primePillarLocation,7
;   primePillarSpeedMultiplier,1
;   useOozeShield,0
;   oozeShieldExtruder,999
;   oozeShieldOffset,2
;   oozeShieldOutlines,1
;   oozeShieldSidewallShape,1
;   oozeShieldSidewallAngle,30
;   oozeShieldSpeedMultiplier,1
;   infillExtruder,0
;   internalInfillPattern,Rectilinear
;   externalInfillPattern,Rectilinear
;   infillPercentage,15
;   outlineOverlapPercentage,25
;   infillExtrusionWidthPercentage,100
;   minInfillLength,5
;   infillLayerInterval,1
;   internalInfillAngles,45,-45
;   overlapInternalInfillAngles,0
;   externalInfillAngles,45,-45
;   generateSupport,1
;   supportExtruder,0
;   supportInfillPercentage,30
;   supportExtraInflation,0.5
;   supportBaseLayers,0
;   denseSupportExtruder,0
;   denseSupportLayers,2
;   denseSupportInfillPercentage,90
;   supportLayerInterval,1
;   supportHorizontalPartOffset,0.3
;   supportUpperSeparationLayers,1
;   supportLowerSeparationLayers,1
;   supportType,1
;   supportGridSpacing,2
;   maxOverhangAngle,45
;   supportAngles,45,-45
;   temperatureName,Primary Extruder,Heated Build Platform
;   temperatureNumber,0,0
;   temperatureSetpointCount,1,1
;   temperatureSetpointLayers,1,1
;   temperatureSetpointTemperatures,230,60
;   temperatureStabilizeAtStartup,1,1
;   temperatureHeatedBed,0,1
;   fanLayers,1,2
;   fanSpeeds,0,100
;   blipFanToFullPower,1
;   adjustSpeedForCooling,1
;   minSpeedLayerTime,15
;   minCoolingSpeedSlowdown,20
;   increaseFanForCooling,1
;   minFanLayerTime,45
;   maxCoolingFanSpeed,100
;   increaseFanForBridging,1
;   bridgingFanSpeed,100
;   use5D,1
;   relativeEdistances,1
;   allowEaxisZeroing,0
;   independentExtruderAxes,1
;   includeM10123,0
;   stickySupport,1
;   applyToolheadOffsets,0
;   gcodeXoffset,0
;   gcodeYoffset,0
;   gcodeZoffset,0
;   overrideMachineDefinition,1
;   machineTypeOverride,0
;   strokeXoverride,280
;   strokeYoverride,150
;   strokeZoverride,150
;   originOffsetXoverride,140
;   originOffsetYoverride,75
;   originOffsetZoverride,0
;   homeXdirOverride,1
;   homeYdirOverride,1
;   homeZdirOverride,-1
;   flipXoverride,1
;   flipYoverride,-1
;   flipZoverride,1
;   toolheadOffsets,0,0|0,0|0,0|0,0|0,0|0,0
;   overrideFirmwareConfiguration,1
;   firmwareTypeOverride,MakerBot/Sailfish Firmware
;   GPXconfigOverride,r2h
;   baudRateOverride,115200
;   overridePrinterModels,1
;   printerModelsOverride,MakerBot_Replicator2.stl
;   startingGcode,; **** Replicator 2 start.gcode ****,M73 P0 ; enable build progress,G162 X Y F3000 ; home XY maximum,G161 Z F1200 ; home Z minimum,G92 Z-5 ; set Z to -5,G1 Z0 ; move Z to 0,G161 Z F100 ; home Z slowly,M132 X Y Z A B ; recall home offsets,G1 X-145 Y-75 Z30 F9000 ; move to wait position off table,G130 X20 Y20 Z20 A20 B20 ; lower stepper Vrefs while heating,M126 S[fan_speed_pwm],M140 S[bed0_temperature] T0,M134 T0 ; stabilize bed temperature,M104 S[extruder0_temperature] T0,M133 T0 ; stabilize extruder temperature,G130 X127 Y127 Z40 A127 B127 ; default stepper Vrefs,G92 A0 ; zero extruder,G1 Z0.4 ; position nozzle,G1 E25 F300 ; purge nozzle,G1 X-140 Y-70 Z0.15 F1200 ; slow wipe,G1 X-135 Y-65 Z0.5 F1200 ; lift,G92 A0 ; zero extruder,M73 P1 ;@body (notify GPX body has started),; **** end of start.gcode ****
;   layerChangeGcode,
;   retractionGcode,
;   toolChangeGcode,
;   endingGcode,; **** Replicator 2 end.gcode ****,M73 P100 ; end build progress,G1 Z155 F1000 ; send Z axis to bottom of machine,M104 S0 T0 ; cool down extruder,M140 S0 T0 ; cool down HBP,M127 ; stop blower fan,G162 X Y F3000 ; home XY maximum,M18 ; disable stepper,M0 ; stop codes,M72 P1 ; play Ta-Da song,; **** end of end.gcode ****
;   exportFileFormat,gcode
;   celebration,0
;   celebrationSong,Random Song
;   postProcessing,
;   defaultSpeed,4800
;   outlineUnderspeed,0.5
;   solidInfillUnderspeed,1
;   supportUnderspeed,1
;   rapidXYspeed,9000
;   rapidZspeed,1200
;   minBridgingArea,50
;   bridgingExtraInflation,0
;   bridgingExtrusionMultiplier,1
;   bridgingSpeedMultiplier,0.8
;   useFixedBridgingAngle,0
;   fixedBridgingAngle,0
;   applyBridgingToPerimeters,0
;   filamentDiameters,1.75|1.75|1.75|1.75|1.75|1.75
;   filamentPricesPerKg,46|46|46|46|46|46
;   filamentDensities,1.25|1.25|1.25|1.25|1.25|1.25
;   useMinPrintHeight,0
;   minPrintHeight,0
;   useMaxPrintHeight,0
;   maxPrintHeight,4.84
;   useDiaphragm,0
;   diaphragmLayerInterval,20
;   robustSlicing,1
;   mergeAllIntoSolid,0
;   onlyRetractWhenCrossingOutline,0
;   retractBetweenLayers,0
;   useRetractionMinTravel,1
;   retractionMinTravel,7
;   retractWhileWiping,1
;   onlyWipeOutlines,1
;   avoidCrossingOutline,0
;   maxMovementDetourFactor,3
;   toolChangeRetractionDistance,12
;   toolChangeExtraRestartDistance,-0.5
;   toolChangeRetractionSpeed,600
;   externalThinWallType,0
;   internalThinWallType,0
;   thinWallAllowedOverlapPercentage,10
;   singleExtrusionMinLength,1
;   singleExtrusionMinPrintingWidthPercentage,50
;   singleExtrusionMaxPrintingWidthPercentage,200
;   singleExtrusionEndpointExtension,0.2
;   horizontalSizeCompensation,0
G90
M83
; **** Replicator 2 start.gcode ****
M73 P0 ; enable build progress
G162 X Y F3000 ; home XY maximum
G161 Z F1200 ; home Z minimum
G92 Z-5 ; set Z to -5
G1 Z0 ; move Z to 0
G161 Z F100 ; home Z slowly
M132 X Y Z A B ; recall home offsets
G1 X-145 Y-75 Z30 F9000 ; move to wait position off table
G130 X20 Y20 Z20 A20 B20 ; lower stepper Vrefs while heating
M127
M140 S60 T0
M134 T0 ; stabilize bed temperature
M104 S230 T0
M133 T0 ; stabilize extruder temperature
G130 X127 Y127 Z40 A127 B127 ; default stepper Vrefs
G92 A0 ; zero extruder
G1 Z0.4 ; position nozzle
G1 E25 F300 ; purge nozzle
G1 X-140 Y-70 Z0.15 F1200 ; slow wipe
G1 X-135 Y-65 Z0.5 F1200 ; lift
G92 A0 ; zero extruder
M73 P1 ;@body (notify GPX body has started)
; **** end of start.gcode ****
; process Process1
; layer 1, Z = 0.200
M135 T0
G1 E-1.9000 F1200
; feature inner perimeter
; tool H0.200 W0.460
G1 Z0.500 F1200
G1 X12.580 Y23.960 F9000
G1 Z0.200 F1200
G1 E1.9000 F1200
G1 X12.073 Y23.897 E0.0195 F1800
G1 X11.569 Y23.810 E0.0195
G1 X11.071 Y23.698 E0.0195
G1 X10.578 Y23.561 E0.0196
G1 X10.093 Y23.401 E0.0195
G1 X9.616 Y23.217 E0.0195
G1 X9.149 Y23.010 E0.0195
G1 X8.693 Y22.781 E0.0195
G1 X8.248 Y22.529 E0.0195
G1 X7.817 Y22.255 E0.0195
G1 X7.399 Y21.961 E0.0196
G1 X6.996 Y21.647 E0.0195
G1 X6.609 Y21.313 E0.0196
G1 X6.239 Y20.961 E0.0195
G1 X5.887 Y20.591 E0.0196
G1 X5.553 Y20.204 E0.0195
G1 X5.239 Y19.801 E0.0195
G1 X4.945 Y19.383 E0.0195
G1 X4.671 Y18.952 E0.0195
G1 X4.419 Y18.507 E0.0196
G1 X4.190 Y18.051 E0.0195
G1 X3.983 Y17.584 E0.0196
G1 X3.799 Y17.107 E0.0196
G1 X3.639 Y16.622 E0.0195
G1 X3.502 Y16.129 E0.0196
G1 X3.390 Y15.631 E0.0195
G1 X3.303 Y15.127 E0.0195
G1 X3.240 Y14.620 E0.0195
G1 X3.203 Y14.111 E0.0195
G1 X3.190 Y13.600 E0.0195
G1 X3.203 Y13.089 E0.0195
G1 X3.240 Y12.580 E0.0195
G1 X3.303 Y12.073 E0.0195
G1 X3.390 Y11.569 E0.0195
G1 X3.502 Y11.071 E0.0195
G1 X3.638 Y10.578 E0.0196
G1 X3.799 Y10.093 E0.0195
G1 X3.983 Y9.616 E0.0196
G1 X4.190 Y9.149 E0.0195
G1 X4.419 Y8.693 E0.0195
G1 X4.671 Y8.248 E0.0195
G1 X4.945 Y7.817 E0.0196
G1 X5.239 Y7.399 E0.0195
G1 X5.553 Y6.996 E0.0195
G1 X5.887 Y6.609 E0.0195
G1 X6.239 Y6.239 E0.0196
G1 X6.609 Y5.887 E0.0195
G1 X6.976 Y5.570 E0.0185
G1 X7.400 Y5.238 E0.0206
G1 X7.817 Y4.945 E0.0195
G1 X8.248 Y4.671 E0.0195
G1 X8.693 Y4.419 E0.0195
G1 X9.149 Y4.190 E0.0195
G1 X9.616 Y3.983 E0.0195
G1 X10.093 Y3.799 E0.0195
G1 X10.578 Y3.638 E0.0195
G1 X11.071 Y3.502 E0.0195
G1 X11.569 Y3.390 E0.0195
G1 X12.073 Y3.303 E0.0195
G1 X12.580 Y3.240 E0.0195
G1 X13.089 Y3.203 E0.0195
G1 X13.600 Y3.190 E0.0195
G1 X14.111 Y3.203 E0.0195
G1 X14.620 Y3.240 E0.0195
G1 X15.127 Y3.303 E0.0195
G1 X15.631 Y3.390 E0.0195
G1 X16.129 Y3.502 E0.0195
G1 X16.622 Y3.638 E0.0196
G1 X17.107 Y3.799 E0.0195
G1 X17.584 Y3.983 E0.0195
G1 X18.051 Y4.190 E0.0196
G1 X18.507 Y4.419 E0.0195
G1 X18.952 Y4.671 E0.0195
G1 X19.383 Y4.945 E0.0195
G1 X19.801 Y5.239 E0.0195
G1 X20.204 Y5.553 E0.0195
G1 X20.591 Y5.887 E0.0195
G1 X20.961 Y6.239 E0.0195
G1 X21.313 Y6.609 E0.0195
G1 X21.647 Y6.996 E0.0195
G1 X21.961 Y7.399 E0.0195
G1 X22.255 Y7.817 E0.0196
G1 X22.529 Y8.248 E0.0195
G1 X22.781 Y8.693 E0.0195
G1 X23.010 Y9.149 E0.0195
G1 X23.217 Y9.616 E0.0196
G1 X23.401 Y10.093 E0.0195
G1 X23.561 Y10.578 E0.0195
G1 X23.698 Y11.071 E0.0196
G1 X23.810 Y11.569 E0.0195
G1 X23.897 Y12.073 E0.0195
G1 X23.960 Y12.580 E0.0195
G1 X23.997 Y13.089 E0.0195
G1 X24.010 Y13.600 E0.0195
G1 X23.997 Y14.111 E0.0195
G1 X23.960 Y14.620 E0.0195
G1 X23.897 Y15.127 E0.0195
G1 X23.810 Y15.631 E0.0195
G1 X23.698 Y16.129 E0.0195
G1 X23.562 Y16.622 E0.0195
G1 X23.401 Y17.107 E0.0195
G1 X23.217 Y17.584 E0.0196
G1 X23.010 Y18.051 E0.0195
G1 X22.781 Y18.507 E0.0195
G1 X22.529 Y18.952 E0.0195
G1 X22.255 Y19.383 E0.0195
G1 X21.961 Y19.801 E0.0195
G1 X21.647 Y20.204 E0.0195
G1 X21.313 Y20.591 E0.0195
G1 X20.961 Y20.961 E0.0195
G1 X20.591 Y21.313 E0.0195
G1 X20.204 Y21.647 E0.0195
G1 X19.801 Y21.961 E0.0196
G1 X19.383 Y22.255 E0.0195
G1 X18.952 Y22.529 E0.0195
G1 X18.507 Y22.781 E0.0195
G1 X18.051 Y23.010 E0.0195
G1 X17.584 Y23.217 E0.0196
G1 X17.107 Y23.401 E0.0195
G1 X16.622 Y23.562 E0.0195
G1 X16.129 Y23.698 E0.0195
G1 X15.631 Y23.810 E0.0195
G1 X15.127 Y23.897 E0.0195
G1 X14.620 Y23.960 E0.0195
G1 X14.111 Y23.997 E0.0195
G1 X13.600 Y24.010 E0.0195
G1 X13.089 Y23.997 E0.0195
G1 X12.580 Y23.960 E0.0195
; feature outer perimeter
G1 X12.534 Y24.418 F9000
G1 X12.005 Y24.352 E0.0204 F1200
G1 X11.479 Y24.261 E0.0204
G1 X10.959 Y24.144 E0.0204
G1 X10.445 Y24.002 E0.0204
G1 X9.938 Y23.835 E0.0204
G1 X9.440 Y23.643 E0.0204
G1 X8.952 Y23.426 E0.0204
G1 X8.476 Y23.186 E0.0204
G1 X8.012 Y22.924 E0.0204
G1 X7.561 Y22.638 E0.0204
G1 X7.125 Y22.331 E0.0204
G1 X6.704 Y22.003 E0.0204
G1 X6.300 Y21.654 E0.0204
G1 X5.914 Y21.286 E0.0204
G1 X5.546 Y20.900 E0.0204
G1 X5.197 Y20.496 E0.0204
G1 X4.869 Y20.075 E0.0204
G1 X4.562 Y19.639 E0.0204
G1 X4.277 Y19.188 E0.0204
G1 X4.014 Y18.724 E0.0204
G1 X3.774 Y18.248 E0.0204
G1 X3.557 Y17.760 E0.0204
G1 X3.365 Y17.262 E0.0204
G1 X3.198 Y16.755 E0.0204
G1 X3.056 Y16.241 E0.0204
G1 X2.939 Y15.721 E0.0204
G1 X2.848 Y15.195 E0.0204
G1 X2.782 Y14.665 E0.0204
G1 X2.743 Y14.133 E0.0204
G1 X2.730 Y13.600 E0.0204
G1 X2.743 Y13.067 E0.0204
G1 X2.782 Y12.534 E0.0204
G1 X2.848 Y12.005 E0.0204
G1 X2.939 Y11.479 E0.0204
G1 X3.056 Y10.959 E0.0204
G1 X3.198 Y10.445 E0.0204
G1 X3.365 Y9.938 E0.0204
G1 X3.558 Y9.440 E0.0204
G1 X3.774 Y8.952 E0.0204
G1 X4.014 Y8.476 E0.0204
G1 X4.276 Y8.012 E0.0204
G1 X4.562 Y7.561 E0.0204
G1 X4.869 Y7.125 E0.0204
G1 X5.197 Y6.704 E0.0204
G1 X5.546 Y6.300 E0.0204
G1 X5.914 Y5.914 E0.0204
G1 X6.300 Y5.546 E0.0204
G1 X6.684 Y5.215 E0.0194
G1 X7.125 Y4.869 E0.0215
G1 X7.561 Y4.562 E0.0204
G1 X8.012 Y4.276 E0.0204
G1 X8.476 Y4.014 E0.0204
G1 X8.953 Y3.774 E0.0204
G1 X9.440 Y3.557 E0.0204
G1 X9.938 Y3.365 E0.0204
G1 X10.445 Y3.198 E0.0204
G1 X10.959 Y3.056 E0.0204
G1 X11.479 Y2.939 E0.0204
G1 X12.005 Y2.848 E0.0204
G1 X12.534 Y2.782 E0.0204
G1 X13.067 Y2.743 E0.0204
G1 X13.600 Y2.730 E0.0204
G1 X14.133 Y2.743 E0.0204
G1 X14.666 Y2.782 E0.0204
G1 X15.195 Y2.848 E0.0204
G1 X15.721 Y2.939 E0.0204
G1 X16.241 Y3.056 E0.0204
G1 X16.755 Y3.198 E0.0204
G1 X17.262 Y3.365 E0.0204
G1 X17.760 Y3.558 E0.0204
G1 X18.248 Y3.774 E0.0204
G1 X18.724 Y4.014 E0.0204
G1 X19.188 Y4.277 E0.0204
G1 X19.639 Y4.562 E0.0204
G1 X20.075 Y4.869 E0.0204
G1 X20.496 Y5.197 E0.0204
G1 X20.900 Y5.546 E0.0204
G1 X21.286 Y5.914 E0.0204
G1 X21.654 Y6.300 E0.0204
G1 X22.003 Y6.704 E0.0204
G1 X22.331 Y7.125 E0.0204
G1 X22.638 Y7.561 E0.0204
G1 X22.923 Y8.012 E0.0204
G1 X23.186 Y8.476 E0.0204
G1 X23.426 Y8.952 E0.0204
G1 X23.642 Y9.440 E0.0204
G1 X23.835 Y9.938 E0.0204
G1 X24.002 Y10.445 E0.0204
G1 X24.144 Y10.959 E0.0204
G1 X24.261 Y11.479 E0.0204
G1 X24.352 Y12.005 E0.0204
G1 X24.418 Y12.534 E0.0204
G1 X24.457 Y13.067 E0.0204
G1 X24.470 Y13.600 E0.0204
G1 X24.457 Y14.133 E0.0204
G1 X24.418 Y14.665 E0.0204
G1 X24.352 Y15.195 E0.0204
G1 X24.261 Y15.721 E0.0204
G1 X24.144 Y16.241 E0.0204
G1 X24.002 Y16.755 E0.0204
G1 X23.835 Y17.262 E0.0204
G1 X23.642 Y17.760 E0.0204
G1 X23.426 Y18.248 E0.0204
G1 X23.186 Y18.724 E0.0204
G1 X22.923 Y19.188 E0.0204
G1 X22.638 Y19.639 E0.0204
G1 X22.331 Y20.075 E0.0204
G1 X22.003 Y20.496 E0.0204
G1 X21.654 Y20.900 E0.0204
G1 X21.286 Y21.286 E0.0204
G1 X20.900 Y21.654 E0.0204
G1 X20.496 Y22.003 E0.0204
G1 X20.075 Y22.331 E0.0204
G1 X19.639 Y22.638 E0.0204
G1 X19.188 Y22.923 E0.0204
G1 X18.724 Y23.186 E0.0204
G1 X18.248 Y23.426 E0.0204
G1 X17.760 Y23.642 E0.0204
G1 X17.262 Y23.835 E0.0204
G1 X16.755 Y24.002 E0.0204
G1 X16.241 Y24.144 E0.0204
G1 X15.721 Y24.261 E0.0204
G1 X15.195 Y24.352 E0.0204
G1 X14.666 Y24.418 E0.0204
G1 X14.133 Y24.457 E0.0204
G1 X13.600 Y24.470 E0.0204
G1 X13.067 Y24.457 E0.0204
G1 X12.534 Y24.418 E0.0204
G1 E-1.9000 F1200
; feature inner perimeter
G1 Z0.700 F1200
G1 X13.287 Y16.775 F9000
G1 Z0.200 F1200
G1 E1.9000 F1200
G1 X13.600 Y16.791 E0.0120 F1800
G1 X13.913 Y16.775 E0.0120
G1 X14.222 Y16.730 E0.0120
G1 X14.526 Y16.653 E0.0120
G1 X14.821 Y16.548 E0.0120
G1 X15.104 Y16.414 E0.0120
G1 X15.373 Y16.253 E0.0120
G1 X15.624 Y16.067 E0.0120
G1 X15.856 Y15.856 E0.0120
G1 X16.067 Y15.624 E0.0120
G1 X16.253 Y15.373 E0.0120
G1 X16.414 Y15.104 E0.0120
G1 X16.548 Y14.821 E0.0120
G1 X16.653 Y14.526 E0.0120
G1 X16.730 Y14.222 E0.0120
G1 X16.775 Y13.913 E0.0120
G1 X16.791 Y13.600 E0.0120
G1 X16.775 Y13.287 E0.0120
G1 X16.729 Y12.978 E0.0120
G1 X16.653 Y12.674 E0.0120
G1 X16.548 Y12.379 E0.0120
G1 X16.414 Y12.096 E0.0120
G1 X16.253 Y11.827 E0.0120
G1 X16.067 Y11.576 E0.0120
G1 X15.856 Y11.344 E0.0120
G1 X15.624 Y11.133 E0.0120
G1 X15.373 Y10.947 E0.0120
G1 X15.104 Y10.786 E0.0120
G1 X14.821 Y10.652 E0.0120
G1 X14.526 Y10.547 E0.0120
G1 X14.222 Y10.470 E0.0120
G1 X13.913 Y10.425 E0.0120
G1 X13.600 Y10.409 E0.0120
G1 X13.287 Y10.425 E0.0120
G1 X12.977 Y10.470 E0.0120
G1 X12.674 Y10.547 E0.0120
G1 X12.379 Y10.652 E0.0120
G1 X12.096 Y10.786 E0.0120
G1 X11.827 Y10.947 E0.0120
G1 X11.576 Y11.133 E0.0120
G1 X11.344 Y11.344 E0.0120
G1 X11.133 Y11.576 E0.0120
G1 X10.947 Y11.827 E0.0120
G1 X10.786 Y12.096 E0.0120
G1 X10.652 Y12.379 E0.0120
G1 X10.547 Y12.674 E0.0120
G1 X10.470 Y12.977 E0.0120
G1 X10.425 Y13.287 E0.0120
G1 X10.408 Y13.617 E0.0126
G1 X10.466 Y14.206 E0.0226
G1 X10.547 Y14.526 E0.0126
G1 X10.652 Y14.821 E0.0120
G1 X10.786 Y15.104 E0.0120
G1 X10.947 Y15.373 E0.0120
G1 X11.133 Y15.624 E0.0120
G1 X11.344 Y15.856 E0.0120
G1 X11.576 Y16.067 E0.0120
