; G-Code generated by Simplify3D(R) Version 4.1.2
; Apr 2, 2020 at 4:21:03 PM
; Settings Summary
;   processName,Process1
;   applyToModels,splint 2p A,splint 2p B
;   profileName,MakerBot Replicator 2 HBP (modified)
;   profileVersion,2020-03-12 10:48:50
;   baseProfile,MakerBot Replicator 2(2)
;   printMaterial,PLA
;   printQuality,Medium
;   printExtruders,
;   extruderName,Primary Extruder
;   extruderToolheadNumber,0
;   extruderDiameter,0.4
;   extruderAutoWidth,0
;   extruderWidth,0.4
;   extrusionMultiplier,1
;   extruderUseRetract,1
;   extruderRetractionDistance,1.9
;   extruderExtraRestartDistance,0
;   extruderRetractionZLift,0.5
;   extruderRetractionSpeed,1200
;   extruderUseCoasting,0
;   extruderCoastingDistance,0.2
;   extruderUseWipe,0
;   extruderWipeDistance,5
;   primaryExtruder,0
;   layerHeight,0.2
;   topSolidLayers,3
;   bottomSolidLayers,3
;   perimeterOutlines,2
;   printPerimetersInsideOut,1
;   startPointOption,3
;   startPointOriginX,0
;   startPointOriginY,150
;   sequentialIslands,0
;   spiralVaseMode,0
;   firstLayerHeightPercentage,100
;   firstLayerWidthPercentage,115
;   firstLayerUnderspeed,0.5
;   useRaft,0
;   raftExtruder,0
;   raftTopLayers,2
;   raftBaseLayers,1
;   raftOffset,1
;   raftSeparationDistance,0.14
;   raftTopInfill,90
;   aboveRaftSpeedMultiplier,0.3
;   useSkirt,0
;   skirtExtruder,0
;   skirtLayers,1
;   skirtOutlines,5
;   skirtOffset,0
;   usePrimePillar,0
;   primePillarExtruder,999
;   primePillarWidth,12
;   primePillarLocation,7
;   primePillarSpeedMultiplier,1
;   useOozeShield,0
;   oozeShieldExtruder,999
;   oozeShieldOffset,2
;   oozeShieldOutlines,1
;   oozeShieldSidewallShape,1
;   oozeShieldSidewallAngle,30
;   oozeShieldSpeedMultiplier,1
;   infillExtruder,0
;   internalInfillPattern,Rectilinear
;   externalInfillPattern,Rectilinear
;   infillPercentage,15
;   outlineOverlapPercentage,25
;   infillExtrusionWidthPercentage,100
;   minInfillLength,5
;   infillLayerInterval,1
;   internalInfillAngles,45,-45
;   overlapInternalInfillAngles,0
;   externalInfillAngles,45,-45
;   generateSupport,1
;   supportExtruder,0
;   supportInfillPercentage,30
;   supportExtraInflation,0.5
;   supportBaseLayers,0
;   denseSupportExtruder,0
;   denseSupportLayers,2
;   denseSupportInfillPercentage,90
;   supportLayerInterval,1
;   supportHorizontalPartOffset,0.3
;   supportUpperSeparationLayers,1
;   supportLowerSeparationLayers,1
;   supportType,1
;   supportGridSpacing,2
;   maxOverhangAngle,45
;   supportAngles,45,-45
;   temperatureName,Primary Extruder,Heated Build Platform
;   temperatureNumber,0,0
;   temperatureSetpointCount,1,1
;   temperatureSetpointLayers,1,1
;   temperatureSetpointTemperatures,230,60
;   temperatureStabilizeAtStartup,1,1
;   temperatureHeatedBed,0,1
;   fanLayers,1,2
;   fanSpeeds,0,100
;   blipFanToFullPower,1
;   adjustSpeedForCooling,1
;   minSpeedLayerTime,15
;   minCoolingSpeedSlowdown,20
;   increaseFanForCooling,1
;   minFanLayerTime,45
;   maxCoolingFanSpeed,100
;   increaseFanForBridging,1
;   bridgingFanSpeed,100
;   use5D,1
;   relativeEdistances,1
;   allowEaxisZeroing,0
;   independentExtruderAxes,1
;   includeM10123,0
;   stickySupport,1
;   applyToolheadOffsets,0
;   gcodeXoffset,0
;   gcodeYoffset,0
;   gcodeZoffset,0
;   overrideMachineDefinition,1
;   machineTypeOverride,0
;   strokeXoverride,280
;   strokeYoverride,150
;   strokeZoverride,150
;   originOffsetXoverride,140
;   originOffsetYoverride,75
;   originOffsetZoverride,0
;   homeXdirOverride,1
;   homeYdirOverride,1
;   homeZdirOverride,-1
;   flipXoverride,1
;   flipYoverride,-1
;   flipZoverride,1
;   toolheadOffsets,0,0|0,0|0,0|0,0|0,0|0,0
;   overrideFirmwareConfiguration,1
;   firmwareTypeOverride,MakerBot/Sailfish Firmware
;   GPXconfigOverride,r2h
;   baudRateOverride,115200
;   overridePrinterModels,1
;   printerModelsOverride,MakerBot_Replicator2.stl
;   startingGcode,; **** Replicator 2 start.gcode ****,M73 P0 ; enable build progress,G162 X Y F3000 ; home XY maximum,G161 Z F1200 ; home Z minimum,G92 Z-5 ; set Z to -5,G1 Z0 ; move Z to 0,G161 Z F100 ; home Z slowly,M132 X Y Z A B ; recall home offsets,G1 X-145 Y-75 Z30 F9000 ; move to wait position off table,G130 X20 Y20 Z20 A20 B20 ; lower stepper Vrefs while heating,M126 S[fan_speed_pwm],M140 S[bed0_temperature] T0,M134 T0 ; stabilize bed temperature,M104 S[extruder0_temperature] T0,M133 T0 ; stabilize extruder temperature,G130 X127 Y127 Z40 A127 B127 ; default stepper Vrefs,G92 A0 ; zero extruder,G1 Z0.4 ; position nozzle,G1 E25 F300 ; purge nozzle,G1 X-140 Y-70 Z0.15 F1200 ; slow wipe,G1 X-135 Y-65 Z0.5 F1200 ; lift,G92 A0 ; zero extruder,M73 P1 ;@body (notify GPX body has started),; **** end of start.gcode ****
;   layerChangeGcode,
;   retractionGcode,
;   toolChangeGcode,
;   endingGcode,; **** Replicator 2 end.gcode ****,M73 P100 ; end build progress,G1 Z155 F1000 ; send Z axis to bottom of machine,M104 S0 T0 ; cool down extruder,M140 S0 T0 ; cool down HBP,M127 ; stop blower fan,G162 X Y F3000 ; home XY maximum,M18 ; disable stepper,M0 ; stop codes,M72 P1 ; play Ta-Da song,; **** end of end.gcode ****
;   exportFileFormat,gcode
;   celebration,0
;   celebrationSong,Random Song
;   postProcessing,
;   defaultSpeed,4800
;   outlineUnderspeed,0.5
;   solidInfillUnderspeed,1
;   supportUnderspeed,1
;   rapidXYspeed,9000
;   rapidZspeed,1200
;   minBridgingArea,50
;   bridgingExtraInflation,0
;   bridgingExtrusionMultiplier,1
;   bridgingSpeedMultiplier,0.8
;   useFixedBridgingAngle,0
;   fixedBridgingAngle,0
;   applyBridgingToPerimeters,0
;   filamentDiameters,1.75|1.75|1.75|1.75|1.75|1.75
;   filamentPricesPerKg,46|46|46|46|46|46
;   filamentDensities,1.25|1.25|1.25|1.25|1.25|1.25
;   useMinPrintHeight,0
;   minPrintHeight,0
;   useMaxPrintHeight,0
;   maxPrintHeight,4.84
;   useDiaphragm,0
;   diaphragmLayerInterval,20
;   robustSlicing,1
;   mergeAllIntoSolid,0
;   onlyRetractWhenCrossingOutline,0
;   retractBetweenLayers,0
;   useRetractionMinTravel,1
;   retractionMinTravel,7
;   retractWhileWiping,1
;   onlyWipeOutlines,1
;   avoidCrossingOutline,0
;   maxMovementDetourFactor,3
;   toolChangeRetractionDistance,12
;   toolChangeExtraRestartDistance,-0.5
;   toolChangeRetractionSpeed,600
;   externalThinWallType,0
;   internalThinWallType,0
;   thinWallAllowedOverlapPercentage,10
;   singleExtrusionMinLength,1
;   singleExtrusionMinPrintingWidthPercentage,50
;   singleExtrusionMaxPrintingWidthPercentage,200
;   singleExtrusionEndpointExtension,0.2
;   horizontalSizeCompensation,0
G90
M83
; **** Replicator 2 start.gcode ****
M73 P0 ; enable build progress
G162 X Y F3000 ; home XY maximum
G161 Z F1200 ; home Z minimum
G92 Z-5 ; set Z to -5
G1 Z0 ; move Z to 0
G161 Z F100 ; home Z slowly
M132 X Y Z A B ; recall home offsets
G1 X-145 Y-75 Z30 F9000 ; move to wait position off table
G130 X20 Y20 Z20 A20 B20 ; lower stepper Vrefs while heating
M126 S47
M140 S60 T0
M134 T0 ; stabilize bed temperature
M104 S230 T0
M133 T0 ; stabilize extruder temperature
G130 X127 Y127 Z40 A127 B127 ; default stepper Vrefs
G92 A0 ; zero extruder
G1 Z0.4 ; position nozzle
G1 E25 F300 ; purge nozzle
G1 X-140 Y-70 Z0.15 F1200 ; slow wipe
G1 X-135 Y-65 Z0.5 F1200 ; lift
G92 A0 ; zero extruder
M73 P1 ;@body (notify GPX body has started)
; **** end of start.gcode ****
; process Process1
; layer 1, Z = 0.200
M135 T0
G1 E-1.9000 F1200
; feature inner perimeter
; tool H0.200 W0.460
G1 Z0.500 F1200
G1 X-0.958 Y10.263 F9000
G1 Z0.200 F1200
G1 E1.9000 F1200
G1 X-0.958 Y-10.362 E0.7889 F1800
G1 X16.932 Y-10.362 E0.6843
G1 X16.932 Y10.263 E0.7889
G1 X-0.958 Y10.263 E0.6843
; feature outer perimeter
G1 X-1.418 Y10.723 F9000
G1 X-1.418 Y-10.822 E0.8241 F1200
G1 X17.392 Y-10.822 E0.7195
G1 X17.392 Y10.723 E0.8241
G1 X-1.418 Y10.723 E0.7195
; feature solid layer
G1 X-0.491 Y9.918 F9000
G1 X-0.613 Y9.795 E0.0066 F2400
G1 X-0.613 Y9.145 E0.0249
G1 X0.160 Y9.918 E0.0418
G1 X0.810 Y9.918 E0.0249
G1 X-0.613 Y8.494 E0.0770
G1 X-0.613 Y7.844 E0.0249
G1 X1.461 Y9.918 E0.1122
G1 X2.111 Y9.918 E0.0249
G1 X-0.613 Y7.193 E0.1474
G1 X-0.613 Y6.542 E0.0249
G1 X2.762 Y9.918 E0.1826
G1 X3.412 Y9.918 E0.0249
G1 X-0.613 Y5.892 E0.2178
G1 X-0.613 Y5.241 E0.0249
G1 X4.063 Y9.918 E0.2530
G1 X4.714 Y9.918 E0.0249
G1 X-0.613 Y4.591 E0.2881
G1 X-0.613 Y3.940 E0.0249
G1 X5.364 Y9.918 E0.3233
G1 X6.015 Y9.918 E0.0249
G1 X-0.613 Y3.290 E0.3585
G1 X-0.613 Y2.639 E0.0249
G1 X6.665 Y9.918 E0.3937
G1 X7.316 Y9.918 E0.0249
G1 X-0.613 Y1.989 E0.4289
G1 X-0.613 Y1.338 E0.0249
G1 X7.966 Y9.918 E0.4641
G1 X8.617 Y9.918 E0.0249
G1 X-0.613 Y0.688 E0.4993
G1 X-0.613 Y0.037 E0.0249
G1 X9.267 Y9.918 E0.5345
G1 X9.918 Y9.918 E0.0249
G1 X-0.613 Y-0.613 E0.5697
G1 X-0.613 Y-1.264 E0.0249
G1 X10.568 Y9.918 E0.6049
G1 X11.219 Y9.918 E0.0249
G1 X-0.613 Y-1.915 E0.6400
G1 X-0.613 Y-2.565 E0.0249
G1 X11.869 Y9.918 E0.6752
G1 X12.520 Y9.918 E0.0249
G1 X-0.613 Y-3.216 E0.7104
G1 X-0.613 Y-3.866 E0.0249
G1 X13.171 Y9.918 E0.7456
G1 X13.821 Y9.918 E0.0249
G1 X-0.613 Y-4.517 E0.7808
G1 X-0.613 Y-5.167 E0.0249
G1 X14.472 Y9.918 E0.8160
G1 X15.122 Y9.918 E0.0249
G1 X-0.613 Y-5.818 E0.8512
G1 X-0.613 Y-6.468 E0.0249
G1 X15.773 Y9.918 E0.8864
G1 X16.423 Y9.918 E0.0249
G1 X-0.613 Y-7.119 E0.9216
G1 X-0.613 Y-7.769 E0.0249
G1 X16.587 Y9.431 E0.9304
G1 X16.587 Y8.780 E0.0249
G1 X-0.613 Y-8.420 E0.9304
G1 X-0.613 Y-9.070 E0.0249
G1 X16.587 Y8.129 E0.9304
G1 X16.587 Y7.479 E0.0249
G1 X-0.613 Y-9.721 E0.9304
G1 X-0.613 Y-10.017 E0.0113
G1 X-0.259 Y-10.017 E0.0136
G1 X16.587 Y6.828 E0.9112
G1 X16.587 Y6.178 E0.0249
G1 X0.392 Y-10.017 E0.8760
G1 X1.042 Y-10.017 E0.0249
G1 X16.587 Y5.527 E0.8408
G1 X16.587 Y4.877 E0.0249
G1 X1.693 Y-10.017 E0.8056
G1 X2.343 Y-10.017 E0.0249
G1 X16.587 Y4.226 E0.7705
G1 X16.587 Y3.576 E0.0249
G1 X2.994 Y-10.017 E0.7353
G1 X3.644 Y-10.017 E0.0249
G1 X16.587 Y2.925 E0.7001
G1 X16.587 Y2.275 E0.0249
G1 X4.295 Y-10.017 E0.6649
G1 X4.945 Y-10.017 E0.0249
G1 X16.587 Y1.624 E0.6297
G1 X16.587 Y0.974 E0.0249
G1 X5.596 Y-10.017 E0.5945
G1 X6.246 Y-10.017 E0.0249
G1 X16.587 Y0.323 E0.5593
G1 X16.587 Y-0.327 E0.0249
G1 X6.897 Y-10.017 E0.5241
G1 X7.547 Y-10.017 E0.0249
G1 X16.587 Y-0.978 E0.4889
G1 X16.587 Y-1.629 E0.0249
G1 X8.198 Y-10.017 E0.4538
G1 X8.849 Y-10.017 E0.0249
G1 X16.587 Y-2.279 E0.4186
G1 X16.587 Y-2.930 E0.0249
G1 X9.499 Y-10.017 E0.3834
G1 X10.150 Y-10.017 E0.0249
G1 X16.587 Y-3.580 E0.3482
G1 X16.587 Y-4.231 E0.0249
G1 X10.800 Y-10.017 E0.3130
G1 X11.451 Y-10.017 E0.0249
G1 X16.587 Y-4.881 E0.2778
G1 X16.587 Y-5.532 E0.0249
G1 X12.101 Y-10.017 E0.2426
G1 X12.752 Y-10.017 E0.0249
G1 X16.587 Y-6.182 E0.2074
G1 X16.587 Y-6.833 E0.0249
G1 X13.402 Y-10.017 E0.1722
G1 X14.053 Y-10.017 E0.0249
G1 X16.587 Y-7.483 E0.1371
G1 X16.587 Y-8.134 E0.0249
G1 X14.703 Y-10.017 E0.1019
G1 X15.354 Y-10.017 E0.0249
G1 X16.587 Y-8.784 E0.0667
G1 X16.587 Y-9.435 E0.0249
G1 X16.004 Y-10.017 E0.0315
G1 E-1.9000 F1200
; feature inner perimeter
G1 Z0.700 F1200
G1 X-7.338 Y10.362 F9000
G1 Z0.200 F1200
G1 E1.9000 F1200
G1 X-7.568 Y10.362 E0.0088 F1800
G1 X-7.568 Y-10.362 E0.7927
G1 X-7.338 Y-10.362 E0.0088
G1 X-7.338 Y10.362 E0.7927
G1 X-11.192 Y10.362 F9000
G1 X-16.929 Y10.362 E0.2194 F1800
G1 X-16.914 Y5.563 E0.1836
G1 X-11.192 Y5.563 E0.2188
G1 X-11.192 Y10.362 E0.1836
G1 E-1.9000 F1200
G1 Z0.700 F1200
G1 X-11.192 Y-5.563 F9000
G1 Z0.200 F1200
G1 E1.9000 F1200
G1 X-16.914 Y-5.563 E0.2188 F1800
G1 X-16.929 Y-10.362 E0.1836
G1 X-11.192 Y-10.362 E0.2194
G1 X-11.192 Y-5.563 E0.1836
; feature outer perimeter
G1 X-10.732 Y-5.103 F9000
G1 X-17.372 Y-5.103 E0.2540 F1200
G1 X-17.391 Y-10.822 E0.2188
G1 X-6.878 Y-10.822 E0.4021
G1 X-6.878 Y10.822 E0.8279
G1 X-17.391 Y10.822 E0.4021
G1 X-17.372 Y5.103 E0.2188
G1 X-10.732 Y5.103 E0.2540
G1 X-10.732 Y10.177 E0.1941
G1 X-8.028 Y10.177 E0.1034
G1 X-8.028 Y-10.177 E0.7785
G1 X-10.732 Y-10.177 E0.1034
G1 X-10.732 Y-5.103 E0.1941
; feature solid layer
G1 X-11.969 Y-10.017 F9000
G1 X-11.537 Y-9.585 E0.0234 F2400
G1 X-11.537 Y-8.935 E0.0249
G1 X-12.619 Y-10.017 E0.0585
G1 X-13.270 Y-10.017 E0.0249
G1 X-11.537 Y-8.284 E0.0937
G1 X-11.537 Y-7.634 E0.0249
G1 X-13.920 Y-10.017 E0.1289
G1 X-14.571 Y-10.017 E0.0249
G1 X-11.537 Y-6.983 E0.1641
G1 X-11.537 Y-6.333 E0.0249
G1 X-15.221 Y-10.017 E0.1993
G1 X-15.872 Y-10.017 E0.0249
G1 X-11.763 Y-5.908 E0.2223
G1 X-12.413 Y-5.908 E0.0249
G1 X-16.522 Y-10.017 E0.2223
G1 X-16.583 Y-10.017 E0.0023
G1 X-16.581 Y-9.425 E0.0226
G1 X-13.064 Y-5.908 E0.1903
G1 X-13.714 Y-5.908 E0.0249
G1 X-16.579 Y-8.773 E0.1550
G1 X-16.577 Y-8.120 E0.0250
G1 X-14.365 Y-5.908 E0.1197
G1 X-15.015 Y-5.908 E0.0249
G1 X-16.575 Y-7.467 E0.0843
G1 X-16.573 Y-6.815 E0.0250
G1 X-15.666 Y-5.908 E0.0490
G1 X-16.317 Y-5.908 E0.0249
G1 X-16.571 Y-6.162 E0.0137
G1 E-1.9000 F1200
G1 Z0.700 F1200
G1 X-11.657 Y5.908 F9000
G1 Z0.200 F1200
G1 E1.9000 F1200
G1 X-11.537 Y6.028 E0.0065 F2400
G1 X-11.537 Y6.678 E0.0249
G1 X-12.307 Y5.908 E0.0417
G1 X-12.958 Y5.908 E0.0249
G1 X-11.537 Y7.329 E0.0768
G1 X-11.537 Y7.979 E0.0249
G1 X-13.608 Y5.908 E0.1120
G1 X-14.259 Y5.908 E0.0249
G1 X-11.537 Y8.630 E0.1472
G1 X-11.537 Y9.280 E0.0249
G1 X-14.909 Y5.908 E0.1824
G1 X-15.560 Y5.908 E0.0249
G1 X-11.537 Y9.931 E0.2176
G1 X-11.537 Y10.017 E0.0033
G1 X-12.101 Y10.017 E0.0216
G1 X-16.210 Y5.908 E0.2223
G1 X-16.570 Y5.908 E0.0137
G1 X-16.571 Y6.198 E0.0111
G1 X-12.752 Y10.017 E0.2066
G1 X-13.402 Y10.017 E0.0249
G1 X-16.573 Y6.847 E0.1715
G1 X-16.575 Y7.495 E0.0248
G1 X-14.053 Y10.017 E0.1364
G1 X-14.703 Y10.017 E0.0249
G1 X-16.577 Y8.143 E0.1014
G1 X-16.579 Y8.792 E0.0248
G1 X-15.354 Y10.017 E0.0663
G1 X-16.004 Y10.017 E0.0249
G1 X-16.581 Y9.440 E0.0312
; layer 2, Z = 0.400
M126 S255
; feature inner perimeter
; tool H0.200 W0.400
G1 Z0.400 F1200
G1 X-11.102 Y10.452 F9000
G1 X-17.020 Y10.452 E0.1968 F3600
G1 X-17.003 Y5.473 E0.1656
G1 X-11.102 Y5.473 E0.1963
G1 X-11.102 Y10.452 E0.1656
G1 X-7.658 Y10.452 F9000
G1 X-7.658 Y-10.452 E0.6953 F3600
G1 X-7.248 Y-10.452 E0.0136
G1 X-7.248 Y10.452 E0.6953
G1 X-7.658 Y10.452 E0.0136
G1 E-1.9000 F1200
G1 Z0.900 F1200
G1 X-11.102 Y-5.473 F9000
G1 Z0.400 F1200
G1 E1.9000 F1200
G1 X-17.003 Y-5.473 E0.1963 F3600
G1 X-17.020 Y-10.452 E0.1656
G1 X-11.102 Y-10.452 E0.1968
G1 X-11.102 Y-5.473 E0.1656
; feature outer perimeter
G1 X-10.702 Y-5.073 F9000
G1 X-17.402 Y-5.073 E0.2228 F2400
G1 X-17.421 Y-10.852 E0.1922
G1 X-6.848 Y-10.852 E0.3516
G1 X-6.848 Y10.852 E0.7219
G1 X-17.421 Y10.852 E0.3516
G1 X-17.402 Y5.073 E0.1922
G1 X-10.702 Y5.073 E0.2228
G1 X-10.702 Y10.147 E0.1688
G1 X-8.058 Y10.147 E0.0879
G1 X-8.058 Y-10.147 E0.6750
G1 X-10.702 Y-10.147 E0.0879
G1 X-10.702 Y-5.073 E0.1688
; feature solid layer
G1 X-11.402 Y-6.134 F9000
G1 X-11.763 Y-5.773 E0.0170 F4800
G1 X-12.329 Y-5.773 E0.0188
G1 X-11.402 Y-6.700 E0.0436
G1 X-11.402 Y-7.266 E0.0188
G1 X-12.895 Y-5.773 E0.0702
G1 X-13.460 Y-5.773 E0.0188
G1 X-11.402 Y-7.831 E0.0968
G1 X-11.402 Y-8.397 E0.0188
G1 X-14.026 Y-5.773 E0.1234
G1 X-14.592 Y-5.773 E0.0188
G1 X-11.402 Y-8.963 E0.1500
G1 X-11.402 Y-9.528 E0.0188
G1 X-15.157 Y-5.773 E0.1766
G1 X-15.723 Y-5.773 E0.0188
G1 X-11.402 Y-10.094 E0.2033
G1 X-11.402 Y-10.152 E0.0019
G1 X-11.910 Y-10.152 E0.0169
G1 X-16.289 Y-5.773 E0.2060
G1 X-16.704 Y-5.773 E0.0138
G1 X-16.705 Y-5.923 E0.0050
G1 X-12.475 Y-10.152 E0.1989
G1 X-13.041 Y-10.152 E0.0188
G1 X-16.707 Y-6.486 E0.1724
G1 X-16.708 Y-7.050 E0.0188
G1 X-13.607 Y-10.152 E0.1459
G1 X-14.172 Y-10.152 E0.0188
G1 X-16.710 Y-7.614 E0.1194
G1 X-16.712 Y-8.178 E0.0188
G1 X-14.738 Y-10.152 E0.0929
G1 X-15.304 Y-10.152 E0.0188
G1 X-16.714 Y-8.742 E0.0663
G1 X-16.716 Y-9.306 E0.0188
G1 X-15.869 Y-10.152 E0.0398
G1 X-16.435 Y-10.152 E0.0188
G1 X-16.718 Y-9.870 E0.0133
G1 E-1.9000 F1200
G1 Z0.900 F1200
G1 X-16.705 Y5.957 F9000
G1 Z0.400 F1200
G1 E1.9000 F1200
G1 X-16.521 Y5.773 E0.0087 F4800
G1 X-15.955 Y5.773 E0.0188
G1 X-16.707 Y6.524 E0.0353
G1 X-16.709 Y7.092 E0.0189
G1 X-15.390 Y5.773 E0.0620
G1 X-14.824 Y5.773 E0.0188
G1 X-16.710 Y7.660 E0.0887
G1 X-16.712 Y8.227 E0.0189
G1 X-14.258 Y5.773 E0.1154
G1 X-13.693 Y5.773 E0.0188
G1 X-16.714 Y8.795 E0.1421
