; G-Code generated by Simplify3D(R) Version 4.1.2
; Apr 2, 2020 at 2:50:44 PM
; Settings Summary
;   processName,Process1
;   applyToModels,ringAV1R1,ringBV1R1,ringCV1R1
;   profileName,MakerBot Replicator 2 HBP (modified)
;   profileVersion,2020-03-12 10:48:50
;   baseProfile,MakerBot Replicator 2(2)
;   printMaterial,PLA
;   printQuality,Medium
;   printExtruders,
;   extruderName,Primary Extruder
;   extruderToolheadNumber,0
;   extruderDiameter,0.4
;   extruderAutoWidth,0
;   extruderWidth,0.4
;   extrusionMultiplier,1
;   extruderUseRetract,1
;   extruderRetractionDistance,1.9
;   extruderExtraRestartDistance,0
;   extruderRetractionZLift,0.5
;   extruderRetractionSpeed,1200
;   extruderUseCoasting,0
;   extruderCoastingDistance,0.2
;   extruderUseWipe,0
;   extruderWipeDistance,5
;   primaryExtruder,0
;   layerHeight,0.2
;   topSolidLayers,3
;   bottomSolidLayers,3
;   perimeterOutlines,2
;   printPerimetersInsideOut,1
;   startPointOption,3
;   startPointOriginX,0
;   startPointOriginY,150
;   sequentialIslands,0
;   spiralVaseMode,0
;   firstLayerHeightPercentage,100
;   firstLayerWidthPercentage,115
;   firstLayerUnderspeed,0.5
;   useRaft,0
;   raftExtruder,0
;   raftTopLayers,2
;   raftBaseLayers,1
;   raftOffset,1
;   raftSeparationDistance,0.14
;   raftTopInfill,90
;   aboveRaftSpeedMultiplier,0.3
;   useSkirt,0
;   skirtExtruder,0
;   skirtLayers,1
;   skirtOutlines,5
;   skirtOffset,0
;   usePrimePillar,0
;   primePillarExtruder,999
;   primePillarWidth,12
;   primePillarLocation,7
;   primePillarSpeedMultiplier,1
;   useOozeShield,0
;   oozeShieldExtruder,999
;   oozeShieldOffset,2
;   oozeShieldOutlines,1
;   oozeShieldSidewallShape,1
;   oozeShieldSidewallAngle,30
;   oozeShieldSpeedMultiplier,1
;   infillExtruder,0
;   internalInfillPattern,Rectilinear
;   externalInfillPattern,Rectilinear
;   infillPercentage,15
;   outlineOverlapPercentage,25
;   infillExtrusionWidthPercentage,100
;   minInfillLength,5
;   infillLayerInterval,1
;   internalInfillAngles,45,-45
;   overlapInternalInfillAngles,0
;   externalInfillAngles,45,-45
;   generateSupport,0
;   supportExtruder,0
;   supportInfillPercentage,30
;   supportExtraInflation,0.5
;   supportBaseLayers,0
;   denseSupportExtruder,0
;   denseSupportLayers,2
;   denseSupportInfillPercentage,90
;   supportLayerInterval,1
;   supportHorizontalPartOffset,0.3
;   supportUpperSeparationLayers,1
;   supportLowerSeparationLayers,1
;   supportType,1
;   supportGridSpacing,2
;   maxOverhangAngle,45
;   supportAngles,45,-45
;   temperatureName,Primary Extruder,Heated Build Platform
;   temperatureNumber,0,0
;   temperatureSetpointCount,1,1
;   temperatureSetpointLayers,1,1
;   temperatureSetpointTemperatures,230,60
;   temperatureStabilizeAtStartup,1,1
;   temperatureHeatedBed,0,1
;   fanLayers,1,2
;   fanSpeeds,0,100
;   blipFanToFullPower,1
;   adjustSpeedForCooling,1
;   minSpeedLayerTime,15
;   minCoolingSpeedSlowdown,20
;   increaseFanForCooling,1
;   minFanLayerTime,45
;   maxCoolingFanSpeed,100
;   increaseFanForBridging,1
;   bridgingFanSpeed,100
;   use5D,1
;   relativeEdistances,1
;   allowEaxisZeroing,0
;   independentExtruderAxes,1
;   includeM10123,0
;   stickySupport,1
;   applyToolheadOffsets,0
;   gcodeXoffset,0
;   gcodeYoffset,0
;   gcodeZoffset,0
;   overrideMachineDefinition,1
;   machineTypeOverride,0
;   strokeXoverride,280
;   strokeYoverride,150
;   strokeZoverride,150
;   originOffsetXoverride,140
;   originOffsetYoverride,75
;   originOffsetZoverride,0
;   homeXdirOverride,1
;   homeYdirOverride,1
;   homeZdirOverride,-1
;   flipXoverride,1
;   flipYoverride,-1
;   flipZoverride,1
;   toolheadOffsets,0,0|0,0|0,0|0,0|0,0|0,0
;   overrideFirmwareConfiguration,1
;   firmwareTypeOverride,MakerBot/Sailfish Firmware
;   GPXconfigOverride,r2h
;   baudRateOverride,115200
;   overridePrinterModels,1
;   printerModelsOverride,MakerBot_Replicator2.stl
;   startingGcode,; **** Replicator 2 start.gcode ****,M73 P0 ; enable build progress,G162 X Y F3000 ; home XY maximum,G161 Z F1200 ; home Z minimum,G92 Z-5 ; set Z to -5,G1 Z0 ; move Z to 0,G161 Z F100 ; home Z slowly,M132 X Y Z A B ; recall home offsets,G1 X-145 Y-75 Z30 F9000 ; move to wait position off table,G130 X20 Y20 Z20 A20 B20 ; lower stepper Vrefs while heating,M126 S[fan_speed_pwm],M140 S[bed0_temperature] T0,M134 T0 ; stabilize bed temperature,M104 S[extruder0_temperature] T0,M133 T0 ; stabilize extruder temperature,G130 X127 Y127 Z40 A127 B127 ; default stepper Vrefs,G92 A0 ; zero extruder,G1 Z0.4 ; position nozzle,G1 E25 F300 ; purge nozzle,G1 X-140 Y-70 Z0.15 F1200 ; slow wipe,G1 X-135 Y-65 Z0.5 F1200 ; lift,G92 A0 ; zero extruder,M73 P1 ;@body (notify GPX body has started),; **** end of start.gcode ****
;   layerChangeGcode,
;   retractionGcode,
;   toolChangeGcode,
;   endingGcode,; **** Replicator 2 end.gcode ****,M73 P100 ; end build progress,G1 Z155 F1000 ; send Z axis to bottom of machine,M104 S0 T0 ; cool down extruder,M140 S0 T0 ; cool down HBP,M127 ; stop blower fan,G162 X Y F3000 ; home XY maximum,M18 ; disable stepper,M0 ; stop codes,M72 P1 ; play Ta-Da song,; **** end of end.gcode ****
;   exportFileFormat,gcode
;   celebration,0
;   celebrationSong,Random Song
;   postProcessing,
;   defaultSpeed,4800
;   outlineUnderspeed,0.5
;   solidInfillUnderspeed,1
;   supportUnderspeed,1
;   rapidXYspeed,9000
;   rapidZspeed,1200
;   minBridgingArea,50
;   bridgingExtraInflation,0
;   bridgingExtrusionMultiplier,1
;   bridgingSpeedMultiplier,0.8
;   useFixedBridgingAngle,0
;   fixedBridgingAngle,0
;   applyBridgingToPerimeters,0
;   filamentDiameters,1.75|1.75|1.75|1.75|1.75|1.75
;   filamentPricesPerKg,46|46|46|46|46|46
;   filamentDensities,1.25|1.25|1.25|1.25|1.25|1.25
;   useMinPrintHeight,0
;   minPrintHeight,0
;   useMaxPrintHeight,0
;   maxPrintHeight,4.84
;   useDiaphragm,0
;   diaphragmLayerInterval,20
;   robustSlicing,1
;   mergeAllIntoSolid,0
;   onlyRetractWhenCrossingOutline,0
;   retractBetweenLayers,0
;   useRetractionMinTravel,1
;   retractionMinTravel,7
;   retractWhileWiping,1
;   onlyWipeOutlines,1
;   avoidCrossingOutline,0
;   maxMovementDetourFactor,3
;   toolChangeRetractionDistance,12
;   toolChangeExtraRestartDistance,-0.5
;   toolChangeRetractionSpeed,600
;   externalThinWallType,0
;   internalThinWallType,0
;   thinWallAllowedOverlapPercentage,10
;   singleExtrusionMinLength,1
;   singleExtrusionMinPrintingWidthPercentage,50
;   singleExtrusionMaxPrintingWidthPercentage,200
;   singleExtrusionEndpointExtension,0.2
;   horizontalSizeCompensation,0
G90
M83
; **** Replicator 2 start.gcode ****
M73 P0 ; enable build progress
G162 X Y F3000 ; home XY maximum
G161 Z F1200 ; home Z minimum
G92 Z-5 ; set Z to -5
G1 Z0 ; move Z to 0
G161 Z F100 ; home Z slowly
M132 X Y Z A B ; recall home offsets
G1 X-145 Y-75 Z30 F9000 ; move to wait position off table
G130 X20 Y20 Z20 A20 B20 ; lower stepper Vrefs while heating
M127
M140 S60 T0
M134 T0 ; stabilize bed temperature
M104 S230 T0
M133 T0 ; stabilize extruder temperature
G130 X127 Y127 Z40 A127 B127 ; default stepper Vrefs
G92 A0 ; zero extruder
G1 Z0.4 ; position nozzle
G1 E25 F300 ; purge nozzle
G1 X-140 Y-70 Z0.15 F1200 ; slow wipe
G1 X-135 Y-65 Z0.5 F1200 ; lift
G92 A0 ; zero extruder
M73 P1 ;@body (notify GPX body has started)
; **** end of start.gcode ****
; process Process1
; layer 1, Z = 0.200
M135 T0
G1 E-1.9000 F1200
; feature inner perimeter
; tool H0.200 W0.460
G1 Z0.500 F1200
G1 X5.000 Y14.920 F9000
G1 Z0.200 F1200
G1 E1.9000 F1200
G1 X3.757 Y14.875 E0.0476 F1800
G1 X2.521 Y14.742 E0.0476
G1 X1.297 Y14.522 E0.0476
G1 X0.092 Y14.214 E0.0476
G1 X-1.088 Y13.821 E0.0476
G1 X-2.236 Y13.346 E0.0476
G1 X-2.426 Y13.251 E0.0081
G1 X-3.348 Y12.789 E0.0395
G1 X-4.418 Y12.154 E0.0476
G1 X-5.439 Y11.445 E0.0476
G1 X-5.604 Y11.312 E0.0081
G1 X-6.407 Y10.665 E0.0395
G1 X-7.318 Y9.818 E0.0476
G1 X-8.165 Y8.908 E0.0476
G1 X-8.945 Y7.939 E0.0476
G1 X-9.654 Y6.918 E0.0476
G1 X-10.289 Y5.848 E0.0476
G1 X-10.846 Y4.736 E0.0476
G1 X-11.321 Y3.588 E0.0476
G1 X-11.714 Y2.408 E0.0476
G1 X-12.022 Y1.203 E0.0476
G1 X-12.242 Y-0.021 E0.0476
G1 X-12.375 Y-1.257 E0.0476
G1 X-12.420 Y-2.500 E0.0476
G1 X-12.375 Y-3.743 E0.0476
G1 X-12.242 Y-4.979 E0.0476
G1 X-12.022 Y-6.203 E0.0476
G1 X-11.714 Y-7.408 E0.0476
G1 X-11.321 Y-8.588 E0.0476
G1 X-10.846 Y-9.736 E0.0476
G1 X-10.289 Y-10.848 E0.0476
G1 X-10.181 Y-11.030 E0.0081
G1 X-9.654 Y-11.918 E0.0395
G1 X-8.945 Y-12.939 E0.0476
G1 X-8.165 Y-13.908 E0.0476
G1 X-7.318 Y-14.818 E0.0476
G1 X-6.407 Y-15.665 E0.0476
G1 X-5.439 Y-16.445 E0.0476
G1 X-4.418 Y-17.154 E0.0476
G1 X-3.348 Y-17.789 E0.0476
G1 X-2.236 Y-18.346 E0.0476
G1 X-1.088 Y-18.821 E0.0476
G1 X0.092 Y-19.214 E0.0476
G1 X1.297 Y-19.522 E0.0476
G1 X2.521 Y-19.742 E0.0476
G1 X3.757 Y-19.875 E0.0476
G1 X5.000 Y-19.920 E0.0476
G1 X6.243 Y-19.875 E0.0476
G1 X6.453 Y-19.853 E0.0081
G1 X7.479 Y-19.742 E0.0395
G1 X8.703 Y-19.522 E0.0476
G1 X9.908 Y-19.214 E0.0476
G1 X11.088 Y-18.821 E0.0476
G1 X12.236 Y-18.346 E0.0476
G1 X13.348 Y-17.789 E0.0476
G1 X14.418 Y-17.154 E0.0476
G1 X15.439 Y-16.445 E0.0476
G1 X16.408 Y-15.665 E0.0476
G1 X17.318 Y-14.818 E0.0476
G1 X18.165 Y-13.908 E0.0476
G1 X18.945 Y-12.939 E0.0476
G1 X19.654 Y-11.918 E0.0476
G1 X20.289 Y-10.848 E0.0476
G1 X20.846 Y-9.736 E0.0476
G1 X21.321 Y-8.588 E0.0476
G1 X21.714 Y-7.408 E0.0476
G1 X22.022 Y-6.203 E0.0476
G1 X22.242 Y-4.979 E0.0476
G1 X22.375 Y-3.743 E0.0476
G1 X22.420 Y-2.500 E0.0476
G1 X22.375 Y-1.257 E0.0476
G1 X22.353 Y-1.047 E0.0081
G1 X22.242 Y-0.021 E0.0395
G1 X22.022 Y1.203 E0.0476
G1 X21.714 Y2.408 E0.0476
G1 X21.321 Y3.588 E0.0476
G1 X20.846 Y4.736 E0.0476
G1 X20.289 Y5.848 E0.0476
G1 X19.654 Y6.918 E0.0476
G1 X18.945 Y7.939 E0.0476
G1 X18.165 Y8.908 E0.0476
G1 X17.318 Y9.818 E0.0476
G1 X16.408 Y10.665 E0.0476
G1 X15.439 Y11.445 E0.0476
G1 X14.418 Y12.154 E0.0476
G1 X13.348 Y12.789 E0.0476
G1 X12.236 Y13.346 E0.0476
G1 X11.088 Y13.821 E0.0476
G1 X9.908 Y14.214 E0.0476
G1 X8.703 Y14.522 E0.0476
G1 X8.495 Y14.559 E0.0081
G1 X7.479 Y14.742 E0.0395
G1 X6.243 Y14.875 E0.0476
G1 X5.000 Y14.920 E0.0476
; feature outer perimeter
G1 X5.000 Y15.380 F9000
G1 X3.724 Y15.334 E0.0488 F1200
G1 X2.455 Y15.198 E0.0488
G1 X1.199 Y14.971 E0.0488
G1 X-0.037 Y14.656 E0.0488
G1 X-1.248 Y14.253 E0.0488
G1 X-2.428 Y13.764 E0.0488
G1 X-2.631 Y13.662 E0.0087
G1 X-3.569 Y13.193 E0.0401
G1 X-4.667 Y12.542 E0.0488
G1 X-5.715 Y11.814 E0.0488
G1 X-5.893 Y11.671 E0.0087
G1 X-6.709 Y11.013 E0.0401
G1 X-7.643 Y10.143 E0.0488
G1 X-8.513 Y9.209 E0.0488
G1 X-9.314 Y8.215 E0.0488
G1 X-10.042 Y7.167 E0.0488
G1 X-10.693 Y6.069 E0.0488
G1 X-11.264 Y4.928 E0.0488
G1 X-11.753 Y3.748 E0.0488
G1 X-12.156 Y2.537 E0.0488
G1 X-12.471 Y1.301 E0.0488
G1 X-12.698 Y0.045 E0.0488
G1 X-12.834 Y-1.224 E0.0488
G1 X-12.880 Y-2.500 E0.0488
G1 X-12.834 Y-3.776 E0.0488
G1 X-12.698 Y-5.045 E0.0488
G1 X-12.471 Y-6.301 E0.0488
G1 X-12.156 Y-7.537 E0.0488
G1 X-11.753 Y-8.748 E0.0488
G1 X-11.264 Y-9.928 E0.0488
G1 X-10.693 Y-11.069 E0.0488
G1 X-10.577 Y-11.265 E0.0087
G1 X-10.042 Y-12.167 E0.0401
G1 X-9.314 Y-13.215 E0.0488
G1 X-8.513 Y-14.209 E0.0488
G1 X-7.643 Y-15.143 E0.0488
G1 X-6.709 Y-16.013 E0.0488
G1 X-5.715 Y-16.814 E0.0488
G1 X-4.667 Y-17.542 E0.0488
G1 X-3.569 Y-18.193 E0.0488
G1 X-2.428 Y-18.764 E0.0488
G1 X-1.248 Y-19.253 E0.0488
G1 X-0.037 Y-19.656 E0.0488
G1 X1.199 Y-19.971 E0.0488
G1 X2.455 Y-20.198 E0.0488
G1 X3.724 Y-20.334 E0.0488
G1 X5.000 Y-20.380 E0.0488
G1 X6.276 Y-20.334 E0.0488
G1 X6.502 Y-20.310 E0.0087
G1 X7.544 Y-20.198 E0.0401
G1 X8.801 Y-19.971 E0.0488
G1 X10.037 Y-19.656 E0.0488
G1 X11.248 Y-19.253 E0.0488
G1 X12.428 Y-18.764 E0.0488
G1 X13.569 Y-18.193 E0.0488
G1 X14.667 Y-17.542 E0.0488
G1 X15.715 Y-16.814 E0.0488
G1 X16.709 Y-16.013 E0.0488
G1 X17.643 Y-15.143 E0.0488
G1 X18.513 Y-14.209 E0.0488
G1 X19.314 Y-13.215 E0.0488
G1 X20.042 Y-12.167 E0.0488
G1 X20.693 Y-11.069 E0.0488
G1 X21.264 Y-9.928 E0.0488
G1 X21.753 Y-8.748 E0.0488
G1 X22.156 Y-7.537 E0.0488
G1 X22.471 Y-6.301 E0.0488
G1 X22.698 Y-5.045 E0.0488
G1 X22.834 Y-3.776 E0.0488
G1 X22.880 Y-2.500 E0.0488
G1 X22.834 Y-1.224 E0.0488
G1 X22.810 Y-0.998 E0.0087
G1 X22.698 Y0.044 E0.0401
G1 X22.471 Y1.301 E0.0488
G1 X22.156 Y2.537 E0.0488
G1 X21.753 Y3.748 E0.0488
G1 X21.264 Y4.928 E0.0488
G1 X20.693 Y6.069 E0.0488
G1 X20.042 Y7.167 E0.0488
G1 X19.314 Y8.215 E0.0488
G1 X18.513 Y9.209 E0.0488
G1 X17.643 Y10.143 E0.0488
G1 X16.709 Y11.013 E0.0488
G1 X15.715 Y11.814 E0.0488
G1 X14.667 Y12.542 E0.0488
G1 X13.569 Y13.193 E0.0488
G1 X12.428 Y13.764 E0.0488
G1 X11.248 Y14.253 E0.0488
G1 X10.037 Y14.656 E0.0488
G1 X8.801 Y14.971 E0.0488
G1 X8.576 Y15.012 E0.0087
G1 X7.545 Y15.198 E0.0401
G1 X6.276 Y15.334 E0.0488
G1 X5.000 Y15.380 E0.0488
; feature inner perimeter
G1 X6.507 Y12.819 F9000
G1 X6.903 Y13.058 E0.0177 F1800
G1 X7.334 Y13.226 E0.0177
G1 X7.787 Y13.317 E0.0177
G1 X8.249 Y13.329 E0.0177
G1 X8.696 Y13.264 E0.0173
G1 X10.398 Y12.765 E0.0678
G1 X12.025 Y12.088 E0.0674
G1 X13.569 Y11.238 E0.0674
G1 X15.020 Y10.218 E0.0678
G1 X15.350 Y9.910 E0.0173
G1 X15.628 Y9.541 E0.0177
G1 X15.840 Y9.129 E0.0177
G1 X15.977 Y8.688 E0.0177
G1 X16.037 Y8.229 E0.0177
G1 X16.018 Y7.767 E0.0177
G1 X15.920 Y7.315 E0.0177
G1 X15.746 Y6.887 E0.0177
G1 X15.502 Y6.495 E0.0177
G1 X15.213 Y6.172 E0.0165
G1 X14.974 Y5.947 E0.0126
G1 X14.665 Y5.698 E0.0152
G1 X14.297 Y5.488 E0.0162
G1 X13.900 Y5.338 E0.0162
G1 X13.485 Y5.252 E0.0162
G1 X13.061 Y5.233 E0.0162
G1 X12.640 Y5.280 E0.0162
G1 X12.231 Y5.393 E0.0162
G1 X11.839 Y5.571 E0.0165
G1 X10.566 Y6.451 E0.0592
G1 X9.573 Y6.996 E0.0433
G1 X8.527 Y7.433 E0.0433
G1 X7.047 Y7.879 E0.0592
G1 X6.662 Y8.075 E0.0165
G1 X6.319 Y8.324 E0.0162
G1 X6.020 Y8.624 E0.0162
G1 X5.771 Y8.967 E0.0162
G1 X5.579 Y9.345 E0.0162
G1 X5.449 Y9.749 E0.0162
G1 X5.384 Y10.168 E0.0162
G1 X5.385 Y10.565 E0.0152
G1 X5.412 Y10.892 E0.0126
G1 X5.485 Y11.319 E0.0165
G1 X5.639 Y11.755 E0.0177
G1 X5.865 Y12.158 E0.0177
G1 X6.158 Y12.516 E0.0177
G1 X6.507 Y12.819 E0.0177
; feature outer perimeter
G1 X6.778 Y12.446 F9000
G1 X7.106 Y12.644 E0.0147 F1200
G1 X7.464 Y12.782 E0.0147
G1 X7.839 Y12.858 E0.0147
G1 X8.222 Y12.868 E0.0147
G1 X8.598 Y12.814 E0.0145
G1 X10.244 Y12.330 E0.0656
G1 X11.825 Y11.673 E0.0655
G1 X13.325 Y10.847 E0.0655
G1 X14.730 Y9.861 E0.0656
G1 X15.007 Y9.601 E0.0145
G1 X15.237 Y9.295 E0.0147
G1 X15.412 Y8.955 E0.0147
G1 X15.526 Y8.589 E0.0147
G1 X15.576 Y8.209 E0.0147
G1 X15.560 Y7.826 E0.0147
G1 X15.479 Y7.452 E0.0147
G1 X15.335 Y7.097 E0.0147
G1 X15.132 Y6.772 E0.0147
G1 X14.884 Y6.493 E0.0143
G1 X14.672 Y6.294 E0.0111
G1 X14.405 Y6.080 E0.0131
G1 X14.100 Y5.905 E0.0134
G1 X13.771 Y5.781 E0.0134
G1 X13.427 Y5.710 E0.0134
G1 X13.076 Y5.694 E0.0134
G1 X12.727 Y5.733 E0.0134
G1 X12.388 Y5.827 E0.0134
G1 X12.067 Y5.973 E0.0135
G1 X10.809 Y6.842 E0.0585
G1 X9.773 Y7.411 E0.0452
G1 X8.683 Y7.866 E0.0452
G1 X7.219 Y8.308 E0.0585
G1 X6.903 Y8.468 E0.0135
G1 X6.619 Y8.675 E0.0134
G1 X6.371 Y8.923 E0.0134
G1 X6.165 Y9.208 E0.0134
G1 X6.006 Y9.521 E0.0134
G1 X5.898 Y9.855 E0.0134
G1 X5.844 Y10.203 E0.0134
G1 X5.845 Y10.545 E0.0131
G1 X5.869 Y10.835 E0.0111
G1 X5.931 Y11.203 E0.0143
G1 X6.059 Y11.564 E0.0147
G1 X6.247 Y11.898 E0.0147
G1 X6.489 Y12.195 E0.0147
G1 X6.778 Y12.446 E0.0147
; feature inner perimeter
G1 X4.361 Y11.755 F9000
G1 X4.515 Y11.319 E0.0177 F1800
G1 X4.588 Y10.892 E0.0165
G1 X4.615 Y10.565 E0.0126
G1 X4.616 Y10.168 E0.0152
G1 X4.551 Y9.749 E0.0162
G1 X4.421 Y9.345 E0.0162
G1 X4.229 Y8.967 E0.0162
G1 X3.980 Y8.624 E0.0162
G1 X3.681 Y8.324 E0.0162
G1 X3.338 Y8.075 E0.0162
G1 X2.953 Y7.879 E0.0165
G1 X1.473 Y7.433 E0.0592
G1 X0.427 Y6.996 E0.0433
G1 X-0.566 Y6.451 E0.0433
G1 X-1.839 Y5.571 E0.0592
G1 X-2.231 Y5.393 E0.0165
G1 X-2.640 Y5.280 E0.0162
G1 X-3.061 Y5.233 E0.0162
G1 X-3.485 Y5.252 E0.0162
G1 X-3.900 Y5.338 E0.0162
G1 X-4.297 Y5.488 E0.0162
G1 X-4.665 Y5.698 E0.0162
G1 X-4.974 Y5.947 E0.0152
G1 X-5.213 Y6.172 E0.0126
G1 X-5.502 Y6.495 E0.0165
G1 X-5.746 Y6.887 E0.0177
G1 X-5.920 Y7.315 E0.0177
G1 X-6.018 Y7.767 E0.0177
G1 X-6.037 Y8.229 E0.0177
G1 X-5.977 Y8.688 E0.0177
G1 X-5.840 Y9.129 E0.0177
