; G-Code generated by Simplify3D(R) Version 4.1.2
; Apr 2, 2020 at 2:51:52 PM
; Settings Summary
;   processName,Process1
;   applyToModels,baseAV1R1,baseBV1R1
;   profileName,MakerBot Replicator 2 HBP (modified)
;   profileVersion,2020-03-12 10:48:50
;   baseProfile,MakerBot Replicator 2(2)
;   printMaterial,PLA
;   printQuality,Medium
;   printExtruders,
;   extruderName,Primary Extruder
;   extruderToolheadNumber,0
;   extruderDiameter,0.4
;   extruderAutoWidth,0
;   extruderWidth,0.4
;   extrusionMultiplier,1
;   extruderUseRetract,1
;   extruderRetractionDistance,1.9
;   extruderExtraRestartDistance,0
;   extruderRetractionZLift,0.5
;   extruderRetractionSpeed,1200
;   extruderUseCoasting,0
;   extruderCoastingDistance,0.2
;   extruderUseWipe,0
;   extruderWipeDistance,5
;   primaryExtruder,0
;   layerHeight,0.2
;   topSolidLayers,3
;   bottomSolidLayers,3
;   perimeterOutlines,2
;   printPerimetersInsideOut,1
;   startPointOption,3
;   startPointOriginX,0
;   startPointOriginY,150
;   sequentialIslands,0
;   spiralVaseMode,0
;   firstLayerHeightPercentage,100
;   firstLayerWidthPercentage,115
;   firstLayerUnderspeed,0.5
;   useRaft,0
;   raftExtruder,0
;   raftTopLayers,2
;   raftBaseLayers,1
;   raftOffset,1
;   raftSeparationDistance,0.14
;   raftTopInfill,90
;   aboveRaftSpeedMultiplier,0.3
;   useSkirt,0
;   skirtExtruder,0
;   skirtLayers,1
;   skirtOutlines,5
;   skirtOffset,0
;   usePrimePillar,0
;   primePillarExtruder,999
;   primePillarWidth,12
;   primePillarLocation,7
;   primePillarSpeedMultiplier,1
;   useOozeShield,0
;   oozeShieldExtruder,999
;   oozeShieldOffset,2
;   oozeShieldOutlines,1
;   oozeShieldSidewallShape,1
;   oozeShieldSidewallAngle,30
;   oozeShieldSpeedMultiplier,1
;   infillExtruder,0
;   internalInfillPattern,Rectilinear
;   externalInfillPattern,Rectilinear
;   infillPercentage,15
;   outlineOverlapPercentage,25
;   infillExtrusionWidthPercentage,100
;   minInfillLength,5
;   infillLayerInterval,1
;   internalInfillAngles,45,-45
;   overlapInternalInfillAngles,0
;   externalInfillAngles,45,-45
;   generateSupport,1
;   supportExtruder,0
;   supportInfillPercentage,30
;   supportExtraInflation,0.5
;   supportBaseLayers,0
;   denseSupportExtruder,0
;   denseSupportLayers,2
;   denseSupportInfillPercentage,90
;   supportLayerInterval,1
;   supportHorizontalPartOffset,0.3
;   supportUpperSeparationLayers,1
;   supportLowerSeparationLayers,1
;   supportType,1
;   supportGridSpacing,2
;   maxOverhangAngle,45
;   supportAngles,45,-45
;   temperatureName,Primary Extruder,Heated Build Platform
;   temperatureNumber,0,0
;   temperatureSetpointCount,1,1
;   temperatureSetpointLayers,1,1
;   temperatureSetpointTemperatures,230,60
;   temperatureStabilizeAtStartup,1,1
;   temperatureHeatedBed,0,1
;   fanLayers,1,2
;   fanSpeeds,0,100
;   blipFanToFullPower,1
;   adjustSpeedForCooling,1
;   minSpeedLayerTime,15
;   minCoolingSpeedSlowdown,20
;   increaseFanForCooling,1
;   minFanLayerTime,45
;   maxCoolingFanSpeed,100
;   increaseFanForBridging,1
;   bridgingFanSpeed,100
;   use5D,1
;   relativeEdistances,1
;   allowEaxisZeroing,0
;   independentExtruderAxes,1
;   includeM10123,0
;   stickySupport,1
;   applyToolheadOffsets,0
;   gcodeXoffset,0
;   gcodeYoffset,0
;   gcodeZoffset,0
;   overrideMachineDefinition,1
;   machineTypeOverride,0
;   strokeXoverride,280
;   strokeYoverride,150
;   strokeZoverride,150
;   originOffsetXoverride,140
;   originOffsetYoverride,75
;   originOffsetZoverride,0
;   homeXdirOverride,1
;   homeYdirOverride,1
;   homeZdirOverride,-1
;   flipXoverride,1
;   flipYoverride,-1
;   flipZoverride,1
;   toolheadOffsets,0,0|0,0|0,0|0,0|0,0|0,0
;   overrideFirmwareConfiguration,1
;   firmwareTypeOverride,MakerBot/Sailfish Firmware
;   GPXconfigOverride,r2h
;   baudRateOverride,115200
;   overridePrinterModels,1
;   printerModelsOverride,MakerBot_Replicator2.stl
;   startingGcode,; **** Replicator 2 start.gcode ****,M73 P0 ; enable build progress,G162 X Y F3000 ; home XY maximum,G161 Z F1200 ; home Z minimum,G92 Z-5 ; set Z to -5,G1 Z0 ; move Z to 0,G161 Z F100 ; home Z slowly,M132 X Y Z A B ; recall home offsets,G1 X-145 Y-75 Z30 F9000 ; move to wait position off table,G130 X20 Y20 Z20 A20 B20 ; lower stepper Vrefs while heating,M126 S[fan_speed_pwm],M140 S[bed0_temperature] T0,M134 T0 ; stabilize bed temperature,M104 S[extruder0_temperature] T0,M133 T0 ; stabilize extruder temperature,G130 X127 Y127 Z40 A127 B127 ; default stepper Vrefs,G92 A0 ; zero extruder,G1 Z0.4 ; position nozzle,G1 E25 F300 ; purge nozzle,G1 X-140 Y-70 Z0.15 F1200 ; slow wipe,G1 X-135 Y-65 Z0.5 F1200 ; lift,G92 A0 ; zero extruder,M73 P1 ;@body (notify GPX body has started),; **** end of start.gcode ****
;   layerChangeGcode,
;   retractionGcode,
;   toolChangeGcode,
;   endingGcode,; **** Replicator 2 end.gcode ****,M73 P100 ; end build progress,G1 Z155 F1000 ; send Z axis to bottom of machine,M104 S0 T0 ; cool down extruder,M140 S0 T0 ; cool down HBP,M127 ; stop blower fan,G162 X Y F3000 ; home XY maximum,M18 ; disable stepper,M0 ; stop codes,M72 P1 ; play Ta-Da song,; **** end of end.gcode ****
;   exportFileFormat,gcode
;   celebration,0
;   celebrationSong,Random Song
;   postProcessing,
;   defaultSpeed,4800
;   outlineUnderspeed,0.5
;   solidInfillUnderspeed,1
;   supportUnderspeed,1
;   rapidXYspeed,9000
;   rapidZspeed,1200
;   minBridgingArea,50
;   bridgingExtraInflation,0
;   bridgingExtrusionMultiplier,1
;   bridgingSpeedMultiplier,0.8
;   useFixedBridgingAngle,0
;   fixedBridgingAngle,0
;   applyBridgingToPerimeters,0
;   filamentDiameters,1.75|1.75|1.75|1.75|1.75|1.75
;   filamentPricesPerKg,46|46|46|46|46|46
;   filamentDensities,1.25|1.25|1.25|1.25|1.25|1.25
;   useMinPrintHeight,0
;   minPrintHeight,0
;   useMaxPrintHeight,0
;   maxPrintHeight,4.84
;   useDiaphragm,0
;   diaphragmLayerInterval,20
;   robustSlicing,1
;   mergeAllIntoSolid,0
;   onlyRetractWhenCrossingOutline,0
;   retractBetweenLayers,0
;   useRetractionMinTravel,1
;   retractionMinTravel,7
;   retractWhileWiping,1
;   onlyWipeOutlines,1
;   avoidCrossingOutline,0
;   maxMovementDetourFactor,3
;   toolChangeRetractionDistance,12
;   toolChangeExtraRestartDistance,-0.5
;   toolChangeRetractionSpeed,600
;   externalThinWallType,0
;   internalThinWallType,0
;   thinWallAllowedOverlapPercentage,10
;   singleExtrusionMinLength,1
;   singleExtrusionMinPrintingWidthPercentage,50
;   singleExtrusionMaxPrintingWidthPercentage,200
;   singleExtrusionEndpointExtension,0.2
;   horizontalSizeCompensation,0
G90
M83
; **** Replicator 2 start.gcode ****
M73 P0 ; enable build progress
G162 X Y F3000 ; home XY maximum
G161 Z F1200 ; home Z minimum
G92 Z-5 ; set Z to -5
G1 Z0 ; move Z to 0
G161 Z F100 ; home Z slowly
M132 X Y Z A B ; recall home offsets
G1 X-145 Y-75 Z30 F9000 ; move to wait position off table
G130 X20 Y20 Z20 A20 B20 ; lower stepper Vrefs while heating
M127
M140 S60 T0
M134 T0 ; stabilize bed temperature
M104 S230 T0
M133 T0 ; stabilize extruder temperature
G130 X127 Y127 Z40 A127 B127 ; default stepper Vrefs
G92 A0 ; zero extruder
G1 Z0.4 ; position nozzle
G1 E25 F300 ; purge nozzle
G1 X-140 Y-70 Z0.15 F1200 ; slow wipe
G1 X-135 Y-65 Z0.5 F1200 ; lift
G92 A0 ; zero extruder
M73 P1 ;@body (notify GPX body has started)
; **** end of start.gcode ****
; process Process1
; layer 1, Z = 0.200
M135 T0
G1 E-1.9000 F1200
; feature inner perimeter
; tool H0.200 W0.460
G1 Z0.500 F1200
G1 X-17.636 Y19.727 F9000
G1 Z0.200 F1200
G1 E1.9000 F1200
G1 X-19.440 Y19.779 E0.0690 F1800
G1 X-21.238 Y19.624 E0.0690
G1 X-23.027 Y19.262 E0.0698
G1 X-25.993 Y18.482 E0.1173
G1 X-28.540 Y18.004 E0.0991
G1 X-31.113 Y17.703 E0.0991
G1 X-33.701 Y17.579 E0.0991
G1 X-36.250 Y17.633 E0.0975
G1 X-36.887 Y17.615 E0.0244
G1 X-37.473 Y17.499 E0.0228
G1 X-38.030 Y17.286 E0.0228
G1 X-38.544 Y16.983 E0.0228
G1 X-39.001 Y16.599 E0.0228
G1 X-39.386 Y16.144 E0.0228
G1 X-39.690 Y15.630 E0.0228
G1 X-39.904 Y15.073 E0.0228
G1 X-40.022 Y14.489 E0.0228
G1 X-40.041 Y13.892 E0.0228
G1 X-39.960 Y13.301 E0.0228
G1 X-39.781 Y12.732 E0.0228
G1 X-39.491 Y12.165 E0.0243
G1 X-38.175 Y9.900 E0.1002
G1 X-36.982 Y7.523 E0.1017
G1 X-35.891 Y4.955 E0.1067
G1 X-35.038 Y2.575 E0.0967
G1 X-34.163 Y-0.461 E0.1208
G1 X-33.550 Y-2.178 E0.0697
G1 X-32.754 Y-3.797 E0.0690
G1 X-31.778 Y-5.316 E0.0690
G1 X-30.631 Y-6.719 E0.0693
G1 X-28.047 Y-9.343 E0.1408
G1 X-26.361 Y-11.309 E0.0991
G1 X-24.814 Y-13.387 E0.0991
G1 X-23.413 Y-15.567 E0.0991
G1 X-22.185 Y-17.801 E0.0975
G1 X-21.850 Y-18.344 E0.0244
G1 X-21.457 Y-18.793 E0.0228
G1 X-20.994 Y-19.169 E0.0228
G1 X-20.475 Y-19.463 E0.0228
G1 X-19.914 Y-19.666 E0.0228
G1 X-19.327 Y-19.772 E0.0228
G1 X-18.730 Y-19.779 E0.0228
G1 X-18.141 Y-19.686 E0.0228
G1 X-17.575 Y-19.496 E0.0228
G1 X-17.049 Y-19.214 E0.0228
G1 X-16.578 Y-18.848 E0.0228
G1 X-16.175 Y-18.408 E0.0228
G1 X-15.829 Y-17.874 E0.0243
G1 X-14.525 Y-15.602 E0.1002
G1 X-13.064 Y-13.380 E0.1017
G1 X-11.470 Y-11.251 E0.1017
G1 X-9.751 Y-9.223 E0.1017
G1 X-7.931 Y-7.324 E0.1006
G1 X-6.751 Y-6.032 E0.0670
G1 X-5.689 Y-4.571 E0.0691
G1 X-4.802 Y-2.999 E0.0690
G1 X-4.098 Y-1.335 E0.0691
G1 X-3.606 Y0.323 E0.0662
G1 X-2.924 Y2.791 E0.0979
G1 X-2.064 Y5.234 E0.0991
G1 X-1.038 Y7.613 E0.0991
G1 X0.149 Y9.916 E0.0991
G1 X1.470 Y12.097 E0.0975
G1 X1.773 Y12.658 E0.0244
G1 X1.964 Y13.223 E0.0228
G1 X2.059 Y13.812 E0.0228
G1 X2.054 Y14.409 E0.0228
G1 X1.949 Y14.996 E0.0228
G1 X1.748 Y15.558 E0.0228
G1 X1.455 Y16.078 E0.0228
G1 X1.080 Y16.542 E0.0228
G1 X0.632 Y16.936 E0.0228
G1 X0.125 Y17.251 E0.0228
G1 X-0.427 Y17.476 E0.0228
G1 X-1.010 Y17.605 E0.0228
G1 X-1.645 Y17.638 E0.0243
G1 X-4.265 Y17.631 E0.1002
G1 X-6.919 Y17.786 E0.1017
G1 X-9.560 Y18.101 E0.1017
G1 X-12.175 Y18.576 E0.1017
G1 X-15.843 Y19.469 E0.1444
G1 X-17.636 Y19.727 E0.0693
; feature outer perimeter
G1 X-17.596 Y20.186 F9000
G1 X-19.453 Y20.239 E0.0711 F1200
G1 X-21.304 Y20.080 E0.0711
G1 X-23.131 Y19.710 E0.0713
G1 X-26.094 Y18.931 E0.1172
G1 X-28.609 Y18.459 E0.0979
G1 X-31.151 Y18.162 E0.0979
G1 X-33.707 Y18.040 E0.0979
G1 X-36.252 Y18.093 E0.0974
G1 X-36.939 Y18.074 E0.0263
G1 X-37.600 Y17.942 E0.0258
G1 X-38.230 Y17.702 E0.0258
G1 X-38.811 Y17.360 E0.0258
G1 X-39.327 Y16.926 E0.0258
G1 X-39.762 Y16.411 E0.0258
G1 X-40.106 Y15.832 E0.0258
G1 X-40.348 Y15.202 E0.0258
G1 X-40.481 Y14.542 E0.0258
G1 X-40.502 Y13.868 E0.0258
G1 X-40.410 Y13.200 E0.0258
G1 X-40.208 Y12.557 E0.0258
G1 X-39.895 Y11.945 E0.0263
G1 X-38.580 Y9.681 E0.1001
G1 X-37.399 Y7.330 E0.1007
G1 X-36.319 Y4.788 E0.1056
G1 X-35.476 Y2.434 E0.0956
G1 X-34.601 Y-0.602 E0.1208
G1 X-33.975 Y-2.357 E0.0713
G1 X-33.155 Y-4.024 E0.0711
G1 X-32.151 Y-5.587 E0.0711
G1 X-30.973 Y-7.027 E0.0711
G1 X-28.386 Y-9.654 E0.1410
G1 X-26.720 Y-11.597 E0.0979
G1 X-25.192 Y-13.649 E0.0979
G1 X-23.808 Y-15.802 E0.0979
G1 X-22.582 Y-18.033 E0.0974
G1 X-22.222 Y-18.618 E0.0263
G1 X-21.777 Y-19.125 E0.0258
G1 X-21.254 Y-19.550 E0.0258
G1 X-20.668 Y-19.882 E0.0258
G1 X-20.034 Y-20.112 E0.0258
G1 X-19.371 Y-20.232 E0.0258
G1 X-18.696 Y-20.239 E0.0258
G1 X-18.031 Y-20.134 E0.0258
G1 X-17.392 Y-19.919 E0.0258
G1 X-16.798 Y-19.601 E0.0258
G1 X-16.265 Y-19.187 E0.0258
G1 X-15.810 Y-18.691 E0.0258
G1 X-15.436 Y-18.114 E0.0263
G1 X-14.133 Y-15.843 E0.1001
G1 X-12.687 Y-13.645 E0.1006
G1 X-11.110 Y-11.538 E0.1006
G1 X-9.409 Y-9.531 E0.1006
G1 X-7.595 Y-7.639 E0.1003
G1 X-6.394 Y-6.323 E0.0682
G1 X-5.302 Y-4.820 E0.0711
G1 X-4.388 Y-3.202 E0.0711
G1 X-3.665 Y-1.491 E0.0711
G1 X-3.163 Y0.196 E0.0673
G1 X-2.485 Y2.653 E0.0975
G1 X-1.635 Y5.067 E0.0979
G1 X-0.622 Y7.417 E0.0979
G1 X0.550 Y9.691 E0.0979
G1 X1.869 Y11.868 E0.0974
G1 X2.196 Y12.474 E0.0263
G1 X2.412 Y13.112 E0.0258
G1 X2.519 Y13.777 E0.0258
G1 X2.514 Y14.451 E0.0258
G1 X2.395 Y15.115 E0.0258
G1 X2.168 Y15.750 E0.0258
G1 X1.837 Y16.337 E0.0258
G1 X1.413 Y16.861 E0.0258
G1 X0.908 Y17.307 E0.0258
G1 X0.335 Y17.662 E0.0258
G1 X-0.290 Y17.916 E0.0258
G1 X-0.948 Y18.063 E0.0258
G1 X-1.634 Y18.098 E0.0263
G1 X-4.252 Y18.091 E0.1001
G1 X-6.879 Y18.244 E0.1006
G1 X-9.491 Y18.556 E0.1006
G1 X-12.080 Y19.027 E0.1006
G1 X-15.755 Y19.922 E0.1447
G1 X-17.596 Y20.186 E0.0711
G1 E-1.9000 F1200
; feature inner perimeter
G1 Z0.700 F1200
G1 X-4.254 Y15.086 F9000
G1 Z0.200 F1200
G1 E1.9000 F1200
G1 X-4.037 Y15.551 E0.0196 F1800
G1 X-3.743 Y15.972 E0.0196
G1 X-3.380 Y16.334 E0.0196
G1 X-2.960 Y16.628 E0.0196
G1 X-2.492 Y16.846 E0.0197
G1 X-1.977 Y16.980 E0.0204
G1 X-1.488 Y17.023 E0.0188
G1 X-0.977 Y16.978 E0.0196
G1 X-0.482 Y16.845 E0.0196
G1 X-0.017 Y16.628 E0.0196
G1 X0.403 Y16.334 E0.0196
G1 X0.766 Y15.971 E0.0196
G1 X1.060 Y15.551 E0.0196
G1 X1.277 Y15.086 E0.0196
G1 X1.410 Y14.591 E0.0196
G1 X1.454 Y14.080 E0.0196
G1 X1.410 Y13.569 E0.0196
G1 X1.277 Y13.074 E0.0196
G1 X1.060 Y12.609 E0.0196
G1 X0.766 Y12.189 E0.0196
G1 X0.403 Y11.826 E0.0196
G1 X-0.017 Y11.532 E0.0196
G1 X-0.482 Y11.315 E0.0196
G1 X-0.977 Y11.182 E0.0196
G1 X-1.488 Y11.137 E0.0196
G1 X-1.999 Y11.182 E0.0196
G1 X-2.495 Y11.315 E0.0196
G1 X-2.960 Y11.532 E0.0196
G1 X-3.380 Y11.826 E0.0196
G1 X-3.743 Y12.189 E0.0196
G1 X-4.037 Y12.609 E0.0196
G1 X-4.254 Y13.074 E0.0196
G1 X-4.386 Y13.569 E0.0196
G1 X-4.431 Y14.080 E0.0196
G1 X-4.386 Y14.591 E0.0196
G1 X-4.254 Y15.086 E0.0196
; feature outer perimeter
G1 X-3.820 Y14.929 F9000
G1 X-3.637 Y15.320 E0.0165 F1200
G1 X-3.389 Y15.675 E0.0165
G1 X-3.083 Y15.980 E0.0165
G1 X-2.729 Y16.229 E0.0165
G1 X-2.336 Y16.412 E0.0166
G1 X-1.899 Y16.525 E0.0173
G1 X-1.488 Y16.561 E0.0158
G1 X-1.058 Y16.523 E0.0165
G1 X-0.640 Y16.411 E0.0165
G1 X-0.248 Y16.229 E0.0165
G1 X0.106 Y15.980 E0.0165
G1 X0.412 Y15.675 E0.0165
G1 X0.660 Y15.320 E0.0165
G1 X0.843 Y14.929 E0.0165
G1 X0.955 Y14.511 E0.0165
G1 X0.992 Y14.080 E0.0165
G1 X0.955 Y13.649 E0.0165
G1 X0.843 Y13.231 E0.0165
G1 X0.660 Y12.840 E0.0165
G1 X0.412 Y12.485 E0.0165
G1 X0.106 Y12.180 E0.0165
G1 X-0.248 Y11.931 E0.0165
G1 X-0.640 Y11.749 E0.0165
G1 X-1.058 Y11.637 E0.0165
G1 X-1.488 Y11.599 E0.0165
G1 X-1.919 Y11.637 E0.0165
G1 X-2.337 Y11.749 E0.0165
G1 X-2.729 Y11.931 E0.0165
G1 X-3.083 Y12.180 E0.0165
G1 X-3.389 Y12.485 E0.0165
G1 X-3.637 Y12.840 E0.0165
G1 X-3.820 Y13.231 E0.0165
G1 X-3.932 Y13.649 E0.0165
G1 X-3.969 Y14.080 E0.0165
G1 X-3.932 Y14.511 E0.0165
G1 X-3.820 Y14.929 E0.0165
G1 E-1.9000 F1200
; feature inner perimeter
G1 Z0.700 F1200
G1 X-33.546 Y14.080 F9000
G1 Z0.200 F1200
G1 E1.9000 F1200
G1 X-33.590 Y13.569 E0.0196 F1800
G1 X-33.723 Y13.074 E0.0196
G1 X-33.940 Y12.609 E0.0196
G1 X-34.234 Y12.189 E0.0196
G1 X-34.597 Y11.826 E0.0196
G1 X-35.017 Y11.532 E0.0196
G1 X-35.482 Y11.315 E0.0196
G1 X-35.977 Y11.182 E0.0196
G1 X-36.488 Y11.137 E0.0196
G1 X-36.999 Y11.182 E0.0196
G1 X-37.495 Y11.315 E0.0196
G1 X-37.960 Y11.532 E0.0196
G1 X-38.380 Y11.826 E0.0196
G1 X-38.743 Y12.189 E0.0196
G1 X-39.037 Y12.609 E0.0196
G1 X-39.254 Y13.074 E0.0196
G1 X-39.386 Y13.569 E0.0196
G1 X-39.431 Y14.080 E0.0196
G1 X-39.386 Y14.591 E0.0196
G1 X-39.254 Y15.086 E0.0196
G1 X-39.037 Y15.551 E0.0196
G1 X-38.743 Y15.972 E0.0196
G1 X-38.380 Y16.334 E0.0196
G1 X-37.960 Y16.628 E0.0196
G1 X-37.492 Y16.846 E0.0197
G1 X-36.977 Y16.980 E0.0204
G1 X-36.488 Y17.023 E0.0188
G1 X-35.977 Y16.978 E0.0196
G1 X-35.482 Y16.845 E0.0196
G1 X-35.017 Y16.628 E0.0196
G1 X-34.597 Y16.334 E0.0196
G1 X-34.234 Y15.972 E0.0196
G1 X-33.940 Y15.551 E0.0196
G1 X-33.723 Y15.086 E0.0196
G1 X-33.590 Y14.591 E0.0196
G1 X-33.546 Y14.080 E0.0196
; feature outer perimeter
G1 X-34.008 Y14.080 F9000
G1 X-34.045 Y13.649 E0.0165 F1200
G1 X-34.157 Y13.231 E0.0165
G1 X-34.340 Y12.840 E0.0165
G1 X-34.588 Y12.485 E0.0165
G1 X-34.894 Y12.180 E0.0165
G1 X-35.248 Y11.931 E0.0165
G1 X-35.640 Y11.749 E0.0165
G1 X-36.058 Y11.637 E0.0165
G1 X-36.488 Y11.599 E0.0165
G1 X-36.919 Y11.637 E0.0165
G1 X-37.337 Y11.749 E0.0165
G1 X-37.729 Y11.931 E0.0165
G1 X-38.083 Y12.180 E0.0165
G1 X-38.389 Y12.485 E0.0165
G1 X-38.637 Y12.840 E0.0165
G1 X-38.820 Y13.231 E0.0165
G1 X-38.932 Y13.649 E0.0165
G1 X-38.969 Y14.080 E0.0165
G1 X-38.932 Y14.511 E0.0165
G1 X-38.820 Y14.929 E0.0165
G1 X-38.637 Y15.320 E0.0165
G1 X-38.389 Y15.675 E0.0165
