; G-Code generated by Simplify3D(R) Version 4.1.2
; Apr 2, 2020 at 3:02:13 PM
; Settings Summary
;   processName,Process1
;   applyToModels,CoffinJV,CoffinJV(2),CoffinJV(3),CoffinJV(2)(2)
;   profileName,MakerBot Replicator 2 HBP (modified)
;   profileVersion,2020-03-12 10:48:50
;   baseProfile,MakerBot Replicator 2(2)
;   printMaterial,PLA
;   printQuality,Medium
;   printExtruders,
;   extruderName,Primary Extruder
;   extruderToolheadNumber,0
;   extruderDiameter,0.4
;   extruderAutoWidth,0
;   extruderWidth,0.4
;   extrusionMultiplier,1
;   extruderUseRetract,1
;   extruderRetractionDistance,1.9
;   extruderExtraRestartDistance,0
;   extruderRetractionZLift,0.5
;   extruderRetractionSpeed,1200
;   extruderUseCoasting,0
;   extruderCoastingDistance,0.2
;   extruderUseWipe,0
;   extruderWipeDistance,5
;   primaryExtruder,0
;   layerHeight,0.2
;   topSolidLayers,3
;   bottomSolidLayers,3
;   perimeterOutlines,2
;   printPerimetersInsideOut,1
;   startPointOption,3
;   startPointOriginX,0
;   startPointOriginY,150
;   sequentialIslands,0
;   spiralVaseMode,0
;   firstLayerHeightPercentage,100
;   firstLayerWidthPercentage,115
;   firstLayerUnderspeed,0.5
;   useRaft,0
;   raftExtruder,0
;   raftTopLayers,2
;   raftBaseLayers,1
;   raftOffset,1
;   raftSeparationDistance,0.14
;   raftTopInfill,90
;   aboveRaftSpeedMultiplier,0.3
;   useSkirt,0
;   skirtExtruder,0
;   skirtLayers,1
;   skirtOutlines,5
;   skirtOffset,0
;   usePrimePillar,0
;   primePillarExtruder,999
;   primePillarWidth,12
;   primePillarLocation,7
;   primePillarSpeedMultiplier,1
;   useOozeShield,0
;   oozeShieldExtruder,999
;   oozeShieldOffset,2
;   oozeShieldOutlines,1
;   oozeShieldSidewallShape,1
;   oozeShieldSidewallAngle,30
;   oozeShieldSpeedMultiplier,1
;   infillExtruder,0
;   internalInfillPattern,Rectilinear
;   externalInfillPattern,Rectilinear
;   infillPercentage,15
;   outlineOverlapPercentage,25
;   infillExtrusionWidthPercentage,100
;   minInfillLength,5
;   infillLayerInterval,1
;   internalInfillAngles,45,-45
;   overlapInternalInfillAngles,0
;   externalInfillAngles,45,-45
;   generateSupport,0
;   supportExtruder,0
;   supportInfillPercentage,30
;   supportExtraInflation,0.5
;   supportBaseLayers,0
;   denseSupportExtruder,0
;   denseSupportLayers,2
;   denseSupportInfillPercentage,90
;   supportLayerInterval,1
;   supportHorizontalPartOffset,0.3
;   supportUpperSeparationLayers,1
;   supportLowerSeparationLayers,1
;   supportType,1
;   supportGridSpacing,2
;   maxOverhangAngle,45
;   supportAngles,45,-45
;   temperatureName,Primary Extruder,Heated Build Platform
;   temperatureNumber,0,0
;   temperatureSetpointCount,1,1
;   temperatureSetpointLayers,1,1
;   temperatureSetpointTemperatures,230,60
;   temperatureStabilizeAtStartup,1,1
;   temperatureHeatedBed,0,1
;   fanLayers,1,2
;   fanSpeeds,0,100
;   blipFanToFullPower,1
;   adjustSpeedForCooling,1
;   minSpeedLayerTime,15
;   minCoolingSpeedSlowdown,20
;   increaseFanForCooling,1
;   minFanLayerTime,45
;   maxCoolingFanSpeed,100
;   increaseFanForBridging,1
;   bridgingFanSpeed,100
;   use5D,1
;   relativeEdistances,1
;   allowEaxisZeroing,0
;   independentExtruderAxes,1
;   includeM10123,0
;   stickySupport,1
;   applyToolheadOffsets,0
;   gcodeXoffset,0
;   gcodeYoffset,0
;   gcodeZoffset,0
;   overrideMachineDefinition,1
;   machineTypeOverride,0
;   strokeXoverride,280
;   strokeYoverride,150
;   strokeZoverride,150
;   originOffsetXoverride,140
;   originOffsetYoverride,75
;   originOffsetZoverride,0
;   homeXdirOverride,1
;   homeYdirOverride,1
;   homeZdirOverride,-1
;   flipXoverride,1
;   flipYoverride,-1
;   flipZoverride,1
;   toolheadOffsets,0,0|0,0|0,0|0,0|0,0|0,0
;   overrideFirmwareConfiguration,1
;   firmwareTypeOverride,MakerBot/Sailfish Firmware
;   GPXconfigOverride,r2h
;   baudRateOverride,115200
;   overridePrinterModels,1
;   printerModelsOverride,MakerBot_Replicator2.stl
;   startingGcode,; **** Replicator 2 start.gcode ****,M73 P0 ; enable build progress,G162 X Y F3000 ; home XY maximum,G161 Z F1200 ; home Z minimum,G92 Z-5 ; set Z to -5,G1 Z0 ; move Z to 0,G161 Z F100 ; home Z slowly,M132 X Y Z A B ; recall home offsets,G1 X-145 Y-75 Z30 F9000 ; move to wait position off table,G130 X20 Y20 Z20 A20 B20 ; lower stepper Vrefs while heating,M126 S[fan_speed_pwm],M140 S[bed0_temperature] T0,M134 T0 ; stabilize bed temperature,M104 S[extruder0_temperature] T0,M133 T0 ; stabilize extruder temperature,G130 X127 Y127 Z40 A127 B127 ; default stepper Vrefs,G92 A0 ; zero extruder,G1 Z0.4 ; position nozzle,G1 E25 F300 ; purge nozzle,G1 X-140 Y-70 Z0.15 F1200 ; slow wipe,G1 X-135 Y-65 Z0.5 F1200 ; lift,G92 A0 ; zero extruder,M73 P1 ;@body (notify GPX body has started),; **** end of start.gcode ****
;   layerChangeGcode,
;   retractionGcode,
;   toolChangeGcode,
;   endingGcode,; **** Replicator 2 end.gcode ****,M73 P100 ; end build progress,G1 Z155 F1000 ; send Z axis to bottom of machine,M104 S0 T0 ; cool down extruder,M140 S0 T0 ; cool down HBP,M127 ; stop blower fan,G162 X Y F3000 ; home XY maximum,M18 ; disable stepper,M0 ; stop codes,M72 P1 ; play Ta-Da song,; **** end of end.gcode ****
;   exportFileFormat,gcode
;   celebration,0
;   celebrationSong,Random Song
;   postProcessing,
;   defaultSpeed,4800
;   outlineUnderspeed,0.5
;   solidInfillUnderspeed,1
;   supportUnderspeed,1
;   rapidXYspeed,9000
;   rapidZspeed,1200
;   minBridgingArea,50
;   bridgingExtraInflation,0
;   bridgingExtrusionMultiplier,1
;   bridgingSpeedMultiplier,0.8
;   useFixedBridgingAngle,0
;   fixedBridgingAngle,0
;   applyBridgingToPerimeters,0
;   filamentDiameters,1.75|1.75|1.75|1.75|1.75|1.75
;   filamentPricesPerKg,46|46|46|46|46|46
;   filamentDensities,1.25|1.25|1.25|1.25|1.25|1.25
;   useMinPrintHeight,0
;   minPrintHeight,0
;   useMaxPrintHeight,0
;   maxPrintHeight,4.84
;   useDiaphragm,0
;   diaphragmLayerInterval,20
;   robustSlicing,1
;   mergeAllIntoSolid,0
;   onlyRetractWhenCrossingOutline,0
;   retractBetweenLayers,0
;   useRetractionMinTravel,1
;   retractionMinTravel,7
;   retractWhileWiping,1
;   onlyWipeOutlines,1
;   avoidCrossingOutline,0
;   maxMovementDetourFactor,3
;   toolChangeRetractionDistance,12
;   toolChangeExtraRestartDistance,-0.5
;   toolChangeRetractionSpeed,600
;   externalThinWallType,0
;   internalThinWallType,0
;   thinWallAllowedOverlapPercentage,10
;   singleExtrusionMinLength,1
;   singleExtrusionMinPrintingWidthPercentage,50
;   singleExtrusionMaxPrintingWidthPercentage,200
;   singleExtrusionEndpointExtension,0.2
;   horizontalSizeCompensation,0
G90
M83
; **** Replicator 2 start.gcode ****
M73 P0 ; enable build progress
G162 X Y F3000 ; home XY maximum
G161 Z F1200 ; home Z minimum
G92 Z-5 ; set Z to -5
G1 Z0 ; move Z to 0
G161 Z F100 ; home Z slowly
M132 X Y Z A B ; recall home offsets
G1 X-145 Y-75 Z30 F9000 ; move to wait position off table
G130 X20 Y20 Z20 A20 B20 ; lower stepper Vrefs while heating
M127
M140 S60 T0
M134 T0 ; stabilize bed temperature
M104 S230 T0
M133 T0 ; stabilize extruder temperature
G130 X127 Y127 Z40 A127 B127 ; default stepper Vrefs
G92 A0 ; zero extruder
G1 Z0.4 ; position nozzle
G1 E25 F300 ; purge nozzle
G1 X-140 Y-70 Z0.15 F1200 ; slow wipe
G1 X-135 Y-65 Z0.5 F1200 ; lift
G92 A0 ; zero extruder
M73 P1 ;@body (notify GPX body has started)
; **** end of start.gcode ****
; process Process1
; layer 1, Z = 0.200
M135 T0
G1 E-1.9000 F1200
; feature inner perimeter
; tool H0.200 W0.460
G1 Z0.500 F1200
G1 X-16.466 Y44.700 F9000
G1 Z0.200 F1200
G1 E1.9000 F1200
G1 X-33.924 Y44.700 E0.6678 F1800
G1 X-47.174 Y16.287 E1.1991
G1 X-36.686 Y-44.700 E2.3670
G1 X-13.705 Y-44.700 E0.8790
G1 X-3.217 Y16.284 E2.3669
G1 X-16.466 Y44.700 E1.1992
; feature outer perimeter
G1 X-16.173 Y45.160 F9000
G1 X-34.217 Y45.160 E0.6902 F1200
G1 X-47.651 Y16.351 E1.2158
G1 X-37.073 Y-45.160 E2.3873
G1 X-13.317 Y-45.160 E0.9087
G1 X-2.739 Y16.348 E2.3872
G1 X-16.173 Y45.160 E1.2159
G1 E-1.9000 F1200
; feature solid layer
G1 Z0.700 F1200
G1 X-34.269 Y43.145 F9000
G1 Z0.200 F1200
G1 E1.9000 F1200
G1 X-33.059 Y44.355 E0.0655 F2400
G1 X-32.408 Y44.355 E0.0249
G1 X-34.837 Y41.926 E0.1314
G1 X-35.406 Y40.707 E0.0514
G1 X-31.758 Y44.355 E0.1973
G1 X-31.107 Y44.355 E0.0249
G1 X-35.974 Y39.488 E0.2633
G1 X-36.543 Y38.269 E0.0514
G1 X-30.457 Y44.355 E0.3292
G1 X-29.806 Y44.355 E0.0249
G1 X-37.111 Y37.050 E0.3951
G1 X-37.679 Y35.831 E0.0514
G1 X-29.156 Y44.355 E0.4611
G1 X-28.505 Y44.355 E0.0249
G1 X-38.248 Y34.613 E0.5270
G1 X-38.816 Y33.394 E0.0514
G1 X-27.855 Y44.355 E0.5929
G1 X-27.204 Y44.355 E0.0249
G1 X-39.385 Y32.175 E0.6589
G1 X-39.953 Y30.956 E0.0514
G1 X-26.553 Y44.355 E0.7248
G1 X-25.903 Y44.355 E0.0249
G1 X-40.521 Y29.737 E0.7907
G1 X-41.090 Y28.518 E0.0514
G1 X-25.252 Y44.355 E0.8567
G1 X-24.602 Y44.355 E0.0249
G1 X-41.658 Y27.299 E0.9226
G1 X-42.227 Y26.080 E0.0514
G1 X-23.951 Y44.355 E0.9886
G1 X-23.301 Y44.355 E0.0249
G1 X-42.795 Y24.861 E1.0545
G1 X-43.363 Y23.642 E0.0514
G1 X-22.650 Y44.355 E1.1204
G1 X-22.000 Y44.355 E0.0249
G1 X-43.932 Y22.423 E1.1864
G1 X-44.500 Y21.204 E0.0514
G1 X-21.349 Y44.355 E1.2523
G1 X-20.699 Y44.355 E0.0249
G1 X-45.069 Y19.985 E1.3182
G1 X-45.637 Y18.766 E0.0514
G1 X-20.048 Y44.355 E1.3842
G1 X-19.398 Y44.355 E0.0249
G1 X-46.205 Y17.547 E1.4501
G1 X-46.774 Y16.328 E0.0514
G1 X-18.747 Y44.355 E1.5160
G1 X-18.096 Y44.355 E0.0249
G1 X-46.727 Y15.725 E1.5487
G1 X-46.631 Y15.170 E0.0215
G1 X-17.446 Y44.355 E1.5787
G1 X-16.795 Y44.355 E0.0249
G1 X-46.536 Y14.615 E1.6087
G1 X-46.440 Y14.060 E0.0215
G1 X-16.514 Y43.986 E1.6188
G1 X-16.307 Y43.543 E0.0187
G1 X-46.345 Y13.505 E1.6248
G1 X-46.249 Y12.950 E0.0215
G1 X-16.100 Y43.099 E1.6309
G1 X-15.893 Y42.655 E0.0187
G1 X-46.154 Y12.394 E1.6369
G1 X-46.059 Y11.839 E0.0215
G1 X-15.686 Y42.212 E1.6429
G1 X-15.479 Y41.768 E0.0187
G1 X-45.963 Y11.284 E1.6489
G1 X-45.868 Y10.729 E0.0215
G1 X-15.272 Y41.324 E1.6550
G1 X-15.066 Y40.881 E0.0187
G1 X-45.772 Y10.174 E1.6610
G1 X-45.677 Y9.619 E0.0215
G1 X-14.859 Y40.437 E1.6670
G1 X-14.652 Y39.993 E0.0187
G1 X-45.581 Y9.064 E1.6730
G1 X-45.486 Y8.509 E0.0215
G1 X-14.445 Y39.550 E1.6791
G1 X-14.238 Y39.106 E0.0187
G1 X-45.390 Y7.954 E1.6851
G1 X-45.295 Y7.399 E0.0215
G1 X-14.031 Y38.662 E1.6911
G1 X-13.824 Y38.219 E0.0187
G1 X-45.199 Y6.844 E1.6972
G1 X-45.104 Y6.289 E0.0215
G1 X-13.618 Y37.775 E1.7032
G1 X-13.411 Y37.331 E0.0187
G1 X-45.009 Y5.733 E1.7092
G1 X-44.913 Y5.178 E0.0215
G1 X-13.204 Y36.888 E1.7152
G1 X-12.997 Y36.444 E0.0187
G1 X-44.818 Y4.623 E1.7213
G1 X-44.722 Y4.068 E0.0215
G1 X-12.790 Y36.000 E1.7273
G1 X-12.583 Y35.557 E0.0187
G1 X-44.627 Y3.513 E1.7333
G1 X-44.531 Y2.958 E0.0215
G1 X-12.376 Y35.113 E1.7393
G1 X-12.169 Y34.669 E0.0187
G1 X-44.436 Y2.403 E1.7454
G1 X-44.340 Y1.848 E0.0215
G1 X-11.963 Y34.226 E1.7514
G1 X-11.756 Y33.782 E0.0187
G1 X-44.245 Y1.293 E1.7574
G1 X-44.149 Y0.738 E0.0215
G1 X-11.549 Y33.338 E1.7634
G1 X-11.342 Y32.895 E0.0187
G1 X-44.054 Y0.183 E1.7695
G1 X-43.958 Y-0.372 E0.0215
G1 X-11.135 Y32.451 E1.7755
G1 X-10.928 Y32.007 E0.0187
G1 X-43.863 Y-0.928 E1.7815
G1 X-43.768 Y-1.483 E0.0215
G1 X-10.721 Y31.564 E1.7876
G1 X-10.515 Y31.120 E0.0187
G1 X-43.672 Y-2.038 E1.7936
G1 X-43.577 Y-2.593 E0.0215
G1 X-10.308 Y30.676 E1.7996
G1 X-10.101 Y30.233 E0.0187
G1 X-43.481 Y-3.148 E1.8056
G1 X-43.386 Y-3.703 E0.0215
G1 X-9.894 Y29.789 E1.8117
G1 X-9.687 Y29.345 E0.0187
G1 X-43.290 Y-4.258 E1.8177
G1 X-43.195 Y-4.813 E0.0215
G1 X-9.480 Y28.902 E1.8237
G1 X-9.273 Y28.458 E0.0187
G1 X-43.099 Y-5.368 E1.8297
G1 X-43.004 Y-5.923 E0.0215
G1 X-9.066 Y28.014 E1.8358
G1 X-8.860 Y27.571 E0.0187
G1 X-42.908 Y-6.478 E1.8418
G1 X-42.813 Y-7.033 E0.0215
G1 X-8.653 Y27.127 E1.8478
G1 X-8.446 Y26.683 E0.0187
G1 X-42.718 Y-7.589 E1.8538
G1 X-42.622 Y-8.144 E0.0215
G1 X-8.239 Y26.240 E1.8599
G1 X-8.032 Y25.796 E0.0187
G1 X-42.527 Y-8.699 E1.8659
G1 X-42.431 Y-9.254 E0.0215
G1 X-7.825 Y25.352 E1.8719
G1 X-7.618 Y24.909 E0.0187
G1 X-42.336 Y-9.809 E1.8779
G1 X-42.240 Y-10.364 E0.0215
G1 X-7.411 Y24.465 E1.8840
G1 X-7.205 Y24.021 E0.0187
G1 X-42.145 Y-10.919 E1.8900
G1 X-42.049 Y-11.474 E0.0215
G1 X-6.998 Y23.578 E1.8960
G1 X-6.791 Y23.134 E0.0187
G1 X-41.954 Y-12.029 E1.9021
G1 X-41.858 Y-12.584 E0.0215
G1 X-6.584 Y22.690 E1.9081
G1 X-6.377 Y22.247 E0.0187
G1 X-41.763 Y-13.139 E1.9141
G1 X-41.668 Y-13.694 E0.0215
G1 X-6.170 Y21.803 E1.9201
G1 X-5.963 Y21.359 E0.0187
G1 X-41.572 Y-14.249 E1.9262
G1 X-41.477 Y-14.805 E0.0215
G1 X-5.757 Y20.916 E1.9322
G1 X-5.550 Y20.472 E0.0187
G1 X-41.381 Y-15.360 E1.9382
G1 X-41.286 Y-15.915 E0.0215
G1 X-5.343 Y20.028 E1.9442
G1 X-5.136 Y19.584 E0.0187
G1 X-41.190 Y-16.470 E1.9503
G1 X-41.095 Y-17.025 E0.0215
G1 X-4.929 Y19.141 E1.9563
G1 X-4.722 Y18.697 E0.0187
G1 X-40.999 Y-17.580 E1.9623
G1 X-40.904 Y-18.135 E0.0215
G1 X-4.515 Y18.253 E1.9683
G1 X-4.308 Y17.810 E0.0187
G1 X-40.808 Y-18.690 E1.9744
G1 X-40.713 Y-19.245 E0.0215
G1 X-4.102 Y17.366 E1.9804
G1 X-3.895 Y16.922 E0.0187
G1 X-40.618 Y-19.800 E1.9864
G1 X-40.522 Y-20.355 E0.0215
G1 X-3.688 Y16.479 E1.9925
G1 X-3.575 Y16.237 E0.0102
G1 X-3.636 Y15.880 E0.0138
G1 X-40.427 Y-20.910 E1.9901
G1 X-40.331 Y-21.466 E0.0215
G1 X-3.771 Y15.094 E1.9776
G1 X-3.906 Y14.309 E0.0305
G1 X-40.236 Y-22.021 E1.9651
G1 X-40.140 Y-22.576 E0.0215
G1 X-4.042 Y13.523 E1.9527
G1 X-4.177 Y12.737 E0.0305
G1 X-40.045 Y-23.131 E1.9402
G1 X-39.949 Y-23.686 E0.0215
G1 X-4.312 Y11.952 E1.9277
G1 X-4.447 Y11.166 E0.0305
G1 X-39.854 Y-24.241 E1.9152
G1 X-39.758 Y-24.796 E0.0215
G1 X-4.582 Y10.380 E1.9028
G1 X-4.717 Y9.595 E0.0305
G1 X-39.663 Y-25.351 E1.8903
G1 X-39.567 Y-25.906 E0.0215
G1 X-4.852 Y8.809 E1.8778
G1 X-4.987 Y8.023 E0.0305
G1 X-39.472 Y-26.461 E1.8654
G1 X-39.377 Y-27.016 E0.0215
G1 X-5.123 Y7.238 E1.8529
G1 X-5.258 Y6.452 E0.0305
G1 X-39.281 Y-27.571 E1.8404
G1 X-39.186 Y-28.127 E0.0215
G1 X-5.393 Y5.666 E1.8279
G1 X-5.528 Y4.881 E0.0305
G1 X-39.090 Y-28.682 E1.8155
G1 X-38.995 Y-29.237 E0.0215
G1 X-5.663 Y4.095 E1.8030
G1 X-5.798 Y3.309 E0.0305
G1 X-38.899 Y-29.792 E1.7905
G1 X-38.804 Y-30.347 E0.0215
G1 X-5.933 Y2.524 E1.7781
G1 X-6.068 Y1.738 E0.0305
G1 X-38.708 Y-30.902 E1.7656
G1 X-38.613 Y-31.457 E0.0215
G1 X-6.203 Y0.952 E1.7531
G1 X-6.339 Y0.167 E0.0305
G1 X-38.517 Y-32.012 E1.7406
G1 X-38.422 Y-32.567 E0.0215
G1 X-6.474 Y-0.619 E1.7282
G1 X-6.609 Y-1.404 E0.0305
G1 X-38.327 Y-33.122 E1.7157
G1 X-38.231 Y-33.677 E0.0215
G1 X-6.744 Y-2.190 E1.7032
G1 X-6.879 Y-2.976 E0.0305
G1 X-38.136 Y-34.232 E1.6907
G1 X-38.040 Y-34.788 E0.0215
G1 X-7.014 Y-3.761 E1.6783
G1 X-7.149 Y-4.547 E0.0305
G1 X-37.945 Y-35.343 E1.6658
G1 X-37.849 Y-35.898 E0.0215
G1 X-7.284 Y-5.333 E1.6533
G1 X-7.419 Y-6.118 E0.0305
G1 X-37.754 Y-36.453 E1.6409
G1 X-37.658 Y-37.008 E0.0215
G1 X-7.555 Y-6.904 E1.6284
G1 X-7.690 Y-7.690 E0.0305
G1 X-37.563 Y-37.563 E1.6159
G1 X-37.467 Y-38.118 E0.0215
G1 X-7.825 Y-8.475 E1.6034
G1 X-7.960 Y-9.261 E0.0305
G1 X-37.372 Y-38.673 E1.5910
G1 X-37.277 Y-39.228 E0.0215
G1 X-8.095 Y-10.047 E1.5785
G1 X-8.230 Y-10.832 E0.0305
G1 X-37.181 Y-39.783 E1.5660
G1 X-37.086 Y-40.338 E0.0215
G1 X-8.365 Y-11.618 E1.5536
G1 X-8.500 Y-12.404 E0.0305
G1 X-36.990 Y-40.893 E1.5411
G1 X-36.895 Y-41.448 E0.0215
G1 X-8.635 Y-13.189 E1.5286
G1 X-8.771 Y-13.975 E0.0305
G1 X-36.799 Y-42.004 E1.5161
G1 X-36.704 Y-42.559 E0.0215
G1 X-8.906 Y-14.761 E1.5037
G1 X-9.041 Y-15.546 E0.0305
G1 X-36.608 Y-43.114 E1.4912
G1 X-36.513 Y-43.669 E0.0215
G1 X-9.176 Y-16.332 E1.4787
G1 X-9.311 Y-17.118 E0.0305
G1 X-36.417 Y-44.224 E1.4663
G1 X-36.395 Y-44.355 E0.0051
G1 X-35.898 Y-44.355 E0.0190
G1 X-9.446 Y-17.903 E1.4309
G1 X-9.581 Y-18.689 E0.0305
G1 X-35.248 Y-44.355 E1.3884
G1 X-34.597 Y-44.355 E0.0249
G1 X-9.716 Y-19.474 E1.3459
G1 X-9.852 Y-20.260 E0.0305
G1 X-33.947 Y-44.355 E1.3034
G1 X-33.296 Y-44.355 E0.0249
G1 X-9.987 Y-21.046 E1.2609
G1 X-10.122 Y-21.831 E0.0305
G1 X-32.646 Y-44.355 E1.2184
G1 X-31.995 Y-44.355 E0.0249
G1 X-10.257 Y-22.617 E1.1759
G1 X-10.392 Y-23.403 E0.0305
G1 X-31.344 Y-44.355 E1.1334
G1 X-30.694 Y-44.355 E0.0249
G1 X-10.527 Y-24.188 E1.0909
G1 X-10.662 Y-24.974 E0.0305
G1 X-30.043 Y-44.355 E1.0484
