; G-Code generated by Simplify3D(R) Version 4.1.2
; Apr 2, 2020 at 1:50:36 PM
; Settings Summary
;   processName,Process1
;   applyToModels,HammerLight,HammerShroud,HammerStaff,HammerBase,HammerCap
;   profileName,MakerBot Replicator 2 HBP (modified)
;   profileVersion,2020-03-12 10:48:50
;   baseProfile,MakerBot Replicator 2(2)
;   printMaterial,PLA
;   printQuality,Medium
;   printExtruders,
;   extruderName,Primary Extruder
;   extruderToolheadNumber,0
;   extruderDiameter,0.4
;   extruderAutoWidth,0
;   extruderWidth,0.4
;   extrusionMultiplier,1
;   extruderUseRetract,1
;   extruderRetractionDistance,1.9
;   extruderExtraRestartDistance,0
;   extruderRetractionZLift,0.5
;   extruderRetractionSpeed,1200
;   extruderUseCoasting,0
;   extruderCoastingDistance,0.2
;   extruderUseWipe,0
;   extruderWipeDistance,5
;   primaryExtruder,0
;   layerHeight,0.2
;   topSolidLayers,3
;   bottomSolidLayers,3
;   perimeterOutlines,2
;   printPerimetersInsideOut,1
;   startPointOption,3
;   startPointOriginX,0
;   startPointOriginY,150
;   sequentialIslands,0
;   spiralVaseMode,0
;   firstLayerHeightPercentage,100
;   firstLayerWidthPercentage,115
;   firstLayerUnderspeed,0.5
;   useRaft,0
;   raftExtruder,0
;   raftTopLayers,2
;   raftBaseLayers,1
;   raftOffset,1
;   raftSeparationDistance,0.14
;   raftTopInfill,90
;   aboveRaftSpeedMultiplier,0.3
;   useSkirt,0
;   skirtExtruder,0
;   skirtLayers,1
;   skirtOutlines,5
;   skirtOffset,0
;   usePrimePillar,0
;   primePillarExtruder,999
;   primePillarWidth,12
;   primePillarLocation,7
;   primePillarSpeedMultiplier,1
;   useOozeShield,0
;   oozeShieldExtruder,999
;   oozeShieldOffset,2
;   oozeShieldOutlines,1
;   oozeShieldSidewallShape,1
;   oozeShieldSidewallAngle,30
;   oozeShieldSpeedMultiplier,1
;   infillExtruder,0
;   internalInfillPattern,Rectilinear
;   externalInfillPattern,Rectilinear
;   infillPercentage,15
;   outlineOverlapPercentage,25
;   infillExtrusionWidthPercentage,100
;   minInfillLength,5
;   infillLayerInterval,1
;   internalInfillAngles,45,-45
;   overlapInternalInfillAngles,0
;   externalInfillAngles,45,-45
;   generateSupport,1
;   supportExtruder,0
;   supportInfillPercentage,30
;   supportExtraInflation,0.5
;   supportBaseLayers,0
;   denseSupportExtruder,0
;   denseSupportLayers,2
;   denseSupportInfillPercentage,90
;   supportLayerInterval,1
;   supportHorizontalPartOffset,0.3
;   supportUpperSeparationLayers,1
;   supportLowerSeparationLayers,1
;   supportType,1
;   supportGridSpacing,2
;   maxOverhangAngle,45
;   supportAngles,45,-45
;   temperatureName,Primary Extruder,Heated Build Platform
;   temperatureNumber,0,0
;   temperatureSetpointCount,1,1
;   temperatureSetpointLayers,1,1
;   temperatureSetpointTemperatures,230,60
;   temperatureStabilizeAtStartup,1,1
;   temperatureHeatedBed,0,1
;   fanLayers,1,2
;   fanSpeeds,0,100
;   blipFanToFullPower,1
;   adjustSpeedForCooling,1
;   minSpeedLayerTime,15
;   minCoolingSpeedSlowdown,20
;   increaseFanForCooling,1
;   minFanLayerTime,45
;   maxCoolingFanSpeed,100
;   increaseFanForBridging,1
;   bridgingFanSpeed,100
;   use5D,1
;   relativeEdistances,1
;   allowEaxisZeroing,0
;   independentExtruderAxes,1
;   includeM10123,0
;   stickySupport,1
;   applyToolheadOffsets,0
;   gcodeXoffset,0
;   gcodeYoffset,0
;   gcodeZoffset,0
;   overrideMachineDefinition,1
;   machineTypeOverride,0
;   strokeXoverride,280
;   strokeYoverride,150
;   strokeZoverride,150
;   originOffsetXoverride,140
;   originOffsetYoverride,75
;   originOffsetZoverride,0
;   homeXdirOverride,1
;   homeYdirOverride,1
;   homeZdirOverride,-1
;   flipXoverride,1
;   flipYoverride,-1
;   flipZoverride,1
;   toolheadOffsets,0,0|0,0|0,0|0,0|0,0|0,0
;   overrideFirmwareConfiguration,1
;   firmwareTypeOverride,MakerBot/Sailfish Firmware
;   GPXconfigOverride,r2h
;   baudRateOverride,115200
;   overridePrinterModels,1
;   printerModelsOverride,MakerBot_Replicator2.stl
;   startingGcode,; **** Replicator 2 start.gcode ****,M73 P0 ; enable build progress,G162 X Y F3000 ; home XY maximum,G161 Z F1200 ; home Z minimum,G92 Z-5 ; set Z to -5,G1 Z0 ; move Z to 0,G161 Z F100 ; home Z slowly,M132 X Y Z A B ; recall home offsets,G1 X-145 Y-75 Z30 F9000 ; move to wait position off table,G130 X20 Y20 Z20 A20 B20 ; lower stepper Vrefs while heating,M126 S[fan_speed_pwm],M140 S[bed0_temperature] T0,M134 T0 ; stabilize bed temperature,M104 S[extruder0_temperature] T0,M133 T0 ; stabilize extruder temperature,G130 X127 Y127 Z40 A127 B127 ; default stepper Vrefs,G92 A0 ; zero extruder,G1 Z0.4 ; position nozzle,G1 E25 F300 ; purge nozzle,G1 X-140 Y-70 Z0.15 F1200 ; slow wipe,G1 X-135 Y-65 Z0.5 F1200 ; lift,G92 A0 ; zero extruder,M73 P1 ;@body (notify GPX body has started),; **** end of start.gcode ****
;   layerChangeGcode,
;   retractionGcode,
;   toolChangeGcode,
;   endingGcode,; **** Replicator 2 end.gcode ****,M73 P100 ; end build progress,G1 Z155 F1000 ; send Z axis to bottom of machine,M104 S0 T0 ; cool down extruder,M140 S0 T0 ; cool down HBP,M127 ; stop blower fan,G162 X Y F3000 ; home XY maximum,M18 ; disable stepper,M0 ; stop codes,M72 P1 ; play Ta-Da song,; **** end of end.gcode ****
;   exportFileFormat,gcode
;   celebration,0
;   celebrationSong,Random Song
;   postProcessing,
;   defaultSpeed,4800
;   outlineUnderspeed,0.5
;   solidInfillUnderspeed,1
;   supportUnderspeed,1
;   rapidXYspeed,9000
;   rapidZspeed,1200
;   minBridgingArea,50
;   bridgingExtraInflation,0
;   bridgingExtrusionMultiplier,1
;   bridgingSpeedMultiplier,0.8
;   useFixedBridgingAngle,0
;   fixedBridgingAngle,0
;   applyBridgingToPerimeters,0
;   filamentDiameters,1.75|1.75|1.75|1.75|1.75|1.75
;   filamentPricesPerKg,46|46|46|46|46|46
;   filamentDensities,1.25|1.25|1.25|1.25|1.25|1.25
;   useMinPrintHeight,0
;   minPrintHeight,0
;   useMaxPrintHeight,0
;   maxPrintHeight,4.84
;   useDiaphragm,0
;   diaphragmLayerInterval,20
;   robustSlicing,1
;   mergeAllIntoSolid,0
;   onlyRetractWhenCrossingOutline,0
;   retractBetweenLayers,0
;   useRetractionMinTravel,1
;   retractionMinTravel,7
;   retractWhileWiping,1
;   onlyWipeOutlines,1
;   avoidCrossingOutline,0
;   maxMovementDetourFactor,3
;   toolChangeRetractionDistance,12
;   toolChangeExtraRestartDistance,-0.5
;   toolChangeRetractionSpeed,600
;   externalThinWallType,0
;   internalThinWallType,0
;   thinWallAllowedOverlapPercentage,10
;   singleExtrusionMinLength,1
;   singleExtrusionMinPrintingWidthPercentage,50
;   singleExtrusionMaxPrintingWidthPercentage,200
;   singleExtrusionEndpointExtension,0.2
;   horizontalSizeCompensation,0
G90
M83
; **** Replicator 2 start.gcode ****
M73 P0 ; enable build progress
G162 X Y F3000 ; home XY maximum
G161 Z F1200 ; home Z minimum
G92 Z-5 ; set Z to -5
G1 Z0 ; move Z to 0
G161 Z F100 ; home Z slowly
M132 X Y Z A B ; recall home offsets
G1 X-145 Y-75 Z30 F9000 ; move to wait position off table
G130 X20 Y20 Z20 A20 B20 ; lower stepper Vrefs while heating
M127
M140 S60 T0
M134 T0 ; stabilize bed temperature
M104 S230 T0
M133 T0 ; stabilize extruder temperature
G130 X127 Y127 Z40 A127 B127 ; default stepper Vrefs
G92 A0 ; zero extruder
G1 Z0.4 ; position nozzle
G1 E25 F300 ; purge nozzle
G1 X-140 Y-70 Z0.15 F1200 ; slow wipe
G1 X-135 Y-65 Z0.5 F1200 ; lift
G92 A0 ; zero extruder
M73 P1 ;@body (notify GPX body has started)
; **** end of start.gcode ****
; process Process1
; layer 1, Z = 0.200
M135 T0
G1 E-1.9000 F1200
; feature inner perimeter
; tool H0.200 W0.460
G1 Z0.500 F1200
G1 X-4.105 Y35.800 F9000
G1 Z0.200 F1200
G1 E1.9000 F1200
G1 X-9.142 Y35.799 E0.1927 F1800
G1 X-9.232 Y34.823 E0.0375
G1 X-9.571 Y29.953 E0.1867
G1 X-10.269 Y24.013 E0.2287
G1 X-12.117 Y18.311 E0.2293
G1 X-13.001 Y16.063 E0.0924
G1 X-14.412 Y13.172 E0.1230
G1 X-15.905 Y10.174 E0.1281
G1 X-17.298 Y8.047 E0.0972
G1 X-18.135 Y6.913 E0.0539
G1 X-18.141 Y-2.161 E0.3471
G1 X-17.328 Y-2.247 E0.0313
G1 X-15.440 Y-2.834 E0.0756
G1 X-13.702 Y-3.778 E0.0756
G1 X-12.182 Y-5.043 E0.0756
G1 X-10.937 Y-6.580 E0.0756
G1 X-10.017 Y-8.331 E0.0756
G1 X-9.458 Y-10.220 E0.0754
G1 X-9.405 Y-10.692 E0.0182
G1 X-4.106 Y-10.696 E0.2027
G1 X-4.105 Y35.800 E1.7784
; feature outer perimeter
G1 X-3.645 Y36.260 F9000
G1 X-9.562 Y36.259 E0.2263 F1200
G1 X-9.690 Y34.860 E0.0537
G1 X-10.029 Y29.996 E0.1865
G1 X-10.721 Y24.112 E0.2266
G1 X-12.551 Y18.466 E0.2270
G1 X-13.422 Y16.248 E0.0912
G1 X-14.825 Y13.376 E0.1223
G1 X-16.305 Y10.403 E0.1270
G1 X-17.675 Y8.309 E0.0957
G1 X-18.595 Y7.064 E0.0592
G1 X-18.602 Y-2.575 E0.3687
G1 X-17.421 Y-2.700 E0.0454
G1 X-15.620 Y-3.260 E0.0722
G1 X-13.961 Y-4.161 E0.0722
G1 X-12.511 Y-5.368 E0.0722
G1 X-11.323 Y-6.834 E0.0722
G1 X-10.445 Y-8.505 E0.0722
G1 X-9.911 Y-10.312 E0.0721
G1 X-9.816 Y-11.152 E0.0323
G1 X-3.646 Y-11.157 E0.2360
G1 X-3.645 Y36.260 E1.8136
; feature solid layer
G1 X-8.832 Y35.404 F9000
G1 X-8.782 Y35.454 E0.0027 F2400
G1 X-8.132 Y35.454 E0.0249
G1 X-8.895 Y34.691 E0.0413
G1 X-8.944 Y33.992 E0.0268
G1 X-7.481 Y35.454 E0.0791
G1 X-6.830 Y35.455 E0.0249
G1 X-8.993 Y33.292 E0.1170
G1 X-9.041 Y32.593 E0.0268
G1 X-6.180 Y35.455 E0.1548
G1 X-5.529 Y35.455 E0.0249
G1 X-9.090 Y31.894 E0.1926
G1 X-9.139 Y31.194 E0.0268
G1 X-4.878 Y35.455 E0.2305
G1 X-4.450 Y35.455 E0.0164
G1 X-4.450 Y35.233 E0.0085
G1 X-9.188 Y30.495 E0.2563
G1 X-9.228 Y29.921 E0.0220
G1 X-9.243 Y29.789 E0.0051
G1 X-4.450 Y34.582 E0.2593
G1 X-4.450 Y33.932 E0.0249
G1 X-9.330 Y29.052 E0.2640
G1 X-9.416 Y28.315 E0.0284
G1 X-4.450 Y33.281 E0.2686
G1 X-4.450 Y32.631 E0.0249
G1 X-9.503 Y27.578 E0.2733
G1 X-9.590 Y26.840 E0.0284
G1 X-4.450 Y31.980 E0.2780
G1 X-4.450 Y31.330 E0.0249
G1 X-9.676 Y26.103 E0.2827
G1 X-9.763 Y25.366 E0.0284
G1 X-4.450 Y30.679 E0.2874
G1 X-4.450 Y30.028 E0.0249
G1 X-9.850 Y24.629 E0.2921
G1 X-9.931 Y23.939 E0.0266
G1 X-9.951 Y23.877 E0.0025
G1 X-4.450 Y29.378 E0.2976
G1 X-4.450 Y28.727 E0.0249
G1 X-10.263 Y22.915 E0.3144
G1 X-10.575 Y21.952 E0.0387
G1 X-4.450 Y28.077 E0.3313
G1 X-4.450 Y27.426 E0.0249
G1 X-10.887 Y20.990 E0.3482
G1 X-11.198 Y20.027 E0.0387
G1 X-4.450 Y26.776 E0.3650
G1 X-4.450 Y26.125 E0.0249
G1 X-11.510 Y19.065 E0.3819
G1 X-11.792 Y18.195 E0.0350
G1 X-11.833 Y18.092 E0.0042
G1 X-4.450 Y25.475 E0.3993
G1 X-4.450 Y24.824 E0.0249
G1 X-12.254 Y17.020 E0.4221
G1 X-12.675 Y15.949 E0.0440
G1 X-4.450 Y24.174 E0.4449
G1 X-4.450 Y23.523 E0.0249
G1 X-13.291 Y14.682 E0.4782
G1 X-13.912 Y13.410 E0.0541
G1 X-4.450 Y22.872 E0.5118
G1 X-4.450 Y22.222 E0.0249
G1 X-14.550 Y12.122 E0.5463
G1 X-15.195 Y10.826 E0.0554
G1 X-4.450 Y21.571 E0.5812
G1 X-4.450 Y20.921 E0.0249
G1 X-16.054 Y9.317 E0.6277
G1 X-17.014 Y7.850 E0.0671
G1 X-17.419 Y7.301 E0.0261
G1 X-4.450 Y20.270 E0.7015
G1 X-4.450 Y19.620 E0.0249
G1 X-17.790 Y6.279 E0.7216
G1 X-17.791 Y5.628 E0.0249
G1 X-4.450 Y18.969 E0.7216
G1 X-4.450 Y18.319 E0.0249
G1 X-17.791 Y4.977 E0.7217
G1 X-17.792 Y4.326 E0.0249
G1 X-4.450 Y17.668 E0.7217
G1 X-4.450 Y17.018 E0.0249
G1 X-17.792 Y3.675 E0.7217
G1 X-17.793 Y3.024 E0.0249
G1 X-4.450 Y16.367 E0.7217
G1 X-4.450 Y15.716 E0.0249
G1 X-17.793 Y2.373 E0.7218
G1 X-17.794 Y1.722 E0.0249
G1 X-4.450 Y15.066 E0.7218
G1 X-4.450 Y14.415 E0.0249
G1 X-17.794 Y1.071 E0.7218
G1 X-17.795 Y0.420 E0.0249
G1 X-4.450 Y13.765 E0.7218
G1 X-4.450 Y13.114 E0.0249
G1 X-17.795 Y-0.230 E0.7218
G1 X-17.795 Y-0.881 E0.0249
G1 X-4.450 Y12.464 E0.7219
G1 X-4.450 Y11.813 E0.0249
G1 X-17.796 Y-1.532 E0.7219
G1 X-17.796 Y-1.851 E0.0122
G1 X-17.495 Y-1.882 E0.0116
G1 X-4.450 Y11.163 E0.7056
G1 X-4.450 Y10.512 E0.0249
G1 X-16.962 Y-2.000 E0.6768
G1 X-16.466 Y-2.154 E0.0199
G1 X-4.450 Y9.862 E0.6499
G1 X-4.450 Y9.211 E0.0249
G1 X-15.969 Y-2.308 E0.6231
G1 X-15.473 Y-2.462 E0.0199
G1 X-4.450 Y8.560 E0.5962
G1 X-4.450 Y7.910 E0.0249
G1 X-15.026 Y-2.666 E0.5721
G1 X-14.605 Y-2.895 E0.0183
G1 X-4.450 Y7.259 E0.5493
G1 X-4.450 Y6.609 E0.0249
G1 X-14.183 Y-3.124 E0.5265
G1 X-13.762 Y-3.353 E0.0183
G1 X-4.450 Y5.958 E0.5037
G1 X-4.450 Y5.308 E0.0249
G1 X-13.366 Y-3.608 E0.4823
G1 X-13.011 Y-3.904 E0.0177
G1 X-4.450 Y4.657 E0.4631
G1 X-4.450 Y4.007 E0.0249
G1 X-12.656 Y-4.199 E0.4439
G1 X-12.301 Y-4.495 E0.0177
G1 X-4.450 Y3.356 E0.4247
G1 X-4.450 Y2.706 E0.0249
G1 X-11.946 Y-4.790 E0.4055
G1 X-11.935 Y-4.800 E0.0006
G1 X-11.653 Y-5.148 E0.0171
G1 X-4.450 Y2.055 E0.3896
G1 X-4.450 Y1.404 E0.0249
G1 X-11.362 Y-5.507 E0.3739
G1 X-11.071 Y-5.867 E0.0177
G1 X-4.450 Y0.754 E0.3581
G1 X-4.450 Y0.103 E0.0249
G1 X-10.780 Y-6.226 E0.3424
G1 X-10.648 Y-6.390 E0.0080
G1 X-10.526 Y-6.622 E0.0101
G1 X-4.450 Y-0.547 E0.3286
G1 X-4.450 Y-1.198 E0.0249
G1 X-10.301 Y-7.049 E0.3165
G1 X-10.077 Y-7.475 E0.0184
G1 X-4.450 Y-1.848 E0.3044
G1 X-4.450 Y-2.499 E0.0249
G1 X-9.853 Y-7.901 E0.2922
G1 X-9.696 Y-8.200 E0.0129
G1 X-9.651 Y-8.350 E0.0060
G1 X-4.450 Y-3.149 E0.2813
G1 X-4.450 Y-3.800 E0.0249
G1 X-9.503 Y-8.852 E0.2733
G1 X-9.354 Y-9.354 E0.0200
G1 X-4.450 Y-4.450 E0.2653
G1 X-4.450 Y-5.101 E0.0249
G1 X-9.206 Y-9.856 E0.2572
G1 X-9.119 Y-10.151 E0.0118
G1 X-9.096 Y-10.347 E0.0075
G1 X-9.046 Y-10.347 E0.0019
G1 X-4.450 Y-5.752 E0.2486
G1 X-4.450 Y-6.402 E0.0249
G1 X-8.396 Y-10.348 E0.2134
G1 X-7.746 Y-10.348 E0.0249
G1 X-4.450 Y-7.053 E0.1783
G1 X-4.450 Y-7.703 E0.0249
G1 X-7.096 Y-10.349 E0.1431
G1 X-6.446 Y-10.349 E0.0249
G1 X-4.450 Y-8.354 E0.1079
G1 X-4.451 Y-9.004 E0.0249
G1 X-5.796 Y-10.350 E0.0728
G1 X-5.146 Y-10.350 E0.0249
G1 X-4.451 Y-9.655 E0.0376
G1 X-4.451 Y-10.305 E0.0249
G1 X-4.496 Y-10.351 E0.0025
; feature inner perimeter
G1 X-4.104 Y-13.574 F9000
G1 X-9.409 Y-13.571 E0.2029 F1800
G1 X-9.485 Y-14.170 E0.0231
G1 X-10.070 Y-16.051 E0.0754
G1 X-11.014 Y-17.789 E0.0756
G1 X-12.279 Y-19.309 E0.0756
G1 X-13.817 Y-20.553 E0.0756
G1 X-15.567 Y-21.473 E0.0756
G1 X-17.455 Y-22.032 E0.0753
G1 X-17.922 Y-22.087 E0.0180
G1 X-17.922 Y-35.803 E0.5246
G1 X-4.104 Y-35.803 E0.5285
G1 X-4.104 Y-13.574 E0.8502
; feature outer perimeter
G1 X-3.644 Y-13.114 F9000
G1 X-9.814 Y-13.111 E0.2360 F1200
G1 X-9.936 Y-14.072 E0.0371
G1 X-10.496 Y-15.872 E0.0721
G1 X-11.397 Y-17.530 E0.0722
G1 X-12.604 Y-18.980 E0.0722
G1 X-14.071 Y-20.167 E0.0722
G1 X-15.741 Y-21.045 E0.0722
G1 X-17.548 Y-21.580 E0.0721
G1 X-18.382 Y-21.677 E0.0321
G1 X-18.382 Y-36.263 E0.5579
G1 X-3.644 Y-36.263 E0.5637
G1 X-3.644 Y-13.114 E0.8854
; feature solid layer
G1 X-9.195 Y-14.399 F9000
G1 X-8.712 Y-13.917 E0.0261 F2400
G1 X-8.062 Y-13.917 E0.0249
G1 X-9.489 Y-15.343 E0.0772
G1 X-9.751 Y-16.186 E0.0338
G1 X-9.833 Y-16.339 E0.0066
G1 X-7.412 Y-13.917 E0.1310
G1 X-6.762 Y-13.918 E0.0249
G1 X-10.608 Y-17.764 E0.2080
G1 E-1.9000 F1200
G1 Z0.700 F1200
G1 X-17.577 Y-22.781 F9000
G1 Z0.200 F1200
G1 E1.9000 F1200
G1 X-17.075 Y-22.279 E0.0272 F2400
G1 X-16.151 Y-22.006 E0.0369
G1 X-17.577 Y-23.432 E0.0771
G1 X-17.577 Y-24.082 E0.0249
G1 X-15.125 Y-21.631 E0.1326
G1 X-13.754 Y-20.910 E0.0593
G1 X-17.577 Y-24.733 E0.2068
G1 X-17.577 Y-25.383 E0.0249
G1 X-6.111 Y-13.918 E0.6202
G1 X-5.461 Y-13.918 E0.0249
G1 X-17.577 Y-26.034 E0.6554
G1 X-17.577 Y-26.684 E0.0249
G1 X-4.811 Y-13.919 E0.6905
G1 X-4.449 Y-13.919 E0.0139
G1 X-4.449 Y-14.207 E0.0110
G1 X-17.577 Y-27.335 E0.7101
G1 X-17.577 Y-27.986 E0.0249
G1 X-4.449 Y-14.858 E0.7101
G1 X-4.449 Y-15.508 E0.0249
G1 X-17.577 Y-28.636 E0.7101
G1 X-17.577 Y-29.287 E0.0249
G1 X-4.449 Y-16.159 E0.7101
G1 X-4.449 Y-16.809 E0.0249
G1 X-17.577 Y-29.937 E0.7101
G1 X-17.577 Y-30.588 E0.0249
G1 X-4.449 Y-17.460 E0.7101
G1 X-4.449 Y-18.110 E0.0249
G1 X-17.577 Y-31.238 E0.7101
G1 X-17.577 Y-31.889 E0.0249
G1 X-4.449 Y-18.761 E0.7101
G1 X-4.449 Y-19.411 E0.0249
G1 X-17.577 Y-32.539 E0.7101
G1 X-17.577 Y-33.190 E0.0249
G1 X-4.449 Y-20.062 E0.7101
G1 X-4.449 Y-20.712 E0.0249
G1 X-17.577 Y-33.840 E0.7101
G1 X-17.577 Y-34.491 E0.0249
G1 X-4.449 Y-21.363 E0.7101
G1 X-4.449 Y-22.013 E0.0249
G1 X-17.577 Y-35.141 E0.7101
G1 X-17.577 Y-35.458 E0.0121
G1 X-17.243 Y-35.458 E0.0128
G1 X-4.449 Y-22.664 E0.6921
G1 X-4.449 Y-23.315 E0.0249
G1 X-16.592 Y-35.458 E0.6569
G1 X-15.942 Y-35.458 E0.0249
G1 X-4.449 Y-23.965 E0.6217
G1 X-4.449 Y-24.616 E0.0249
G1 X-15.291 Y-35.458 E0.5865
G1 X-14.641 Y-35.458 E0.0249
G1 X-4.449 Y-25.266 E0.5513
G1 X-4.449 Y-25.917 E0.0249
