; G-Code generated by Simplify3D(R) Version 4.1.2
; Apr 2, 2020 at 1:51:37 PM
; Settings Summary
;   processName,Process1
;   applyToModels,Infinity Stone V2R3
;   profileName,MakerBot Replicator 2 HBP (modified)
;   profileVersion,2020-03-12 10:48:50
;   baseProfile,MakerBot Replicator 2(2)
;   printMaterial,PLA
;   printQuality,Medium
;   printExtruders,
;   extruderName,Primary Extruder
;   extruderToolheadNumber,0
;   extruderDiameter,0.4
;   extruderAutoWidth,0
;   extruderWidth,0.4
;   extrusionMultiplier,1
;   extruderUseRetract,1
;   extruderRetractionDistance,1.9
;   extruderExtraRestartDistance,0
;   extruderRetractionZLift,0.5
;   extruderRetractionSpeed,1200
;   extruderUseCoasting,0
;   extruderCoastingDistance,0.2
;   extruderUseWipe,0
;   extruderWipeDistance,5
;   primaryExtruder,0
;   layerHeight,0.2
;   topSolidLayers,3
;   bottomSolidLayers,3
;   perimeterOutlines,2
;   printPerimetersInsideOut,1
;   startPointOption,3
;   startPointOriginX,0
;   startPointOriginY,150
;   sequentialIslands,0
;   spiralVaseMode,0
;   firstLayerHeightPercentage,100
;   firstLayerWidthPercentage,115
;   firstLayerUnderspeed,0.5
;   useRaft,0
;   raftExtruder,0
;   raftTopLayers,2
;   raftBaseLayers,1
;   raftOffset,1
;   raftSeparationDistance,0.14
;   raftTopInfill,90
;   aboveRaftSpeedMultiplier,0.3
;   useSkirt,0
;   skirtExtruder,0
;   skirtLayers,1
;   skirtOutlines,5
;   skirtOffset,0
;   usePrimePillar,0
;   primePillarExtruder,999
;   primePillarWidth,12
;   primePillarLocation,7
;   primePillarSpeedMultiplier,1
;   useOozeShield,0
;   oozeShieldExtruder,999
;   oozeShieldOffset,2
;   oozeShieldOutlines,1
;   oozeShieldSidewallShape,1
;   oozeShieldSidewallAngle,30
;   oozeShieldSpeedMultiplier,1
;   infillExtruder,0
;   internalInfillPattern,Rectilinear
;   externalInfillPattern,Rectilinear
;   infillPercentage,15
;   outlineOverlapPercentage,25
;   infillExtrusionWidthPercentage,100
;   minInfillLength,5
;   infillLayerInterval,1
;   internalInfillAngles,45,-45
;   overlapInternalInfillAngles,0
;   externalInfillAngles,45,-45
;   generateSupport,0
;   supportExtruder,0
;   supportInfillPercentage,30
;   supportExtraInflation,0.5
;   supportBaseLayers,0
;   denseSupportExtruder,0
;   denseSupportLayers,2
;   denseSupportInfillPercentage,90
;   supportLayerInterval,1
;   supportHorizontalPartOffset,0.3
;   supportUpperSeparationLayers,1
;   supportLowerSeparationLayers,1
;   supportType,1
;   supportGridSpacing,2
;   maxOverhangAngle,45
;   supportAngles,45,-45
;   temperatureName,Primary Extruder,Heated Build Platform
;   temperatureNumber,0,0
;   temperatureSetpointCount,1,1
;   temperatureSetpointLayers,1,1
;   temperatureSetpointTemperatures,230,60
;   temperatureStabilizeAtStartup,1,1
;   temperatureHeatedBed,0,1
;   fanLayers,1,2
;   fanSpeeds,0,100
;   blipFanToFullPower,1
;   adjustSpeedForCooling,1
;   minSpeedLayerTime,15
;   minCoolingSpeedSlowdown,20
;   increaseFanForCooling,1
;   minFanLayerTime,45
;   maxCoolingFanSpeed,100
;   increaseFanForBridging,1
;   bridgingFanSpeed,100
;   use5D,1
;   relativeEdistances,1
;   allowEaxisZeroing,0
;   independentExtruderAxes,1
;   includeM10123,0
;   stickySupport,1
;   applyToolheadOffsets,0
;   gcodeXoffset,0
;   gcodeYoffset,0
;   gcodeZoffset,0
;   overrideMachineDefinition,1
;   machineTypeOverride,0
;   strokeXoverride,280
;   strokeYoverride,150
;   strokeZoverride,150
;   originOffsetXoverride,140
;   originOffsetYoverride,75
;   originOffsetZoverride,0
;   homeXdirOverride,1
;   homeYdirOverride,1
;   homeZdirOverride,-1
;   flipXoverride,1
;   flipYoverride,-1
;   flipZoverride,1
;   toolheadOffsets,0,0|0,0|0,0|0,0|0,0|0,0
;   overrideFirmwareConfiguration,1
;   firmwareTypeOverride,MakerBot/Sailfish Firmware
;   GPXconfigOverride,r2h
;   baudRateOverride,115200
;   overridePrinterModels,1
;   printerModelsOverride,MakerBot_Replicator2.stl
;   startingGcode,; **** Replicator 2 start.gcode ****,M73 P0 ; enable build progress,G162 X Y F3000 ; home XY maximum,G161 Z F1200 ; home Z minimum,G92 Z-5 ; set Z to -5,G1 Z0 ; move Z to 0,G161 Z F100 ; home Z slowly,M132 X Y Z A B ; recall home offsets,G1 X-145 Y-75 Z30 F9000 ; move to wait position off table,G130 X20 Y20 Z20 A20 B20 ; lower stepper Vrefs while heating,M126 S[fan_speed_pwm],M140 S[bed0_temperature] T0,M134 T0 ; stabilize bed temperature,M104 S[extruder0_temperature] T0,M133 T0 ; stabilize extruder temperature,G130 X127 Y127 Z40 A127 B127 ; default stepper Vrefs,G92 A0 ; zero extruder,G1 Z0.4 ; position nozzle,G1 E25 F300 ; purge nozzle,G1 X-140 Y-70 Z0.15 F1200 ; slow wipe,G1 X-135 Y-65 Z0.5 F1200 ; lift,G92 A0 ; zero extruder,M73 P1 ;@body (notify GPX body has started),; **** end of start.gcode ****
;   layerChangeGcode,
;   retractionGcode,
;   toolChangeGcode,
;   endingGcode,; **** Replicator 2 end.gcode ****,M73 P100 ; end build progress,G1 Z155 F1000 ; send Z axis to bottom of machine,M104 S0 T0 ; cool down extruder,M140 S0 T0 ; cool down HBP,M127 ; stop blower fan,G162 X Y F3000 ; home XY maximum,M18 ; disable stepper,M0 ; stop codes,M72 P1 ; play Ta-Da song,; **** end of end.gcode ****
;   exportFileFormat,gcode
;   celebration,0
;   celebrationSong,Random Song
;   postProcessing,
;   defaultSpeed,4800
;   outlineUnderspeed,0.5
;   solidInfillUnderspeed,1
;   supportUnderspeed,1
;   rapidXYspeed,9000
;   rapidZspeed,1200
;   minBridgingArea,50
;   bridgingExtraInflation,0
;   bridgingExtrusionMultiplier,1
;   bridgingSpeedMultiplier,0.8
;   useFixedBridgingAngle,0
;   fixedBridgingAngle,0
;   applyBridgingToPerimeters,0
;   filamentDiameters,1.75|1.75|1.75|1.75|1.75|1.75
;   filamentPricesPerKg,46|46|46|46|46|46
;   filamentDensities,1.25|1.25|1.25|1.25|1.25|1.25
;   useMinPrintHeight,0
;   minPrintHeight,0
;   useMaxPrintHeight,0
;   maxPrintHeight,4.84
;   useDiaphragm,0
;   diaphragmLayerInterval,20
;   robustSlicing,1
;   mergeAllIntoSolid,0
;   onlyRetractWhenCrossingOutline,0
;   retractBetweenLayers,0
;   useRetractionMinTravel,1
;   retractionMinTravel,7
;   retractWhileWiping,1
;   onlyWipeOutlines,1
;   avoidCrossingOutline,0
;   maxMovementDetourFactor,3
;   toolChangeRetractionDistance,12
;   toolChangeExtraRestartDistance,-0.5
;   toolChangeRetractionSpeed,600
;   externalThinWallType,0
;   internalThinWallType,0
;   thinWallAllowedOverlapPercentage,10
;   singleExtrusionMinLength,1
;   singleExtrusionMinPrintingWidthPercentage,50
;   singleExtrusionMaxPrintingWidthPercentage,200
;   singleExtrusionEndpointExtension,0.2
;   horizontalSizeCompensation,0
G90
M83
; **** Replicator 2 start.gcode ****
M73 P0 ; enable build progress
G162 X Y F3000 ; home XY maximum
G161 Z F1200 ; home Z minimum
G92 Z-5 ; set Z to -5
G1 Z0 ; move Z to 0
G161 Z F100 ; home Z slowly
M132 X Y Z A B ; recall home offsets
G1 X-145 Y-75 Z30 F9000 ; move to wait position off table
G130 X20 Y20 Z20 A20 B20 ; lower stepper Vrefs while heating
M126 S39
M140 S60 T0
M134 T0 ; stabilize bed temperature
M104 S230 T0
M133 T0 ; stabilize extruder temperature
G130 X127 Y127 Z40 A127 B127 ; default stepper Vrefs
G92 A0 ; zero extruder
G1 Z0.4 ; position nozzle
G1 E25 F300 ; purge nozzle
G1 X-140 Y-70 Z0.15 F1200 ; slow wipe
G1 X-135 Y-65 Z0.5 F1200 ; lift
G92 A0 ; zero extruder
M73 P1 ;@body (notify GPX body has started)
; **** end of start.gcode ****
; process Process1
; layer 1, Z = 0.200
M135 T0
G1 E-1.9000 F1200
; feature inner perimeter
; tool H0.200 W0.460
G1 Z0.500 F1200
G1 X-0.317 Y15.226 F9000
G1 Z0.200 F1200
G1 E1.9000 F1200
G1 X-1.158 Y15.203 E0.0322 F1800
G1 X-2.019 Y15.130 E0.0330
G1 X-2.862 Y15.011 E0.0326
G1 X-3.766 Y14.830 E0.0353
G1 X-4.302 Y14.695 E0.0211
G1 X-4.978 Y14.501 E0.0269
G1 X-5.677 Y14.354 E0.0273
G1 X-5.733 Y14.336 E0.0022
G1 X-6.044 Y14.170 E0.0135
G1 X-6.374 Y14.162 E0.0127
G1 X-6.493 Y14.059 E0.0060
G1 X-6.841 Y13.898 E0.0147
G1 X-7.256 Y13.961 E0.0160
G1 X-7.274 Y13.921 E0.0017
G1 X-7.415 Y13.661 E0.0113
G1 X-7.785 Y13.385 E0.0177
G1 X-8.340 Y13.373 E0.0212
G1 X-8.447 Y13.413 E0.0044
G1 X-8.594 Y13.167 E0.0110
G1 X-9.146 Y12.807 E0.0252
G1 X-9.513 Y12.800 E0.0140
G1 X-9.654 Y12.823 E0.0055
G1 X-9.663 Y12.821 E0.0003
G1 X-9.710 Y12.761 E0.0029
G1 X-9.760 Y12.712 E0.0027
G1 X-9.768 Y12.679 E0.0013
G1 X-9.956 Y12.325 E0.0153
G1 X-10.117 Y12.262 E0.0066
G1 X-10.150 Y12.216 E0.0021
G1 X-10.280 Y12.115 E0.0063
G1 X-10.277 Y12.088 E0.0010
G1 X-10.313 Y11.709 E0.0146
G1 X-10.427 Y11.425 E0.0117
G1 X-10.592 Y11.233 E0.0097
G1 X-10.810 Y11.046 E0.0110
G1 X-10.989 Y10.965 E0.0075
G1 X-11.154 Y10.693 E0.0122
G1 X-11.566 Y10.472 E0.0179
G1 X-11.672 Y10.453 E0.0041
G1 X-11.689 Y10.417 E0.0015
G1 X-11.875 Y10.177 E0.0116
G1 X-12.158 Y10.018 E0.0124
G1 X-12.181 Y10.016 E0.0009
G1 X-12.364 Y9.494 E0.0212
G1 X-12.831 Y9.339 E0.0188
G1 X-13.033 Y9.305 E0.0078
G1 X-13.091 Y9.042 E0.0103
G1 X-13.126 Y8.667 E0.0144
G1 X-13.242 Y8.361 E0.0125
G1 X-13.517 Y8.030 E0.0165
G1 X-13.693 Y7.948 E0.0074
G1 X-13.786 Y7.847 E0.0053
G1 X-13.804 Y7.843 E0.0007
G1 X-13.722 Y7.729 E0.0054
G1 X-14.022 Y7.467 E0.0152
G1 X-14.022 Y7.459 E0.0003
G1 X-14.041 Y7.060 E0.0153
G1 X-14.135 Y6.670 E0.0153
G1 X-14.385 Y6.391 E0.0143
G1 X-14.681 Y6.240 E0.0127
G1 X-14.871 Y6.104 E0.0089
G1 X-14.878 Y6.091 E0.0006
G1 X-14.908 Y5.871 E0.0085
G1 X-14.949 Y5.785 E0.0036
G1 X-14.969 Y5.535 E0.0096
G1 X-15.249 Y5.087 E0.0202
G1 X-15.365 Y5.011 E0.0053
G1 X-15.377 Y4.883 E0.0049
G1 X-15.322 Y4.800 E0.0038
G1 X-15.537 Y4.470 E0.0151
G1 X-15.537 Y4.459 E0.0004
G1 X-15.413 Y4.026 E0.0172
G1 X-15.472 Y3.577 E0.0173
G1 X-15.450 Y3.086 E0.0188
G1 X-15.469 Y2.793 E0.0112
G1 X-15.460 Y2.453 E0.0130
G1 X-15.517 Y2.076 E0.0146
G1 X-15.708 Y1.898 E0.0100
G1 X-15.594 Y1.463 E0.0172
G1 X-15.604 Y0.903 E0.0214
G1 X-15.633 Y0.559 E0.0132
G1 X-15.675 Y0.322 E0.0092
G1 X-15.602 Y0.060 E0.0104
G1 X-15.782 Y-0.412 E0.0193
G1 X-15.892 Y-0.596 E0.0082
G1 X-15.983 Y-0.795 E0.0084
G1 X-16.001 Y-0.819 E0.0011
G1 X-15.973 Y-1.022 E0.0079
G1 X-15.982 Y-1.049 E0.0011
G1 X-15.942 Y-1.100 E0.0025
G1 X-15.709 Y-1.321 E0.0123
G1 X-15.442 Y-1.705 E0.0179
G1 X-15.431 Y-2.142 E0.0167
G1 X-15.458 Y-2.569 E0.0163
G1 X-15.535 Y-2.786 E0.0088
G1 X-15.337 Y-3.045 E0.0125
G1 X-15.373 Y-3.703 E0.0252
G1 X-15.319 Y-4.057 E0.0137
G1 X-15.307 Y-4.075 E0.0008
G1 X-15.128 Y-4.232 E0.0091
G1 X-15.035 Y-4.556 E0.0129
G1 X-15.015 Y-4.561 E0.0008
G1 X-14.715 Y-4.900 E0.0173
G1 X-14.612 Y-5.348 E0.0176
G1 X-14.644 Y-5.651 E0.0116
G1 X-14.735 Y-5.827 E0.0076
G1 X-14.682 Y-5.945 E0.0050
G1 X-14.732 Y-6.339 E0.0152
G1 X-14.778 Y-6.444 E0.0044
G1 X-14.775 Y-6.461 E0.0007
G1 X-14.498 Y-6.503 E0.0107
G1 X-14.161 Y-7.271 E0.0321
G1 X-14.109 Y-7.516 E0.0096
G1 X-14.068 Y-7.568 E0.0025
G1 X-14.053 Y-7.615 E0.0019
G1 X-13.928 Y-7.704 E0.0058
G1 X-13.580 Y-7.850 E0.0145
G1 X-13.382 Y-8.363 E0.0210
G1 X-13.399 Y-8.702 E0.0130
G1 X-13.454 Y-8.957 E0.0100
G1 X-13.416 Y-8.994 E0.0020
G1 X-13.353 Y-9.004 E0.0024
G1 X-13.232 Y-9.092 E0.0057
G1 X-12.907 Y-9.163 E0.0127
G1 X-12.603 Y-9.394 E0.0146
G1 X-12.407 Y-9.710 E0.0142
G1 X-12.330 Y-9.969 E0.0104
G1 X-12.280 Y-10.360 E0.0151
G1 X-12.112 Y-10.403 E0.0066
G1 X-11.851 Y-10.672 E0.0143
G1 X-11.768 Y-10.852 E0.0076
G1 X-11.632 Y-10.971 E0.0069
G1 X-11.521 Y-11.193 E0.0095
G1 X-11.368 Y-11.281 E0.0067
G1 X-11.108 Y-11.316 E0.0100
G1 X-10.796 Y-11.447 E0.0129
G1 X-10.609 Y-11.598 E0.0092
G1 X-10.502 Y-11.735 E0.0066
G1 X-10.451 Y-11.773 E0.0024
G1 X-10.347 Y-11.818 E0.0043
G1 X-10.005 Y-12.097 E0.0169
G1 X-9.679 Y-12.225 E0.0134
G1 X-9.462 Y-12.378 E0.0102
G1 X-9.243 Y-12.685 E0.0144
G1 X-9.186 Y-12.916 E0.0091
G1 X-8.938 Y-12.928 E0.0095
G1 X-8.632 Y-13.095 E0.0133
G1 X-8.367 Y-13.195 E0.0108
G1 X-8.166 Y-13.322 E0.0091
G1 X-8.018 Y-13.474 E0.0081
G1 X-7.727 Y-13.591 E0.0120
G1 X-7.522 Y-13.801 E0.0112
G1 X-7.347 Y-13.917 E0.0080
G1 X-7.250 Y-14.040 E0.0060
G1 X-7.191 Y-14.064 E0.0024
G1 X-7.170 Y-14.082 E0.0011
G1 X-6.997 Y-14.076 E0.0066
G1 X-6.688 Y-14.115 E0.0119
G1 X-6.405 Y-14.279 E0.0125
G1 X-6.095 Y-14.225 E0.0120
G1 X-5.692 Y-14.261 E0.0155
G1 X-4.483 Y-14.645 E0.0485
G1 X-3.938 Y-14.789 E0.0216
G1 X-3.417 Y-14.907 E0.0204
G1 X-2.864 Y-15.011 E0.0216
G1 X-2.278 Y-15.099 E0.0227
G1 X-1.712 Y-15.162 E0.0218
G1 X-1.162 Y-15.202 E0.0211
G1 X-0.268 Y-15.226 E0.0342
G1 X0.573 Y-15.200 E0.0322
G1 X1.435 Y-15.124 E0.0331
G1 X2.340 Y-14.992 E0.0350
G1 X2.953 Y-14.870 E0.0239
G1 X3.605 Y-14.712 E0.0257
G1 X4.235 Y-14.529 E0.0251
G1 X5.010 Y-14.270 E0.0312
G1 X5.561 Y-14.157 E0.0215
G1 X5.781 Y-14.069 E0.0090
G1 X6.033 Y-14.004 E0.0099
G1 X6.301 Y-13.963 E0.0104
G1 X6.643 Y-13.954 E0.0131
G1 X6.689 Y-13.971 E0.0019
G1 X6.774 Y-13.874 E0.0049
G1 X7.236 Y-13.689 E0.0190
G1 X7.698 Y-13.722 E0.0177
G1 X7.716 Y-13.717 E0.0007
G1 X7.825 Y-13.620 E0.0056
G1 X7.992 Y-13.428 E0.0097
G1 X8.261 Y-13.229 E0.0128
G1 X8.306 Y-13.099 E0.0053
G1 X8.457 Y-13.079 E0.0058
G1 X8.466 Y-12.788 E0.0112
G1 X9.225 Y-12.679 E0.0293
G1 X9.251 Y-12.686 E0.0010
G1 X9.367 Y-12.527 E0.0075
G1 X9.388 Y-12.513 E0.0010
G1 X9.501 Y-12.266 E0.0104
G1 X9.623 Y-12.198 E0.0053
G1 X9.819 Y-11.950 E0.0121
G1 X10.019 Y-11.770 E0.0103
G1 X10.071 Y-11.736 E0.0024
G1 X10.098 Y-11.633 E0.0040
G1 X10.203 Y-11.441 E0.0084
G1 X10.294 Y-11.197 E0.0100
G1 X10.552 Y-10.840 E0.0169
G1 X11.123 Y-10.724 E0.0223
G1 X11.222 Y-10.725 E0.0038
G1 X11.333 Y-10.631 E0.0056
G1 X11.524 Y-10.354 E0.0128
G1 X11.730 Y-10.301 E0.0081
G1 X11.797 Y-9.687 E0.0236
G1 X12.077 Y-9.110 E0.0245
G1 X12.424 Y-8.854 E0.0165
G1 X12.611 Y-8.827 E0.0072
G1 X12.654 Y-8.635 E0.0075
G1 X12.823 Y-8.316 E0.0138
G1 X13.239 Y-8.028 E0.0193
G1 X13.241 Y-8.018 E0.0004
G1 X13.342 Y-7.739 E0.0114
G1 X13.389 Y-7.512 E0.0089
G1 X13.599 Y-7.200 E0.0144
G1 X13.627 Y-7.182 E0.0013
G1 X13.616 Y-6.729 E0.0173
G1 X13.693 Y-6.423 E0.0121
G1 X13.934 Y-5.920 E0.0213
G1 X14.107 Y-5.755 E0.0091
G1 X14.085 Y-5.690 E0.0026
G1 X14.060 Y-5.501 E0.0073
G1 X14.075 Y-5.097 E0.0154
G1 X14.213 Y-4.758 E0.0140
G1 X14.431 Y-4.540 E0.0118
G1 X14.758 Y-4.310 E0.0153
G1 X14.811 Y-4.180 E0.0054
G1 X15.093 Y-3.962 E0.0136
G1 X15.342 Y-3.843 E0.0105
G1 X15.311 Y-3.510 E0.0128
G1 X15.489 Y-3.104 E0.0169
G1 X15.458 Y-3.007 E0.0039
G1 X15.402 Y-2.906 E0.0044
G1 X15.247 Y-2.523 E0.0158
G1 X15.280 Y-2.210 E0.0120
G1 X15.298 Y-2.145 E0.0026
G1 X15.236 Y-1.994 E0.0062
G1 X15.258 Y-1.925 E0.0028
G1 X15.245 Y-1.900 E0.0011
G1 X15.212 Y-1.439 E0.0177
G1 X15.325 Y-1.020 E0.0166
G1 X15.259 Y-0.899 E0.0053
G1 X15.178 Y-0.689 E0.0086
G1 X15.135 Y-0.506 E0.0072
G1 X15.141 Y-0.329 E0.0068
G1 X15.091 Y-0.189 E0.0057
G1 X14.995 Y0.290 E0.0187
G1 X15.128 Y0.834 E0.0214
G1 X15.209 Y0.924 E0.0046
G1 X15.068 Y1.118 E0.0092
G1 X14.878 Y1.689 E0.0230
G1 X14.849 Y2.000 E0.0119
G1 X14.782 Y2.296 E0.0116
G1 X14.776 Y2.690 E0.0151
G1 X14.774 Y2.710 E0.0008
G1 X14.642 Y3.028 E0.0132
G1 X14.452 Y3.752 E0.0286
G1 X14.403 Y4.062 E0.0120
G1 X14.297 Y4.382 E0.0129
G1 X14.398 Y4.986 E0.0234
G1 X14.387 Y5.010 E0.0010
G1 X14.363 Y5.205 E0.0075
G1 X14.175 Y5.354 E0.0092
G1 X14.026 Y5.607 E0.0112
G1 X13.934 Y5.865 E0.0105
G1 X13.872 Y6.435 E0.0219
G1 X13.676 Y6.547 E0.0086
G1 X13.402 Y6.992 E0.0200
G1 X13.497 Y7.460 E0.0183
G1 X13.441 Y7.715 E0.0100
G1 X13.412 Y7.725 E0.0012
G1 X13.324 Y7.797 E0.0044
G1 X13.178 Y7.861 E0.0061
G1 X12.844 Y8.192 E0.0180
G1 X12.697 Y8.558 E0.0151
G1 X12.730 Y8.866 E0.0118
G1 X12.614 Y8.983 E0.0063
G1 X12.542 Y9.115 E0.0057
G1 X12.338 Y9.158 E0.0080
G1 X12.054 Y9.299 E0.0121
G1 X11.857 Y9.521 E0.0114
G1 X11.739 Y9.718 E0.0088
G1 X11.647 Y9.793 E0.0046
G1 X11.427 Y9.911 E0.0095
G1 X11.246 Y10.164 E0.0119
G1 X11.089 Y10.507 E0.0144
G1 X11.084 Y10.848 E0.0130
G1 X10.879 Y10.824 E0.0079
G1 X10.554 Y10.920 E0.0130
G1 X10.299 Y11.093 E0.0118
G1 X10.139 Y11.368 E0.0122
G1 X10.119 Y11.437 E0.0027
G1 X9.890 Y11.472 E0.0089
G1 X9.487 Y11.820 E0.0204
G1 X9.321 Y12.064 E0.0113
G1 X9.286 Y12.246 E0.0071
G1 X9.068 Y12.378 E0.0098
G1 X8.895 Y12.588 E0.0104
G1 X8.775 Y12.584 E0.0046
G1 X8.487 Y12.681 E0.0116
G1 X8.182 Y12.933 E0.0151
G1 X8.162 Y12.971 E0.0017
G1 X8.125 Y12.967 E0.0014
G1 X7.814 Y13.025 E0.0121
G1 X7.528 Y13.216 E0.0131
G1 X7.476 Y13.284 E0.0033
