; G-Code generated by Simplify3D(R) Version 4.1.2
; Apr 2, 2020 at 1:52:49 PM
; Settings Summary
;   processName,Process1
;   applyToModels,Milano Spotlight V1R2
;   profileName,MakerBot Replicator 2 HBP (modified)
;   profileVersion,2020-03-12 10:48:50
;   baseProfile,MakerBot Replicator 2(2)
;   printMaterial,PLA
;   printQuality,Medium
;   printExtruders,
;   extruderName,Primary Extruder
;   extruderToolheadNumber,0
;   extruderDiameter,0.4
;   extruderAutoWidth,0
;   extruderWidth,0.4
;   extrusionMultiplier,1
;   extruderUseRetract,1
;   extruderRetractionDistance,1.9
;   extruderExtraRestartDistance,0
;   extruderRetractionZLift,0.5
;   extruderRetractionSpeed,1200
;   extruderUseCoasting,0
;   extruderCoastingDistance,0.2
;   extruderUseWipe,0
;   extruderWipeDistance,5
;   primaryExtruder,0
;   layerHeight,0.2
;   topSolidLayers,3
;   bottomSolidLayers,3
;   perimeterOutlines,2
;   printPerimetersInsideOut,1
;   startPointOption,3
;   startPointOriginX,0
;   startPointOriginY,150
;   sequentialIslands,0
;   spiralVaseMode,0
;   firstLayerHeightPercentage,100
;   firstLayerWidthPercentage,115
;   firstLayerUnderspeed,0.5
;   useRaft,0
;   raftExtruder,0
;   raftTopLayers,2
;   raftBaseLayers,1
;   raftOffset,1
;   raftSeparationDistance,0.14
;   raftTopInfill,90
;   aboveRaftSpeedMultiplier,0.3
;   useSkirt,0
;   skirtExtruder,0
;   skirtLayers,1
;   skirtOutlines,5
;   skirtOffset,0
;   usePrimePillar,0
;   primePillarExtruder,999
;   primePillarWidth,12
;   primePillarLocation,7
;   primePillarSpeedMultiplier,1
;   useOozeShield,0
;   oozeShieldExtruder,999
;   oozeShieldOffset,2
;   oozeShieldOutlines,1
;   oozeShieldSidewallShape,1
;   oozeShieldSidewallAngle,30
;   oozeShieldSpeedMultiplier,1
;   infillExtruder,0
;   internalInfillPattern,Rectilinear
;   externalInfillPattern,Rectilinear
;   infillPercentage,15
;   outlineOverlapPercentage,25
;   infillExtrusionWidthPercentage,100
;   minInfillLength,5
;   infillLayerInterval,1
;   internalInfillAngles,45,-45
;   overlapInternalInfillAngles,0
;   externalInfillAngles,45,-45
;   generateSupport,1
;   supportExtruder,0
;   supportInfillPercentage,30
;   supportExtraInflation,0.5
;   supportBaseLayers,0
;   denseSupportExtruder,0
;   denseSupportLayers,2
;   denseSupportInfillPercentage,90
;   supportLayerInterval,1
;   supportHorizontalPartOffset,0.3
;   supportUpperSeparationLayers,1
;   supportLowerSeparationLayers,1
;   supportType,1
;   supportGridSpacing,2
;   maxOverhangAngle,45
;   supportAngles,45,-45
;   temperatureName,Primary Extruder,Heated Build Platform
;   temperatureNumber,0,0
;   temperatureSetpointCount,1,1
;   temperatureSetpointLayers,1,1
;   temperatureSetpointTemperatures,230,60
;   temperatureStabilizeAtStartup,1,1
;   temperatureHeatedBed,0,1
;   fanLayers,1,2
;   fanSpeeds,0,100
;   blipFanToFullPower,1
;   adjustSpeedForCooling,1
;   minSpeedLayerTime,15
;   minCoolingSpeedSlowdown,20
;   increaseFanForCooling,1
;   minFanLayerTime,45
;   maxCoolingFanSpeed,100
;   increaseFanForBridging,1
;   bridgingFanSpeed,100
;   use5D,1
;   relativeEdistances,1
;   allowEaxisZeroing,0
;   independentExtruderAxes,1
;   includeM10123,0
;   stickySupport,1
;   applyToolheadOffsets,0
;   gcodeXoffset,0
;   gcodeYoffset,0
;   gcodeZoffset,0
;   overrideMachineDefinition,1
;   machineTypeOverride,0
;   strokeXoverride,280
;   strokeYoverride,150
;   strokeZoverride,150
;   originOffsetXoverride,140
;   originOffsetYoverride,75
;   originOffsetZoverride,0
;   homeXdirOverride,1
;   homeYdirOverride,1
;   homeZdirOverride,-1
;   flipXoverride,1
;   flipYoverride,-1
;   flipZoverride,1
;   toolheadOffsets,0,0|0,0|0,0|0,0|0,0|0,0
;   overrideFirmwareConfiguration,1
;   firmwareTypeOverride,MakerBot/Sailfish Firmware
;   GPXconfigOverride,r2h
;   baudRateOverride,115200
;   overridePrinterModels,1
;   printerModelsOverride,MakerBot_Replicator2.stl
;   startingGcode,; **** Replicator 2 start.gcode ****,M73 P0 ; enable build progress,G162 X Y F3000 ; home XY maximum,G161 Z F1200 ; home Z minimum,G92 Z-5 ; set Z to -5,G1 Z0 ; move Z to 0,G161 Z F100 ; home Z slowly,M132 X Y Z A B ; recall home offsets,G1 X-145 Y-75 Z30 F9000 ; move to wait position off table,G130 X20 Y20 Z20 A20 B20 ; lower stepper Vrefs while heating,M126 S[fan_speed_pwm],M140 S[bed0_temperature] T0,M134 T0 ; stabilize bed temperature,M104 S[extruder0_temperature] T0,M133 T0 ; stabilize extruder temperature,G130 X127 Y127 Z40 A127 B127 ; default stepper Vrefs,G92 A0 ; zero extruder,G1 Z0.4 ; position nozzle,G1 E25 F300 ; purge nozzle,G1 X-140 Y-70 Z0.15 F1200 ; slow wipe,G1 X-135 Y-65 Z0.5 F1200 ; lift,G92 A0 ; zero extruder,M73 P1 ;@body (notify GPX body has started),; **** end of start.gcode ****
;   layerChangeGcode,
;   retractionGcode,
;   toolChangeGcode,
;   endingGcode,; **** Replicator 2 end.gcode ****,M73 P100 ; end build progress,G1 Z155 F1000 ; send Z axis to bottom of machine,M104 S0 T0 ; cool down extruder,M140 S0 T0 ; cool down HBP,M127 ; stop blower fan,G162 X Y F3000 ; home XY maximum,M18 ; disable stepper,M0 ; stop codes,M72 P1 ; play Ta-Da song,; **** end of end.gcode ****
;   exportFileFormat,gcode
;   celebration,0
;   celebrationSong,Random Song
;   postProcessing,
;   defaultSpeed,4800
;   outlineUnderspeed,0.5
;   solidInfillUnderspeed,1
;   supportUnderspeed,1
;   rapidXYspeed,9000
;   rapidZspeed,1200
;   minBridgingArea,50
;   bridgingExtraInflation,0
;   bridgingExtrusionMultiplier,1
;   bridgingSpeedMultiplier,0.8
;   useFixedBridgingAngle,0
;   fixedBridgingAngle,0
;   applyBridgingToPerimeters,0
;   filamentDiameters,1.75|1.75|1.75|1.75|1.75|1.75
;   filamentPricesPerKg,46|46|46|46|46|46
;   filamentDensities,1.25|1.25|1.25|1.25|1.25|1.25
;   useMinPrintHeight,0
;   minPrintHeight,0
;   useMaxPrintHeight,0
;   maxPrintHeight,4.84
;   useDiaphragm,0
;   diaphragmLayerInterval,20
;   robustSlicing,1
;   mergeAllIntoSolid,0
;   onlyRetractWhenCrossingOutline,0
;   retractBetweenLayers,0
;   useRetractionMinTravel,1
;   retractionMinTravel,7
;   retractWhileWiping,1
;   onlyWipeOutlines,1
;   avoidCrossingOutline,0
;   maxMovementDetourFactor,3
;   toolChangeRetractionDistance,12
;   toolChangeExtraRestartDistance,-0.5
;   toolChangeRetractionSpeed,600
;   externalThinWallType,0
;   internalThinWallType,0
;   thinWallAllowedOverlapPercentage,10
;   singleExtrusionMinLength,1
;   singleExtrusionMinPrintingWidthPercentage,50
;   singleExtrusionMaxPrintingWidthPercentage,200
;   singleExtrusionEndpointExtension,0.2
;   horizontalSizeCompensation,0
G90
M83
; **** Replicator 2 start.gcode ****
M73 P0 ; enable build progress
G162 X Y F3000 ; home XY maximum
G161 Z F1200 ; home Z minimum
G92 Z-5 ; set Z to -5
G1 Z0 ; move Z to 0
G161 Z F100 ; home Z slowly
M132 X Y Z A B ; recall home offsets
G1 X-145 Y-75 Z30 F9000 ; move to wait position off table
G130 X20 Y20 Z20 A20 B20 ; lower stepper Vrefs while heating
M126 S170
M140 S60 T0
M134 T0 ; stabilize bed temperature
M104 S230 T0
M133 T0 ; stabilize extruder temperature
G130 X127 Y127 Z40 A127 B127 ; default stepper Vrefs
G92 A0 ; zero extruder
G1 Z0.4 ; position nozzle
G1 E25 F300 ; purge nozzle
G1 X-140 Y-70 Z0.15 F1200 ; slow wipe
G1 X-135 Y-65 Z0.5 F1200 ; lift
G92 A0 ; zero extruder
M73 P1 ;@body (notify GPX body has started)
; **** end of start.gcode ****
; process Process1
; layer 1, Z = 0.200
M135 T0
G1 E-1.9000 F1200
; feature inner perimeter
; tool H0.200 W0.460
G1 Z0.500 F1200
G1 X6.235 Y1.079 F9000
G1 Z0.200 F1200
G1 E1.9000 F1200
G1 X-6.245 Y1.079 E0.4773 F1229
G1 X-6.245 Y-0.840 E0.0734
G1 X-7.409 Y-4.124 E0.1333
G1 X-8.216 Y-5.510 E0.0613
G1 X-8.677 Y-6.882 E0.0554
G1 X-8.832 Y-8.303 E0.0547
G1 X-8.677 Y-9.724 E0.0547
G1 X-8.216 Y-11.093 E0.0553
G1 X-7.630 Y-12.083 E0.0440
G1 X-6.867 Y-12.083 E0.0292
G1 X-6.337 Y-11.729 E0.0244
G1 X-6.682 Y-11.084 E0.0280
G1 X-7.096 Y-9.721 E0.0545
G1 X-7.235 Y-8.301 E0.0546
G1 X-7.086 Y-6.853 E0.0557
G1 X-6.682 Y-5.521 E0.0532
G1 X-6.010 Y-4.265 E0.0545
G1 X-5.106 Y-3.163 E0.0545
G1 X-4.005 Y-2.259 E0.0545
G1 X-2.748 Y-1.588 E0.0545
G1 X-1.385 Y-1.174 E0.0545
G1 X0.033 Y-1.034 E0.0545
G1 X1.451 Y-1.174 E0.0545
G1 X2.815 Y-1.588 E0.0545
G1 X4.071 Y-2.259 E0.0545
G1 X5.173 Y-3.163 E0.0545
G1 X6.077 Y-4.265 E0.0545
G1 X6.748 Y-5.521 E0.0545
G1 X7.162 Y-6.885 E0.0545
G1 X7.302 Y-8.303 E0.0545
G1 X7.162 Y-9.721 E0.0545
G1 X6.748 Y-11.084 E0.0545
G1 X6.403 Y-11.729 E0.0280
G1 X6.933 Y-12.083 E0.0244
G1 X7.630 Y-12.083 E0.0267
G1 X8.216 Y-11.093 E0.0440
G1 X8.677 Y-9.724 E0.0553
G1 X8.832 Y-8.303 E0.0547
G1 X8.677 Y-6.882 E0.0547
G1 X8.216 Y-5.512 E0.0553
G1 X7.398 Y-4.126 E0.0616
G1 X6.231 Y-0.839 E0.1334
G1 X6.235 Y1.079 E0.0734
; feature outer perimeter
G1 X6.695 Y1.539 F9000
G1 X-6.705 Y1.539 E0.5125 F819
G1 X-6.705 Y-0.760 E0.0880
G1 X-7.828 Y-3.929 E0.1286
G1 X-8.637 Y-5.319 E0.0615
G1 X-9.129 Y-6.783 E0.0591
G1 X-9.295 Y-8.303 E0.0585
G1 X-9.129 Y-9.823 E0.0585
G1 X-8.637 Y-11.286 E0.0590
G1 X-7.892 Y-12.543 E0.0559
G1 X-6.727 Y-12.543 E0.0446
G1 X-5.735 Y-11.880 E0.0456
G1 X-6.255 Y-10.907 E0.0422
G1 X-6.642 Y-9.631 E0.0510
G1 X-6.773 Y-8.302 E0.0511
G1 X-6.633 Y-6.945 E0.0522
G1 X-6.255 Y-5.698 E0.0498
G1 X-5.626 Y-4.521 E0.0510
G1 X-4.780 Y-3.490 E0.0510
G1 X-3.748 Y-2.644 E0.0510
G1 X-2.571 Y-2.015 E0.0510
G1 X-1.295 Y-1.627 E0.0510
G1 X0.033 Y-1.497 E0.0510
G1 X1.361 Y-1.627 E0.0510
G1 X2.638 Y-2.015 E0.0510
G1 X3.814 Y-2.644 E0.0510
G1 X4.846 Y-3.490 E0.0510
G1 X5.692 Y-4.521 E0.0510
G1 X6.321 Y-5.698 E0.0510
G1 X6.709 Y-6.975 E0.0510
G1 X6.839 Y-8.303 E0.0510
G1 X6.709 Y-9.631 E0.0510
G1 X6.321 Y-10.907 E0.0510
G1 X5.801 Y-11.880 E0.0422
G1 X6.794 Y-12.543 E0.0456
G1 X7.892 Y-12.543 E0.0420
G1 X8.637 Y-11.286 E0.0559
G1 X9.129 Y-9.823 E0.0590
G1 X9.295 Y-8.303 E0.0585
G1 X9.129 Y-6.783 E0.0585
G1 X8.637 Y-5.320 E0.0590
G1 X7.816 Y-3.930 E0.0617
G1 X6.691 Y-0.760 E0.1287
G1 X6.695 Y1.539 E0.0880
G1 E-1.9000 F1200
; feature solid layer
G1 Z0.700 F1200
G1 X-5.900 Y0.606 F9000
G1 Z0.200 F1200
G1 E1.9000 F1200
G1 X-5.771 Y0.734 E0.0070 F1639
G1 X-5.120 Y0.734 E0.0249
G1 X-5.900 Y-0.045 E0.0422
G1 X-5.900 Y-0.695 E0.0249
G1 X-4.470 Y0.734 E0.0773
G1 X-3.819 Y0.734 E0.0249
G1 X-6.145 Y-1.591 E0.1258
G1 X-6.503 Y-2.599 E0.0409
G1 X-3.169 Y0.734 E0.1803
G1 X-2.518 Y0.734 E0.0249
G1 X-6.860 Y-3.607 E0.2349
G1 E-1.9000 F1200
G1 Z0.700 F1200
G1 X-6.884 Y-11.438 F9000
G1 Z0.200 F1200
G1 E1.9000 F1200
G1 X-7.185 Y-11.738 E0.0162 F1639
G1 X-7.434 Y-11.738 E0.0095
G1 X-7.583 Y-11.486 E0.0112
G1 X-7.075 Y-10.978 E0.0275
G1 X-7.226 Y-10.479 E0.0200
G1 X-7.825 Y-11.078 E0.0324
G1 X-7.901 Y-10.949 E0.0057
G1 X-8.013 Y-10.615 E0.0135
G1 X-7.378 Y-9.980 E0.0344
G1 X-7.436 Y-9.788 E0.0076
G1 X-7.472 Y-9.423 E0.0140
G1 X-8.177 Y-10.128 E0.0381
G1 X-8.338 Y-9.649 E0.0193
G1 X-8.339 Y-9.640 E0.0003
G1 X-7.530 Y-8.831 E0.0438
G1 X-7.582 Y-8.300 E0.0204
G1 X-7.574 Y-8.225 E0.0029
G1 X-8.403 Y-9.053 E0.0448
G1 X-8.467 Y-8.467 E0.0226
G1 X-7.500 Y-7.500 E0.0523
G1 X-7.426 Y-6.785 E0.0275
G1 X-7.422 Y-6.771 E0.0006
G1 X-8.427 Y-7.777 E0.0544
G1 X-8.348 Y-7.047 E0.0281
G1 X-7.138 Y-5.837 E0.0654
G1 X-7.002 Y-5.389 E0.0179
G1 X-6.614 Y-4.663 E0.0315
G1 X-8.049 Y-6.098 E0.0776
G1 X-7.900 Y-5.653 E0.0179
G1 X-7.405 Y-4.803 E0.0376
G1 X-1.868 Y0.734 E0.2996
G1 X-1.217 Y0.734 E0.0249
G1 X-3.607 Y-1.656 E0.1293
G1 X-2.881 Y-1.267 E0.0315
G1 X-2.432 Y-1.131 E0.0179
G1 X-0.567 Y0.734 E0.1009
G1 X0.084 Y0.734 E0.0249
G1 X-1.499 Y-0.848 E0.0856
G1 X-1.452 Y-0.834 E0.0018
G1 X-0.766 Y-0.766 E0.0264
G1 X0.734 Y0.734 E0.0812
G1 X1.385 Y0.734 E0.0249
G1 X-0.045 Y-0.695 E0.0773
G1 X0.033 Y-0.688 E0.0030
G1 X0.561 Y-0.740 E0.0203
G1 X2.036 Y0.734 E0.0797
G1 X2.686 Y0.734 E0.0249
G1 X1.154 Y-0.798 E0.0829
G1 X1.519 Y-0.834 E0.0140
G1 X1.710 Y-0.892 E0.0076
G1 X3.337 Y0.734 E0.0880
G1 X3.987 Y0.734 E0.0249
G1 X2.209 Y-1.043 E0.0962
G1 X2.708 Y-1.195 E0.0200
G1 X4.638 Y0.734 E0.1044
G1 X5.288 Y0.734 E0.0249
G1 X3.168 Y-1.385 E0.1147
G1 X3.592 Y-1.612 E0.0184
G1 X5.889 Y0.685 E0.1242
G1 X5.888 Y0.033 E0.0249
G1 X4.016 Y-1.839 E0.1012
G1 X4.264 Y-1.971 E0.0107
G1 X4.412 Y-2.093 E0.0073
G1 X5.887 Y-0.619 E0.0797
G1 X5.886 Y-0.898 E0.0107
G1 X5.983 Y-1.172 E0.0111
G1 X4.770 Y-2.386 E0.0657
G1 X5.127 Y-2.679 E0.0177
G1 X6.154 Y-1.653 E0.0555
G1 X6.324 Y-2.133 E0.0195
G1 X5.472 Y-2.985 E0.0461
G1 X5.766 Y-3.342 E0.0177
G1 X6.495 Y-2.613 E0.0394
G1 X6.665 Y-3.093 E0.0195
G1 X6.059 Y-3.699 E0.0328
G1 X6.352 Y-4.057 E0.0177
G1 X6.836 Y-3.573 E0.0262
G1 X7.006 Y-4.053 E0.0195
G1 X6.582 Y-4.478 E0.0230
G1 X6.808 Y-4.901 E0.0184
G1 X7.215 Y-4.495 E0.0220
G1 X7.457 Y-4.904 E0.0182
G1 X7.035 Y-5.325 E0.0228
G1 X7.069 Y-5.389 E0.0027
G1 X7.197 Y-5.813 E0.0170
G1 X7.698 Y-5.313 E0.0271
G1 X7.901 Y-5.656 E0.0153
G1 X7.927 Y-5.734 E0.0031
G1 X7.349 Y-6.312 E0.0313
G1 X7.500 Y-6.812 E0.0200
G1 X8.091 Y-6.221 E0.0319
G1 X8.254 Y-6.708 E0.0196
G1 X7.560 Y-7.403 E0.0376
G1 X7.618 Y-7.995 E0.0228
G1 X8.369 Y-7.244 E0.0406
G1 X8.433 Y-7.830 E0.0226
G1 X7.614 Y-8.649 E0.0443
G1 X7.543 Y-9.371 E0.0277
G1 X8.469 Y-8.445 E0.0501
G1 X8.390 Y-9.175 E0.0281
G1 X7.383 Y-10.182 E0.0545
G1 X7.099 Y-11.116 E0.0373
G1 X8.222 Y-9.993 E0.0608
G1 X7.901 Y-10.949 E0.0386
G1 X7.878 Y-10.987 E0.0017
G1 X7.127 Y-11.738 E0.0406
G1 E-1.9000 F1200
; feature support
G1 Z0.700 F1200
G1 X-0.177 Y12.480 F9000
G1 Z0.200 F1200
G1 E1.9000 F1200
G1 X-1.480 Y11.177 E0.0705 F1639
G1 X-1.480 Y9.291 E0.0721
G1 X1.480 Y12.251 E0.1601
G1 X1.480 Y10.366 E0.0721
G1 X-1.480 Y7.406 E0.1601
G1 X-1.480 Y5.520 E0.0721
G1 X1.480 Y8.480 E0.1601
G1 X1.480 Y6.594 E0.0721
G1 X-1.480 Y3.634 E0.1601
G1 X-1.480 Y2.309 E0.0507
G1 X-0.919 Y2.309 E0.0214
G1 X1.480 Y4.709 E0.1298
G1 X1.480 Y2.823 E0.0721
G1 X0.966 Y2.309 E0.0278
; layer 2, Z = 0.400
M126 S255
; feature inner perimeter
; tool H0.200 W0.400
G1 Z0.400 F1200
G1 X6.325 Y1.169 F9000
G1 X-6.335 Y1.169 E0.4211 F1351
G1 X-6.335 Y-0.824 E0.0663
G1 X-7.491 Y-4.086 E0.1151
G1 X-8.298 Y-5.472 E0.0534
G1 X-8.765 Y-6.863 E0.0488
G1 X-8.922 Y-8.303 E0.0482
G1 X-8.765 Y-9.743 E0.0482
G1 X-8.299 Y-11.131 E0.0487
G1 X-7.681 Y-12.173 E0.0403
G1 X-6.839 Y-12.173 E0.0280
G1 X-6.219 Y-11.759 E0.0248
G1 X-6.598 Y-11.050 E0.0267
G1 X-7.007 Y-9.703 E0.0468
G1 X-7.145 Y-8.303 E0.0468
G1 X-7.007 Y-6.902 E0.0468
G1 X-6.962 Y-6.756 E0.0051
G1 X-6.598 Y-5.556 E0.0417
G1 X-5.935 Y-4.315 E0.0468
G1 X-5.042 Y-3.227 E0.0468
G1 X-3.955 Y-2.335 E0.0468
G1 X-2.714 Y-1.671 E0.0468
G1 X-1.367 Y-1.263 E0.0468
G1 X0.033 Y-1.125 E0.0468
G1 X1.434 Y-1.263 E0.0468
G1 X2.780 Y-1.671 E0.0468
G1 X4.021 Y-2.335 E0.0468
G1 X5.109 Y-3.227 E0.0468
G1 X6.001 Y-4.315 E0.0468
G1 X6.665 Y-5.556 E0.0468
G1 X7.073 Y-6.902 E0.0468
G1 X7.211 Y-8.303 E0.0468
G1 X7.073 Y-9.703 E0.0468
G1 X6.665 Y-11.050 E0.0468
G1 X6.286 Y-11.759 E0.0267
G1 X6.906 Y-12.173 E0.0248
G1 X7.681 Y-12.173 E0.0258
G1 X8.299 Y-11.131 E0.0403
G1 X8.765 Y-9.743 E0.0487
G1 X8.922 Y-8.303 E0.0482
G1 X8.765 Y-6.863 E0.0482
G1 X8.299 Y-5.474 E0.0487
G1 X7.480 Y-4.088 E0.0536
G1 X6.321 Y-0.824 E0.1152
G1 X6.325 Y1.169 E0.0663
; feature outer perimeter
G1 X6.726 Y1.569 F9000
G1 X-6.735 Y1.569 E0.4477 F901
G1 X-6.735 Y-0.755 E0.0773
G1 X-7.856 Y-3.917 E0.1116
G1 X-8.664 Y-5.306 E0.0535
G1 X-9.158 Y-6.776 E0.0516
G1 X-9.325 Y-8.303 E0.0511
G1 X-9.158 Y-9.829 E0.0511
G1 X-8.664 Y-11.298 E0.0515
G1 X-7.909 Y-12.573 E0.0493
G1 X-6.718 Y-12.573 E0.0396
G1 X-5.696 Y-11.890 E0.0409
G1 X-6.227 Y-10.896 E0.0375
G1 X-6.613 Y-9.625 E0.0442
G1 X-6.743 Y-8.303 E0.0442
G1 X-6.613 Y-6.981 E0.0442
G1 X-6.580 Y-6.872 E0.0038
G1 X-6.227 Y-5.710 E0.0404
G1 X-5.601 Y-4.538 E0.0442
G1 X-4.758 Y-3.511 E0.0442
G1 X-3.731 Y-2.669 E0.0442
G1 X-2.560 Y-2.043 E0.0442
G1 X-1.289 Y-1.657 E0.0442
G1 X0.033 Y-1.527 E0.0442
G1 X1.355 Y-1.657 E0.0442
G1 X2.626 Y-2.043 E0.0442
G1 X3.798 Y-2.669 E0.0442
G1 X4.825 Y-3.511 E0.0442
G1 X5.667 Y-4.538 E0.0442
G1 X6.293 Y-5.710 E0.0442
G1 X6.679 Y-6.981 E0.0442
G1 X6.809 Y-8.303 E0.0442
G1 X6.679 Y-9.625 E0.0442
G1 X6.293 Y-10.896 E0.0442
G1 X5.762 Y-11.890 E0.0375
G1 X6.784 Y-12.573 E0.0409
G1 X7.909 Y-12.573 E0.0374
G1 X8.664 Y-11.298 E0.0493
G1 X9.158 Y-9.829 E0.0515
