; G-Code generated by Simplify3D(R) Version 4.1.2
; Apr 6, 2020 at 12:40:36 PM
; Settings Summary
;   processName,Process1
;   applyToModels,Newton Bracket
;   profileName,MakerBot Replicator 2 HBP (modified)
;   profileVersion,2019-08-23 15:32:08
;   baseProfile,MakerBot Replicator 2(2)
;   printMaterial,PLA
;   printQuality,Medium
;   printExtruders,
;   extruderName,Primary Extruder
;   extruderToolheadNumber,0
;   extruderDiameter,0.4
;   extruderAutoWidth,0
;   extruderWidth,0.4
;   extrusionMultiplier,1
;   extruderUseRetract,1
;   extruderRetractionDistance,1
;   extruderExtraRestartDistance,0
;   extruderRetractionZLift,0.5
;   extruderRetractionSpeed,1200
;   extruderUseCoasting,0
;   extruderCoastingDistance,0.2
;   extruderUseWipe,0
;   extruderWipeDistance,5
;   primaryExtruder,0
;   layerHeight,0.2
;   topSolidLayers,3
;   bottomSolidLayers,3
;   perimeterOutlines,2
;   printPerimetersInsideOut,1
;   startPointOption,3
;   startPointOriginX,0
;   startPointOriginY,150
;   sequentialIslands,0
;   spiralVaseMode,0
;   firstLayerHeightPercentage,100
;   firstLayerWidthPercentage,100
;   firstLayerUnderspeed,0.5
;   useRaft,0
;   raftExtruder,0
;   raftTopLayers,2
;   raftBaseLayers,1
;   raftOffset,1
;   raftSeparationDistance,0.14
;   raftTopInfill,90
;   aboveRaftSpeedMultiplier,0.3
;   useSkirt,0
;   skirtExtruder,0
;   skirtLayers,1
;   skirtOutlines,5
;   skirtOffset,0
;   usePrimePillar,0
;   primePillarExtruder,999
;   primePillarWidth,12
;   primePillarLocation,7
;   primePillarSpeedMultiplier,1
;   useOozeShield,0
;   oozeShieldExtruder,999
;   oozeShieldOffset,2
;   oozeShieldOutlines,1
;   oozeShieldSidewallShape,1
;   oozeShieldSidewallAngle,30
;   oozeShieldSpeedMultiplier,1
;   infillExtruder,0
;   internalInfillPattern,Rectilinear
;   externalInfillPattern,Rectilinear
;   infillPercentage,15
;   outlineOverlapPercentage,20
;   infillExtrusionWidthPercentage,100
;   minInfillLength,5
;   infillLayerInterval,1
;   internalInfillAngles,45,-45
;   overlapInternalInfillAngles,0
;   externalInfillAngles,45,-45
;   generateSupport,1
;   supportExtruder,0
;   supportInfillPercentage,10
;   supportExtraInflation,0.5
;   supportBaseLayers,0
;   denseSupportExtruder,0
;   denseSupportLayers,2
;   denseSupportInfillPercentage,70
;   supportLayerInterval,1
;   supportHorizontalPartOffset,0.3
;   supportUpperSeparationLayers,1
;   supportLowerSeparationLayers,1
;   supportType,0
;   supportGridSpacing,2
;   maxOverhangAngle,45
;   supportAngles,0
;   temperatureName,Primary Extruder,Heated Build Platform
;   temperatureNumber,0,0
;   temperatureSetpointCount,1,1
;   temperatureSetpointLayers,1,1
;   temperatureSetpointTemperatures,230,60
;   temperatureStabilizeAtStartup,1,1
;   temperatureHeatedBed,0,1
;   fanLayers,1,2
;   fanSpeeds,0,100
;   blipFanToFullPower,1
;   adjustSpeedForCooling,1
;   minSpeedLayerTime,15
;   minCoolingSpeedSlowdown,20
;   increaseFanForCooling,1
;   minFanLayerTime,45
;   maxCoolingFanSpeed,100
;   increaseFanForBridging,1
;   bridgingFanSpeed,100
;   use5D,1
;   relativeEdistances,1
;   allowEaxisZeroing,0
;   independentExtruderAxes,1
;   includeM10123,0
;   stickySupport,1
;   applyToolheadOffsets,0
;   gcodeXoffset,0
;   gcodeYoffset,0
;   gcodeZoffset,0
;   overrideMachineDefinition,1
;   machineTypeOverride,0
;   strokeXoverride,280
;   strokeYoverride,150
;   strokeZoverride,150
;   originOffsetXoverride,140
;   originOffsetYoverride,75
;   originOffsetZoverride,0
;   homeXdirOverride,1
;   homeYdirOverride,1
;   homeZdirOverride,-1
;   flipXoverride,1
;   flipYoverride,-1
;   flipZoverride,1
;   toolheadOffsets,0,0|0,0|0,0|0,0|0,0|0,0
;   overrideFirmwareConfiguration,1
;   firmwareTypeOverride,MakerBot/Sailfish Firmware
;   GPXconfigOverride,r2h
;   baudRateOverride,115200
;   overridePrinterModels,1
;   printerModelsOverride,MakerBot_Replicator2.stl
;   startingGcode,; **** Replicator 2 start.gcode ****,M73 P0 ; enable build progress,G162 X Y F3000 ; home XY maximum,G161 Z F1200 ; home Z minimum,G92 Z-5 ; set Z to -5,G1 Z0 ; move Z to 0,G161 Z F100 ; home Z slowly,M132 X Y Z A B ; recall home offsets,G1 X-145 Y-75 Z30 F9000 ; move to wait position off table,G130 X20 Y20 Z20 A20 B20 ; lower stepper Vrefs while heating,M126 S[fan_speed_pwm],M140 S[bed0_temperature] T0,M134 T0 ; stabilize bed temperature,M104 S[extruder0_temperature] T0,M133 T0 ; stabilize extruder temperature,G130 X127 Y127 Z40 A127 B127 ; default stepper Vrefs,G92 A0 ; zero extruder,G1 Z0.4 ; position nozzle,G1 E25 F300 ; purge nozzle,G1 X-140 Y-70 Z0.15 F1200 ; slow wipe,G1 X-135 Y-65 Z0.5 F1200 ; lift,G92 A0 ; zero extruder,M73 P1 ;@body (notify GPX body has started),; **** end of start.gcode ****
;   layerChangeGcode,
;   retractionGcode,
;   toolChangeGcode,
;   endingGcode,; **** Replicator 2 end.gcode ****,M73 P100 ; end build progress,G1 Z155 F1000 ; send Z axis to bottom of machine,M104 S0 T0 ; cool down extruder,M140 S0 T0 ; cool down HBP,M127 ; stop blower fan,G162 X Y F3000 ; home XY maximum,M18 ; disable stepper,M0 ; stop codes,M72 P1 ; play Ta-Da song,; **** end of end.gcode ****
;   exportFileFormat,gcode
;   celebration,0
;   celebrationSong,Random Song
;   postProcessing,
;   defaultSpeed,4800
;   outlineUnderspeed,0.5
;   solidInfillUnderspeed,1
;   supportUnderspeed,1
;   rapidXYspeed,9000
;   rapidZspeed,1200
;   minBridgingArea,50
;   bridgingExtraInflation,0
;   bridgingExtrusionMultiplier,1
;   bridgingSpeedMultiplier,0.8
;   useFixedBridgingAngle,0
;   fixedBridgingAngle,0
;   applyBridgingToPerimeters,0
;   filamentDiameters,1.75|1.75|1.75|1.75|1.75|1.75
;   filamentPricesPerKg,46|46|46|46|46|46
;   filamentDensities,1.25|1.25|1.25|1.25|1.25|1.25
;   useMinPrintHeight,0
;   minPrintHeight,0
;   useMaxPrintHeight,0
;   maxPrintHeight,4.84
;   useDiaphragm,0
;   diaphragmLayerInterval,20
;   robustSlicing,1
;   mergeAllIntoSolid,0
;   onlyRetractWhenCrossingOutline,0
;   retractBetweenLayers,0
;   useRetractionMinTravel,1
;   retractionMinTravel,7
;   retractWhileWiping,1
;   onlyWipeOutlines,1
;   avoidCrossingOutline,0
;   maxMovementDetourFactor,3
;   toolChangeRetractionDistance,12
;   toolChangeExtraRestartDistance,-0.5
;   toolChangeRetractionSpeed,600
;   externalThinWallType,0
;   internalThinWallType,0
;   thinWallAllowedOverlapPercentage,10
;   singleExtrusionMinLength,1
;   singleExtrusionMinPrintingWidthPercentage,50
;   singleExtrusionMaxPrintingWidthPercentage,200
;   singleExtrusionEndpointExtension,0.2
;   horizontalSizeCompensation,0
G90
M83
; **** Replicator 2 start.gcode ****
M73 P0 ; enable build progress
G162 X Y F3000 ; home XY maximum
G161 Z F1200 ; home Z minimum
G92 Z-5 ; set Z to -5
G1 Z0 ; move Z to 0
G161 Z F100 ; home Z slowly
M132 X Y Z A B ; recall home offsets
G1 X-145 Y-75 Z30 F9000 ; move to wait position off table
G130 X20 Y20 Z20 A20 B20 ; lower stepper Vrefs while heating
M126 S161
M140 S60 T0
M134 T0 ; stabilize bed temperature
M104 S230 T0
M133 T0 ; stabilize extruder temperature
G130 X127 Y127 Z40 A127 B127 ; default stepper Vrefs
G92 A0 ; zero extruder
G1 Z0.4 ; position nozzle
G1 E25 F300 ; purge nozzle
G1 X-140 Y-70 Z0.15 F1200 ; slow wipe
G1 X-135 Y-65 Z0.5 F1200 ; lift
G92 A0 ; zero extruder
M73 P1 ;@body (notify GPX body has started)
; **** end of start.gcode ****
; process Process1
; layer 1, Z = 0.200
M135 T0
G1 E-1.0000 F1200
; feature inner perimeter
; tool H0.200 W0.400
G1 Z0.500 F1200
G1 X-6.998 Y-0.779 F9000
G1 Z0.200 F1200
G1 E1.0000 F1200
G1 X-16.134 Y-0.779 E0.3039 F1800
G1 X-16.134 Y-5.977 E0.1729
G1 X-6.997 Y-5.977 E0.3039
G1 X-6.998 Y-0.779 E0.1729
; feature outer perimeter
G1 X-6.598 Y-0.379 F9000
G1 X-16.534 Y-0.379 E0.3305 F1200
G1 X-16.534 Y-6.377 E0.1995
G1 X-6.597 Y-6.377 E0.3305
G1 X-6.598 Y-0.379 E0.1995
; feature solid layer
G1 X-7.354 Y-5.657 F9000
G1 X-7.317 Y-5.620 E0.0017 F2400
G1 X-7.317 Y-5.054 E0.0188
G1 X-7.920 Y-5.657 E0.0284
G1 X-8.485 Y-5.657 E0.0188
G1 X-7.317 Y-4.489 E0.0550
G1 X-7.317 Y-3.923 E0.0188
G1 X-9.051 Y-5.657 E0.0816
G1 X-9.617 Y-5.657 E0.0188
G1 X-7.317 Y-3.358 E0.1082
G1 X-7.317 Y-2.792 E0.0188
G1 X-10.183 Y-5.657 E0.1348
G1 X-10.748 Y-5.657 E0.0188
G1 X-7.317 Y-2.226 E0.1614
G1 X-7.318 Y-1.661 E0.0188
G1 X-11.314 Y-5.657 E0.1880
G1 X-11.880 Y-5.657 E0.0188
G1 X-7.322 Y-1.099 E0.2144
G1 X-7.887 Y-1.099 E0.0188
G1 X-12.445 Y-5.657 E0.2144
G1 X-13.011 Y-5.657 E0.0188
G1 X-8.453 Y-1.099 E0.2144
G1 X-9.019 Y-1.099 E0.0188
G1 X-13.577 Y-5.657 E0.2144
G1 X-14.142 Y-5.657 E0.0188
G1 X-9.584 Y-1.099 E0.2144
G1 X-10.150 Y-1.099 E0.0188
G1 X-14.708 Y-5.657 E0.2144
G1 X-15.274 Y-5.657 E0.0188
G1 X-10.716 Y-1.099 E0.2144
G1 X-11.281 Y-1.099 E0.0188
G1 X-15.814 Y-5.632 E0.2132
G1 X-15.814 Y-5.066 E0.0188
G1 X-11.847 Y-1.099 E0.1866
G1 X-12.413 Y-1.099 E0.0188
G1 X-15.814 Y-4.501 E0.1600
G1 X-15.814 Y-3.935 E0.0188
G1 X-12.979 Y-1.099 E0.1334
G1 X-13.544 Y-1.099 E0.0188
G1 X-15.814 Y-3.369 E0.1068
G1 X-15.814 Y-2.804 E0.0188
G1 X-14.110 Y-1.099 E0.0802
G1 X-14.676 Y-1.099 E0.0188
G1 X-15.814 Y-2.238 E0.0536
G1 X-15.814 Y-1.672 E0.0188
G1 X-15.241 Y-1.099 E0.0270
G1 X-15.807 Y-1.099 E0.0188
G1 X-15.814 Y-1.106 E0.0003
G1 E-1.0000 F1200
; feature inner perimeter
G1 Z0.700 F1200
G1 X6.998 Y-0.779 F9000
G1 Z0.200 F1200
G1 E1.0000 F1200
G1 X6.997 Y-5.977 E0.1729 F1800
G1 X16.134 Y-5.977 E0.3039
G1 X16.134 Y-0.779 E0.1729
G1 X6.998 Y-0.779 E0.3039
; feature outer perimeter
G1 X6.598 Y-0.379 F9000
G1 X6.597 Y-6.377 E0.1995 F1200
G1 X16.534 Y-6.377 E0.3305
G1 X16.534 Y-0.379 E0.1995
G1 X6.598 Y-0.379 E0.3305
; feature solid layer
G1 X7.386 Y-1.099 F9000
G1 X7.318 Y-1.168 E0.0032 F2400
G1 X7.318 Y-1.733 E0.0188
G1 X7.952 Y-1.099 E0.0298
G1 X8.518 Y-1.099 E0.0188
G1 X7.317 Y-2.299 E0.0564
G1 X7.317 Y-2.865 E0.0188
G1 X9.083 Y-1.099 E0.0831
G1 X9.649 Y-1.099 E0.0188
G1 X7.317 Y-3.431 E0.1097
G1 X7.317 Y-3.997 E0.0188
G1 X10.215 Y-1.099 E0.1363
G1 X10.780 Y-1.099 E0.0188
G1 X7.317 Y-4.562 E0.1629
G1 X7.317 Y-5.128 E0.0188
G1 X11.346 Y-1.099 E0.1895
G1 X11.912 Y-1.099 E0.0188
G1 X7.354 Y-5.657 E0.2144
G1 X7.919 Y-5.657 E0.0188
G1 X12.477 Y-1.099 E0.2144
G1 X13.043 Y-1.099 E0.0188
G1 X8.485 Y-5.657 E0.2144
G1 X9.051 Y-5.657 E0.0188
G1 X13.609 Y-1.099 E0.2144
G1 X14.174 Y-1.099 E0.0188
G1 X9.616 Y-5.657 E0.2144
G1 X10.182 Y-5.657 E0.0188
G1 X14.740 Y-1.099 E0.2144
G1 X15.306 Y-1.099 E0.0188
G1 X10.748 Y-5.657 E0.2144
G1 X11.314 Y-5.657 E0.0188
G1 X15.814 Y-1.156 E0.2117
G1 X15.814 Y-1.722 E0.0188
G1 X11.879 Y-5.657 E0.1851
G1 X12.445 Y-5.657 E0.0188
G1 X15.814 Y-2.288 E0.1585
G1 X15.814 Y-2.853 E0.0188
G1 X13.011 Y-5.657 E0.1319
G1 X13.576 Y-5.657 E0.0188
G1 X15.814 Y-3.419 E0.1053
G1 X15.814 Y-3.985 E0.0188
G1 X14.142 Y-5.657 E0.0787
G1 X14.708 Y-5.657 E0.0188
G1 X15.814 Y-4.550 E0.0521
G1 X15.814 Y-5.116 E0.0188
G1 X15.273 Y-5.657 E0.0254
G1 E-1.0000 F1200
; feature support
G1 Z0.700 F1200
G1 X7.510 Y24.000 F9000
G1 Z0.200 F1200
G1 E1.0000 F1200
G1 X-7.510 Y24.000 E0.4996 F2400
G1 X-7.510 Y20.000 E0.1330
G1 X7.510 Y20.000 E0.4996
G1 X7.510 Y16.000 E0.1330
G1 X-7.510 Y16.000 E0.4996
G1 X-7.510 Y12.000 E0.1330
G1 X7.510 Y12.000 E0.4996
G1 X7.510 Y8.000 E0.1330
G1 X-7.510 Y8.000 E0.4996
G1 X-7.510 Y4.000 E0.1330
G1 X7.510 Y4.000 E0.4996
G1 X7.510 Y0.331 E0.1220
G1 X5.888 Y0.331 E0.0540
G1 X5.888 Y0.000 E0.0110
G1 X-5.888 Y0.000 E0.3917
G1 X-5.887 Y-4.000 E0.1330
G1 X5.887 Y-4.000 E0.3916
G1 X5.887 Y-7.087 E0.1027
G1 X7.510 Y-7.087 E0.0540
G1 X7.510 Y-8.000 E0.0304
G1 X-7.510 Y-8.000 E0.4996
G1 X-7.510 Y-12.000 E0.1330
G1 X7.510 Y-12.000 E0.4996
G1 X7.510 Y-16.000 E0.1330
G1 X-7.510 Y-16.000 E0.4996
G1 X-7.510 Y-20.000 E0.1330
G1 X7.510 Y-20.000 E0.4996
G1 X7.510 Y-24.000 E0.1330
G1 X-7.510 Y-24.000 E0.4996
G1 E-1.0000 F1200
; layer 2, Z = 0.400
M126 S255
; feature inner perimeter
G1 Z0.700 F1200
G1 X-6.998 Y-0.779 F9000
G1 Z0.400 F1200
G1 E1.0000 F1200
G1 X-16.334 Y-0.779 E0.3105 F2013
G1 X-16.334 Y-5.977 E0.1729
G1 X-6.995 Y-5.977 E0.3106
G1 X-6.998 Y-0.779 E0.1729
; feature outer perimeter
G1 X-6.598 Y-0.379 F9000
G1 X-16.734 Y-0.379 E0.3371 F1342
G1 X-16.734 Y-6.377 E0.1995
G1 X-6.595 Y-6.377 E0.3372
G1 X-6.598 Y-0.379 E0.1995
; feature solid layer
G1 X-7.386 Y-1.099 F9000
G1 X-7.317 Y-1.168 E0.0032 F2684
G1 X-7.317 Y-1.734 E0.0188
G1 X-7.952 Y-1.099 E0.0299
G1 X-8.517 Y-1.099 E0.0188
G1 X-7.317 Y-2.300 E0.0565
G1 X-7.317 Y-2.866 E0.0188
G1 X-9.083 Y-1.099 E0.0831
G1 X-9.649 Y-1.099 E0.0188
G1 X-7.316 Y-3.432 E0.1097
G1 X-7.316 Y-3.998 E0.0188
G1 X-10.215 Y-1.099 E0.1363
G1 X-10.780 Y-1.099 E0.0188
G1 X-7.316 Y-4.564 E0.1630
G1 X-7.315 Y-5.130 E0.0188
G1 X-11.346 Y-1.099 E0.1896
G1 X-11.912 Y-1.099 E0.0188
G1 X-7.354 Y-5.657 E0.2144
G1 X-7.919 Y-5.657 E0.0188
G1 X-12.477 Y-1.099 E0.2144
G1 X-13.043 Y-1.099 E0.0188
G1 X-8.485 Y-5.657 E0.2144
G1 X-9.051 Y-5.657 E0.0188
G1 X-13.609 Y-1.099 E0.2144
G1 X-14.174 Y-1.099 E0.0188
G1 X-9.616 Y-5.657 E0.2144
G1 X-10.182 Y-5.657 E0.0188
G1 X-14.740 Y-1.099 E0.2144
G1 X-15.306 Y-1.099 E0.0188
G1 X-10.748 Y-5.657 E0.2144
G1 X-11.313 Y-5.657 E0.0188
G1 X-15.871 Y-1.099 E0.2144
G1 X-16.014 Y-1.099 E0.0048
G1 X-16.014 Y-1.522 E0.0141
G1 X-11.879 Y-5.657 E0.1945
G1 X-12.445 Y-5.657 E0.0188
G1 X-16.014 Y-2.088 E0.1679
G1 X-16.014 Y-2.653 E0.0188
G1 X-13.011 Y-5.657 E0.1413
G1 X-13.576 Y-5.657 E0.0188
G1 X-16.014 Y-3.219 E0.1147
G1 X-16.014 Y-3.785 E0.0188
G1 X-14.142 Y-5.657 E0.0881
G1 X-14.708 Y-5.657 E0.0188
G1 X-16.014 Y-4.350 E0.0615
G1 X-16.014 Y-4.916 E0.0188
G1 X-15.273 Y-5.657 E0.0349
G1 X-15.839 Y-5.657 E0.0188
G1 X-16.014 Y-5.482 E0.0082
G1 E-1.0000 F1200
; feature inner perimeter
G1 Z0.900 F1200
G1 X6.998 Y-0.779 F9000
G1 Z0.400 F1200
G1 E1.0000 F1200
G1 X6.995 Y-5.977 E0.1729 F2013
G1 X16.334 Y-5.977 E0.3106
G1 X16.334 Y-0.779 E0.1729
G1 X6.998 Y-0.779 E0.3105
; feature outer perimeter
G1 X6.598 Y-0.379 F9000
G1 X6.595 Y-6.377 E0.1995 F1342
G1 X16.734 Y-6.377 E0.3372
G1 X16.734 Y-0.379 E0.1995
G1 X6.598 Y-0.379 E0.3371
; feature solid layer
G1 X7.315 Y-5.618 F9000
G1 X7.354 Y-5.657 E0.0018 F2684
G1 X7.920 Y-5.657 E0.0188
G1 X7.316 Y-5.053 E0.0284
G1 X7.316 Y-4.487 E0.0188
G1 X8.486 Y-5.657 E0.0550
G1 X9.051 Y-5.657 E0.0188
G1 X7.316 Y-3.922 E0.0816
G1 X7.316 Y-3.356 E0.0188
G1 X9.617 Y-5.657 E0.1082
G1 X10.183 Y-5.657 E0.0188
G1 X7.317 Y-2.791 E0.1348
G1 X7.317 Y-2.226 E0.0188
G1 X10.748 Y-5.657 E0.1614
G1 X11.314 Y-5.657 E0.0188
G1 X7.317 Y-1.660 E0.1880
G1 X7.322 Y-1.099 E0.0188
G1 X11.880 Y-5.657 E0.2144
G1 X12.445 Y-5.657 E0.0188
G1 X7.887 Y-1.099 E0.2144
G1 X8.453 Y-1.099 E0.0188
G1 X13.011 Y-5.657 E0.2144
G1 X13.577 Y-5.657 E0.0188
G1 X9.019 Y-1.099 E0.2144
G1 X9.584 Y-1.099 E0.0188
G1 X14.142 Y-5.657 E0.2144
G1 X14.708 Y-5.657 E0.0188
G1 X10.150 Y-1.099 E0.2144
G1 X10.716 Y-1.099 E0.0188
G1 X15.274 Y-5.657 E0.2144
G1 X15.839 Y-5.657 E0.0188
G1 X11.282 Y-1.099 E0.2144
G1 X11.847 Y-1.099 E0.0188
G1 X16.014 Y-5.266 E0.1960
G1 X16.014 Y-4.701 E0.0188
G1 X12.413 Y-1.099 E0.1694
G1 X12.979 Y-1.099 E0.0188
G1 X16.014 Y-4.135 E0.1428
G1 X16.014 Y-3.569 E0.0188
G1 X13.544 Y-1.099 E0.1162
G1 X14.110 Y-1.099 E0.0188
G1 X16.014 Y-3.003 E0.0896
G1 X16.014 Y-2.438 E0.0188
G1 X14.676 Y-1.099 E0.0630
G1 X15.241 Y-1.099 E0.0188
G1 X16.014 Y-1.872 E0.0364
G1 X16.014 Y-1.306 E0.0188
G1 X15.807 Y-1.099 E0.0098
G1 E-1.0000 F1200
; feature support
G1 Z0.900 F1200
G1 X7.510 Y24.000 F9000
G1 Z0.400 F1200
G1 E1.0000 F1200
G1 X-7.510 Y24.000 E0.4996 F2684
G1 X-7.510 Y20.000 E0.1330
G1 X7.510 Y20.000 E0.4996
G1 X7.510 Y16.000 E0.1330
G1 X-7.510 Y16.000 E0.4996
G1 X-7.510 Y12.000 E0.1330
G1 X7.510 Y12.000 E0.4996
G1 X7.510 Y8.000 E0.1330
G1 X-7.510 Y8.000 E0.4996
G1 X-7.510 Y4.000 E0.1330
G1 X7.510 Y4.000 E0.4996
G1 X7.510 Y0.331 E0.1220
G1 X5.888 Y0.331 E0.0539
G1 X5.888 Y0.000 E0.0110
G1 X-5.888 Y0.000 E0.3917
G1 X-5.886 Y-4.000 E0.1330
G1 X5.886 Y-4.000 E0.3915
G1 X5.885 Y-7.087 E0.1027
G1 X7.510 Y-7.087 E0.0541
G1 X7.510 Y-8.000 E0.0304
G1 X-7.510 Y-8.000 E0.4996
G1 X-7.510 Y-12.000 E0.1330
G1 X7.510 Y-12.000 E0.4996
G1 X7.510 Y-16.000 E0.1330
G1 X-7.510 Y-16.000 E0.4996
G1 X-7.510 Y-20.000 E0.1330
G1 X7.510 Y-20.000 E0.4996
G1 X7.510 Y-24.000 E0.1330
