; G-Code generated by Simplify3D(R) Version 4.1.2
; Apr 2, 2020 at 2:36:46 PM
; Settings Summary
;   processName,Process1
;   applyToModels,Dome,Dome(2),Dome(3),Dome(4),Dome(2)(2),Dome(3)(2),Dome(5),Dome(2)(3),Dome(3)(3),Dome(4)(2),Dome(2)(2)(2),Dome(3)(2)(2)
;   profileName,MakerBot Replicator 2 HBP (modified)
;   profileVersion,2020-03-12 10:48:50
;   baseProfile,MakerBot Replicator 2(2)
;   printMaterial,PLA
;   printQuality,Medium
;   printExtruders,
;   extruderName,Primary Extruder
;   extruderToolheadNumber,0
;   extruderDiameter,0.4
;   extruderAutoWidth,0
;   extruderWidth,0.4
;   extrusionMultiplier,1
;   extruderUseRetract,1
;   extruderRetractionDistance,1.9
;   extruderExtraRestartDistance,0
;   extruderRetractionZLift,0.5
;   extruderRetractionSpeed,1200
;   extruderUseCoasting,0
;   extruderCoastingDistance,0.2
;   extruderUseWipe,0
;   extruderWipeDistance,5
;   primaryExtruder,0
;   layerHeight,0.2
;   topSolidLayers,3
;   bottomSolidLayers,3
;   perimeterOutlines,2
;   printPerimetersInsideOut,1
;   startPointOption,3
;   startPointOriginX,0
;   startPointOriginY,150
;   sequentialIslands,0
;   spiralVaseMode,0
;   firstLayerHeightPercentage,100
;   firstLayerWidthPercentage,115
;   firstLayerUnderspeed,0.5
;   useRaft,0
;   raftExtruder,0
;   raftTopLayers,2
;   raftBaseLayers,1
;   raftOffset,1
;   raftSeparationDistance,0.14
;   raftTopInfill,90
;   aboveRaftSpeedMultiplier,0.3
;   useSkirt,0
;   skirtExtruder,0
;   skirtLayers,1
;   skirtOutlines,5
;   skirtOffset,0
;   usePrimePillar,0
;   primePillarExtruder,999
;   primePillarWidth,12
;   primePillarLocation,7
;   primePillarSpeedMultiplier,1
;   useOozeShield,0
;   oozeShieldExtruder,999
;   oozeShieldOffset,2
;   oozeShieldOutlines,1
;   oozeShieldSidewallShape,1
;   oozeShieldSidewallAngle,30
;   oozeShieldSpeedMultiplier,1
;   infillExtruder,0
;   internalInfillPattern,Rectilinear
;   externalInfillPattern,Rectilinear
;   infillPercentage,15
;   outlineOverlapPercentage,25
;   infillExtrusionWidthPercentage,100
;   minInfillLength,5
;   infillLayerInterval,1
;   internalInfillAngles,45,-45
;   overlapInternalInfillAngles,0
;   externalInfillAngles,45,-45
;   generateSupport,0
;   supportExtruder,0
;   supportInfillPercentage,30
;   supportExtraInflation,0.5
;   supportBaseLayers,0
;   denseSupportExtruder,0
;   denseSupportLayers,2
;   denseSupportInfillPercentage,90
;   supportLayerInterval,1
;   supportHorizontalPartOffset,0.3
;   supportUpperSeparationLayers,1
;   supportLowerSeparationLayers,1
;   supportType,1
;   supportGridSpacing,2
;   maxOverhangAngle,45
;   supportAngles,45,-45
;   temperatureName,Primary Extruder,Heated Build Platform
;   temperatureNumber,0,0
;   temperatureSetpointCount,1,1
;   temperatureSetpointLayers,1,1
;   temperatureSetpointTemperatures,230,60
;   temperatureStabilizeAtStartup,1,1
;   temperatureHeatedBed,0,1
;   fanLayers,1,2
;   fanSpeeds,0,100
;   blipFanToFullPower,1
;   adjustSpeedForCooling,1
;   minSpeedLayerTime,15
;   minCoolingSpeedSlowdown,20
;   increaseFanForCooling,1
;   minFanLayerTime,45
;   maxCoolingFanSpeed,100
;   increaseFanForBridging,1
;   bridgingFanSpeed,100
;   use5D,1
;   relativeEdistances,1
;   allowEaxisZeroing,0
;   independentExtruderAxes,1
;   includeM10123,0
;   stickySupport,1
;   applyToolheadOffsets,0
;   gcodeXoffset,0
;   gcodeYoffset,0
;   gcodeZoffset,0
;   overrideMachineDefinition,1
;   machineTypeOverride,0
;   strokeXoverride,280
;   strokeYoverride,150
;   strokeZoverride,150
;   originOffsetXoverride,140
;   originOffsetYoverride,75
;   originOffsetZoverride,0
;   homeXdirOverride,1
;   homeYdirOverride,1
;   homeZdirOverride,-1
;   flipXoverride,1
;   flipYoverride,-1
;   flipZoverride,1
;   toolheadOffsets,0,0|0,0|0,0|0,0|0,0|0,0
;   overrideFirmwareConfiguration,1
;   firmwareTypeOverride,MakerBot/Sailfish Firmware
;   GPXconfigOverride,r2h
;   baudRateOverride,115200
;   overridePrinterModels,1
;   printerModelsOverride,MakerBot_Replicator2.stl
;   startingGcode,; **** Replicator 2 start.gcode ****,M73 P0 ; enable build progress,G162 X Y F3000 ; home XY maximum,G161 Z F1200 ; home Z minimum,G92 Z-5 ; set Z to -5,G1 Z0 ; move Z to 0,G161 Z F100 ; home Z slowly,M132 X Y Z A B ; recall home offsets,G1 X-145 Y-75 Z30 F9000 ; move to wait position off table,G130 X20 Y20 Z20 A20 B20 ; lower stepper Vrefs while heating,M126 S[fan_speed_pwm],M140 S[bed0_temperature] T0,M134 T0 ; stabilize bed temperature,M104 S[extruder0_temperature] T0,M133 T0 ; stabilize extruder temperature,G130 X127 Y127 Z40 A127 B127 ; default stepper Vrefs,G92 A0 ; zero extruder,G1 Z0.4 ; position nozzle,G1 E25 F300 ; purge nozzle,G1 X-140 Y-70 Z0.15 F1200 ; slow wipe,G1 X-135 Y-65 Z0.5 F1200 ; lift,G92 A0 ; zero extruder,M73 P1 ;@body (notify GPX body has started),; **** end of start.gcode ****
;   layerChangeGcode,
;   retractionGcode,
;   toolChangeGcode,
;   endingGcode,; **** Replicator 2 end.gcode ****,M73 P100 ; end build progress,G1 Z155 F1000 ; send Z axis to bottom of machine,M104 S0 T0 ; cool down extruder,M140 S0 T0 ; cool down HBP,M127 ; stop blower fan,G162 X Y F3000 ; home XY maximum,M18 ; disable stepper,M0 ; stop codes,M72 P1 ; play Ta-Da song,; **** end of end.gcode ****
;   exportFileFormat,gcode
;   celebration,0
;   celebrationSong,Random Song
;   postProcessing,
;   defaultSpeed,4800
;   outlineUnderspeed,0.5
;   solidInfillUnderspeed,1
;   supportUnderspeed,1
;   rapidXYspeed,9000
;   rapidZspeed,1200
;   minBridgingArea,50
;   bridgingExtraInflation,0
;   bridgingExtrusionMultiplier,1
;   bridgingSpeedMultiplier,0.8
;   useFixedBridgingAngle,0
;   fixedBridgingAngle,0
;   applyBridgingToPerimeters,0
;   filamentDiameters,1.75|1.75|1.75|1.75|1.75|1.75
;   filamentPricesPerKg,46|46|46|46|46|46
;   filamentDensities,1.25|1.25|1.25|1.25|1.25|1.25
;   useMinPrintHeight,0
;   minPrintHeight,0
;   useMaxPrintHeight,0
;   maxPrintHeight,4.84
;   useDiaphragm,0
;   diaphragmLayerInterval,20
;   robustSlicing,1
;   mergeAllIntoSolid,0
;   onlyRetractWhenCrossingOutline,0
;   retractBetweenLayers,0
;   useRetractionMinTravel,1
;   retractionMinTravel,7
;   retractWhileWiping,1
;   onlyWipeOutlines,1
;   avoidCrossingOutline,0
;   maxMovementDetourFactor,3
;   toolChangeRetractionDistance,12
;   toolChangeExtraRestartDistance,-0.5
;   toolChangeRetractionSpeed,600
;   externalThinWallType,0
;   internalThinWallType,0
;   thinWallAllowedOverlapPercentage,10
;   singleExtrusionMinLength,1
;   singleExtrusionMinPrintingWidthPercentage,50
;   singleExtrusionMaxPrintingWidthPercentage,200
;   singleExtrusionEndpointExtension,0.2
;   horizontalSizeCompensation,0
G90
M83
; **** Replicator 2 start.gcode ****
M73 P0 ; enable build progress
G162 X Y F3000 ; home XY maximum
G161 Z F1200 ; home Z minimum
G92 Z-5 ; set Z to -5
G1 Z0 ; move Z to 0
G161 Z F100 ; home Z slowly
M132 X Y Z A B ; recall home offsets
G1 X-145 Y-75 Z30 F9000 ; move to wait position off table
G130 X20 Y20 Z20 A20 B20 ; lower stepper Vrefs while heating
M127
M140 S60 T0
M134 T0 ; stabilize bed temperature
M104 S230 T0
M133 T0 ; stabilize extruder temperature
G130 X127 Y127 Z40 A127 B127 ; default stepper Vrefs
G92 A0 ; zero extruder
G1 Z0.4 ; position nozzle
G1 E25 F300 ; purge nozzle
G1 X-140 Y-70 Z0.15 F1200 ; slow wipe
G1 X-135 Y-65 Z0.5 F1200 ; lift
G92 A0 ; zero extruder
M73 P1 ;@body (notify GPX body has started)
; **** end of start.gcode ****
; process Process1
; layer 1, Z = 0.200
M135 T0
G1 E-1.9000 F1200
; feature inner perimeter
; tool H0.200 W0.460
G1 Z0.500 F1200
G1 X-8.213 Y13.505 F9000
G1 Z0.200 F1200
G1 E1.9000 F1200
G1 X-8.762 Y13.490 E0.0210 F1800
G1 X-9.306 Y13.418 E0.0210
G1 X-9.839 Y13.287 E0.0210
G1 X-10.356 Y13.101 E0.0210
G1 X-10.850 Y12.861 E0.0210
G1 X-11.315 Y12.570 E0.0210
G1 X-11.747 Y12.230 E0.0210
G1 X-12.141 Y11.847 E0.0210
G1 X-12.491 Y11.425 E0.0210
G1 X-12.795 Y10.967 E0.0210
G1 X-13.048 Y10.480 E0.0210
G1 X-13.248 Y9.968 E0.0210
G1 X-13.392 Y9.438 E0.0210
G1 X-13.480 Y8.896 E0.0210
G1 X-13.509 Y8.348 E0.0210
G1 X-13.480 Y7.799 E0.0210
G1 X-13.392 Y7.257 E0.0210
G1 X-13.248 Y6.728 E0.0210
G1 X-13.048 Y6.216 E0.0210
G1 X-12.795 Y5.729 E0.0210
G1 X-12.491 Y5.271 E0.0210
G1 X-12.178 Y4.894 E0.0188
G1 X-11.745 Y4.463 E0.0234
G1 X-11.315 Y4.126 E0.0209
G1 X-10.850 Y3.835 E0.0210
G1 X-10.356 Y3.595 E0.0210
G1 X-9.839 Y3.409 E0.0210
G1 X-9.306 Y3.278 E0.0210
G1 X-8.762 Y3.205 E0.0210
G1 X-8.213 Y3.191 E0.0210
G1 X-7.665 Y3.235 E0.0210
G1 X-7.126 Y3.336 E0.0210
G1 X-6.600 Y3.495 E0.0210
G1 X-6.094 Y3.708 E0.0210
G1 X-5.613 Y3.974 E0.0210
G1 X-5.164 Y4.290 E0.0210
G1 X-4.751 Y4.652 E0.0210
G1 X-4.378 Y5.055 E0.0210
G1 X-4.051 Y5.496 E0.0210
G1 X-3.772 Y5.969 E0.0210
G1 X-3.545 Y6.469 E0.0210
G1 X-3.373 Y6.991 E0.0210
G1 X-3.257 Y7.527 E0.0210
G1 X-3.198 Y8.073 E0.0210
G1 X-3.198 Y8.623 E0.0210
G1 X-3.257 Y9.169 E0.0210
G1 X-3.373 Y9.705 E0.0210
G1 X-3.545 Y10.227 E0.0210
G1 X-3.772 Y10.727 E0.0210
G1 X-4.051 Y11.200 E0.0210
G1 X-4.378 Y11.641 E0.0210
G1 X-4.751 Y12.044 E0.0210
G1 X-5.164 Y12.406 E0.0210
G1 X-5.614 Y12.721 E0.0210
G1 X-6.094 Y12.988 E0.0210
G1 X-6.600 Y13.201 E0.0210
G1 X-7.126 Y13.360 E0.0210
G1 X-7.665 Y13.461 E0.0210
G1 X-8.213 Y13.505 E0.0210
; feature outer perimeter
G1 X-8.200 Y13.966 F9000
G1 X-8.798 Y13.950 E0.0229 F1200
G1 X-9.391 Y13.870 E0.0229
G1 X-9.972 Y13.728 E0.0229
G1 X-10.535 Y13.525 E0.0229
G1 X-11.073 Y13.264 E0.0229
G1 X-11.580 Y12.947 E0.0229
G1 X-12.051 Y12.577 E0.0229
G1 X-12.479 Y12.160 E0.0229
G1 X-12.861 Y11.699 E0.0229
G1 X-13.192 Y11.201 E0.0229
G1 X-13.467 Y10.670 E0.0229
G1 X-13.685 Y10.113 E0.0229
G1 X-13.843 Y9.536 E0.0229
G1 X-13.938 Y8.945 E0.0229
G1 X-13.970 Y8.348 E0.0229
G1 X-13.938 Y7.751 E0.0229
G1 X-13.843 Y7.160 E0.0229
G1 X-13.685 Y6.583 E0.0229
G1 X-13.467 Y6.026 E0.0229
G1 X-13.192 Y5.495 E0.0229
G1 X-12.861 Y4.997 E0.0229
G1 X-12.518 Y4.583 E0.0205
G1 X-12.050 Y4.118 E0.0252
G1 X-11.580 Y3.749 E0.0228
G1 X-11.073 Y3.432 E0.0229
G1 X-10.535 Y3.170 E0.0229
G1 X-9.972 Y2.968 E0.0229
G1 X-9.391 Y2.826 E0.0229
G1 X-8.798 Y2.746 E0.0229
G1 X-8.200 Y2.730 E0.0229
G1 X-7.604 Y2.778 E0.0229
G1 X-7.016 Y2.889 E0.0229
G1 X-6.444 Y3.062 E0.0229
G1 X-5.893 Y3.294 E0.0229
G1 X-5.369 Y3.584 E0.0229
G1 X-4.880 Y3.928 E0.0229
G1 X-4.430 Y4.322 E0.0229
G1 X-4.024 Y4.761 E0.0229
G1 X-3.667 Y5.241 E0.0229
G1 X-3.363 Y5.757 E0.0229
G1 X-3.116 Y6.301 E0.0229
G1 X-2.928 Y6.869 E0.0229
G1 X-2.802 Y7.454 E0.0229
G1 X-2.738 Y8.049 E0.0229
G1 X-2.738 Y8.647 E0.0229
G1 X-2.802 Y9.242 E0.0229
G1 X-2.928 Y9.826 E0.0229
G1 X-3.116 Y10.394 E0.0229
G1 X-3.363 Y10.939 E0.0229
G1 X-3.667 Y11.454 E0.0229
G1 X-4.024 Y11.935 E0.0229
G1 X-4.430 Y12.374 E0.0229
G1 X-4.880 Y12.768 E0.0229
G1 X-5.369 Y13.112 E0.0229
G1 X-5.893 Y13.402 E0.0229
G1 X-6.444 Y13.634 E0.0229
G1 X-7.016 Y13.807 E0.0229
G1 X-7.604 Y13.918 E0.0229
G1 X-8.200 Y13.966 E0.0229
; feature inner perimeter
G1 X-8.244 Y12.994 F9000
G1 X-7.822 Y12.965 E0.0162 F1800
G1 X-7.404 Y12.898 E0.0162
G1 X-6.995 Y12.793 E0.0162
G1 X-6.596 Y12.652 E0.0162
G1 X-6.212 Y12.474 E0.0162
G1 X-5.846 Y12.263 E0.0162
G1 X-5.500 Y12.019 E0.0162
G1 X-5.178 Y11.744 E0.0162
G1 X-4.882 Y11.442 E0.0162
G1 X-4.615 Y11.114 E0.0162
G1 X-4.379 Y10.763 E0.0162
G1 X-4.176 Y10.392 E0.0162
G1 X-4.007 Y10.004 E0.0162
G1 X-3.875 Y9.602 E0.0162
G1 X-3.779 Y9.190 E0.0162
G1 X-3.722 Y8.771 E0.0162
G1 X-3.703 Y8.348 E0.0162
G1 X-3.722 Y7.925 E0.0162
G1 X-3.780 Y7.499 E0.0164
G1 X-3.909 Y6.991 E0.0201
G1 X-4.007 Y6.692 E0.0120
G1 X-4.176 Y6.304 E0.0162
G1 X-4.379 Y5.933 E0.0162
G1 X-4.615 Y5.582 E0.0162
G1 X-4.882 Y5.254 E0.0162
G1 X-5.178 Y4.951 E0.0162
G1 X-5.500 Y4.677 E0.0162
G1 X-5.846 Y4.433 E0.0162
G1 X-6.212 Y4.222 E0.0162
G1 X-6.602 Y4.041 E0.0164
G1 X-7.100 Y3.876 E0.0201
G1 X-7.404 Y3.798 E0.0120
G1 X-7.822 Y3.731 E0.0162
G1 X-8.244 Y3.702 E0.0162
G1 X-8.667 Y3.711 E0.0162
G1 X-9.087 Y3.759 E0.0162
G1 X-9.502 Y3.845 E0.0162
G1 X-9.906 Y3.969 E0.0162
G1 X-10.298 Y4.129 E0.0162
G1 X-10.674 Y4.323 E0.0162
G1 X-11.030 Y4.551 E0.0162
G1 X-11.364 Y4.811 E0.0162
G1 X-11.673 Y5.099 E0.0162
G1 X-11.955 Y5.415 E0.0162
G1 X-12.211 Y5.761 E0.0164
G1 X-12.474 Y6.214 E0.0201
G1 X-12.613 Y6.496 E0.0120
G1 X-12.763 Y6.892 E0.0162
G1 X-12.878 Y7.299 E0.0162
G1 X-12.954 Y7.715 E0.0162
G1 X-12.993 Y8.136 E0.0162
G1 X-12.993 Y8.559 E0.0162
G1 X-12.954 Y8.981 E0.0162
G1 X-12.878 Y9.397 E0.0162
G1 X-12.763 Y9.804 E0.0162
G1 X-12.613 Y10.199 E0.0162
G1 X-12.427 Y10.579 E0.0162
G1 X-12.203 Y10.947 E0.0164
G1 X-11.883 Y11.362 E0.0201
G1 X-11.673 Y11.597 E0.0120
G1 X-11.364 Y11.885 E0.0162
G1 X-11.030 Y12.145 E0.0162
G1 X-10.674 Y12.373 E0.0162
G1 X-10.298 Y12.567 E0.0162
G1 X-9.906 Y12.727 E0.0162
G1 X-9.502 Y12.850 E0.0162
G1 X-9.087 Y12.936 E0.0162
G1 X-8.667 Y12.985 E0.0162
G1 X-8.244 Y12.994 E0.0162
; feature outer perimeter
G1 X-8.255 Y12.534 F9000
G1 X-7.874 Y12.508 E0.0146 F1200
G1 X-7.498 Y12.447 E0.0146
G1 X-7.129 Y12.353 E0.0146
G1 X-6.770 Y12.225 E0.0146
G1 X-6.424 Y12.065 E0.0146
G1 X-6.094 Y11.875 E0.0146
G1 X-5.782 Y11.655 E0.0146
G1 X-5.492 Y11.408 E0.0146
G1 X-5.226 Y11.135 E0.0146
G1 X-4.985 Y10.840 E0.0146
G1 X-4.773 Y10.523 E0.0146
G1 X-4.590 Y10.189 E0.0146
G1 X-4.438 Y9.839 E0.0146
G1 X-4.318 Y9.478 E0.0146
G1 X-4.232 Y9.106 E0.0146
G1 X-4.180 Y8.729 E0.0146
G1 X-4.163 Y8.348 E0.0146
G1 X-4.180 Y7.967 E0.0146
G1 X-4.233 Y7.587 E0.0147
G1 X-4.351 Y7.120 E0.0184
G1 X-4.438 Y6.856 E0.0106
G1 X-4.590 Y6.507 E0.0146
G1 X-4.773 Y6.172 E0.0146
G1 X-4.985 Y5.856 E0.0146
G1 X-5.226 Y5.561 E0.0146
G1 X-5.492 Y5.288 E0.0146
G1 X-5.782 Y5.041 E0.0146
G1 X-6.094 Y4.821 E0.0146
G1 X-6.424 Y4.630 E0.0146
G1 X-6.772 Y4.470 E0.0147
G1 X-7.229 Y4.317 E0.0184
G1 X-7.498 Y4.249 E0.0106
G1 X-7.874 Y4.188 E0.0146
G1 X-8.255 Y4.162 E0.0146
G1 X-8.636 Y4.171 E0.0146
G1 X-9.014 Y4.214 E0.0146
G1 X-9.388 Y4.292 E0.0146
G1 X-9.752 Y4.403 E0.0146
G1 X-10.105 Y4.547 E0.0146
G1 X-10.443 Y4.722 E0.0146
G1 X-10.765 Y4.927 E0.0146
G1 X-11.066 Y5.161 E0.0146
G1 X-11.344 Y5.421 E0.0146
G1 X-11.598 Y5.706 E0.0146
G1 X-11.826 Y6.014 E0.0147
G1 X-12.068 Y6.431 E0.0184
G1 X-12.190 Y6.680 E0.0106
G1 X-12.326 Y7.036 E0.0146
G1 X-12.429 Y7.403 E0.0146
G1 X-12.498 Y7.778 E0.0146
G1 X-12.533 Y8.157 E0.0146
G1 X-12.533 Y8.538 E0.0146
G1 X-12.498 Y8.918 E0.0146
G1 X-12.429 Y9.293 E0.0146
G1 X-12.326 Y9.660 E0.0146
G1 X-12.190 Y10.016 E0.0146
G1 X-12.023 Y10.358 E0.0146
G1 X-11.823 Y10.686 E0.0147
G1 X-11.529 Y11.068 E0.0184
G1 X-11.344 Y11.275 E0.0106
G1 X-11.066 Y11.535 E0.0146
G1 X-10.765 Y11.769 E0.0146
G1 X-10.443 Y11.974 E0.0146
G1 X-10.105 Y12.149 E0.0146
G1 X-9.752 Y12.293 E0.0146
G1 X-9.388 Y12.404 E0.0146
G1 X-9.014 Y12.482 E0.0146
G1 X-8.636 Y12.525 E0.0146
G1 X-8.255 Y12.534 E0.0146
G1 E-1.9000 F1200
; feature inner perimeter
G1 Z0.700 F1200
G1 X7.938 Y13.490 F9000
G1 Z0.200 F1200
G1 E1.9000 F1200
G1 X7.394 Y13.418 E0.0210 F1800
G1 X6.861 Y13.287 E0.0210
G1 X6.344 Y13.101 E0.0210
G1 X5.850 Y12.861 E0.0210
G1 X5.385 Y12.570 E0.0210
G1 X4.953 Y12.230 E0.0210
G1 X4.559 Y11.847 E0.0210
G1 X4.209 Y11.425 E0.0210
G1 X3.905 Y10.967 E0.0210
G1 X3.652 Y10.480 E0.0210
G1 X3.452 Y9.968 E0.0210
G1 X3.308 Y9.438 E0.0210
G1 X3.220 Y8.896 E0.0210
G1 X3.191 Y8.348 E0.0210
G1 X3.220 Y7.799 E0.0210
G1 X3.308 Y7.257 E0.0210
G1 X3.452 Y6.728 E0.0210
G1 X3.652 Y6.216 E0.0210
G1 X3.905 Y5.729 E0.0210
G1 X4.209 Y5.271 E0.0210
G1 X4.522 Y4.894 E0.0188
G1 X4.955 Y4.463 E0.0234
G1 X5.385 Y4.126 E0.0209
G1 X5.850 Y3.835 E0.0210
G1 X6.344 Y3.595 E0.0210
G1 X6.861 Y3.409 E0.0210
G1 X7.394 Y3.278 E0.0210
G1 X7.938 Y3.205 E0.0210
G1 X8.487 Y3.191 E0.0210
G1 X9.035 Y3.235 E0.0210
G1 X9.574 Y3.336 E0.0210
G1 X10.100 Y3.495 E0.0210
G1 X10.606 Y3.708 E0.0210
G1 X11.086 Y3.974 E0.0210
G1 X11.536 Y4.290 E0.0210
G1 X11.949 Y4.652 E0.0210
G1 X12.322 Y5.055 E0.0210
G1 X12.649 Y5.496 E0.0210
G1 X12.928 Y5.969 E0.0210
G1 X13.155 Y6.469 E0.0210
G1 X13.327 Y6.991 E0.0210
G1 X13.443 Y7.527 E0.0210
G1 X13.502 Y8.073 E0.0210
G1 X13.502 Y8.623 E0.0210
G1 X13.443 Y9.169 E0.0210
G1 X13.327 Y9.705 E0.0210
G1 X13.155 Y10.227 E0.0210
G1 X12.928 Y10.727 E0.0210
G1 X12.649 Y11.200 E0.0210
