; G-Code generated by Simplify3D(R) Version 4.1.2
; Apr 6, 2020 at 11:41:55 AM
; Settings Summary
;   processName,Process1
;   applyToModels,FORCE bracket
;   profileName,MakerBot Replicator 2 HBP (modified)
;   profileVersion,2020-03-12 10:48:50
;   baseProfile,MakerBot Replicator 2(2)
;   printMaterial,PLA
;   printQuality,Medium
;   printExtruders,
;   extruderName,Primary Extruder
;   extruderToolheadNumber,0
;   extruderDiameter,0.4
;   extruderAutoWidth,0
;   extruderWidth,0.4
;   extrusionMultiplier,1
;   extruderUseRetract,1
;   extruderRetractionDistance,1.9
;   extruderExtraRestartDistance,0
;   extruderRetractionZLift,0.5
;   extruderRetractionSpeed,1200
;   extruderUseCoasting,0
;   extruderCoastingDistance,0.2
;   extruderUseWipe,0
;   extruderWipeDistance,5
;   primaryExtruder,0
;   layerHeight,0.2
;   topSolidLayers,3
;   bottomSolidLayers,3
;   perimeterOutlines,3
;   printPerimetersInsideOut,1
;   startPointOption,3
;   startPointOriginX,0
;   startPointOriginY,150
;   sequentialIslands,0
;   spiralVaseMode,0
;   firstLayerHeightPercentage,100
;   firstLayerWidthPercentage,115
;   firstLayerUnderspeed,0.5
;   useRaft,0
;   raftExtruder,0
;   raftTopLayers,2
;   raftBaseLayers,1
;   raftOffset,1
;   raftSeparationDistance,0.14
;   raftTopInfill,90
;   aboveRaftSpeedMultiplier,0.3
;   useSkirt,0
;   skirtExtruder,0
;   skirtLayers,1
;   skirtOutlines,5
;   skirtOffset,0
;   usePrimePillar,0
;   primePillarExtruder,999
;   primePillarWidth,12
;   primePillarLocation,7
;   primePillarSpeedMultiplier,1
;   useOozeShield,0
;   oozeShieldExtruder,999
;   oozeShieldOffset,2
;   oozeShieldOutlines,1
;   oozeShieldSidewallShape,1
;   oozeShieldSidewallAngle,30
;   oozeShieldSpeedMultiplier,1
;   infillExtruder,0
;   internalInfillPattern,Rectilinear
;   externalInfillPattern,Rectilinear
;   infillPercentage,15
;   outlineOverlapPercentage,25
;   infillExtrusionWidthPercentage,100
;   minInfillLength,5
;   infillLayerInterval,1
;   internalInfillAngles,45,-45
;   overlapInternalInfillAngles,0
;   externalInfillAngles,45,-45
;   generateSupport,1
;   supportExtruder,0
;   supportInfillPercentage,5
;   supportExtraInflation,0.5
;   supportBaseLayers,0
;   denseSupportExtruder,0
;   denseSupportLayers,2
;   denseSupportInfillPercentage,90
;   supportLayerInterval,1
;   supportHorizontalPartOffset,0.3
;   supportUpperSeparationLayers,1
;   supportLowerSeparationLayers,1
;   supportType,1
;   supportGridSpacing,2
;   maxOverhangAngle,45
;   supportAngles,45,-45
;   temperatureName,Primary Extruder,Heated Build Platform
;   temperatureNumber,0,0
;   temperatureSetpointCount,1,1
;   temperatureSetpointLayers,1,1
;   temperatureSetpointTemperatures,230,60
;   temperatureStabilizeAtStartup,1,1
;   temperatureHeatedBed,0,1
;   fanLayers,1,2
;   fanSpeeds,0,100
;   blipFanToFullPower,1
;   adjustSpeedForCooling,1
;   minSpeedLayerTime,15
;   minCoolingSpeedSlowdown,20
;   increaseFanForCooling,1
;   minFanLayerTime,45
;   maxCoolingFanSpeed,100
;   increaseFanForBridging,1
;   bridgingFanSpeed,100
;   use5D,1
;   relativeEdistances,1
;   allowEaxisZeroing,0
;   independentExtruderAxes,1
;   includeM10123,0
;   stickySupport,1
;   applyToolheadOffsets,0
;   gcodeXoffset,0
;   gcodeYoffset,0
;   gcodeZoffset,0
;   overrideMachineDefinition,1
;   machineTypeOverride,0
;   strokeXoverride,280
;   strokeYoverride,150
;   strokeZoverride,150
;   originOffsetXoverride,140
;   originOffsetYoverride,75
;   originOffsetZoverride,0
;   homeXdirOverride,1
;   homeYdirOverride,1
;   homeZdirOverride,-1
;   flipXoverride,1
;   flipYoverride,-1
;   flipZoverride,1
;   toolheadOffsets,0,0|0,0|0,0|0,0|0,0|0,0
;   overrideFirmwareConfiguration,1
;   firmwareTypeOverride,MakerBot/Sailfish Firmware
;   GPXconfigOverride,r2h
;   baudRateOverride,115200
;   overridePrinterModels,1
;   printerModelsOverride,MakerBot_Replicator2.stl
;   startingGcode,; **** Replicator 2 start.gcode ****,M73 P0 ; enable build progress,G162 X Y F3000 ; home XY maximum,G161 Z F1200 ; home Z minimum,G92 Z-5 ; set Z to -5,G1 Z0 ; move Z to 0,G161 Z F100 ; home Z slowly,M132 X Y Z A B ; recall home offsets,G1 X-145 Y-75 Z30 F9000 ; move to wait position off table,G130 X20 Y20 Z20 A20 B20 ; lower stepper Vrefs while heating,M126 S[fan_speed_pwm],M140 S[bed0_temperature] T0,M134 T0 ; stabilize bed temperature,M104 S[extruder0_temperature] T0,M133 T0 ; stabilize extruder temperature,G130 X127 Y127 Z40 A127 B127 ; default stepper Vrefs,G92 A0 ; zero extruder,G1 Z0.4 ; position nozzle,G1 E25 F300 ; purge nozzle,G1 X-140 Y-70 Z0.15 F1200 ; slow wipe,G1 X-135 Y-65 Z0.5 F1200 ; lift,G92 A0 ; zero extruder,M73 P1 ;@body (notify GPX body has started),; **** end of start.gcode ****
;   layerChangeGcode,
;   retractionGcode,
;   toolChangeGcode,
;   endingGcode,; **** Replicator 2 end.gcode ****,M73 P100 ; end build progress,G1 Z155 F1000 ; send Z axis to bottom of machine,M104 S0 T0 ; cool down extruder,M140 S0 T0 ; cool down HBP,M127 ; stop blower fan,G162 X Y F3000 ; home XY maximum,M18 ; disable stepper,M0 ; stop codes,M72 P1 ; play Ta-Da song,; **** end of end.gcode ****
;   exportFileFormat,gcode
;   celebration,0
;   celebrationSong,Random Song
;   postProcessing,
;   defaultSpeed,4800
;   outlineUnderspeed,0.5
;   solidInfillUnderspeed,1
;   supportUnderspeed,1
;   rapidXYspeed,9000
;   rapidZspeed,1200
;   minBridgingArea,50
;   bridgingExtraInflation,0
;   bridgingExtrusionMultiplier,1
;   bridgingSpeedMultiplier,0.8
;   useFixedBridgingAngle,0
;   fixedBridgingAngle,0
;   applyBridgingToPerimeters,0
;   filamentDiameters,1.75|1.75|1.75|1.75|1.75|1.75
;   filamentPricesPerKg,46|46|46|46|46|46
;   filamentDensities,1.25|1.25|1.25|1.25|1.25|1.25
;   useMinPrintHeight,0
;   minPrintHeight,0
;   useMaxPrintHeight,0
;   maxPrintHeight,4.84
;   useDiaphragm,0
;   diaphragmLayerInterval,20
;   robustSlicing,1
;   mergeAllIntoSolid,0
;   onlyRetractWhenCrossingOutline,0
;   retractBetweenLayers,0
;   useRetractionMinTravel,1
;   retractionMinTravel,7
;   retractWhileWiping,1
;   onlyWipeOutlines,1
;   avoidCrossingOutline,0
;   maxMovementDetourFactor,3
;   toolChangeRetractionDistance,12
;   toolChangeExtraRestartDistance,-0.5
;   toolChangeRetractionSpeed,600
;   externalThinWallType,0
;   internalThinWallType,0
;   thinWallAllowedOverlapPercentage,10
;   singleExtrusionMinLength,1
;   singleExtrusionMinPrintingWidthPercentage,50
;   singleExtrusionMaxPrintingWidthPercentage,200
;   singleExtrusionEndpointExtension,0.2
;   horizontalSizeCompensation,0
G90
M83
; **** Replicator 2 start.gcode ****
M73 P0 ; enable build progress
G162 X Y F3000 ; home XY maximum
G161 Z F1200 ; home Z minimum
G92 Z-5 ; set Z to -5
G1 Z0 ; move Z to 0
G161 Z F100 ; home Z slowly
M132 X Y Z A B ; recall home offsets
G1 X-145 Y-75 Z30 F9000 ; move to wait position off table
G130 X20 Y20 Z20 A20 B20 ; lower stepper Vrefs while heating
M127
M140 S60 T0
M134 T0 ; stabilize bed temperature
M104 S230 T0
M133 T0 ; stabilize extruder temperature
G130 X127 Y127 Z40 A127 B127 ; default stepper Vrefs
G92 A0 ; zero extruder
G1 Z0.4 ; position nozzle
G1 E25 F300 ; purge nozzle
G1 X-140 Y-70 Z0.15 F1200 ; slow wipe
G1 X-135 Y-65 Z0.5 F1200 ; lift
G92 A0 ; zero extruder
M73 P1 ;@body (notify GPX body has started)
; **** end of start.gcode ****
; process Process1
; layer 1, Z = 0.200
M135 T0
G1 E-1.9000 F1200
; feature inner perimeter
; tool H0.200 W0.460
G1 Z0.500 F1200
G1 X40.662 Y6.343 F9000
G1 Z0.200 F1200
G1 E1.9000 F1200
G1 X40.662 Y-21.818 E1.0771 F1800
G1 X48.365 Y-21.818 E0.2946
G1 X48.365 Y6.343 E1.0771
G1 X76.350 Y6.343 E1.0704
G1 X76.350 Y14.134 E0.2980
G1 X-76.350 Y14.134 E5.8406
G1 X-76.350 Y6.343 E0.2980
G1 X40.662 Y6.343 E4.4756
G1 X40.202 Y5.883 F9000
G1 X40.202 Y-22.278 E1.0771 F1800
G1 X48.825 Y-22.278 E0.3298
G1 X48.825 Y5.883 E1.0771
G1 X76.810 Y5.883 E1.0704
G1 X76.810 Y14.594 E0.3332
G1 X-76.810 Y14.594 E5.8758
G1 X-76.810 Y5.883 E0.3332
G1 X40.202 Y5.883 E4.4756
; feature outer perimeter
G1 X39.742 Y5.423 F9000
G1 X39.742 Y-22.738 E1.0771 F1200
G1 X49.285 Y-22.738 E0.3650
G1 X49.285 Y5.423 E1.0771
G1 X77.270 Y5.423 E1.0704
G1 X77.270 Y15.054 E0.3684
G1 X-77.270 Y15.054 E5.9110
G1 X-77.270 Y5.423 E0.3684
G1 X39.742 Y5.423 E4.4756
G1 E-1.9000 F1200
; feature inner perimeter
G1 Z0.700 F1200
G1 X43.926 Y-14.628 F9000
G1 Z0.200 F1200
G1 E1.9000 F1200
G1 X44.590 Y-14.563 E0.0255 F1800
G1 X45.255 Y-14.628 E0.0255
G1 X45.894 Y-14.822 E0.0255
G1 X46.482 Y-15.137 E0.0255
G1 X46.998 Y-15.560 E0.0255
G1 X47.422 Y-16.076 E0.0255
G1 X47.737 Y-16.665 E0.0255
G1 X47.930 Y-17.304 E0.0255
G1 X47.996 Y-17.968 E0.0255
G1 X47.930 Y-18.633 E0.0255
G1 X47.737 Y-19.272 E0.0255
G1 X47.422 Y-19.860 E0.0255
G1 X46.998 Y-20.376 E0.0255
G1 X46.482 Y-20.800 E0.0255
G1 X45.894 Y-21.115 E0.0255
G1 X45.255 Y-21.308 E0.0255
G1 X44.590 Y-21.374 E0.0255
G1 X43.926 Y-21.308 E0.0255
G1 X43.287 Y-21.115 E0.0255
G1 X42.698 Y-20.800 E0.0255
G1 X42.182 Y-20.376 E0.0255
G1 X41.759 Y-19.860 E0.0255
G1 X41.444 Y-19.272 E0.0255
G1 X41.250 Y-18.633 E0.0255
G1 X41.185 Y-17.968 E0.0255
G1 X41.250 Y-17.304 E0.0255
G1 X41.444 Y-16.665 E0.0255
G1 X41.759 Y-16.076 E0.0255
G1 X42.182 Y-15.560 E0.0255
G1 X42.698 Y-15.137 E0.0255
G1 X43.287 Y-14.822 E0.0255
G1 X43.926 Y-14.628 E0.0255
G1 X44.016 Y-15.082 F9000
G1 X44.590 Y-15.025 E0.0221 F1800
G1 X45.165 Y-15.082 E0.0221
G1 X45.717 Y-15.249 E0.0221
G1 X46.226 Y-15.521 E0.0221
G1 X46.672 Y-15.887 E0.0221
G1 X47.038 Y-16.333 E0.0221
G1 X47.310 Y-16.842 E0.0221
G1 X47.477 Y-17.394 E0.0221
G1 X47.534 Y-17.968 E0.0221
G1 X47.477 Y-18.543 E0.0221
G1 X47.310 Y-19.095 E0.0221
G1 X47.038 Y-19.604 E0.0221
G1 X46.672 Y-20.050 E0.0221
G1 X46.226 Y-20.416 E0.0221
G1 X45.717 Y-20.688 E0.0221
G1 X45.165 Y-20.855 E0.0221
G1 X44.590 Y-20.912 E0.0221
G1 X44.016 Y-20.855 E0.0221
G1 X43.464 Y-20.688 E0.0221
G1 X42.955 Y-20.416 E0.0221
G1 X42.509 Y-20.050 E0.0221
G1 X42.143 Y-19.604 E0.0221
G1 X41.871 Y-19.095 E0.0221
G1 X41.704 Y-18.543 E0.0221
G1 X41.647 Y-17.968 E0.0221
G1 X41.704 Y-17.394 E0.0221
G1 X41.871 Y-16.842 E0.0221
G1 X42.143 Y-16.333 E0.0221
G1 X42.509 Y-15.887 E0.0221
G1 X42.955 Y-15.521 E0.0221
G1 X43.464 Y-15.249 E0.0221
G1 X44.016 Y-15.082 E0.0221
; feature outer perimeter
G1 X44.106 Y-15.535 F9000
G1 X44.590 Y-15.487 E0.0186 F1200
G1 X45.074 Y-15.535 E0.0186
G1 X45.540 Y-15.676 E0.0186
G1 X45.969 Y-15.905 E0.0186
G1 X46.345 Y-16.214 E0.0186
G1 X46.653 Y-16.590 E0.0186
G1 X46.883 Y-17.019 E0.0186
G1 X47.024 Y-17.484 E0.0186
G1 X47.071 Y-17.968 E0.0186
G1 X47.024 Y-18.452 E0.0186
G1 X46.883 Y-18.918 E0.0186
G1 X46.653 Y-19.347 E0.0186
G1 X46.345 Y-19.723 E0.0186
G1 X45.969 Y-20.031 E0.0186
G1 X45.540 Y-20.261 E0.0186
G1 X45.074 Y-20.402 E0.0186
G1 X44.590 Y-20.450 E0.0186
G1 X44.106 Y-20.402 E0.0186
G1 X43.641 Y-20.261 E0.0186
G1 X43.212 Y-20.031 E0.0186
G1 X42.836 Y-19.723 E0.0186
G1 X42.527 Y-19.347 E0.0186
G1 X42.298 Y-18.918 E0.0186
G1 X42.157 Y-18.452 E0.0186
G1 X42.109 Y-17.968 E0.0186
G1 X42.157 Y-17.484 E0.0186
G1 X42.298 Y-17.019 E0.0186
G1 X42.527 Y-16.590 E0.0186
G1 X42.836 Y-16.214 E0.0186
G1 X43.212 Y-15.905 E0.0186
G1 X43.641 Y-15.676 E0.0186
G1 X44.106 Y-15.535 E0.0186
; feature solid layer
G1 X41.018 Y-16.879 F9000
G1 X41.007 Y-16.891 E0.0006 F2400
G1 X41.117 Y-19.383 F9000
G1 X41.007 Y-19.493 E0.0059 F2400
G1 X41.007 Y-20.143 E0.0249
G1 X41.341 Y-19.810 E0.0180
G1 X41.470 Y-20.053 E0.0105
G1 X41.596 Y-20.206 E0.0075
G1 X41.007 Y-20.794 E0.0318
G1 X41.007 Y-21.444 E0.0249
G1 X41.889 Y-20.563 E0.0477
G1 X41.937 Y-20.622 E0.0029
G1 X42.236 Y-20.867 E0.0148
G1 X41.629 Y-21.473 E0.0328
G1 X42.279 Y-21.473 E0.0249
G1 X42.609 Y-21.144 E0.0178
G1 X43.033 Y-21.370 E0.0184
G1 X42.930 Y-21.473 E0.0056
G1 X47.484 Y-21.473 F9000
G1 X48.020 Y-20.937 E0.0290 F2400
G1 X48.020 Y-20.286 E0.0249
G1 X46.833 Y-21.473 E0.0642
G1 X46.183 Y-21.473 E0.0249
G1 X46.445 Y-21.211 E0.0142
G1 X46.675 Y-21.088 E0.0100
G1 X47.244 Y-20.622 E0.0281
G1 X47.710 Y-20.053 E0.0281
G1 X47.833 Y-19.823 E0.0100
G1 X48.020 Y-19.636 E0.0101
G1 X47.992 Y-16.411 F9000
G1 X48.020 Y-16.383 E0.0015 F2400
G1 X48.020 Y-15.733 E0.0249
G1 X47.766 Y-15.987 E0.0138
G1 X47.710 Y-15.884 E0.0045
G1 X47.489 Y-15.614 E0.0134
G1 X48.020 Y-15.082 E0.0288
G1 X48.020 Y-14.431 E0.0249
G1 X47.185 Y-15.267 E0.0452
G1 X46.827 Y-14.974 E0.0177
G1 X48.020 Y-13.781 E0.0645
G1 X48.020 Y-13.130 E0.0249
G1 X46.432 Y-14.719 E0.0859
G1 X46.026 Y-14.502 E0.0176
G1 X46.005 Y-14.495 E0.0009
G1 X48.020 Y-12.480 E0.1090
G1 X48.020 Y-11.829 E0.0249
G1 X45.506 Y-14.344 E0.1360
G1 X45.322 Y-14.288 E0.0073
G1 X44.948 Y-14.251 E0.0144
G1 X48.020 Y-11.179 E0.1662
G1 X48.020 Y-10.528 E0.0249
G1 X44.304 Y-14.244 E0.2010
G1 X43.858 Y-14.288 E0.0171
G1 X43.501 Y-14.397 E0.0143
G1 X48.020 Y-9.878 E0.2444
G1 X48.020 Y-9.227 E0.0249
G1 X41.007 Y-16.240 E0.3793
G1 X41.007 Y-15.589 E0.0249
G1 X48.020 Y-8.577 E0.3793
G1 X48.020 Y-7.926 E0.0249
G1 X41.007 Y-14.939 E0.3793
G1 X41.007 Y-14.288 E0.0249
G1 X48.020 Y-7.276 E0.3793
G1 X48.020 Y-6.625 E0.0249
G1 X41.007 Y-13.638 E0.3793
G1 X41.007 Y-12.987 E0.0249
G1 X48.020 Y-5.974 E0.3793
G1 X48.020 Y-5.324 E0.0249
G1 X41.007 Y-12.337 E0.3793
G1 X41.007 Y-11.686 E0.0249
G1 X48.020 Y-4.673 E0.3793
G1 X48.020 Y-4.023 E0.0249
G1 X41.007 Y-11.036 E0.3793
G1 X41.007 Y-10.385 E0.0249
G1 X48.020 Y-3.372 E0.3793
G1 X48.020 Y-2.722 E0.0249
G1 X41.007 Y-9.735 E0.3793
G1 X41.007 Y-9.084 E0.0249
G1 X48.020 Y-2.071 E0.3793
G1 X48.020 Y-1.421 E0.0249
G1 X41.007 Y-8.434 E0.3793
G1 X41.007 Y-7.783 E0.0249
G1 X48.020 Y-0.770 E0.3793
G1 X48.020 Y-0.120 E0.0249
G1 X41.007 Y-7.132 E0.3793
G1 X41.007 Y-6.482 E0.0249
G1 X48.020 Y0.531 E0.3793
G1 X48.020 Y1.181 E0.0249
G1 X41.007 Y-5.831 E0.3793
G1 X41.007 Y-5.181 E0.0249
G1 X48.020 Y1.832 E0.3793
G1 X48.020 Y2.483 E0.0249
G1 X41.007 Y-4.530 E0.3793
G1 X41.007 Y-3.880 E0.0249
G1 X48.020 Y3.133 E0.3793
G1 X48.020 Y3.784 E0.0249
G1 X41.007 Y-3.229 E0.3793
G1 X41.007 Y-2.579 E0.0249
G1 X48.020 Y4.434 E0.3793
G1 X48.020 Y5.085 E0.0249
G1 X41.007 Y-1.928 E0.3793
G1 X41.007 Y-1.278 E0.0249
G1 X48.020 Y5.735 E0.3793
G1 X48.020 Y6.386 E0.0249
G1 X41.007 Y-0.627 E0.3793
G1 X41.007 Y0.023 E0.0249
G1 X54.773 Y13.789 E0.7446
G1 X55.423 Y13.789 E0.0249
G1 X48.322 Y6.688 E0.3841
G1 X48.973 Y6.688 E0.0249
G1 X56.074 Y13.789 E0.3841
G1 X56.724 Y13.789 E0.0249
G1 X49.624 Y6.688 E0.3841
G1 X50.274 Y6.688 E0.0249
G1 X57.375 Y13.789 E0.3841
G1 X58.026 Y13.789 E0.0249
G1 X50.925 Y6.688 E0.3841
G1 X51.575 Y6.688 E0.0249
G1 X58.676 Y13.789 E0.3841
G1 X59.327 Y13.789 E0.0249
G1 X52.226 Y6.688 E0.3841
G1 X52.876 Y6.688 E0.0249
G1 X59.977 Y13.789 E0.3841
G1 X60.628 Y13.789 E0.0249
G1 X53.527 Y6.688 E0.3841
G1 X54.177 Y6.688 E0.0249
G1 X61.278 Y13.789 E0.3841
G1 X61.929 Y13.789 E0.0249
G1 X54.828 Y6.688 E0.3841
G1 X55.478 Y6.688 E0.0249
G1 X62.579 Y13.789 E0.3841
G1 X63.230 Y13.789 E0.0249
G1 X56.129 Y6.688 E0.3841
G1 X56.779 Y6.688 E0.0249
G1 X63.880 Y13.789 E0.3841
G1 X64.531 Y13.789 E0.0249
G1 X57.430 Y6.688 E0.3841
G1 X58.081 Y6.688 E0.0249
G1 X65.181 Y13.789 E0.3841
G1 X65.832 Y13.789 E0.0249
G1 X58.731 Y6.688 E0.3841
G1 X59.382 Y6.688 E0.0249
G1 X66.483 Y13.789 E0.3841
G1 X67.133 Y13.789 E0.0249
G1 X60.032 Y6.688 E0.3841
G1 X60.683 Y6.688 E0.0249
G1 X67.784 Y13.789 E0.3841
G1 X68.434 Y13.789 E0.0249
G1 X61.333 Y6.688 E0.3841
G1 X61.984 Y6.688 E0.0249
G1 X69.085 Y13.789 E0.3841
G1 X69.735 Y13.789 E0.0249
G1 X62.634 Y6.688 E0.3841
G1 X63.285 Y6.688 E0.0249
G1 X70.386 Y13.789 E0.3841
G1 X71.036 Y13.789 E0.0249
G1 X63.935 Y6.688 E0.3841
G1 X64.586 Y6.688 E0.0249
G1 X71.687 Y13.789 E0.3841
G1 X72.337 Y13.789 E0.0249
G1 X65.236 Y6.688 E0.3841
G1 X65.887 Y6.688 E0.0249
G1 X72.988 Y13.789 E0.3841
G1 X73.638 Y13.789 E0.0249
G1 X66.538 Y6.688 E0.3841
G1 X67.188 Y6.688 E0.0249
G1 X74.289 Y13.789 E0.3841
G1 X74.940 Y13.789 E0.0249
G1 X67.839 Y6.688 E0.3841
G1 X68.489 Y6.688 E0.0249
G1 X75.590 Y13.789 E0.3841
G1 X76.005 Y13.789 E0.0159
G1 X76.005 Y13.553 E0.0090
G1 X69.140 Y6.688 E0.3714
G1 X69.790 Y6.688 E0.0249
G1 X76.005 Y12.903 E0.3362
G1 X76.005 Y12.252 E0.0249
G1 X70.441 Y6.688 E0.3010
