; G-Code generated by Simplify3D(R) Version 4.1.2
; Apr 6, 2020 at 11:44:18 AM
; Settings Summary
;   processName,Process1
;   applyToModels,SithLong
;   profileName,MakerBot Replicator 2 HBP (modified)
;   profileVersion,2020-03-12 10:48:50
;   baseProfile,MakerBot Replicator 2(2)
;   printMaterial,PLA
;   printQuality,Medium
;   printExtruders,
;   extruderName,Primary Extruder
;   extruderToolheadNumber,0
;   extruderDiameter,0.4
;   extruderAutoWidth,0
;   extruderWidth,0.4
;   extrusionMultiplier,1
;   extruderUseRetract,1
;   extruderRetractionDistance,1.9
;   extruderExtraRestartDistance,0
;   extruderRetractionZLift,0.5
;   extruderRetractionSpeed,1200
;   extruderUseCoasting,0
;   extruderCoastingDistance,0.2
;   extruderUseWipe,0
;   extruderWipeDistance,5
;   primaryExtruder,0
;   layerHeight,0.2
;   topSolidLayers,3
;   bottomSolidLayers,3
;   perimeterOutlines,3
;   printPerimetersInsideOut,1
;   startPointOption,3
;   startPointOriginX,0
;   startPointOriginY,150
;   sequentialIslands,0
;   spiralVaseMode,0
;   firstLayerHeightPercentage,100
;   firstLayerWidthPercentage,115
;   firstLayerUnderspeed,0.5
;   useRaft,0
;   raftExtruder,0
;   raftTopLayers,2
;   raftBaseLayers,1
;   raftOffset,1
;   raftSeparationDistance,0.14
;   raftTopInfill,90
;   aboveRaftSpeedMultiplier,0.3
;   useSkirt,0
;   skirtExtruder,0
;   skirtLayers,1
;   skirtOutlines,5
;   skirtOffset,0
;   usePrimePillar,0
;   primePillarExtruder,999
;   primePillarWidth,12
;   primePillarLocation,7
;   primePillarSpeedMultiplier,1
;   useOozeShield,0
;   oozeShieldExtruder,999
;   oozeShieldOffset,2
;   oozeShieldOutlines,1
;   oozeShieldSidewallShape,1
;   oozeShieldSidewallAngle,30
;   oozeShieldSpeedMultiplier,1
;   infillExtruder,0
;   internalInfillPattern,Rectilinear
;   externalInfillPattern,Rectilinear
;   infillPercentage,15
;   outlineOverlapPercentage,25
;   infillExtrusionWidthPercentage,100
;   minInfillLength,5
;   infillLayerInterval,1
;   internalInfillAngles,45,-45
;   overlapInternalInfillAngles,0
;   externalInfillAngles,45,-45
;   generateSupport,1
;   supportExtruder,0
;   supportInfillPercentage,5
;   supportExtraInflation,0.5
;   supportBaseLayers,0
;   denseSupportExtruder,0
;   denseSupportLayers,2
;   denseSupportInfillPercentage,90
;   supportLayerInterval,1
;   supportHorizontalPartOffset,0.3
;   supportUpperSeparationLayers,1
;   supportLowerSeparationLayers,1
;   supportType,1
;   supportGridSpacing,2
;   maxOverhangAngle,45
;   supportAngles,45,-45
;   temperatureName,Primary Extruder,Heated Build Platform
;   temperatureNumber,0,0
;   temperatureSetpointCount,1,1
;   temperatureSetpointLayers,1,1
;   temperatureSetpointTemperatures,230,60
;   temperatureStabilizeAtStartup,1,1
;   temperatureHeatedBed,0,1
;   fanLayers,1,2
;   fanSpeeds,0,100
;   blipFanToFullPower,1
;   adjustSpeedForCooling,1
;   minSpeedLayerTime,15
;   minCoolingSpeedSlowdown,20
;   increaseFanForCooling,1
;   minFanLayerTime,45
;   maxCoolingFanSpeed,100
;   increaseFanForBridging,1
;   bridgingFanSpeed,100
;   use5D,1
;   relativeEdistances,1
;   allowEaxisZeroing,0
;   independentExtruderAxes,1
;   includeM10123,0
;   stickySupport,1
;   applyToolheadOffsets,0
;   gcodeXoffset,0
;   gcodeYoffset,0
;   gcodeZoffset,0
;   overrideMachineDefinition,1
;   machineTypeOverride,0
;   strokeXoverride,280
;   strokeYoverride,150
;   strokeZoverride,150
;   originOffsetXoverride,140
;   originOffsetYoverride,75
;   originOffsetZoverride,0
;   homeXdirOverride,1
;   homeYdirOverride,1
;   homeZdirOverride,-1
;   flipXoverride,1
;   flipYoverride,-1
;   flipZoverride,1
;   toolheadOffsets,0,0|0,0|0,0|0,0|0,0|0,0
;   overrideFirmwareConfiguration,1
;   firmwareTypeOverride,MakerBot/Sailfish Firmware
;   GPXconfigOverride,r2h
;   baudRateOverride,115200
;   overridePrinterModels,1
;   printerModelsOverride,MakerBot_Replicator2.stl
;   startingGcode,; **** Replicator 2 start.gcode ****,M73 P0 ; enable build progress,G162 X Y F3000 ; home XY maximum,G161 Z F1200 ; home Z minimum,G92 Z-5 ; set Z to -5,G1 Z0 ; move Z to 0,G161 Z F100 ; home Z slowly,M132 X Y Z A B ; recall home offsets,G1 X-145 Y-75 Z30 F9000 ; move to wait position off table,G130 X20 Y20 Z20 A20 B20 ; lower stepper Vrefs while heating,M126 S[fan_speed_pwm],M140 S[bed0_temperature] T0,M134 T0 ; stabilize bed temperature,M104 S[extruder0_temperature] T0,M133 T0 ; stabilize extruder temperature,G130 X127 Y127 Z40 A127 B127 ; default stepper Vrefs,G92 A0 ; zero extruder,G1 Z0.4 ; position nozzle,G1 E25 F300 ; purge nozzle,G1 X-140 Y-70 Z0.15 F1200 ; slow wipe,G1 X-135 Y-65 Z0.5 F1200 ; lift,G92 A0 ; zero extruder,M73 P1 ;@body (notify GPX body has started),; **** end of start.gcode ****
;   layerChangeGcode,
;   retractionGcode,
;   toolChangeGcode,
;   endingGcode,; **** Replicator 2 end.gcode ****,M73 P100 ; end build progress,G1 Z155 F1000 ; send Z axis to bottom of machine,M104 S0 T0 ; cool down extruder,M140 S0 T0 ; cool down HBP,M127 ; stop blower fan,G162 X Y F3000 ; home XY maximum,M18 ; disable stepper,M0 ; stop codes,M72 P1 ; play Ta-Da song,; **** end of end.gcode ****
;   exportFileFormat,gcode
;   celebration,0
;   celebrationSong,Random Song
;   postProcessing,
;   defaultSpeed,4800
;   outlineUnderspeed,0.5
;   solidInfillUnderspeed,1
;   supportUnderspeed,1
;   rapidXYspeed,9000
;   rapidZspeed,1200
;   minBridgingArea,50
;   bridgingExtraInflation,0
;   bridgingExtrusionMultiplier,1
;   bridgingSpeedMultiplier,0.8
;   useFixedBridgingAngle,0
;   fixedBridgingAngle,0
;   applyBridgingToPerimeters,0
;   filamentDiameters,1.75|1.75|1.75|1.75|1.75|1.75
;   filamentPricesPerKg,46|46|46|46|46|46
;   filamentDensities,1.25|1.25|1.25|1.25|1.25|1.25
;   useMinPrintHeight,0
;   minPrintHeight,0
;   useMaxPrintHeight,0
;   maxPrintHeight,4.84
;   useDiaphragm,0
;   diaphragmLayerInterval,20
;   robustSlicing,1
;   mergeAllIntoSolid,0
;   onlyRetractWhenCrossingOutline,0
;   retractBetweenLayers,0
;   useRetractionMinTravel,1
;   retractionMinTravel,7
;   retractWhileWiping,1
;   onlyWipeOutlines,1
;   avoidCrossingOutline,0
;   maxMovementDetourFactor,3
;   toolChangeRetractionDistance,12
;   toolChangeExtraRestartDistance,-0.5
;   toolChangeRetractionSpeed,600
;   externalThinWallType,0
;   internalThinWallType,0
;   thinWallAllowedOverlapPercentage,10
;   singleExtrusionMinLength,1
;   singleExtrusionMinPrintingWidthPercentage,50
;   singleExtrusionMaxPrintingWidthPercentage,200
;   singleExtrusionEndpointExtension,0.2
;   horizontalSizeCompensation,0
G90
M83
; **** Replicator 2 start.gcode ****
M73 P0 ; enable build progress
G162 X Y F3000 ; home XY maximum
G161 Z F1200 ; home Z minimum
G92 Z-5 ; set Z to -5
G1 Z0 ; move Z to 0
G161 Z F100 ; home Z slowly
M132 X Y Z A B ; recall home offsets
G1 X-145 Y-75 Z30 F9000 ; move to wait position off table
G130 X20 Y20 Z20 A20 B20 ; lower stepper Vrefs while heating
M127
M140 S60 T0
M134 T0 ; stabilize bed temperature
M104 S230 T0
M133 T0 ; stabilize extruder temperature
G130 X127 Y127 Z40 A127 B127 ; default stepper Vrefs
G92 A0 ; zero extruder
G1 Z0.4 ; position nozzle
G1 E25 F300 ; purge nozzle
G1 X-140 Y-70 Z0.15 F1200 ; slow wipe
G1 X-135 Y-65 Z0.5 F1200 ; lift
G92 A0 ; zero extruder
M73 P1 ;@body (notify GPX body has started)
; **** end of start.gcode ****
; process Process1
; layer 1, Z = 0.200
M135 T0
G1 E-1.9000 F1200
; feature inner perimeter
; tool H0.200 W0.460
G1 Z0.500 F1200
G1 X-57.520 Y3.851 F9000
G1 Z0.200 F1200
G1 E1.9000 F1200
G1 X-58.624 Y3.677 E0.0428 F1800
G1 X-59.538 Y3.211 E0.0392
G1 X-60.264 Y2.485 E0.0393
G1 X-60.730 Y1.571 E0.0392
G1 X-60.905 Y0.467 E0.0428
G1 X-60.905 Y-0.467 E0.0357
G1 X-60.730 Y-1.571 E0.0428
G1 X-60.264 Y-2.485 E0.0392
G1 X-59.538 Y-3.211 E0.0393
G1 X-58.624 Y-3.677 E0.0392
G1 X-57.520 Y-3.851 E0.0428
G1 X58.284 Y-3.851 E4.4294
G1 X58.284 Y3.851 E0.2946
G1 X-57.520 Y3.851 E4.4294
G1 X-57.556 Y4.311 F9000
G1 X-58.768 Y4.120 E0.0469 F1800
G1 X-59.812 Y3.587 E0.0448
G1 X-60.641 Y2.759 E0.0448
G1 X-61.173 Y1.715 E0.0448
G1 X-61.365 Y0.503 E0.0469
G1 X-61.365 Y-0.503 E0.0385
G1 X-61.173 Y-1.715 E0.0469
G1 X-60.641 Y-2.759 E0.0448
G1 X-59.812 Y-3.587 E0.0448
G1 X-58.768 Y-4.120 E0.0448
G1 X-57.556 Y-4.311 E0.0469
G1 X58.744 Y-4.311 E4.4484
G1 X58.744 Y4.311 E0.3298
G1 X-57.556 Y4.311 E4.4484
; feature outer perimeter
G1 X-57.592 Y4.771 F9000
G1 X-58.912 Y4.562 E0.0511 F1200
G1 X-60.086 Y3.964 E0.0504
G1 X-61.017 Y3.033 E0.0504
G1 X-61.611 Y1.867 E0.0500
G1 X-61.616 Y1.859 E0.0004
G1 X-61.825 Y0.539 E0.0511
G1 X-61.825 Y-0.539 E0.0412
G1 X-61.616 Y-1.859 E0.0511
G1 X-61.017 Y-3.033 E0.0504
G1 X-60.086 Y-3.964 E0.0504
G1 X-58.912 Y-4.562 E0.0504
G1 X-57.592 Y-4.771 E0.0511
G1 X59.204 Y-4.771 E4.4674
G1 X59.204 Y4.771 E0.3650
G1 X-57.592 Y4.771 E4.4674
G1 E-1.9000 F1200
; feature inner perimeter
G1 Z0.700 F1200
G1 X-30.395 Y0.588 F9000
G1 Z0.200 F1200
G1 E1.9000 F1200
G1 X-30.201 Y1.227 E0.0255 F1800
G1 X-29.886 Y1.815 E0.0255
G1 X-29.463 Y2.332 E0.0255
G1 X-28.947 Y2.755 E0.0255
G1 X-28.358 Y3.070 E0.0255
G1 X-27.719 Y3.264 E0.0255
G1 X-27.055 Y3.329 E0.0255
G1 X-26.390 Y3.264 E0.0255
G1 X-25.751 Y3.070 E0.0255
G1 X-25.163 Y2.755 E0.0255
G1 X-24.646 Y2.332 E0.0255
G1 X-24.223 Y1.815 E0.0255
G1 X-23.908 Y1.227 E0.0255
G1 X-23.714 Y0.588 E0.0255
G1 X-23.649 Y-0.077 E0.0255
G1 X-23.714 Y-0.741 E0.0255
G1 X-23.908 Y-1.380 E0.0255
G1 X-24.223 Y-1.969 E0.0255
G1 X-24.646 Y-2.485 E0.0255
G1 X-25.163 Y-2.908 E0.0255
G1 X-25.751 Y-3.223 E0.0255
G1 X-26.390 Y-3.417 E0.0255
G1 X-27.055 Y-3.482 E0.0255
G1 X-27.719 Y-3.417 E0.0255
G1 X-28.358 Y-3.223 E0.0255
G1 X-28.947 Y-2.908 E0.0255
G1 X-29.463 Y-2.485 E0.0255
G1 X-29.886 Y-1.969 E0.0255
G1 X-30.201 Y-1.380 E0.0255
G1 X-30.395 Y-0.741 E0.0255
G1 X-30.460 Y-0.077 E0.0255
G1 X-30.395 Y0.588 E0.0255
G1 X-29.941 Y0.498 F9000
G1 X-29.774 Y1.050 E0.0221 F1800
G1 X-29.502 Y1.559 E0.0221
G1 X-29.136 Y2.005 E0.0221
G1 X-28.690 Y2.371 E0.0221
G1 X-28.181 Y2.643 E0.0221
G1 X-27.629 Y2.810 E0.0221
G1 X-27.055 Y2.867 E0.0221
G1 X-26.480 Y2.810 E0.0221
G1 X-25.928 Y2.643 E0.0221
G1 X-25.419 Y2.371 E0.0221
G1 X-24.973 Y2.005 E0.0221
G1 X-24.607 Y1.559 E0.0221
G1 X-24.335 Y1.050 E0.0221
G1 X-24.168 Y0.498 E0.0221
G1 X-24.111 Y-0.077 E0.0221
G1 X-24.168 Y-0.651 E0.0221
G1 X-24.335 Y-1.203 E0.0221
G1 X-24.607 Y-1.712 E0.0221
G1 X-24.973 Y-2.158 E0.0221
G1 X-25.419 Y-2.524 E0.0221
G1 X-25.928 Y-2.796 E0.0221
G1 X-26.480 Y-2.963 E0.0221
G1 X-27.055 Y-3.020 E0.0221
G1 X-27.629 Y-2.963 E0.0221
G1 X-28.181 Y-2.796 E0.0221
G1 X-28.690 Y-2.524 E0.0221
G1 X-29.136 Y-2.158 E0.0221
G1 X-29.502 Y-1.712 E0.0221
G1 X-29.774 Y-1.203 E0.0221
G1 X-29.941 Y-0.651 E0.0221
G1 X-29.998 Y-0.077 E0.0221
G1 X-29.941 Y0.498 E0.0221
; feature outer perimeter
G1 X-29.488 Y0.408 F9000
G1 X-29.347 Y0.873 E0.0186 F1200
G1 X-29.118 Y1.302 E0.0186
G1 X-28.809 Y1.678 E0.0186
G1 X-28.433 Y1.986 E0.0186
G1 X-28.004 Y2.216 E0.0186
G1 X-27.539 Y2.357 E0.0186
G1 X-27.055 Y2.405 E0.0186
G1 X-26.571 Y2.357 E0.0186
G1 X-26.105 Y2.216 E0.0186
G1 X-25.676 Y1.986 E0.0186
G1 X-25.300 Y1.678 E0.0186
G1 X-24.992 Y1.302 E0.0186
G1 X-24.762 Y0.873 E0.0186
G1 X-24.621 Y0.408 E0.0186
G1 X-24.573 Y-0.077 E0.0186
G1 X-24.621 Y-0.561 E0.0186
G1 X-24.762 Y-1.026 E0.0186
G1 X-24.992 Y-1.455 E0.0186
G1 X-25.300 Y-1.831 E0.0186
G1 X-25.676 Y-2.139 E0.0186
G1 X-26.105 Y-2.369 E0.0186
G1 X-26.571 Y-2.510 E0.0186
G1 X-27.055 Y-2.558 E0.0186
G1 X-27.539 Y-2.510 E0.0186
G1 X-28.004 Y-2.369 E0.0186
G1 X-28.433 Y-2.139 E0.0186
G1 X-28.809 Y-1.831 E0.0186
G1 X-29.118 Y-1.455 E0.0186
G1 X-29.347 Y-1.026 E0.0186
G1 X-29.488 Y-0.561 E0.0186
G1 X-29.536 Y-0.077 E0.0186
G1 X-29.488 Y0.408 E0.0186
G1 E-1.9000 F1200
; feature inner perimeter
G1 Z0.700 F1200
G1 X-19.886 Y0.024 F9000
G1 Z0.200 F1200
G1 E1.9000 F1200
G1 X-19.822 Y0.673 E0.0249 F1800
G1 X-19.583 Y1.461 E0.0315
G1 X-19.225 Y2.131 E0.0290
G1 X-18.775 Y2.679 E0.0271
G1 X-18.227 Y3.129 E0.0271
G1 X-17.593 Y3.468 E0.0275
G1 X-16.781 Y3.714 E0.0324
G1 X-16.122 Y3.779 E0.0253
G1 X-15.463 Y3.714 E0.0253
G1 X-14.651 Y3.468 E0.0324
G1 X-14.017 Y3.129 E0.0275
G1 X-13.469 Y2.679 E0.0271
G1 X-13.019 Y2.131 E0.0271
G1 X-12.661 Y1.461 E0.0290
G1 X-12.422 Y0.673 E0.0315
G1 X-12.358 Y0.024 E0.0249
G1 X-12.422 Y-0.625 E0.0249
G1 X-12.658 Y-1.401 E0.0310
G1 X-13.020 Y-2.078 E0.0294
G1 X-13.470 Y-2.626 E0.0271
G1 X-14.018 Y-3.076 E0.0271
G1 X-14.687 Y-3.434 E0.0290
G1 X-15.469 Y-3.671 E0.0312
G1 X-16.122 Y-3.735 E0.0251
G1 X-16.776 Y-3.671 E0.0251
G1 X-17.557 Y-3.434 E0.0312
G1 X-18.226 Y-3.076 E0.0290
G1 X-18.774 Y-2.626 E0.0271
G1 X-19.224 Y-2.078 E0.0271
G1 X-19.586 Y-1.401 E0.0294
G1 X-19.822 Y-0.625 E0.0310
G1 X-19.886 Y0.024 E0.0249
G1 X-19.423 Y0.024 F9000
G1 X-19.368 Y0.583 E0.0215 F1800
G1 X-19.156 Y1.284 E0.0280
G1 X-18.840 Y1.874 E0.0256
G1 X-18.448 Y2.352 E0.0237
G1 X-17.970 Y2.744 E0.0237
G1 X-17.416 Y3.041 E0.0240
G1 X-16.691 Y3.260 E0.0290
G1 X-16.122 Y3.316 E0.0219
G1 X-15.553 Y3.260 E0.0219
G1 X-14.828 Y3.041 E0.0290
G1 X-14.274 Y2.744 E0.0240
G1 X-13.796 Y2.352 E0.0237
G1 X-13.404 Y1.874 E0.0237
G1 X-13.089 Y1.284 E0.0256
G1 X-12.876 Y0.583 E0.0280
G1 X-12.821 Y0.024 E0.0215
G1 X-12.876 Y-0.535 E0.0215
G1 X-13.085 Y-1.224 E0.0275
G1 X-13.404 Y-1.821 E0.0259
G1 X-13.797 Y-2.299 E0.0237
G1 X-14.275 Y-2.692 E0.0237
G1 X-14.864 Y-3.007 E0.0256
G1 X-15.559 Y-3.218 E0.0278
G1 X-16.122 Y-3.273 E0.0216
G1 X-16.685 Y-3.218 E0.0216
G1 X-17.380 Y-3.007 E0.0278
G1 X-17.969 Y-2.692 E0.0256
G1 X-18.447 Y-2.299 E0.0237
G1 X-18.840 Y-1.821 E0.0237
G1 X-19.159 Y-1.224 E0.0259
G1 X-19.368 Y-0.535 E0.0275
G1 X-19.423 Y0.024 E0.0215
; feature outer perimeter
G1 X-18.961 Y0.024 F9000
G1 X-18.915 Y0.493 E0.0180 F1200
G1 X-18.729 Y1.107 E0.0246
G1 X-18.456 Y1.617 E0.0221
G1 X-18.121 Y2.025 E0.0202
G1 X-17.713 Y2.360 E0.0202
G1 X-17.239 Y2.613 E0.0206
G1 X-16.601 Y2.807 E0.0255
G1 X-16.122 Y2.854 E0.0184
G1 X-15.643 Y2.807 E0.0184
G1 X-15.005 Y2.613 E0.0255
G1 X-14.531 Y2.360 E0.0206
G1 X-14.123 Y2.025 E0.0202
G1 X-13.788 Y1.617 E0.0202
G1 X-13.516 Y1.107 E0.0221
G1 X-13.329 Y0.493 E0.0246
G1 X-13.283 Y0.024 E0.0180
G1 X-13.329 Y-0.445 E0.0180
G1 X-13.512 Y-1.047 E0.0241
G1 X-13.788 Y-1.564 E0.0225
G1 X-14.123 Y-1.973 E0.0202
G1 X-14.532 Y-2.308 E0.0202
G1 X-15.041 Y-2.580 E0.0221
G1 X-15.649 Y-2.764 E0.0243
G1 X-16.122 Y-2.811 E0.0182
G1 X-16.595 Y-2.764 E0.0182
G1 X-17.203 Y-2.580 E0.0243
G1 X-17.712 Y-2.308 E0.0221
G1 X-18.121 Y-1.973 E0.0202
G1 X-18.456 Y-1.564 E0.0202
G1 X-18.732 Y-1.047 E0.0225
G1 X-18.915 Y-0.445 E0.0241
G1 X-18.961 Y0.024 E0.0180
; feature solid layer
G1 X-18.469 Y-3.506 F9000
G1 X-18.359 Y-3.397 E0.0059 F2400
G1 X-18.419 Y-3.365 E0.0026
G1 X-18.726 Y-3.113 E0.0152
G1 X-19.119 Y-3.506 E0.0213
G1 X-19.770 Y-3.506 E0.0249
G1 X-19.071 Y-2.808 E0.0378
G1 X-19.365 Y-2.451 E0.0177
G1 X-20.420 Y-3.506 E0.0571
G1 X-21.071 Y-3.506 E0.0249
G1 X-19.625 Y-2.060 E0.0782
G1 X-19.852 Y-1.636 E0.0184
G1 X-21.721 Y-3.506 E0.1012
G1 X-22.372 Y-3.506 E0.0249
G1 X-20.021 Y-1.156 E0.1272
G1 X-20.162 Y-0.693 E0.0185
G1 X-20.166 Y-0.650 E0.0016
G1 X-23.023 Y-3.506 E0.1545
G1 X-23.673 Y-3.506 E0.0249
G1 X-20.224 Y-0.058 E0.1866
G1 X-20.232 Y0.024 E0.0031
G1 X-20.171 Y0.646 E0.0239
G1 X-24.324 Y-3.506 E0.2246
G1 X-24.974 Y-3.506 E0.0249
G1 X-19.916 Y1.552 E0.2736
G1 X-19.903 Y1.594 E0.0017
G1 X-19.513 Y2.323 E0.0316
G1 X-19.020 Y2.924 E0.0297
G1 X-18.419 Y3.417 E0.0297
G1 X-18.252 Y3.506 E0.0073
G1 X-18.612 Y3.506 E0.0138
G1 X-23.569 Y-1.451 E0.2682
G1 X-23.374 Y-0.809 E0.0257
G1 X-23.352 Y-0.583 E0.0087
G1 X-19.262 Y3.506 E0.2212
G1 X-19.913 Y3.506 E0.0249
G1 X-23.320 Y0.100 E0.1843
G1 X-23.374 Y0.655 E0.0214
G1 X-23.384 Y0.686 E0.0012
G1 X-20.563 Y3.506 E0.1526
G1 X-21.214 Y3.506 E0.0249
G1 X-23.535 Y1.185 E0.1256
G1 X-23.588 Y1.359 E0.0070
G1 X-23.736 Y1.635 E0.0120
G1 X-21.865 Y3.506 E0.1012
G1 X-22.515 Y3.506 E0.0249
G1 X-23.970 Y2.051 E0.0787
G1 X-24.263 Y2.409 E0.0177
G1 X-23.166 Y3.506 E0.0594
G1 X-23.816 Y3.506 E0.0249
G1 X-24.591 Y2.732 E0.0419
G1 X-24.948 Y3.025 E0.0177
G1 X-24.467 Y3.506 E0.0260
G1 X-25.117 Y3.506 E0.0249
G1 X-25.368 Y3.256 E0.0135
