; G-Code generated by Simplify3D(R) Version 4.1.2
; Apr 6, 2020 at 11:48:14 AM
; Settings Summary
;   processName,Process1
;   applyToModels,TIE Spring cover
;   profileName,MakerBot Replicator 2 HBP (modified)
;   profileVersion,2020-03-12 10:48:50
;   baseProfile,MakerBot Replicator 2(2)
;   printMaterial,PLA
;   printQuality,Medium
;   printExtruders,
;   extruderName,Primary Extruder
;   extruderToolheadNumber,0
;   extruderDiameter,0.4
;   extruderAutoWidth,0
;   extruderWidth,0.4
;   extrusionMultiplier,1
;   extruderUseRetract,1
;   extruderRetractionDistance,1.9
;   extruderExtraRestartDistance,0
;   extruderRetractionZLift,0.5
;   extruderRetractionSpeed,1200
;   extruderUseCoasting,0
;   extruderCoastingDistance,0.2
;   extruderUseWipe,0
;   extruderWipeDistance,5
;   primaryExtruder,0
;   layerHeight,0.2
;   topSolidLayers,3
;   bottomSolidLayers,3
;   perimeterOutlines,3
;   printPerimetersInsideOut,1
;   startPointOption,3
;   startPointOriginX,0
;   startPointOriginY,150
;   sequentialIslands,0
;   spiralVaseMode,0
;   firstLayerHeightPercentage,100
;   firstLayerWidthPercentage,115
;   firstLayerUnderspeed,0.5
;   useRaft,0
;   raftExtruder,0
;   raftTopLayers,2
;   raftBaseLayers,1
;   raftOffset,1
;   raftSeparationDistance,0.14
;   raftTopInfill,90
;   aboveRaftSpeedMultiplier,0.3
;   useSkirt,0
;   skirtExtruder,0
;   skirtLayers,1
;   skirtOutlines,5
;   skirtOffset,0
;   usePrimePillar,0
;   primePillarExtruder,999
;   primePillarWidth,12
;   primePillarLocation,7
;   primePillarSpeedMultiplier,1
;   useOozeShield,0
;   oozeShieldExtruder,999
;   oozeShieldOffset,2
;   oozeShieldOutlines,1
;   oozeShieldSidewallShape,1
;   oozeShieldSidewallAngle,30
;   oozeShieldSpeedMultiplier,1
;   infillExtruder,0
;   internalInfillPattern,Rectilinear
;   externalInfillPattern,Rectilinear
;   infillPercentage,15
;   outlineOverlapPercentage,25
;   infillExtrusionWidthPercentage,100
;   minInfillLength,5
;   infillLayerInterval,1
;   internalInfillAngles,45,-45
;   overlapInternalInfillAngles,0
;   externalInfillAngles,45,-45
;   generateSupport,1
;   supportExtruder,0
;   supportInfillPercentage,5
;   supportExtraInflation,0.5
;   supportBaseLayers,0
;   denseSupportExtruder,0
;   denseSupportLayers,2
;   denseSupportInfillPercentage,90
;   supportLayerInterval,1
;   supportHorizontalPartOffset,0.3
;   supportUpperSeparationLayers,1
;   supportLowerSeparationLayers,1
;   supportType,1
;   supportGridSpacing,2
;   maxOverhangAngle,45
;   supportAngles,45,-45
;   temperatureName,Primary Extruder,Heated Build Platform
;   temperatureNumber,0,0
;   temperatureSetpointCount,1,1
;   temperatureSetpointLayers,1,1
;   temperatureSetpointTemperatures,230,60
;   temperatureStabilizeAtStartup,1,1
;   temperatureHeatedBed,0,1
;   fanLayers,1,2
;   fanSpeeds,0,100
;   blipFanToFullPower,1
;   adjustSpeedForCooling,1
;   minSpeedLayerTime,15
;   minCoolingSpeedSlowdown,20
;   increaseFanForCooling,1
;   minFanLayerTime,45
;   maxCoolingFanSpeed,100
;   increaseFanForBridging,1
;   bridgingFanSpeed,100
;   use5D,1
;   relativeEdistances,1
;   allowEaxisZeroing,0
;   independentExtruderAxes,1
;   includeM10123,0
;   stickySupport,1
;   applyToolheadOffsets,0
;   gcodeXoffset,0
;   gcodeYoffset,0
;   gcodeZoffset,0
;   overrideMachineDefinition,1
;   machineTypeOverride,0
;   strokeXoverride,280
;   strokeYoverride,150
;   strokeZoverride,150
;   originOffsetXoverride,140
;   originOffsetYoverride,75
;   originOffsetZoverride,0
;   homeXdirOverride,1
;   homeYdirOverride,1
;   homeZdirOverride,-1
;   flipXoverride,1
;   flipYoverride,-1
;   flipZoverride,1
;   toolheadOffsets,0,0|0,0|0,0|0,0|0,0|0,0
;   overrideFirmwareConfiguration,1
;   firmwareTypeOverride,MakerBot/Sailfish Firmware
;   GPXconfigOverride,r2h
;   baudRateOverride,115200
;   overridePrinterModels,1
;   printerModelsOverride,MakerBot_Replicator2.stl
;   startingGcode,; **** Replicator 2 start.gcode ****,M73 P0 ; enable build progress,G162 X Y F3000 ; home XY maximum,G161 Z F1200 ; home Z minimum,G92 Z-5 ; set Z to -5,G1 Z0 ; move Z to 0,G161 Z F100 ; home Z slowly,M132 X Y Z A B ; recall home offsets,G1 X-145 Y-75 Z30 F9000 ; move to wait position off table,G130 X20 Y20 Z20 A20 B20 ; lower stepper Vrefs while heating,M126 S[fan_speed_pwm],M140 S[bed0_temperature] T0,M134 T0 ; stabilize bed temperature,M104 S[extruder0_temperature] T0,M133 T0 ; stabilize extruder temperature,G130 X127 Y127 Z40 A127 B127 ; default stepper Vrefs,G92 A0 ; zero extruder,G1 Z0.4 ; position nozzle,G1 E25 F300 ; purge nozzle,G1 X-140 Y-70 Z0.15 F1200 ; slow wipe,G1 X-135 Y-65 Z0.5 F1200 ; lift,G92 A0 ; zero extruder,M73 P1 ;@body (notify GPX body has started),; **** end of start.gcode ****
;   layerChangeGcode,
;   retractionGcode,
;   toolChangeGcode,
;   endingGcode,; **** Replicator 2 end.gcode ****,M73 P100 ; end build progress,G1 Z155 F1000 ; send Z axis to bottom of machine,M104 S0 T0 ; cool down extruder,M140 S0 T0 ; cool down HBP,M127 ; stop blower fan,G162 X Y F3000 ; home XY maximum,M18 ; disable stepper,M0 ; stop codes,M72 P1 ; play Ta-Da song,; **** end of end.gcode ****
;   exportFileFormat,gcode
;   celebration,0
;   celebrationSong,Random Song
;   postProcessing,
;   defaultSpeed,4800
;   outlineUnderspeed,0.5
;   solidInfillUnderspeed,1
;   supportUnderspeed,1
;   rapidXYspeed,9000
;   rapidZspeed,1200
;   minBridgingArea,50
;   bridgingExtraInflation,0
;   bridgingExtrusionMultiplier,1
;   bridgingSpeedMultiplier,0.8
;   useFixedBridgingAngle,0
;   fixedBridgingAngle,0
;   applyBridgingToPerimeters,0
;   filamentDiameters,1.75|1.75|1.75|1.75|1.75|1.75
;   filamentPricesPerKg,46|46|46|46|46|46
;   filamentDensities,1.25|1.25|1.25|1.25|1.25|1.25
;   useMinPrintHeight,0
;   minPrintHeight,0
;   useMaxPrintHeight,0
;   maxPrintHeight,4.84
;   useDiaphragm,0
;   diaphragmLayerInterval,20
;   robustSlicing,1
;   mergeAllIntoSolid,0
;   onlyRetractWhenCrossingOutline,0
;   retractBetweenLayers,0
;   useRetractionMinTravel,1
;   retractionMinTravel,7
;   retractWhileWiping,1
;   onlyWipeOutlines,1
;   avoidCrossingOutline,0
;   maxMovementDetourFactor,3
;   toolChangeRetractionDistance,12
;   toolChangeExtraRestartDistance,-0.5
;   toolChangeRetractionSpeed,600
;   externalThinWallType,0
;   internalThinWallType,0
;   thinWallAllowedOverlapPercentage,10
;   singleExtrusionMinLength,1
;   singleExtrusionMinPrintingWidthPercentage,50
;   singleExtrusionMaxPrintingWidthPercentage,200
;   singleExtrusionEndpointExtension,0.2
;   horizontalSizeCompensation,0
G90
M83
; **** Replicator 2 start.gcode ****
M73 P0 ; enable build progress
G162 X Y F3000 ; home XY maximum
G161 Z F1200 ; home Z minimum
G92 Z-5 ; set Z to -5
G1 Z0 ; move Z to 0
G161 Z F100 ; home Z slowly
M132 X Y Z A B ; recall home offsets
G1 X-145 Y-75 Z30 F9000 ; move to wait position off table
G130 X20 Y20 Z20 A20 B20 ; lower stepper Vrefs while heating
M127
M140 S60 T0
M134 T0 ; stabilize bed temperature
M104 S230 T0
M133 T0 ; stabilize extruder temperature
G130 X127 Y127 Z40 A127 B127 ; default stepper Vrefs
G92 A0 ; zero extruder
G1 Z0.4 ; position nozzle
G1 E25 F300 ; purge nozzle
G1 X-140 Y-70 Z0.15 F1200 ; slow wipe
G1 X-135 Y-65 Z0.5 F1200 ; lift
G92 A0 ; zero extruder
M73 P1 ;@body (notify GPX body has started)
; **** end of start.gcode ****
; process Process1
; layer 1, Z = 0.200
M135 T0
G1 E-1.9000 F1200
; feature inner perimeter
; tool H0.200 W0.460
G1 Z0.500 F1200
G1 X14.397 Y7.456 F9000
G1 Z0.200 F1200
G1 E1.9000 F1200
G1 X9.150 Y3.464 E0.2522 F1800
G1 X9.150 Y-9.948 E0.5130
G1 X1.308 Y-9.948 E0.3000
G1 X1.590 Y-10.034 E0.0113
G1 X2.309 Y-10.418 E0.0312
G1 X2.938 Y-10.935 E0.0312
G1 X3.455 Y-11.564 E0.0312
G1 X3.839 Y-12.283 E0.0312
G1 X4.076 Y-13.062 E0.0312
G1 X4.156 Y-13.873 E0.0312
G1 X4.076 Y-14.684 E0.0312
G1 X3.839 Y-15.463 E0.0312
G1 X3.455 Y-16.182 E0.0312
G1 X2.938 Y-16.811 E0.0312
G1 X2.309 Y-17.328 E0.0312
G1 X1.590 Y-17.712 E0.0312
G1 X0.811 Y-17.949 E0.0312
G1 X0.000 Y-18.029 E0.0312
G1 X-0.811 Y-17.949 E0.0312
G1 X-1.590 Y-17.712 E0.0312
G1 X-2.309 Y-17.328 E0.0312
G1 X-2.938 Y-16.811 E0.0312
G1 X-3.455 Y-16.182 E0.0312
G1 X-3.839 Y-15.463 E0.0312
G1 X-4.076 Y-14.684 E0.0312
G1 X-4.156 Y-13.873 E0.0312
G1 X-4.076 Y-13.062 E0.0312
G1 X-3.839 Y-12.283 E0.0312
G1 X-3.455 Y-11.564 E0.0312
G1 X-2.938 Y-10.935 E0.0312
G1 X-2.309 Y-10.418 E0.0312
G1 X-1.590 Y-10.034 E0.0312
G1 X-1.308 Y-9.948 E0.0113
G1 X-9.150 Y-9.948 E0.3000
G1 X-9.150 Y3.464 E0.5130
G1 X-14.397 Y7.455 E0.2522
G1 X-14.530 Y6.924 E0.0209
G1 X-14.745 Y5.474 E0.0561
G1 X-14.850 Y3.993 E0.0568
G1 X-14.850 Y-18.850 E0.8737
G1 X14.850 Y-18.850 E1.1360
G1 X14.850 Y3.993 E0.8737
G1 X14.745 Y5.474 E0.0568
G1 X14.530 Y6.924 E0.0561
G1 X14.397 Y7.456 E0.0209
G1 X14.981 Y7.014 F9000
G1 X14.617 Y8.468 E0.0573 F1800
G1 X14.112 Y9.880 E0.0573
G1 X13.471 Y11.235 E0.0573
G1 X12.701 Y12.521 E0.0573
G1 X11.808 Y13.725 E0.0573
G1 X10.801 Y14.835 E0.0573
G1 X9.690 Y15.842 E0.0573
G1 X8.486 Y16.735 E0.0573
G1 X7.201 Y17.505 E0.0573
G1 X5.845 Y18.146 E0.0573
G1 X4.434 Y18.651 E0.0573
G1 X2.980 Y19.016 E0.0573
G1 X1.497 Y19.236 E0.0573
G1 X0.000 Y19.309 E0.0573
G1 X-1.497 Y19.236 E0.0573
G1 X-2.980 Y19.016 E0.0573
G1 X-4.434 Y18.651 E0.0573
G1 X-5.845 Y18.146 E0.0573
G1 X-7.201 Y17.506 E0.0573
G1 X-8.486 Y16.735 E0.0573
G1 X-9.690 Y15.842 E0.0573
G1 X-10.801 Y14.835 E0.0573
G1 X-11.808 Y13.724 E0.0573
G1 X-12.701 Y12.521 E0.0573
G1 X-13.471 Y11.235 E0.0573
G1 X-14.112 Y9.880 E0.0573
G1 X-14.617 Y8.468 E0.0573
G1 X-14.981 Y7.014 E0.0573
G1 X-15.203 Y5.524 E0.0576
G1 X-15.310 Y4.010 E0.0581
G1 X-15.310 Y-19.310 E0.8920
G1 X15.310 Y-19.310 E1.1712
G1 X15.310 Y4.010 E0.8920
G1 X15.203 Y5.524 E0.0581
G1 X14.981 Y7.014 E0.0576
; feature outer perimeter
G1 X15.433 Y7.104 F9000
G1 X15.058 Y8.602 E0.0591 F1200
G1 X14.538 Y10.056 E0.0591
G1 X13.877 Y11.452 E0.0591
G1 X13.084 Y12.776 E0.0591
G1 X12.164 Y14.017 E0.0591
G1 X11.127 Y15.161 E0.0591
G1 X9.983 Y16.198 E0.0591
G1 X8.742 Y17.118 E0.0591
G1 X7.418 Y17.912 E0.0591
G1 X6.022 Y18.572 E0.0591
G1 X4.568 Y19.092 E0.0591
G1 X3.070 Y19.467 E0.0591
G1 X1.542 Y19.694 E0.0591
G1 X0.000 Y19.770 E0.0591
G1 X-1.542 Y19.694 E0.0591
G1 X-3.070 Y19.467 E0.0591
G1 X-4.568 Y19.092 E0.0591
G1 X-6.022 Y18.572 E0.0591
G1 X-7.418 Y17.912 E0.0591
G1 X-8.742 Y17.118 E0.0591
G1 X-9.983 Y16.198 E0.0591
G1 X-11.127 Y15.161 E0.0591
G1 X-12.164 Y14.017 E0.0591
G1 X-13.084 Y12.776 E0.0591
G1 X-13.877 Y11.452 E0.0591
G1 X-14.538 Y10.056 E0.0591
G1 X-15.058 Y8.602 E0.0591
G1 X-15.433 Y7.104 E0.0591
G1 X-15.660 Y5.574 E0.0592
G1 X-15.770 Y4.026 E0.0594
G1 X-15.770 Y-19.770 E0.9102
G1 X15.770 Y-19.770 E1.2064
G1 X15.770 Y4.026 E0.9102
G1 X15.660 Y5.574 E0.0594
G1 X15.433 Y7.104 E0.0592
; feature inner perimeter
G1 X14.125 Y7.827 F9000
G1 X8.690 Y3.692 E0.2612 F1800
G1 X8.690 Y-9.488 E0.5041
G1 X-8.690 Y-9.488 E0.6648
G1 X-8.690 Y3.692 E0.5041
G1 X-14.125 Y7.827 E0.2612
G1 X-13.484 Y9.619 E0.0728
G1 X-12.872 Y10.914 E0.0548
G1 X-12.135 Y12.143 E0.0548
G1 X-11.282 Y13.293 E0.0548
G1 X-10.320 Y14.354 E0.0548
G1 X-9.259 Y15.316 E0.0548
G1 X-8.109 Y16.170 E0.0548
G1 X-6.880 Y16.906 E0.0548
G1 X-5.585 Y17.518 E0.0548
G1 X-4.237 Y18.001 E0.0548
G1 X-2.847 Y18.349 E0.0548
G1 X-1.431 Y18.559 E0.0548
G1 X0.000 Y18.629 E0.0548
G1 X1.431 Y18.559 E0.0548
G1 X2.847 Y18.349 E0.0548
G1 X4.237 Y18.001 E0.0548
G1 X5.585 Y17.518 E0.0548
G1 X6.880 Y16.906 E0.0548
G1 X8.109 Y16.170 E0.0548
G1 X9.259 Y15.316 E0.0548
G1 X10.320 Y14.354 E0.0548
G1 X11.282 Y13.293 E0.0548
G1 X12.135 Y12.143 E0.0548
G1 X12.872 Y10.914 E0.0548
G1 X13.484 Y9.619 E0.0548
G1 X14.125 Y7.827 E0.0728
; feature outer perimeter
G1 X13.579 Y7.989 F9000
G1 X8.230 Y3.920 E0.2571 F1200
G1 X8.230 Y-9.028 E0.4953
G1 X-8.230 Y-9.028 E0.6296
G1 X-8.230 Y3.920 E0.4953
G1 X-13.579 Y7.989 E0.2571
G1 X-13.059 Y9.443 E0.0591
G1 X-12.466 Y10.697 E0.0531
G1 X-11.752 Y11.887 E0.0531
G1 X-10.926 Y13.001 E0.0531
G1 X-9.995 Y14.029 E0.0531
G1 X-8.967 Y14.960 E0.0531
G1 X-7.853 Y15.787 E0.0531
G1 X-6.663 Y16.500 E0.0531
G1 X-5.409 Y17.093 E0.0531
G1 X-4.103 Y17.560 E0.0531
G1 X-2.758 Y17.897 E0.0531
G1 X-1.385 Y18.101 E0.0531
G1 X0.000 Y18.169 E0.0531
G1 X1.385 Y18.101 E0.0531
G1 X2.757 Y17.897 E0.0531
G1 X4.103 Y17.560 E0.0531
G1 X5.409 Y17.093 E0.0531
G1 X6.663 Y16.500 E0.0531
G1 X7.853 Y15.787 E0.0531
G1 X8.967 Y14.960 E0.0531
G1 X9.995 Y14.029 E0.0531
G1 X10.926 Y13.001 E0.0531
G1 X11.752 Y11.887 E0.0531
G1 X12.466 Y10.697 E0.0531
G1 X13.059 Y9.443 E0.0531
G1 X13.579 Y7.989 E0.0591
G1 E-1.9000 F1200
; feature inner perimeter
G1 Z0.700 F1200
G1 X2.052 Y-10.802 F9000
G1 Z0.200 F1200
G1 E1.9000 F1200
G1 X2.612 Y-11.261 E0.0277 F1800
G1 X3.071 Y-11.821 E0.0277
G1 X3.412 Y-12.460 E0.0277
G1 X3.622 Y-13.152 E0.0277
G1 X3.693 Y-13.873 E0.0277
G1 X3.622 Y-14.594 E0.0277
G1 X3.412 Y-15.286 E0.0277
G1 X3.071 Y-15.925 E0.0277
G1 X2.612 Y-16.485 E0.0277
G1 X2.052 Y-16.944 E0.0277
G1 X1.413 Y-17.285 E0.0277
G1 X0.721 Y-17.495 E0.0277
G1 X0.000 Y-17.566 E0.0277
G1 X-0.721 Y-17.495 E0.0277
G1 X-1.413 Y-17.285 E0.0277
G1 X-2.052 Y-16.944 E0.0277
G1 X-2.612 Y-16.485 E0.0277
G1 X-3.071 Y-15.925 E0.0277
G1 X-3.412 Y-15.286 E0.0277
G1 X-3.622 Y-14.594 E0.0277
G1 X-3.693 Y-13.873 E0.0277
G1 X-3.622 Y-13.152 E0.0277
G1 X-3.412 Y-12.460 E0.0277
G1 X-3.071 Y-11.821 E0.0277
G1 X-2.612 Y-11.261 E0.0277
G1 X-2.052 Y-10.802 E0.0277
G1 X-1.413 Y-10.461 E0.0277
G1 X-0.721 Y-10.251 E0.0277
G1 X0.000 Y-10.180 E0.0277
G1 X0.721 Y-10.251 E0.0277
G1 X1.413 Y-10.461 E0.0277
G1 X2.052 Y-10.802 E0.0277
; feature outer perimeter
G1 X1.795 Y-11.186 F9000
G1 X2.285 Y-11.588 E0.0242 F1200
G1 X2.687 Y-12.078 E0.0242
G1 X2.985 Y-12.636 E0.0242
G1 X3.169 Y-13.243 E0.0242
G1 X3.231 Y-13.873 E0.0242
G1 X3.169 Y-14.503 E0.0242
G1 X2.985 Y-15.109 E0.0242
G1 X2.687 Y-15.668 E0.0242
G1 X2.285 Y-16.158 E0.0242
G1 X1.795 Y-16.560 E0.0242
G1 X1.236 Y-16.858 E0.0242
G1 X0.630 Y-17.042 E0.0242
G1 X0.000 Y-17.104 E0.0242
G1 X-0.630 Y-17.042 E0.0242
G1 X-1.236 Y-16.858 E0.0242
G1 X-1.795 Y-16.560 E0.0242
G1 X-2.285 Y-16.158 E0.0242
G1 X-2.687 Y-15.668 E0.0242
G1 X-2.985 Y-15.109 E0.0242
G1 X-3.169 Y-14.503 E0.0242
G1 X-3.231 Y-13.873 E0.0242
G1 X-3.169 Y-13.243 E0.0242
G1 X-2.985 Y-12.636 E0.0242
G1 X-2.687 Y-12.078 E0.0242
G1 X-2.285 Y-11.588 E0.0242
G1 X-1.795 Y-11.186 E0.0242
G1 X-1.236 Y-10.888 E0.0242
G1 X-0.630 Y-10.704 E0.0242
G1 X0.000 Y-10.642 E0.0242
G1 X0.630 Y-10.704 E0.0242
G1 X1.236 Y-10.888 E0.0242
G1 X1.795 Y-11.186 E0.0242
; feature solid layer
G1 X2.718 Y-10.293 F9000
G1 X2.710 Y-10.301 E0.0004 F2400
G1 X3.067 Y-10.594 E0.0177
G1 X3.368 Y-10.293 E0.0163
G1 X4.019 Y-10.293 E0.0249
G1 X3.381 Y-10.930 E0.0345
G1 X3.675 Y-11.288 E0.0177
G1 X4.669 Y-10.293 E0.0538
G1 X5.320 Y-10.293 E0.0249
G1 X3.917 Y-11.696 E0.0759
G1 X4.143 Y-12.120 E0.0184
G1 X5.970 Y-10.293 E0.0988
G1 X6.621 Y-10.293 E0.0249
G1 X4.300 Y-12.614 E0.1255
G1 X4.416 Y-12.995 E0.0152
G1 X4.430 Y-13.135 E0.0054
G1 X7.272 Y-10.293 E0.1537
G1 X7.922 Y-10.293 E0.0249
G1 X4.488 Y-13.727 E0.1858
G1 X4.502 Y-13.873 E0.0056
G1 X4.449 Y-14.417 E0.0209
G1 X8.573 Y-10.293 E0.2231
G1 X9.223 Y-10.293 E0.0249
G1 X4.264 Y-15.252 E0.2683
G1 E-1.9000 F1200
G1 Z0.700 F1200
G1 X9.495 Y-10.021 F9000
G1 Z0.200 F1200
G1 E1.9000 F1200
G1 X14.505 Y-5.011 E0.2710 F2400
G1 X14.505 Y-4.361 E0.0249
G1 X9.495 Y-9.371 E0.2710
G1 X9.495 Y-8.720 E0.0249
G1 X14.505 Y-3.710 E0.2710
G1 X14.505 Y-3.060 E0.0249
G1 X9.495 Y-8.070 E0.2710
G1 X9.495 Y-7.419 E0.0249
G1 X14.505 Y-2.409 E0.2710
G1 X14.505 Y-1.758 E0.0249
G1 X9.495 Y-6.768 E0.2710
G1 X9.495 Y-6.118 E0.0249
G1 X14.505 Y-1.108 E0.2710
G1 X14.505 Y-0.457 E0.0249
G1 X9.495 Y-5.467 E0.2710
G1 X9.495 Y-4.817 E0.0249
G1 X14.505 Y0.193 E0.2710
G1 X14.505 Y0.844 E0.0249
G1 X9.495 Y-4.166 E0.2710
G1 X9.495 Y-3.516 E0.0249
G1 X14.505 Y1.494 E0.2710
G1 X14.505 Y2.145 E0.0249
G1 X9.495 Y-2.865 E0.2710
G1 X9.495 Y-2.215 E0.0249
G1 X14.505 Y2.795 E0.2710
G1 X14.505 Y3.446 E0.0249
G1 X9.495 Y-1.564 E0.2710
G1 X9.495 Y-0.914 E0.0249
G1 X14.497 Y4.089 E0.2706
G1 X14.454 Y4.696 E0.0233
G1 X9.495 Y-0.263 E0.2683
G1 X9.495 Y0.387 E0.0249
