; G-Code generated by Simplify3D(R) Version 4.1.2
; Apr 6, 2020 at 11:45:44 AM
; Settings Summary
;   processName,Process1
;   applyToModels,Modular Bracket,Modular Mount
;   profileName,MakerBot Replicator 2 HBP (modified)
;   profileVersion,2020-03-12 10:48:50
;   baseProfile,MakerBot Replicator 2(2)
;   printMaterial,PLA
;   printQuality,Medium
;   printExtruders,
;   extruderName,Primary Extruder
;   extruderToolheadNumber,0
;   extruderDiameter,0.4
;   extruderAutoWidth,0
;   extruderWidth,0.4
;   extrusionMultiplier,1
;   extruderUseRetract,1
;   extruderRetractionDistance,1.9
;   extruderExtraRestartDistance,0
;   extruderRetractionZLift,0.5
;   extruderRetractionSpeed,1200
;   extruderUseCoasting,0
;   extruderCoastingDistance,0.2
;   extruderUseWipe,0
;   extruderWipeDistance,5
;   primaryExtruder,0
;   layerHeight,0.2
;   topSolidLayers,3
;   bottomSolidLayers,3
;   perimeterOutlines,3
;   printPerimetersInsideOut,1
;   startPointOption,3
;   startPointOriginX,0
;   startPointOriginY,150
;   sequentialIslands,0
;   spiralVaseMode,0
;   firstLayerHeightPercentage,100
;   firstLayerWidthPercentage,115
;   firstLayerUnderspeed,0.5
;   useRaft,0
;   raftExtruder,0
;   raftTopLayers,2
;   raftBaseLayers,1
;   raftOffset,1
;   raftSeparationDistance,0.14
;   raftTopInfill,90
;   aboveRaftSpeedMultiplier,0.3
;   useSkirt,0
;   skirtExtruder,0
;   skirtLayers,1
;   skirtOutlines,5
;   skirtOffset,0
;   usePrimePillar,0
;   primePillarExtruder,999
;   primePillarWidth,12
;   primePillarLocation,7
;   primePillarSpeedMultiplier,1
;   useOozeShield,0
;   oozeShieldExtruder,999
;   oozeShieldOffset,2
;   oozeShieldOutlines,1
;   oozeShieldSidewallShape,1
;   oozeShieldSidewallAngle,30
;   oozeShieldSpeedMultiplier,1
;   infillExtruder,0
;   internalInfillPattern,Rectilinear
;   externalInfillPattern,Rectilinear
;   infillPercentage,15
;   outlineOverlapPercentage,25
;   infillExtrusionWidthPercentage,100
;   minInfillLength,5
;   infillLayerInterval,1
;   internalInfillAngles,45,-45
;   overlapInternalInfillAngles,0
;   externalInfillAngles,45,-45
;   generateSupport,1
;   supportExtruder,0
;   supportInfillPercentage,5
;   supportExtraInflation,0.5
;   supportBaseLayers,0
;   denseSupportExtruder,0
;   denseSupportLayers,2
;   denseSupportInfillPercentage,90
;   supportLayerInterval,1
;   supportHorizontalPartOffset,0.3
;   supportUpperSeparationLayers,1
;   supportLowerSeparationLayers,1
;   supportType,1
;   supportGridSpacing,2
;   maxOverhangAngle,45
;   supportAngles,45,-45
;   temperatureName,Primary Extruder,Heated Build Platform
;   temperatureNumber,0,0
;   temperatureSetpointCount,1,1
;   temperatureSetpointLayers,1,1
;   temperatureSetpointTemperatures,230,60
;   temperatureStabilizeAtStartup,1,1
;   temperatureHeatedBed,0,1
;   fanLayers,1,2
;   fanSpeeds,0,100
;   blipFanToFullPower,1
;   adjustSpeedForCooling,1
;   minSpeedLayerTime,15
;   minCoolingSpeedSlowdown,20
;   increaseFanForCooling,1
;   minFanLayerTime,45
;   maxCoolingFanSpeed,100
;   increaseFanForBridging,1
;   bridgingFanSpeed,100
;   use5D,1
;   relativeEdistances,1
;   allowEaxisZeroing,0
;   independentExtruderAxes,1
;   includeM10123,0
;   stickySupport,1
;   applyToolheadOffsets,0
;   gcodeXoffset,0
;   gcodeYoffset,0
;   gcodeZoffset,0
;   overrideMachineDefinition,1
;   machineTypeOverride,0
;   strokeXoverride,280
;   strokeYoverride,150
;   strokeZoverride,150
;   originOffsetXoverride,140
;   originOffsetYoverride,75
;   originOffsetZoverride,0
;   homeXdirOverride,1
;   homeYdirOverride,1
;   homeZdirOverride,-1
;   flipXoverride,1
;   flipYoverride,-1
;   flipZoverride,1
;   toolheadOffsets,0,0|0,0|0,0|0,0|0,0|0,0
;   overrideFirmwareConfiguration,1
;   firmwareTypeOverride,MakerBot/Sailfish Firmware
;   GPXconfigOverride,r2h
;   baudRateOverride,115200
;   overridePrinterModels,1
;   printerModelsOverride,MakerBot_Replicator2.stl
;   startingGcode,; **** Replicator 2 start.gcode ****,M73 P0 ; enable build progress,G162 X Y F3000 ; home XY maximum,G161 Z F1200 ; home Z minimum,G92 Z-5 ; set Z to -5,G1 Z0 ; move Z to 0,G161 Z F100 ; home Z slowly,M132 X Y Z A B ; recall home offsets,G1 X-145 Y-75 Z30 F9000 ; move to wait position off table,G130 X20 Y20 Z20 A20 B20 ; lower stepper Vrefs while heating,M126 S[fan_speed_pwm],M140 S[bed0_temperature] T0,M134 T0 ; stabilize bed temperature,M104 S[extruder0_temperature] T0,M133 T0 ; stabilize extruder temperature,G130 X127 Y127 Z40 A127 B127 ; default stepper Vrefs,G92 A0 ; zero extruder,G1 Z0.4 ; position nozzle,G1 E25 F300 ; purge nozzle,G1 X-140 Y-70 Z0.15 F1200 ; slow wipe,G1 X-135 Y-65 Z0.5 F1200 ; lift,G92 A0 ; zero extruder,M73 P1 ;@body (notify GPX body has started),; **** end of start.gcode ****
;   layerChangeGcode,
;   retractionGcode,
;   toolChangeGcode,
;   endingGcode,; **** Replicator 2 end.gcode ****,M73 P100 ; end build progress,G1 Z155 F1000 ; send Z axis to bottom of machine,M104 S0 T0 ; cool down extruder,M140 S0 T0 ; cool down HBP,M127 ; stop blower fan,G162 X Y F3000 ; home XY maximum,M18 ; disable stepper,M0 ; stop codes,M72 P1 ; play Ta-Da song,; **** end of end.gcode ****
;   exportFileFormat,gcode
;   celebration,0
;   celebrationSong,Random Song
;   postProcessing,
;   defaultSpeed,4800
;   outlineUnderspeed,0.5
;   solidInfillUnderspeed,1
;   supportUnderspeed,1
;   rapidXYspeed,9000
;   rapidZspeed,1200
;   minBridgingArea,50
;   bridgingExtraInflation,0
;   bridgingExtrusionMultiplier,1
;   bridgingSpeedMultiplier,0.8
;   useFixedBridgingAngle,0
;   fixedBridgingAngle,0
;   applyBridgingToPerimeters,0
;   filamentDiameters,1.75|1.75|1.75|1.75|1.75|1.75
;   filamentPricesPerKg,46|46|46|46|46|46
;   filamentDensities,1.25|1.25|1.25|1.25|1.25|1.25
;   useMinPrintHeight,0
;   minPrintHeight,0
;   useMaxPrintHeight,0
;   maxPrintHeight,4.84
;   useDiaphragm,0
;   diaphragmLayerInterval,20
;   robustSlicing,1
;   mergeAllIntoSolid,0
;   onlyRetractWhenCrossingOutline,0
;   retractBetweenLayers,0
;   useRetractionMinTravel,1
;   retractionMinTravel,7
;   retractWhileWiping,1
;   onlyWipeOutlines,1
;   avoidCrossingOutline,0
;   maxMovementDetourFactor,3
;   toolChangeRetractionDistance,12
;   toolChangeExtraRestartDistance,-0.5
;   toolChangeRetractionSpeed,600
;   externalThinWallType,0
;   internalThinWallType,0
;   thinWallAllowedOverlapPercentage,10
;   singleExtrusionMinLength,1
;   singleExtrusionMinPrintingWidthPercentage,50
;   singleExtrusionMaxPrintingWidthPercentage,200
;   singleExtrusionEndpointExtension,0.2
;   horizontalSizeCompensation,0
G90
M83
; **** Replicator 2 start.gcode ****
M73 P0 ; enable build progress
G162 X Y F3000 ; home XY maximum
G161 Z F1200 ; home Z minimum
G92 Z-5 ; set Z to -5
G1 Z0 ; move Z to 0
G161 Z F100 ; home Z slowly
M132 X Y Z A B ; recall home offsets
G1 X-145 Y-75 Z30 F9000 ; move to wait position off table
G130 X20 Y20 Z20 A20 B20 ; lower stepper Vrefs while heating
M126 S146
M140 S60 T0
M134 T0 ; stabilize bed temperature
M104 S230 T0
M133 T0 ; stabilize extruder temperature
G130 X127 Y127 Z40 A127 B127 ; default stepper Vrefs
G92 A0 ; zero extruder
G1 Z0.4 ; position nozzle
G1 E25 F300 ; purge nozzle
G1 X-140 Y-70 Z0.15 F1200 ; slow wipe
G1 X-135 Y-65 Z0.5 F1200 ; lift
G92 A0 ; zero extruder
M73 P1 ;@body (notify GPX body has started)
; **** end of start.gcode ****
; process Process1
; layer 1, Z = 0.200
M135 T0
G1 E-1.9000 F1200
; feature inner perimeter
; tool H0.200 W0.460
G1 Z0.500 F1200
G1 X-3.380 Y12.710 F9000
G1 Z0.200 F1200
G1 E1.9000 F1200
G1 X-11.087 Y12.710 E0.2948 F1800
G1 X-11.087 Y3.972 E0.3342
G1 X-8.996 Y-6.032 E0.3909
G1 X-9.670 Y-6.503 E0.0315
G1 X-9.888 Y-6.720 E0.0117
G1 X-10.111 Y-6.992 E0.0134
G1 X-10.314 Y-7.296 E0.0140
G1 X-10.387 Y-7.425 E0.0057
G1 X-10.543 Y-7.755 E0.0140
G1 X-10.666 Y-8.100 E0.0140
G1 X-10.705 Y-8.242 E0.0056
G1 X-10.780 Y-8.614 E0.0145
G1 X-10.799 Y-8.775 E0.0062
G1 X-10.811 Y-8.936 E0.0062
G1 X-10.811 Y-9.302 E0.0140
G1 X-10.775 Y-9.666 E0.0140
G1 X-10.750 Y-9.811 E0.0056
G1 X-10.661 Y-10.166 E0.0140
G1 X-10.538 Y-10.510 E0.0140
G1 X-10.478 Y-10.645 E0.0057
G1 X-10.306 Y-10.968 E0.0140
G1 X-10.111 Y-11.260 E0.0134
G1 X-9.887 Y-11.532 E0.0135
G1 X-9.629 Y-11.790 E0.0140
G1 X-9.506 Y-11.896 E0.0062
G1 X-9.379 Y-11.995 E0.0062
G1 X-9.063 Y-12.206 E0.0145
G1 X-8.935 Y-12.279 E0.0056
G1 X-8.604 Y-12.435 E0.0140
G1 X-8.273 Y-12.554 E0.0134
G1 X-7.918 Y-12.643 E0.0140
G1 X-7.773 Y-12.668 E0.0056
G1 X-7.409 Y-12.704 E0.0140
G1 X-7.058 Y-12.704 E0.0134
G1 X-6.708 Y-12.669 E0.0135
G1 X-6.349 Y-12.598 E0.0140
G1 X-6.207 Y-12.559 E0.0056
G1 X-5.863 Y-12.435 E0.0140
G1 X-5.532 Y-12.279 E0.0140
G1 X-5.404 Y-12.206 E0.0056
G1 X-5.100 Y-12.003 E0.0140
G1 X-4.828 Y-11.780 E0.0134
G1 X-4.569 Y-11.522 E0.0140
G1 X-4.473 Y-11.410 E0.0057
G1 X-4.255 Y-11.116 E0.0140
G1 X-4.074 Y-10.815 E0.0134
G1 X-3.918 Y-10.484 E0.0140
G1 X-3.865 Y-10.346 E0.0056
G1 X-3.759 Y-9.996 E0.0140
G1 X-3.690 Y-9.652 E0.0134
G1 X-3.654 Y-9.288 E0.0140
G1 X-3.651 Y-9.151 E0.0052
G1 X-3.669 Y-8.774 E0.0145
G1 X-3.720 Y-8.427 E0.0134
G1 X-3.809 Y-8.072 E0.0140
G1 X-3.855 Y-7.932 E0.0056
G1 X-4.001 Y-7.582 E0.0145
G1 X-4.067 Y-7.449 E0.0057
G1 X-4.255 Y-7.136 E0.0140
G1 X-4.464 Y-6.854 E0.0134
G1 X-4.710 Y-6.583 E0.0140
G1 X-4.785 Y-6.511 E0.0040
G1 X-5.471 Y-6.032 E0.0320
G1 X-3.380 Y3.972 E0.3909
G1 X-3.380 Y12.710 E0.3342
G1 X-2.920 Y13.169 F9000
G1 X-11.547 Y13.169 E0.3300 F1800
G1 X-11.547 Y3.925 E0.3536
G1 X-9.508 Y-5.829 E0.3811
G1 X-9.967 Y-6.150 E0.0214
G1 X-10.229 Y-6.411 E0.0142
G1 X-10.480 Y-6.718 E0.0152
G1 X-10.706 Y-7.055 E0.0155
G1 X-10.795 Y-7.213 E0.0069
G1 X-10.968 Y-7.579 E0.0155
G1 X-11.105 Y-7.961 E0.0155
G1 X-11.153 Y-8.135 E0.0069
G1 X-11.234 Y-8.541 E0.0158
G1 X-11.257 Y-8.730 E0.0073
G1 X-11.271 Y-8.919 E0.0073
G1 X-11.271 Y-9.324 E0.0155
G1 X-11.231 Y-9.728 E0.0155
G1 X-11.200 Y-9.906 E0.0069
G1 X-11.102 Y-10.300 E0.0155
G1 X-10.965 Y-10.681 E0.0155
G1 X-10.892 Y-10.847 E0.0070
G1 X-10.701 Y-11.204 E0.0155
G1 X-10.480 Y-11.534 E0.0152
G1 X-10.229 Y-11.841 E0.0152
G1 X-9.942 Y-12.127 E0.0155
G1 X-9.798 Y-12.252 E0.0073
G1 X-9.649 Y-12.368 E0.0073
G1 X-9.305 Y-12.598 E0.0158
G1 X-9.147 Y-12.688 E0.0069
G1 X-8.781 Y-12.861 E0.0155
G1 X-8.407 Y-12.995 E0.0152
G1 X-8.014 Y-13.093 E0.0155
G1 X-7.835 Y-13.124 E0.0069
G1 X-7.432 Y-13.164 E0.0155
G1 X-7.035 Y-13.164 E0.0152
G1 X-6.640 Y-13.125 E0.0152
G1 X-6.243 Y-13.046 E0.0155
G1 X-6.068 Y-12.997 E0.0069
G1 X-5.686 Y-12.861 E0.0155
G1 X-5.320 Y-12.688 E0.0155
G1 X-5.162 Y-12.598 E0.0069
G1 X-4.825 Y-12.373 E0.0155
G1 X-4.519 Y-12.121 E0.0152
G1 X-4.232 Y-11.835 E0.0155
G1 X-4.113 Y-11.697 E0.0069
G1 X-3.872 Y-11.372 E0.0155
G1 X-3.668 Y-11.032 E0.0152
G1 X-3.495 Y-10.665 E0.0155
G1 X-3.430 Y-10.496 E0.0069
G1 X-3.312 Y-10.108 E0.0155
G1 X-3.235 Y-9.719 E0.0152
G1 X-3.195 Y-9.316 E0.0155
G1 X-3.191 Y-9.146 E0.0065
G1 X-3.210 Y-8.729 E0.0160
G1 X-3.268 Y-8.337 E0.0151
G1 X-3.367 Y-7.944 E0.0155
G1 X-3.424 Y-7.772 E0.0069
G1 X-3.582 Y-7.390 E0.0158
G1 X-3.664 Y-7.228 E0.0070
G1 X-3.872 Y-6.880 E0.0155
G1 X-4.108 Y-6.561 E0.0152
G1 X-4.381 Y-6.261 E0.0155
G1 X-4.493 Y-6.154 E0.0059
G1 X-4.958 Y-5.829 E0.0217
G1 X-2.920 Y3.925 E0.3811
G1 X-2.920 Y13.169 E0.3536
; feature outer perimeter
G1 X-2.460 Y13.630 F9000
G1 X-12.007 Y13.630 E0.3652 F1200
G1 X-12.007 Y3.877 E0.3730
G1 X-10.021 Y-5.626 E0.3713
G1 X-10.264 Y-5.796 E0.0113
G1 X-10.570 Y-6.102 E0.0166
G1 X-10.850 Y-6.443 E0.0169
G1 X-11.098 Y-6.813 E0.0170
G1 X-11.204 Y-7.001 E0.0082
G1 X-11.394 Y-7.403 E0.0170
G1 X-11.544 Y-7.822 E0.0170
G1 X-11.601 Y-8.029 E0.0082
G1 X-11.688 Y-8.468 E0.0171
G1 X-11.715 Y-8.685 E0.0083
G1 X-11.731 Y-8.902 E0.0084
G1 X-11.731 Y-9.347 E0.0170
G1 X-11.688 Y-9.790 E0.0170
G1 X-11.651 Y-10.002 E0.0082
G1 X-11.543 Y-10.433 E0.0170
G1 X-11.393 Y-10.852 E0.0170
G1 X-11.306 Y-11.049 E0.0082
G1 X-11.096 Y-11.441 E0.0170
G1 X-10.850 Y-11.809 E0.0169
G1 X-10.570 Y-12.150 E0.0169
G1 X-10.256 Y-12.465 E0.0170
G1 X-10.090 Y-12.607 E0.0083
G1 X-9.918 Y-12.741 E0.0083
G1 X-9.546 Y-12.990 E0.0171
G1 X-9.359 Y-13.096 E0.0082
G1 X-8.957 Y-13.286 E0.0170
G1 X-8.541 Y-13.435 E0.0169
G1 X-8.109 Y-13.543 E0.0170
G1 X-7.897 Y-13.580 E0.0082
G1 X-7.454 Y-13.624 E0.0170
G1 X-7.012 Y-13.624 E0.0169
G1 X-6.573 Y-13.580 E0.0169
G1 X-6.136 Y-13.494 E0.0170
G1 X-5.929 Y-13.436 E0.0082
G1 X-5.510 Y-13.286 E0.0170
G1 X-5.108 Y-13.096 E0.0170
G1 X-4.921 Y-12.990 E0.0082
G1 X-4.551 Y-12.743 E0.0170
G1 X-4.209 Y-12.463 E0.0169
G1 X-3.895 Y-12.148 E0.0170
G1 X-3.754 Y-11.985 E0.0082
G1 X-3.489 Y-11.628 E0.0170
G1 X-3.262 Y-11.249 E0.0169
G1 X-3.072 Y-10.847 E0.0170
G1 X-2.994 Y-10.646 E0.0082
G1 X-2.865 Y-10.220 E0.0170
G1 X-2.779 Y-9.787 E0.0169
G1 X-2.735 Y-9.344 E0.0170
G1 X-2.730 Y-9.141 E0.0078
G1 X-2.752 Y-8.684 E0.0175
G1 X-2.817 Y-8.248 E0.0169
G1 X-2.925 Y-7.816 E0.0170
G1 X-2.992 Y-7.612 E0.0082
G1 X-3.164 Y-7.198 E0.0171
G1 X-3.261 Y-7.006 E0.0082
G1 X-3.489 Y-6.624 E0.0170
G1 X-3.752 Y-6.269 E0.0169
G1 X-4.051 Y-5.940 E0.0170
G1 X-4.201 Y-5.797 E0.0079
G1 X-4.446 Y-5.626 E0.0115
G1 X-2.460 Y3.877 E0.3713
G1 X-2.460 Y13.630 E0.3730
; feature inner perimeter
G1 X-4.649 Y11.441 F9000
G1 X-4.194 Y10.887 E0.0274 F1800
G1 X-3.856 Y10.255 E0.0274
G1 X-3.648 Y9.570 E0.0274
G1 X-3.578 Y8.856 E0.0274
G1 X-3.648 Y8.143 E0.0274
G1 X-3.856 Y7.458 E0.0274
G1 X-4.194 Y6.826 E0.0274
G1 X-4.649 Y6.272 E0.0274
G1 X-5.203 Y5.817 E0.0274
G1 X-5.835 Y5.479 E0.0274
G1 X-6.520 Y5.271 E0.0274
G1 X-7.233 Y5.201 E0.0274
G1 X-7.947 Y5.271 E0.0274
G1 X-8.632 Y5.479 E0.0274
G1 X-9.264 Y5.817 E0.0274
G1 X-9.818 Y6.272 E0.0274
G1 X-10.273 Y6.826 E0.0274
G1 X-10.611 Y7.458 E0.0274
G1 X-10.819 Y8.143 E0.0274
G1 X-10.889 Y8.856 E0.0274
G1 X-10.819 Y9.570 E0.0274
G1 X-10.611 Y10.255 E0.0274
G1 X-10.273 Y10.887 E0.0274
G1 X-9.818 Y11.441 E0.0274
G1 X-9.264 Y11.896 E0.0274
G1 X-8.632 Y12.234 E0.0274
G1 X-7.947 Y12.442 E0.0274
G1 X-7.233 Y12.512 E0.0274
G1 X-6.520 Y12.442 E0.0274
G1 X-5.835 Y12.234 E0.0274
G1 X-5.203 Y11.896 E0.0274
G1 X-4.649 Y11.441 E0.0274
G1 X-4.975 Y11.114 F9000
G1 X-4.578 Y10.631 E0.0239 F1800
G1 X-4.283 Y10.079 E0.0239
G1 X-4.101 Y9.479 E0.0239
G1 X-4.040 Y8.856 E0.0239
G1 X-4.101 Y8.233 E0.0239
G1 X-4.283 Y7.634 E0.0239
G1 X-4.578 Y7.082 E0.0239
G1 X-4.975 Y6.598 E0.0239
G1 X-5.459 Y6.201 E0.0239
G1 X-6.011 Y5.906 E0.0239
G1 X-6.610 Y5.724 E0.0239
G1 X-7.233 Y5.663 E0.0239
G1 X-7.856 Y5.724 E0.0239
G1 X-8.455 Y5.906 E0.0239
G1 X-9.008 Y6.201 E0.0239
G1 X-9.491 Y6.598 E0.0239
G1 X-9.889 Y7.082 E0.0239
G1 X-10.184 Y7.634 E0.0239
G1 X-10.365 Y8.233 E0.0239
G1 X-10.427 Y8.856 E0.0239
G1 X-10.365 Y9.479 E0.0239
G1 X-10.184 Y10.078 E0.0239
G1 X-9.889 Y10.631 E0.0239
G1 X-9.491 Y11.114 E0.0239
G1 X-9.008 Y11.512 E0.0239
G1 X-8.455 Y11.807 E0.0239
G1 X-7.856 Y11.988 E0.0239
G1 X-7.233 Y12.050 E0.0239
G1 X-6.610 Y11.988 E0.0239
G1 X-6.011 Y11.807 E0.0239
G1 X-5.459 Y11.512 E0.0239
G1 X-4.975 Y11.114 E0.0239
; feature outer perimeter
G1 X-5.302 Y10.788 F9000
G1 X-4.963 Y10.374 E0.0205 F1200
G1 X-4.710 Y9.902 E0.0205
G1 X-4.555 Y9.389 E0.0205
G1 X-4.502 Y8.856 E0.0205
G1 X-4.555 Y8.324 E0.0205
G1 X-4.710 Y7.811 E0.0205
G1 X-4.963 Y7.339 E0.0205
G1 X-5.302 Y6.925 E0.0205
G1 X-5.716 Y6.586 E0.0205
G1 X-6.188 Y6.333 E0.0205
G1 X-6.701 Y6.178 E0.0205
G1 X-7.233 Y6.125 E0.0205
G1 X-7.766 Y6.178 E0.0205
G1 X-8.279 Y6.333 E0.0205
G1 X-8.751 Y6.586 E0.0205
G1 X-9.165 Y6.925 E0.0205
G1 X-9.504 Y7.339 E0.0205
G1 X-9.757 Y7.811 E0.0205
G1 X-9.912 Y8.324 E0.0205
G1 X-9.965 Y8.856 E0.0205
G1 X-9.912 Y9.389 E0.0205
G1 X-9.757 Y9.902 E0.0205
G1 X-9.504 Y10.374 E0.0205
G1 X-9.165 Y10.788 E0.0205
G1 X-8.751 Y11.127 E0.0205
G1 X-8.279 Y11.380 E0.0205
G1 X-7.766 Y11.535 E0.0205
G1 X-7.233 Y11.588 E0.0205
G1 X-6.701 Y11.535 E0.0205
G1 X-6.188 Y11.380 E0.0205
G1 X-5.716 Y11.127 E0.0205
G1 X-5.302 Y10.788 E0.0205
; feature solid layer
G1 X-3.898 Y11.065 F9000
G1 X-3.725 Y11.238 E0.0093 F2400
G1 X-3.725 Y11.888 E0.0249
G1 X-4.188 Y11.424 E0.0251
G1 X-4.403 Y11.686 E0.0130
G1 X-4.499 Y11.765 E0.0047
G1 X-3.899 Y12.364 E0.0324
G1 X-4.549 Y12.364 E0.0249
G1 X-4.856 Y12.058 E0.0166
G1 X-5.010 Y12.184 E0.0076
