; G-Code generated by Simplify3D(R) Version 4.1.2
; Apr 6, 2020 at 11:47:04 AM
; Settings Summary
;   processName,Process1
;   applyToModels,Xwing bracket
;   profileName,MakerBot Replicator 2 HBP (modified)
;   profileVersion,2020-03-12 10:48:50
;   baseProfile,MakerBot Replicator 2(2)
;   printMaterial,PLA
;   printQuality,Medium
;   printExtruders,
;   extruderName,Primary Extruder
;   extruderToolheadNumber,0
;   extruderDiameter,0.4
;   extruderAutoWidth,0
;   extruderWidth,0.4
;   extrusionMultiplier,1
;   extruderUseRetract,1
;   extruderRetractionDistance,1.9
;   extruderExtraRestartDistance,0
;   extruderRetractionZLift,0.5
;   extruderRetractionSpeed,1200
;   extruderUseCoasting,0
;   extruderCoastingDistance,0.2
;   extruderUseWipe,0
;   extruderWipeDistance,5
;   primaryExtruder,0
;   layerHeight,0.2
;   topSolidLayers,3
;   bottomSolidLayers,3
;   perimeterOutlines,3
;   printPerimetersInsideOut,1
;   startPointOption,3
;   startPointOriginX,0
;   startPointOriginY,150
;   sequentialIslands,0
;   spiralVaseMode,0
;   firstLayerHeightPercentage,100
;   firstLayerWidthPercentage,115
;   firstLayerUnderspeed,0.5
;   useRaft,0
;   raftExtruder,0
;   raftTopLayers,2
;   raftBaseLayers,1
;   raftOffset,1
;   raftSeparationDistance,0.14
;   raftTopInfill,90
;   aboveRaftSpeedMultiplier,0.3
;   useSkirt,0
;   skirtExtruder,0
;   skirtLayers,1
;   skirtOutlines,5
;   skirtOffset,0
;   usePrimePillar,0
;   primePillarExtruder,999
;   primePillarWidth,12
;   primePillarLocation,7
;   primePillarSpeedMultiplier,1
;   useOozeShield,0
;   oozeShieldExtruder,999
;   oozeShieldOffset,2
;   oozeShieldOutlines,1
;   oozeShieldSidewallShape,1
;   oozeShieldSidewallAngle,30
;   oozeShieldSpeedMultiplier,1
;   infillExtruder,0
;   internalInfillPattern,Rectilinear
;   externalInfillPattern,Rectilinear
;   infillPercentage,15
;   outlineOverlapPercentage,25
;   infillExtrusionWidthPercentage,100
;   minInfillLength,5
;   infillLayerInterval,1
;   internalInfillAngles,45,-45
;   overlapInternalInfillAngles,0
;   externalInfillAngles,45,-45
;   generateSupport,1
;   supportExtruder,0
;   supportInfillPercentage,5
;   supportExtraInflation,0.5
;   supportBaseLayers,0
;   denseSupportExtruder,0
;   denseSupportLayers,2
;   denseSupportInfillPercentage,90
;   supportLayerInterval,1
;   supportHorizontalPartOffset,0.3
;   supportUpperSeparationLayers,1
;   supportLowerSeparationLayers,1
;   supportType,1
;   supportGridSpacing,2
;   maxOverhangAngle,45
;   supportAngles,45,-45
;   temperatureName,Primary Extruder,Heated Build Platform
;   temperatureNumber,0,0
;   temperatureSetpointCount,1,1
;   temperatureSetpointLayers,1,1
;   temperatureSetpointTemperatures,230,60
;   temperatureStabilizeAtStartup,1,1
;   temperatureHeatedBed,0,1
;   fanLayers,1,2
;   fanSpeeds,0,100
;   blipFanToFullPower,1
;   adjustSpeedForCooling,1
;   minSpeedLayerTime,15
;   minCoolingSpeedSlowdown,20
;   increaseFanForCooling,1
;   minFanLayerTime,45
;   maxCoolingFanSpeed,100
;   increaseFanForBridging,1
;   bridgingFanSpeed,100
;   use5D,1
;   relativeEdistances,1
;   allowEaxisZeroing,0
;   independentExtruderAxes,1
;   includeM10123,0
;   stickySupport,1
;   applyToolheadOffsets,0
;   gcodeXoffset,0
;   gcodeYoffset,0
;   gcodeZoffset,0
;   overrideMachineDefinition,1
;   machineTypeOverride,0
;   strokeXoverride,280
;   strokeYoverride,150
;   strokeZoverride,150
;   originOffsetXoverride,140
;   originOffsetYoverride,75
;   originOffsetZoverride,0
;   homeXdirOverride,1
;   homeYdirOverride,1
;   homeZdirOverride,-1
;   flipXoverride,1
;   flipYoverride,-1
;   flipZoverride,1
;   toolheadOffsets,0,0|0,0|0,0|0,0|0,0|0,0
;   overrideFirmwareConfiguration,1
;   firmwareTypeOverride,MakerBot/Sailfish Firmware
;   GPXconfigOverride,r2h
;   baudRateOverride,115200
;   overridePrinterModels,1
;   printerModelsOverride,MakerBot_Replicator2.stl
;   startingGcode,; **** Replicator 2 start.gcode ****,M73 P0 ; enable build progress,G162 X Y F3000 ; home XY maximum,G161 Z F1200 ; home Z minimum,G92 Z-5 ; set Z to -5,G1 Z0 ; move Z to 0,G161 Z F100 ; home Z slowly,M132 X Y Z A B ; recall home offsets,G1 X-145 Y-75 Z30 F9000 ; move to wait position off table,G130 X20 Y20 Z20 A20 B20 ; lower stepper Vrefs while heating,M126 S[fan_speed_pwm],M140 S[bed0_temperature] T0,M134 T0 ; stabilize bed temperature,M104 S[extruder0_temperature] T0,M133 T0 ; stabilize extruder temperature,G130 X127 Y127 Z40 A127 B127 ; default stepper Vrefs,G92 A0 ; zero extruder,G1 Z0.4 ; position nozzle,G1 E25 F300 ; purge nozzle,G1 X-140 Y-70 Z0.15 F1200 ; slow wipe,G1 X-135 Y-65 Z0.5 F1200 ; lift,G92 A0 ; zero extruder,M73 P1 ;@body (notify GPX body has started),; **** end of start.gcode ****
;   layerChangeGcode,
;   retractionGcode,
;   toolChangeGcode,
;   endingGcode,; **** Replicator 2 end.gcode ****,M73 P100 ; end build progress,G1 Z155 F1000 ; send Z axis to bottom of machine,M104 S0 T0 ; cool down extruder,M140 S0 T0 ; cool down HBP,M127 ; stop blower fan,G162 X Y F3000 ; home XY maximum,M18 ; disable stepper,M0 ; stop codes,M72 P1 ; play Ta-Da song,; **** end of end.gcode ****
;   exportFileFormat,gcode
;   celebration,0
;   celebrationSong,Random Song
;   postProcessing,
;   defaultSpeed,4800
;   outlineUnderspeed,0.5
;   solidInfillUnderspeed,1
;   supportUnderspeed,1
;   rapidXYspeed,9000
;   rapidZspeed,1200
;   minBridgingArea,50
;   bridgingExtraInflation,0
;   bridgingExtrusionMultiplier,1
;   bridgingSpeedMultiplier,0.8
;   useFixedBridgingAngle,0
;   fixedBridgingAngle,0
;   applyBridgingToPerimeters,0
;   filamentDiameters,1.75|1.75|1.75|1.75|1.75|1.75
;   filamentPricesPerKg,46|46|46|46|46|46
;   filamentDensities,1.25|1.25|1.25|1.25|1.25|1.25
;   useMinPrintHeight,0
;   minPrintHeight,0
;   useMaxPrintHeight,0
;   maxPrintHeight,4.84
;   useDiaphragm,0
;   diaphragmLayerInterval,20
;   robustSlicing,1
;   mergeAllIntoSolid,0
;   onlyRetractWhenCrossingOutline,0
;   retractBetweenLayers,0
;   useRetractionMinTravel,1
;   retractionMinTravel,7
;   retractWhileWiping,1
;   onlyWipeOutlines,1
;   avoidCrossingOutline,0
;   maxMovementDetourFactor,3
;   toolChangeRetractionDistance,12
;   toolChangeExtraRestartDistance,-0.5
;   toolChangeRetractionSpeed,600
;   externalThinWallType,0
;   internalThinWallType,0
;   thinWallAllowedOverlapPercentage,10
;   singleExtrusionMinLength,1
;   singleExtrusionMinPrintingWidthPercentage,50
;   singleExtrusionMaxPrintingWidthPercentage,200
;   singleExtrusionEndpointExtension,0.2
;   horizontalSizeCompensation,0
G90
M83
; **** Replicator 2 start.gcode ****
M73 P0 ; enable build progress
G162 X Y F3000 ; home XY maximum
G161 Z F1200 ; home Z minimum
G92 Z-5 ; set Z to -5
G1 Z0 ; move Z to 0
G161 Z F100 ; home Z slowly
M132 X Y Z A B ; recall home offsets
G1 X-145 Y-75 Z30 F9000 ; move to wait position off table
G130 X20 Y20 Z20 A20 B20 ; lower stepper Vrefs while heating
M126 S158
M140 S60 T0
M134 T0 ; stabilize bed temperature
M104 S230 T0
M133 T0 ; stabilize extruder temperature
G130 X127 Y127 Z40 A127 B127 ; default stepper Vrefs
G92 A0 ; zero extruder
G1 Z0.4 ; position nozzle
G1 E25 F300 ; purge nozzle
G1 X-140 Y-70 Z0.15 F1200 ; slow wipe
G1 X-135 Y-65 Z0.5 F1200 ; lift
G92 A0 ; zero extruder
M73 P1 ;@body (notify GPX body has started)
; **** end of start.gcode ****
; process Process1
; layer 1, Z = 0.200
M135 T0
G1 E-1.9000 F1200
; feature inner perimeter
; tool H0.200 W0.460
G1 Z0.500 F1200
G1 X-1.742 Y2.253 F9000
G1 Z0.200 F1200
G1 E1.9000 F1200
G1 X-2.364 Y2.253 E0.0238 F1800
G1 X-2.364 Y-7.339 E0.3669
G1 X-1.742 Y-7.339 E0.0238
G1 X-1.742 Y2.253 E0.3669
; feature outer perimeter
G1 X-1.282 Y2.713 F9000
G1 X-2.824 Y2.713 E0.0590 F1200
G1 X-2.824 Y-7.799 E0.4021
G1 X-1.282 Y-7.799 E0.0590
G1 X-1.282 Y2.713 E0.4021
G1 E-1.9000 F1200
; feature inner perimeter
G1 Z0.700 F1200
G1 X-1.742 Y23.481 F9000
G1 Z0.200 F1200
G1 E1.9000 F1200
G1 X-2.364 Y23.480 E0.0238 F1800
G1 X-2.364 Y5.833 E0.6750
G1 X-1.742 Y5.833 E0.0238
G1 X-1.742 Y23.481 E0.6750
; feature outer perimeter
G1 X-1.282 Y23.942 F9000
G1 X-2.824 Y23.940 E0.0590 F1200
G1 X-2.824 Y5.373 E0.7102
G1 X-1.282 Y5.373 E0.0590
G1 X-1.282 Y23.942 E0.7102
; feature support
G1 X-0.147 Y22.480 F9000
G1 X-0.512 Y22.116 E0.0197 F2400
G1 X-0.512 Y10.802 E0.4327
G1 X11.166 Y22.480 E0.6317
G1 X22.480 Y22.480 E0.4327
G1 X9.520 Y9.520 E0.7010
G1 X20.834 Y9.520 E0.4327
G1 X33.794 Y22.480 E0.7010
G1 X42.480 Y22.480 E0.3322
G1 X42.480 Y19.853 E0.1005
G1 X32.147 Y9.520 E0.5589
G1 E-1.9000 F1200
G1 Z0.700 F1200
G1 X-41.402 Y26.480 F9000
G1 Z0.200 F1200
G1 E1.9000 F1200
G1 X-42.480 Y25.402 E0.0583 F2400
G1 X-42.480 Y14.089 E0.4327
G1 X-30.089 Y26.480 E0.6703
G1 X-18.775 Y26.480 E0.4327
G1 X-42.480 Y2.775 E1.2823
G1 X-42.480 Y-8.539 E0.4327
G1 X-25.520 Y8.421 E0.9174
G1 X-25.520 Y6.480 E0.0742
G1 X-22.480 Y6.480 E0.1163
G1 X-22.480 Y9.520 E0.1163
G1 X-24.421 Y9.520 E0.0742
G1 X-7.461 Y26.480 E0.9174
G1 X-1.520 Y26.480 E0.2272
G1 X-1.520 Y24.711 E0.0676
G1 X-3.594 Y24.709 E0.0793
G1 X-3.594 Y19.033 E0.2171
G1 X-42.480 Y-19.853 E2.1034
G1 X-42.480 Y-26.480 E0.2535
G1 X-37.794 Y-26.480 E0.1792
G1 X-3.594 Y7.719 E1.8499
G1 X-3.594 Y4.603 E0.1192
G1 X-1.520 Y4.603 E0.0793
G1 X-1.520 Y3.483 E0.0428
G1 X-3.594 Y3.483 E0.0793
G1 X-3.594 Y-3.594 E0.2707
G1 X-26.480 Y-26.480 E1.2379
G1 X-15.166 Y-26.480 E0.4327
G1 X-1.520 Y-12.834 E0.7382
G1 X-1.520 Y-24.147 E0.4327
G1 X-3.853 Y-26.480 E0.1262
G1 E-1.9000 F1200
; layer 2, Z = 0.400
M126 S255
; feature inner perimeter
; tool H0.200 W0.400
G1 Z0.700 F1200
G1 X-2.052 Y1.943 F9000
G1 Z0.400 F1200
G1 E1.9000 F1200
G1 X-2.052 Y-7.029 E0.2986 F2254
G1 X-2.052 Y1.943 E0.2984
G1 X-1.652 Y2.343 F9000
G1 X-2.454 Y2.343 E0.0267 F2254
G1 X-2.454 Y-7.429 E0.3250
G1 X-1.652 Y-7.429 E0.0267
G1 X-1.652 Y2.343 E0.3250
; feature outer perimeter
G1 X-1.252 Y2.743 F9000
G1 X-2.854 Y2.743 E0.0533 F1502
G1 X-2.854 Y-7.829 E0.3516
G1 X-1.252 Y-7.829 E0.0533
G1 X-1.252 Y2.743 E0.3516
G1 E-1.9000 F1200
; feature inner perimeter
G1 Z0.900 F1200
G1 X-2.052 Y23.169 F9000
G1 Z0.400 F1200
G1 E1.9000 F1200
G1 X-2.052 Y6.143 E0.5664 F2254
G1 X-2.052 Y23.169 E0.5663
G1 X-2.454 Y23.567 F9000
G1 X-2.454 Y5.743 E0.5928 F2254
G1 X-1.652 Y5.743 E0.0267
G1 X-1.652 Y23.570 E0.5929
G1 X-2.454 Y23.567 E0.0267
; feature outer perimeter
G1 X-2.854 Y23.966 F9000
G1 X-2.854 Y5.343 E0.6194 F1502
G1 X-1.252 Y5.343 E0.0533
G1 X-1.252 Y23.971 E0.6196
G1 X-2.854 Y23.966 E0.0533
; feature support
G1 X-2.051 Y24.679 F9000
G1 X-3.883 Y26.510 E0.0861 F3005
G1 X-15.196 Y26.510 E0.3763
G1 X-3.564 Y14.878 E0.5471
G1 X-3.564 Y4.633 E0.3407
G1 X-1.490 Y4.633 E0.0690
G1 X-1.490 Y3.453 E0.0392
G1 X-3.453 Y3.453 E0.0653
G1 X-26.510 Y26.510 E1.0845
G1 X-37.824 Y26.510 E0.3763
G1 X-3.564 Y-7.749 E1.6114
G1 X-3.564 Y-8.539 E0.0263
G1 X-2.775 Y-8.539 E0.0263
G1 X-1.490 Y-9.824 E0.0604
G1 X-1.490 Y-21.137 E0.3763
G1 X-42.510 Y19.883 E1.9295
G1 X-42.510 Y8.569 E0.3763
G1 X-7.431 Y-26.510 E1.6500
G1 X-18.745 Y-26.510 E0.3763
G1 X-42.510 Y-2.745 E1.1178
G1 X-42.510 Y-14.059 E0.3763
G1 X-30.058 Y-26.510 E0.5857
G1 X-41.372 Y-26.510 E0.3763
G1 X-42.510 Y-25.372 E0.0535
G1 E-1.9000 F1200
G1 Z0.900 F1200
G1 X-0.542 Y11.856 F9000
G1 Z0.400 F1200
G1 E1.9000 F1200
G1 X1.824 Y9.490 E0.1113 F3005
G1 X13.137 Y9.490 E0.3763
G1 X0.117 Y22.510 E0.6124
G1 X11.431 Y22.510 E0.3763
G1 X24.451 Y9.490 E0.6124
G1 X35.765 Y9.490 E0.3763
G1 X22.745 Y22.510 E0.6124
G1 X34.059 Y22.510 E0.3763
G1 X42.510 Y14.059 E0.3975
G1 E-1.9000 F1200
; layer 3, Z = 0.600
; feature inner perimeter
G1 Z0.900 F1200
G1 X-2.052 Y23.172 F9000
G1 Z0.600 F1200
G1 E1.9000 F1200
G1 X-2.052 Y6.143 E0.5665 F2278
G1 X-2.052 Y23.172 E0.5664
G1 X-1.652 Y23.572 F9000
G1 X-2.454 Y23.572 E0.0267 F2278
G1 X-2.454 Y5.743 E0.5930
G1 X-1.652 Y5.743 E0.0267
G1 X-1.652 Y23.572 E0.5930
; feature outer perimeter
G1 X-1.252 Y23.972 F9000
G1 X-2.854 Y23.972 E0.0533 F1518
G1 X-2.854 Y5.343 E0.6196
G1 X-1.252 Y5.343 E0.0533
G1 X-1.252 Y23.972 E0.6196
G1 E-1.9000 F1200
; feature inner perimeter
G1 Z1.100 F1200
G1 X-2.052 Y1.943 F9000
G1 Z0.600 F1200
G1 E1.9000 F1200
G1 X-2.052 Y-7.029 E0.2986 F2278
G1 X-2.052 Y1.943 E0.2984
G1 X-1.652 Y2.343 F9000
G1 X-2.454 Y2.343 E0.0267 F2278
G1 X-2.454 Y-7.429 E0.3250
G1 X-1.652 Y-7.429 E0.0267
G1 X-1.652 Y2.343 E0.3250
; feature outer perimeter
G1 X-1.252 Y2.743 F9000
G1 X-2.854 Y2.743 E0.0533 F1518
G1 X-2.854 Y-7.829 E0.3516
G1 X-1.252 Y-7.829 E0.0533
G1 X-1.252 Y2.743 E0.3516
G1 E-1.9000 F1200
; feature support
G1 Z1.100 F1200
G1 X-0.117 Y22.510 F9000
G1 Z0.600 F1200
G1 E1.9000 F1200
G1 X-0.542 Y22.086 E0.0200 F3037
G1 X-0.542 Y10.772 E0.3763
G1 X11.196 Y22.510 E0.5521
G1 X22.510 Y22.510 E0.3763
G1 X9.490 Y9.490 E0.6124
G1 X20.804 Y9.490 E0.3763
G1 X33.824 Y22.510 E0.6124
G1 X42.510 Y22.510 E0.2889
G1 X42.510 Y19.883 E0.0874
G1 X32.117 Y9.490 E0.4888
G1 E-1.9000 F1200
G1 Z1.100 F1200
G1 X-41.372 Y26.510 F9000
G1 Z0.600 F1200
G1 E1.9000 F1200
G1 X-42.510 Y25.372 E0.0535 F3037
G1 X-42.510 Y14.059 E0.3763
G1 X-30.059 Y26.510 E0.5857
G1 X-18.745 Y26.510 E0.3763
G1 X-42.510 Y2.745 E1.1178
G1 X-42.510 Y-8.569 E0.3763
G1 X-25.490 Y8.451 E0.8006
G1 X-25.490 Y6.510 E0.0646
G1 X-22.510 Y6.510 E0.0991
G1 X-22.510 Y9.490 E0.0991
G1 X-24.451 Y9.490 E0.0646
G1 X-7.431 Y26.510 E0.8006
G1 X-1.490 Y26.510 E0.1976
G1 X-1.490 Y24.682 E0.0608
G1 X-3.564 Y24.682 E0.0690
G1 X-3.564 Y19.063 E0.1869
G1 X-42.510 Y-19.883 E1.8319
G1 X-42.510 Y-26.510 E0.2204
G1 X-37.824 Y-26.510 E0.1559
G1 X-3.564 Y7.749 E1.6115
G1 X-3.564 Y4.633 E0.1036
G1 X-1.490 Y4.633 E0.0690
G1 X-1.490 Y3.453 E0.0392
G1 X-3.564 Y3.453 E0.0690
G1 X-3.564 Y-3.564 E0.2334
G1 X-26.510 Y-26.510 E1.0793
G1 X-15.196 Y-26.510 E0.3763
G1 X-1.490 Y-12.804 E0.6447
G1 X-1.490 Y-24.117 E0.3763
G1 X-3.883 Y-26.510 E0.1125
G1 E-1.9000 F1200
; layer 4, Z = 0.800
; feature inner perimeter
G1 Z1.100 F1200
G1 X-2.052 Y1.943 F9000
G1 Z0.800 F1200
G1 E1.9000 F1200
G1 X-2.052 Y-7.029 E0.2986 F2254
G1 X-2.052 Y1.943 E0.2984
G1 X-1.652 Y2.343 F9000
G1 X-2.454 Y2.343 E0.0267 F2254
G1 X-2.454 Y-7.429 E0.3250
G1 X-1.652 Y-7.429 E0.0267
G1 X-1.652 Y2.343 E0.3250
; feature outer perimeter
G1 X-1.252 Y2.743 F9000
G1 X-2.854 Y2.743 E0.0533 F1502
G1 X-2.854 Y-7.829 E0.3516
G1 X-1.252 Y-7.829 E0.0533
G1 X-1.252 Y2.743 E0.3516
G1 E-1.9000 F1200
; feature inner perimeter
G1 Z1.300 F1200
G1 X-2.052 Y23.172 F9000
G1 Z0.800 F1200
G1 E1.9000 F1200
G1 X-2.052 Y6.143 E0.5665 F2254
G1 X-2.052 Y23.172 E0.5664
G1 X-1.652 Y23.572 F9000
G1 X-2.454 Y23.572 E0.0267 F2254
G1 X-2.454 Y5.743 E0.5930
G1 X-1.652 Y5.743 E0.0267
G1 X-1.652 Y23.572 E0.5930
; feature outer perimeter
G1 X-1.252 Y23.972 F9000
G1 X-2.854 Y23.972 E0.0533 F1502
G1 X-2.854 Y5.343 E0.6196
G1 X-1.252 Y5.343 E0.0533
G1 X-1.252 Y23.972 E0.6196
; feature support
G1 X-2.054 Y24.682 F9000
G1 X-3.883 Y26.510 E0.0860 F3005
G1 X-15.196 Y26.510 E0.3763
G1 X-3.564 Y14.878 E0.5471
G1 X-3.564 Y4.633 E0.3407
G1 X-1.490 Y4.633 E0.0690
G1 X-1.490 Y3.453 E0.0392
G1 X-3.453 Y3.453 E0.0653
G1 X-26.510 Y26.510 E1.0845
G1 X-37.824 Y26.510 E0.3763
G1 X-3.564 Y-7.749 E1.6114
G1 X-3.564 Y-8.539 E0.0263
G1 X-2.775 Y-8.539 E0.0263
G1 X-1.490 Y-9.824 E0.0604
G1 X-1.490 Y-21.137 E0.3763
G1 X-42.510 Y19.883 E1.9295
G1 X-42.510 Y8.569 E0.3763
G1 X-7.431 Y-26.510 E1.6500
G1 X-18.745 Y-26.510 E0.3763
G1 X-42.510 Y-2.745 E1.1178
G1 X-42.510 Y-14.059 E0.3763
G1 X-30.058 Y-26.510 E0.5857
G1 X-41.372 Y-26.510 E0.3763
G1 X-42.510 Y-25.372 E0.0535
G1 E-1.9000 F1200
G1 Z1.300 F1200
G1 X-0.542 Y11.856 F9000
G1 Z0.800 F1200
G1 E1.9000 F1200
G1 X1.824 Y9.490 E0.1113 F3005
G1 X13.137 Y9.490 E0.3763
G1 X0.117 Y22.510 E0.6124
G1 X11.431 Y22.510 E0.3763
G1 X24.451 Y9.490 E0.6124
G1 X35.765 Y9.490 E0.3763
G1 X22.745 Y22.510 E0.6124
G1 X34.059 Y22.510 E0.3763
G1 X42.510 Y14.059 E0.3975
G1 E-1.9000 F1200
; layer 5, Z = 1.000
; feature inner perimeter
G1 Z1.300 F1200
G1 X-2.052 Y23.172 F9000
G1 Z1.000 F1200
G1 E1.9000 F1200
G1 X-2.052 Y6.143 E0.5665 F2278
G1 X-2.052 Y23.172 E0.5664
G1 X-1.652 Y23.572 F9000
G1 X-2.454 Y23.572 E0.0267 F2278
G1 X-2.454 Y5.743 E0.5930
G1 X-1.652 Y5.743 E0.0267
