; G-Code generated by Simplify3D(R) Version 4.1.2
; Apr 6, 2020 at 12:29:16 PM
; Settings Summary
;   processName,Process1
;   applyToModels,Camera Dome,Camera Dome(2),Camera Dome(3),Camera Dome(4),Camera Dome(5),Camera Dome(6),Camera Dome(7),Camera Dome(8),Camera Dome(9),Camera Dome(10),Camera Dome(11)
;   profileName,MakerBot Replicator 2 HBP (modified)
;   profileVersion,2019-08-23 15:32:08
;   baseProfile,MakerBot Replicator 2(2)
;   printMaterial,PLA
;   printQuality,Medium
;   printExtruders,
;   extruderName,Primary Extruder
;   extruderToolheadNumber,0
;   extruderDiameter,0.4
;   extruderAutoWidth,0
;   extruderWidth,0.4
;   extrusionMultiplier,1
;   extruderUseRetract,1
;   extruderRetractionDistance,1
;   extruderExtraRestartDistance,0
;   extruderRetractionZLift,0.5
;   extruderRetractionSpeed,1200
;   extruderUseCoasting,0
;   extruderCoastingDistance,0.2
;   extruderUseWipe,0
;   extruderWipeDistance,5
;   primaryExtruder,0
;   layerHeight,0.2
;   topSolidLayers,3
;   bottomSolidLayers,3
;   perimeterOutlines,2
;   printPerimetersInsideOut,1
;   startPointOption,3
;   startPointOriginX,0
;   startPointOriginY,150
;   sequentialIslands,0
;   spiralVaseMode,0
;   firstLayerHeightPercentage,100
;   firstLayerWidthPercentage,100
;   firstLayerUnderspeed,0.5
;   useRaft,0
;   raftExtruder,0
;   raftTopLayers,2
;   raftBaseLayers,1
;   raftOffset,1
;   raftSeparationDistance,0.14
;   raftTopInfill,90
;   aboveRaftSpeedMultiplier,0.3
;   useSkirt,0
;   skirtExtruder,0
;   skirtLayers,1
;   skirtOutlines,5
;   skirtOffset,0
;   usePrimePillar,0
;   primePillarExtruder,999
;   primePillarWidth,12
;   primePillarLocation,7
;   primePillarSpeedMultiplier,1
;   useOozeShield,0
;   oozeShieldExtruder,999
;   oozeShieldOffset,2
;   oozeShieldOutlines,1
;   oozeShieldSidewallShape,1
;   oozeShieldSidewallAngle,30
;   oozeShieldSpeedMultiplier,1
;   infillExtruder,0
;   internalInfillPattern,Rectilinear
;   externalInfillPattern,Rectilinear
;   infillPercentage,15
;   outlineOverlapPercentage,20
;   infillExtrusionWidthPercentage,100
;   minInfillLength,5
;   infillLayerInterval,1
;   internalInfillAngles,45,-45
;   overlapInternalInfillAngles,0
;   externalInfillAngles,45,-45
;   generateSupport,0
;   supportExtruder,0
;   supportInfillPercentage,10
;   supportExtraInflation,0.5
;   supportBaseLayers,0
;   denseSupportExtruder,0
;   denseSupportLayers,2
;   denseSupportInfillPercentage,70
;   supportLayerInterval,1
;   supportHorizontalPartOffset,0.3
;   supportUpperSeparationLayers,1
;   supportLowerSeparationLayers,1
;   supportType,0
;   supportGridSpacing,2
;   maxOverhangAngle,45
;   supportAngles,0
;   temperatureName,Primary Extruder,Heated Build Platform
;   temperatureNumber,0,0
;   temperatureSetpointCount,1,1
;   temperatureSetpointLayers,1,1
;   temperatureSetpointTemperatures,230,60
;   temperatureStabilizeAtStartup,1,1
;   temperatureHeatedBed,0,1
;   fanLayers,1,2
;   fanSpeeds,0,100
;   blipFanToFullPower,1
;   adjustSpeedForCooling,1
;   minSpeedLayerTime,15
;   minCoolingSpeedSlowdown,20
;   increaseFanForCooling,1
;   minFanLayerTime,45
;   maxCoolingFanSpeed,100
;   increaseFanForBridging,1
;   bridgingFanSpeed,100
;   use5D,1
;   relativeEdistances,1
;   allowEaxisZeroing,0
;   independentExtruderAxes,1
;   includeM10123,0
;   stickySupport,1
;   applyToolheadOffsets,0
;   gcodeXoffset,0
;   gcodeYoffset,0
;   gcodeZoffset,0
;   overrideMachineDefinition,1
;   machineTypeOverride,0
;   strokeXoverride,280
;   strokeYoverride,150
;   strokeZoverride,150
;   originOffsetXoverride,140
;   originOffsetYoverride,75
;   originOffsetZoverride,0
;   homeXdirOverride,1
;   homeYdirOverride,1
;   homeZdirOverride,-1
;   flipXoverride,1
;   flipYoverride,-1
;   flipZoverride,1
;   toolheadOffsets,0,0|0,0|0,0|0,0|0,0|0,0
;   overrideFirmwareConfiguration,1
;   firmwareTypeOverride,MakerBot/Sailfish Firmware
;   GPXconfigOverride,r2h
;   baudRateOverride,115200
;   overridePrinterModels,1
;   printerModelsOverride,MakerBot_Replicator2.stl
;   startingGcode,; **** Replicator 2 start.gcode ****,M73 P0 ; enable build progress,G162 X Y F3000 ; home XY maximum,G161 Z F1200 ; home Z minimum,G92 Z-5 ; set Z to -5,G1 Z0 ; move Z to 0,G161 Z F100 ; home Z slowly,M132 X Y Z A B ; recall home offsets,G1 X-145 Y-75 Z30 F9000 ; move to wait position off table,G130 X20 Y20 Z20 A20 B20 ; lower stepper Vrefs while heating,M126 S[fan_speed_pwm],M140 S[bed0_temperature] T0,M134 T0 ; stabilize bed temperature,M104 S[extruder0_temperature] T0,M133 T0 ; stabilize extruder temperature,G130 X127 Y127 Z40 A127 B127 ; default stepper Vrefs,G92 A0 ; zero extruder,G1 Z0.4 ; position nozzle,G1 E25 F300 ; purge nozzle,G1 X-140 Y-70 Z0.15 F1200 ; slow wipe,G1 X-135 Y-65 Z0.5 F1200 ; lift,G92 A0 ; zero extruder,M73 P1 ;@body (notify GPX body has started),; **** end of start.gcode ****
;   layerChangeGcode,
;   retractionGcode,
;   toolChangeGcode,
;   endingGcode,; **** Replicator 2 end.gcode ****,M73 P100 ; end build progress,G1 Z155 F1000 ; send Z axis to bottom of machine,M104 S0 T0 ; cool down extruder,M140 S0 T0 ; cool down HBP,M127 ; stop blower fan,G162 X Y F3000 ; home XY maximum,M18 ; disable stepper,M0 ; stop codes,M72 P1 ; play Ta-Da song,; **** end of end.gcode ****
;   exportFileFormat,gcode
;   celebration,0
;   celebrationSong,Random Song
;   postProcessing,
;   defaultSpeed,4800
;   outlineUnderspeed,0.5
;   solidInfillUnderspeed,1
;   supportUnderspeed,1
;   rapidXYspeed,9000
;   rapidZspeed,1200
;   minBridgingArea,50
;   bridgingExtraInflation,0
;   bridgingExtrusionMultiplier,1
;   bridgingSpeedMultiplier,0.8
;   useFixedBridgingAngle,0
;   fixedBridgingAngle,0
;   applyBridgingToPerimeters,0
;   filamentDiameters,1.75|1.75|1.75|1.75|1.75|1.75
;   filamentPricesPerKg,46|46|46|46|46|46
;   filamentDensities,1.25|1.25|1.25|1.25|1.25|1.25
;   useMinPrintHeight,0
;   minPrintHeight,0
;   useMaxPrintHeight,0
;   maxPrintHeight,4.84
;   useDiaphragm,0
;   diaphragmLayerInterval,20
;   robustSlicing,1
;   mergeAllIntoSolid,0
;   onlyRetractWhenCrossingOutline,0
;   retractBetweenLayers,0
;   useRetractionMinTravel,1
;   retractionMinTravel,7
;   retractWhileWiping,1
;   onlyWipeOutlines,1
;   avoidCrossingOutline,0
;   maxMovementDetourFactor,3
;   toolChangeRetractionDistance,12
;   toolChangeExtraRestartDistance,-0.5
;   toolChangeRetractionSpeed,600
;   externalThinWallType,0
;   internalThinWallType,0
;   thinWallAllowedOverlapPercentage,10
;   singleExtrusionMinLength,1
;   singleExtrusionMinPrintingWidthPercentage,50
;   singleExtrusionMaxPrintingWidthPercentage,200
;   singleExtrusionEndpointExtension,0.2
;   horizontalSizeCompensation,0
G90
M83
; **** Replicator 2 start.gcode ****
M73 P0 ; enable build progress
G162 X Y F3000 ; home XY maximum
G161 Z F1200 ; home Z minimum
G92 Z-5 ; set Z to -5
G1 Z0 ; move Z to 0
G161 Z F100 ; home Z slowly
M132 X Y Z A B ; recall home offsets
G1 X-145 Y-75 Z30 F9000 ; move to wait position off table
G130 X20 Y20 Z20 A20 B20 ; lower stepper Vrefs while heating
M127
M140 S60 T0
M134 T0 ; stabilize bed temperature
M104 S230 T0
M133 T0 ; stabilize extruder temperature
G130 X127 Y127 Z40 A127 B127 ; default stepper Vrefs
G92 A0 ; zero extruder
G1 Z0.4 ; position nozzle
G1 E25 F300 ; purge nozzle
G1 X-140 Y-70 Z0.15 F1200 ; slow wipe
G1 X-135 Y-65 Z0.5 F1200 ; lift
G92 A0 ; zero extruder
M73 P1 ;@body (notify GPX body has started)
; **** end of start.gcode ****
; process Process1
; layer 1, Z = 0.200
M135 T0
G1 E-1.0000 F1200
; feature inner perimeter
; tool H0.200 W0.400
G1 Z0.500 F1200
G1 X9.273 Y19.886 F9000
G1 Z0.200 F1200
G1 E1.0000 F1200
G1 X8.545 Y19.826 E0.0243 F1800
G1 X7.825 Y19.703 E0.0243
G1 X7.118 Y19.518 E0.0243
G1 X6.430 Y19.272 E0.0243
G1 X5.766 Y18.967 E0.0243
G1 X5.132 Y18.605 E0.0243
G1 X4.530 Y18.190 E0.0243
G1 X3.968 Y17.724 E0.0243
G1 X3.447 Y17.211 E0.0243
G1 X3.100 Y16.803 E0.0178
G1 X3.100 Y6.183 E0.3532
G1 X3.447 Y5.775 E0.0178
G1 X3.968 Y5.262 E0.0243
G1 X4.530 Y4.796 E0.0243
G1 X5.132 Y4.381 E0.0243
G1 X5.766 Y4.020 E0.0243
G1 X6.431 Y3.715 E0.0243
G1 X7.118 Y3.469 E0.0243
G1 X7.825 Y3.283 E0.0243
G1 X8.545 Y3.160 E0.0243
G1 X9.273 Y3.100 E0.0243
G1 X10.004 Y3.103 E0.0243
G1 X10.732 Y3.170 E0.0243
G1 X11.451 Y3.300 E0.0243
G1 X12.155 Y3.492 E0.0243
G1 X12.841 Y3.744 E0.0243
G1 X13.502 Y4.055 E0.0243
G1 X14.134 Y4.423 E0.0243
G1 X14.731 Y4.843 E0.0243
G1 X15.290 Y5.314 E0.0243
G1 X15.805 Y5.832 E0.0243
G1 X16.273 Y6.393 E0.0243
G1 X16.691 Y6.992 E0.0243
G1 X17.056 Y7.625 E0.0243
G1 X17.364 Y8.288 E0.0243
G1 X17.613 Y8.975 E0.0243
G1 X17.801 Y9.680 E0.0243
G1 X17.928 Y10.400 E0.0243
G1 X17.991 Y11.128 E0.0243
G1 X17.991 Y11.858 E0.0243
G1 X17.928 Y12.586 E0.0243
G1 X17.801 Y13.306 E0.0243
G1 X17.613 Y14.012 E0.0243
G1 X17.364 Y14.699 E0.0243
G1 X17.056 Y15.361 E0.0243
G1 X16.691 Y15.994 E0.0243
G1 X16.273 Y16.594 E0.0243
G1 X15.805 Y17.154 E0.0243
G1 X15.290 Y17.672 E0.0243
G1 X14.731 Y18.143 E0.0243
G1 X14.134 Y18.564 E0.0243
G1 X13.502 Y18.931 E0.0243
G1 X12.841 Y19.242 E0.0243
G1 X12.155 Y19.494 E0.0243
G1 X11.451 Y19.686 E0.0243
G1 X10.732 Y19.816 E0.0243
G1 X10.004 Y19.883 E0.0243
G1 X9.273 Y19.886 E0.0243
; feature outer perimeter
G1 X9.258 Y20.286 F9000
G1 X8.495 Y20.223 E0.0255 F1200
G1 X7.740 Y20.094 E0.0255
G1 X7.000 Y19.900 E0.0255
G1 X6.279 Y19.642 E0.0255
G1 X5.584 Y19.323 E0.0255
G1 X4.919 Y18.944 E0.0255
G1 X4.289 Y18.509 E0.0255
G1 X3.699 Y18.021 E0.0255
G1 X3.154 Y17.484 E0.0255
G1 X2.700 Y16.950 E0.0233
G1 X2.700 Y6.036 E0.3630
G1 X3.154 Y5.503 E0.0233
G1 X3.699 Y4.965 E0.0255
G1 X4.289 Y4.477 E0.0255
G1 X4.919 Y4.042 E0.0255
G1 X5.584 Y3.663 E0.0255
G1 X6.279 Y3.344 E0.0255
G1 X7.000 Y3.086 E0.0255
G1 X7.740 Y2.892 E0.0255
G1 X8.495 Y2.763 E0.0255
G1 X9.258 Y2.700 E0.0255
G1 X10.023 Y2.704 E0.0255
G1 X10.785 Y2.774 E0.0255
G1 X11.539 Y2.910 E0.0255
G1 X12.277 Y3.111 E0.0255
G1 X12.996 Y3.375 E0.0255
G1 X13.688 Y3.701 E0.0255
G1 X14.350 Y4.085 E0.0255
G1 X14.976 Y4.526 E0.0255
G1 X15.561 Y5.020 E0.0255
G1 X16.101 Y5.562 E0.0255
G1 X16.592 Y6.150 E0.0255
G1 X17.030 Y6.777 E0.0255
G1 X17.411 Y7.441 E0.0255
G1 X17.734 Y8.135 E0.0255
G1 X17.995 Y8.855 E0.0255
G1 X18.192 Y9.594 E0.0255
G1 X18.325 Y10.348 E0.0255
G1 X18.391 Y11.110 E0.0255
G1 X18.391 Y11.876 E0.0255
G1 X18.325 Y12.638 E0.0255
G1 X18.192 Y13.392 E0.0255
G1 X17.995 Y14.132 E0.0255
G1 X17.734 Y14.851 E0.0255
G1 X17.411 Y15.546 E0.0255
G1 X17.030 Y16.209 E0.0255
G1 X16.592 Y16.837 E0.0255
G1 X16.101 Y17.424 E0.0255
G1 X15.561 Y17.967 E0.0255
G1 X14.976 Y18.460 E0.0255
G1 X14.350 Y18.901 E0.0255
G1 X13.688 Y19.286 E0.0255
G1 X12.996 Y19.611 E0.0255
G1 X12.277 Y19.876 E0.0255
G1 X11.539 Y20.077 E0.0255
G1 X10.785 Y20.213 E0.0255
G1 X10.023 Y20.283 E0.0255
G1 X9.258 Y20.286 E0.0255
; feature inner perimeter
G1 X9.600 Y17.839 F9000
G1 X10.153 Y17.815 E0.0184 F1800
G1 X10.703 Y17.743 E0.0184
G1 X11.244 Y17.623 E0.0184
G1 X11.772 Y17.456 E0.0184
G1 X12.284 Y17.244 E0.0184
G1 X12.775 Y16.989 E0.0184
G1 X13.141 Y16.756 E0.0144
G1 X13.678 Y16.357 E0.0223
G1 X14.091 Y15.979 E0.0186
G1 X14.465 Y15.571 E0.0184
G1 X14.802 Y15.131 E0.0184
G1 X15.100 Y14.664 E0.0184
G1 X15.356 Y14.173 E0.0184
G1 X15.568 Y13.661 E0.0184
G1 X15.734 Y13.132 E0.0184
G1 X15.854 Y12.590 E0.0185
G1 X15.927 Y12.033 E0.0187
G1 X15.946 Y11.493 E0.0180
G1 X15.927 Y10.953 E0.0180
G1 X15.854 Y10.396 E0.0187
G1 X15.734 Y9.854 E0.0185
G1 X15.568 Y9.326 E0.0184
G1 X15.356 Y8.814 E0.0184
G1 X15.100 Y8.322 E0.0184
G1 X14.802 Y7.855 E0.0184
G1 X14.465 Y7.415 E0.0184
G1 X14.091 Y7.007 E0.0184
G1 X13.682 Y6.633 E0.0184
G1 X13.243 Y6.295 E0.0184
G1 X12.775 Y5.998 E0.0184
G1 X12.284 Y5.742 E0.0184
G1 X11.772 Y5.530 E0.0184
G1 X11.244 Y5.363 E0.0184
G1 X10.703 Y5.243 E0.0184
G1 X10.153 Y5.171 E0.0184
G1 X9.600 Y5.147 E0.0184
G1 X9.047 Y5.171 E0.0184
G1 X8.497 Y5.243 E0.0184
G1 X7.956 Y5.363 E0.0184
G1 X7.428 Y5.530 E0.0184
G1 X6.916 Y5.742 E0.0184
G1 X6.425 Y5.998 E0.0184
G1 X5.957 Y6.295 E0.0184
G1 X5.518 Y6.633 E0.0184
G1 X5.109 Y7.007 E0.0184
G1 X4.735 Y7.415 E0.0184
G1 X4.398 Y7.855 E0.0184
G1 X4.100 Y8.322 E0.0184
G1 X3.844 Y8.814 E0.0184
G1 X3.632 Y9.326 E0.0184
G1 X3.466 Y9.854 E0.0184
G1 X3.346 Y10.396 E0.0185
G1 X3.273 Y10.953 E0.0187
G1 X3.254 Y11.493 E0.0180
G1 X3.273 Y12.033 E0.0180
G1 X3.346 Y12.590 E0.0187
G1 X3.466 Y13.132 E0.0185
G1 X3.632 Y13.661 E0.0184
G1 X3.844 Y14.173 E0.0184
G1 X4.100 Y14.664 E0.0184
G1 X4.398 Y15.131 E0.0184
G1 X4.735 Y15.571 E0.0184
G1 X5.109 Y15.979 E0.0184
G1 X5.518 Y16.354 E0.0184
G1 X5.957 Y16.691 E0.0184
G1 X6.425 Y16.989 E0.0184
G1 X6.916 Y17.244 E0.0184
G1 X7.428 Y17.456 E0.0184
G1 X7.956 Y17.623 E0.0184
G1 X8.497 Y17.743 E0.0184
G1 X9.047 Y17.815 E0.0184
G1 X9.600 Y17.839 E0.0184
; feature outer perimeter
G1 X9.600 Y17.439 F9000
G1 X10.119 Y17.416 E0.0173 F1200
G1 X10.633 Y17.349 E0.0173
G1 X11.140 Y17.236 E0.0173
G1 X11.635 Y17.080 E0.0173
G1 X12.115 Y16.882 E0.0173
G1 X12.575 Y16.642 E0.0173
G1 X12.914 Y16.426 E0.0134
G1 X13.424 Y16.048 E0.0211
G1 X13.807 Y15.696 E0.0173
G1 X14.158 Y15.314 E0.0173
G1 X14.474 Y14.902 E0.0173
G1 X14.753 Y14.464 E0.0173
G1 X14.993 Y14.003 E0.0173
G1 X15.191 Y13.524 E0.0173
G1 X15.347 Y13.029 E0.0173
G1 X15.460 Y12.521 E0.0173
G1 X15.528 Y12.000 E0.0175
G1 X15.546 Y11.493 E0.0169
G1 X15.528 Y10.986 E0.0169
G1 X15.460 Y10.466 E0.0175
G1 X15.347 Y9.958 E0.0173
G1 X15.191 Y9.462 E0.0173
G1 X14.993 Y8.983 E0.0173
G1 X14.753 Y8.522 E0.0173
G1 X14.474 Y8.085 E0.0173
G1 X14.158 Y7.673 E0.0173
G1 X13.807 Y7.290 E0.0173
G1 X13.425 Y6.939 E0.0173
G1 X13.013 Y6.623 E0.0173
G1 X12.575 Y6.345 E0.0173
G1 X12.115 Y6.105 E0.0173
G1 X11.635 Y5.906 E0.0173
G1 X11.140 Y5.750 E0.0173
G1 X10.633 Y5.638 E0.0173
G1 X10.119 Y5.570 E0.0173
G1 X9.600 Y5.547 E0.0173
G1 X9.081 Y5.570 E0.0173
G1 X8.567 Y5.638 E0.0173
G1 X8.060 Y5.750 E0.0173
G1 X7.565 Y5.906 E0.0173
G1 X7.085 Y6.105 E0.0173
G1 X6.625 Y6.345 E0.0173
G1 X6.187 Y6.623 E0.0173
G1 X5.775 Y6.939 E0.0173
G1 X5.393 Y7.290 E0.0173
G1 X5.042 Y7.673 E0.0173
G1 X4.726 Y8.085 E0.0173
G1 X4.447 Y8.522 E0.0173
G1 X4.207 Y8.983 E0.0173
G1 X4.009 Y9.462 E0.0173
G1 X3.853 Y9.958 E0.0173
G1 X3.740 Y10.466 E0.0173
G1 X3.672 Y10.986 E0.0175
G1 X3.654 Y11.493 E0.0169
G1 X3.672 Y12.000 E0.0169
G1 X3.740 Y12.521 E0.0175
G1 X3.853 Y13.029 E0.0173
G1 X4.009 Y13.524 E0.0173
G1 X4.207 Y14.003 E0.0173
G1 X4.447 Y14.464 E0.0173
G1 X4.726 Y14.902 E0.0173
G1 X5.042 Y15.314 E0.0173
G1 X5.393 Y15.696 E0.0173
G1 X5.775 Y16.047 E0.0173
G1 X6.187 Y16.363 E0.0173
G1 X6.625 Y16.642 E0.0173
G1 X7.085 Y16.882 E0.0173
G1 X7.565 Y17.080 E0.0173
G1 X8.060 Y17.236 E0.0173
G1 X8.567 Y17.349 E0.0173
G1 X9.081 Y17.416 E0.0173
G1 X9.600 Y17.439 E0.0173
; feature solid layer
G1 X3.420 Y16.431 F9000
G1 X5.352 Y18.363 E0.0909 F2400
G1 X5.913 Y18.682 E0.0215
G1 X6.512 Y18.957 E0.0219
G1 X3.420 Y15.865 E0.1454
G1 X3.420 Y14.168 F9000
G1 X3.550 Y14.298 E0.0061 F2400
G1 X3.554 Y14.308 E0.0004
G1 X3.823 Y14.824 E0.0194
G1 X4.136 Y15.315 E0.0194
G1 X4.490 Y15.777 E0.0194
G1 X4.783 Y16.096 E0.0144
G1 X3.420 Y14.734 E0.0641
G1 X3.420 Y15.299 E0.0188
G1 X7.375 Y19.254 E0.1860
G1 X7.893 Y19.390 E0.0178
G1 X8.114 Y19.428 E0.0075
G1 X4.993 Y16.306 E0.1468
G1 X5.312 Y16.599 E0.0144
G1 X5.774 Y16.953 E0.0194
G1 X6.265 Y17.266 E0.0194
G1 X6.781 Y17.535 E0.0194
G1 X6.791 Y17.539 E0.0004
G1 X8.776 Y19.524 E0.0934
G1 X9.286 Y19.566 E0.0170
G1 X9.383 Y19.566 E0.0032
G1 X7.693 Y17.876 E0.0795
G1 X7.873 Y17.932 E0.0063
G1 X8.442 Y18.058 E0.0194
G1 X9.947 Y19.563 E0.0708
G1 X9.989 Y19.563 E0.0014
G1 X10.468 Y19.519 E0.0160
G1 X9.086 Y18.137 E0.0650
G1 X9.600 Y18.160 E0.0171
G1 X9.671 Y18.157 E0.0024
G1 X10.964 Y19.449 E0.0608
G1 X11.380 Y19.374 E0.0141
G1 X11.438 Y19.358 E0.0020
G1 X10.211 Y18.130 E0.0577
G1 X10.711 Y18.065 E0.0168
G1 X11.883 Y19.237 E0.0551
G1 X12.058 Y19.189 E0.0060
G1 X12.309 Y19.097 E0.0089
G1 X11.177 Y17.965 E0.0532
G1 X11.327 Y17.932 E0.0051
G1 X11.618 Y17.841 E0.0102
G1 X12.722 Y18.945 E0.0519
G1 X13.107 Y18.764 E0.0141
G1 X12.036 Y17.693 E0.0503
G1 X12.419 Y17.535 E0.0138
G1 X12.435 Y17.526 E0.0006
G1 X13.482 Y18.573 E0.0492
