; G-Code generated by Simplify3D(R) Version 4.1.2
; Apr 6, 2020 at 12:33:58 PM
; Settings Summary
;   processName,Process1
;   applyToModels,Grate,Grate(2)
;   profileName,MakerBot Replicator 2 HBP (modified)
;   profileVersion,2019-08-23 15:32:08
;   baseProfile,MakerBot Replicator 2(2)
;   printMaterial,PLA
;   printQuality,Medium
;   printExtruders,
;   extruderName,Primary Extruder
;   extruderToolheadNumber,0
;   extruderDiameter,0.4
;   extruderAutoWidth,0
;   extruderWidth,0.4
;   extrusionMultiplier,1
;   extruderUseRetract,1
;   extruderRetractionDistance,1
;   extruderExtraRestartDistance,0
;   extruderRetractionZLift,0.5
;   extruderRetractionSpeed,1200
;   extruderUseCoasting,0
;   extruderCoastingDistance,0.2
;   extruderUseWipe,0
;   extruderWipeDistance,5
;   primaryExtruder,0
;   layerHeight,0.2
;   topSolidLayers,3
;   bottomSolidLayers,3
;   perimeterOutlines,2
;   printPerimetersInsideOut,1
;   startPointOption,3
;   startPointOriginX,0
;   startPointOriginY,150
;   sequentialIslands,0
;   spiralVaseMode,0
;   firstLayerHeightPercentage,100
;   firstLayerWidthPercentage,100
;   firstLayerUnderspeed,0.5
;   useRaft,0
;   raftExtruder,0
;   raftTopLayers,2
;   raftBaseLayers,1
;   raftOffset,1
;   raftSeparationDistance,0.14
;   raftTopInfill,90
;   aboveRaftSpeedMultiplier,0.3
;   useSkirt,0
;   skirtExtruder,0
;   skirtLayers,1
;   skirtOutlines,5
;   skirtOffset,0
;   usePrimePillar,0
;   primePillarExtruder,999
;   primePillarWidth,12
;   primePillarLocation,7
;   primePillarSpeedMultiplier,1
;   useOozeShield,0
;   oozeShieldExtruder,999
;   oozeShieldOffset,2
;   oozeShieldOutlines,1
;   oozeShieldSidewallShape,1
;   oozeShieldSidewallAngle,30
;   oozeShieldSpeedMultiplier,1
;   infillExtruder,0
;   internalInfillPattern,Rectilinear
;   externalInfillPattern,Rectilinear
;   infillPercentage,15
;   outlineOverlapPercentage,20
;   infillExtrusionWidthPercentage,100
;   minInfillLength,5
;   infillLayerInterval,1
;   internalInfillAngles,45,-45
;   overlapInternalInfillAngles,0
;   externalInfillAngles,45,-45
;   generateSupport,0
;   supportExtruder,0
;   supportInfillPercentage,10
;   supportExtraInflation,0.5
;   supportBaseLayers,0
;   denseSupportExtruder,0
;   denseSupportLayers,2
;   denseSupportInfillPercentage,70
;   supportLayerInterval,1
;   supportHorizontalPartOffset,0.3
;   supportUpperSeparationLayers,1
;   supportLowerSeparationLayers,1
;   supportType,0
;   supportGridSpacing,2
;   maxOverhangAngle,45
;   supportAngles,0
;   temperatureName,Primary Extruder,Heated Build Platform
;   temperatureNumber,0,0
;   temperatureSetpointCount,1,1
;   temperatureSetpointLayers,1,1
;   temperatureSetpointTemperatures,230,60
;   temperatureStabilizeAtStartup,1,1
;   temperatureHeatedBed,0,1
;   fanLayers,1,2
;   fanSpeeds,0,100
;   blipFanToFullPower,1
;   adjustSpeedForCooling,1
;   minSpeedLayerTime,15
;   minCoolingSpeedSlowdown,20
;   increaseFanForCooling,1
;   minFanLayerTime,45
;   maxCoolingFanSpeed,100
;   increaseFanForBridging,1
;   bridgingFanSpeed,100
;   use5D,1
;   relativeEdistances,1
;   allowEaxisZeroing,0
;   independentExtruderAxes,1
;   includeM10123,0
;   stickySupport,1
;   applyToolheadOffsets,0
;   gcodeXoffset,0
;   gcodeYoffset,0
;   gcodeZoffset,0
;   overrideMachineDefinition,1
;   machineTypeOverride,0
;   strokeXoverride,280
;   strokeYoverride,150
;   strokeZoverride,150
;   originOffsetXoverride,140
;   originOffsetYoverride,75
;   originOffsetZoverride,0
;   homeXdirOverride,1
;   homeYdirOverride,1
;   homeZdirOverride,-1
;   flipXoverride,1
;   flipYoverride,-1
;   flipZoverride,1
;   toolheadOffsets,0,0|0,0|0,0|0,0|0,0|0,0
;   overrideFirmwareConfiguration,1
;   firmwareTypeOverride,MakerBot/Sailfish Firmware
;   GPXconfigOverride,r2h
;   baudRateOverride,115200
;   overridePrinterModels,1
;   printerModelsOverride,MakerBot_Replicator2.stl
;   startingGcode,; **** Replicator 2 start.gcode ****,M73 P0 ; enable build progress,G162 X Y F3000 ; home XY maximum,G161 Z F1200 ; home Z minimum,G92 Z-5 ; set Z to -5,G1 Z0 ; move Z to 0,G161 Z F100 ; home Z slowly,M132 X Y Z A B ; recall home offsets,G1 X-145 Y-75 Z30 F9000 ; move to wait position off table,G130 X20 Y20 Z20 A20 B20 ; lower stepper Vrefs while heating,M126 S[fan_speed_pwm],M140 S[bed0_temperature] T0,M134 T0 ; stabilize bed temperature,M104 S[extruder0_temperature] T0,M133 T0 ; stabilize extruder temperature,G130 X127 Y127 Z40 A127 B127 ; default stepper Vrefs,G92 A0 ; zero extruder,G1 Z0.4 ; position nozzle,G1 E25 F300 ; purge nozzle,G1 X-140 Y-70 Z0.15 F1200 ; slow wipe,G1 X-135 Y-65 Z0.5 F1200 ; lift,G92 A0 ; zero extruder,M73 P1 ;@body (notify GPX body has started),; **** end of start.gcode ****
;   layerChangeGcode,
;   retractionGcode,
;   toolChangeGcode,
;   endingGcode,; **** Replicator 2 end.gcode ****,M73 P100 ; end build progress,G1 Z155 F1000 ; send Z axis to bottom of machine,M104 S0 T0 ; cool down extruder,M140 S0 T0 ; cool down HBP,M127 ; stop blower fan,G162 X Y F3000 ; home XY maximum,M18 ; disable stepper,M0 ; stop codes,M72 P1 ; play Ta-Da song,; **** end of end.gcode ****
;   exportFileFormat,gcode
;   celebration,0
;   celebrationSong,Random Song
;   postProcessing,
;   defaultSpeed,4800
;   outlineUnderspeed,0.5
;   solidInfillUnderspeed,1
;   supportUnderspeed,1
;   rapidXYspeed,9000
;   rapidZspeed,1200
;   minBridgingArea,50
;   bridgingExtraInflation,0
;   bridgingExtrusionMultiplier,1
;   bridgingSpeedMultiplier,0.8
;   useFixedBridgingAngle,0
;   fixedBridgingAngle,0
;   applyBridgingToPerimeters,0
;   filamentDiameters,1.75|1.75|1.75|1.75|1.75|1.75
;   filamentPricesPerKg,46|46|46|46|46|46
;   filamentDensities,1.25|1.25|1.25|1.25|1.25|1.25
;   useMinPrintHeight,0
;   minPrintHeight,0
;   useMaxPrintHeight,0
;   maxPrintHeight,4.84
;   useDiaphragm,0
;   diaphragmLayerInterval,20
;   robustSlicing,1
;   mergeAllIntoSolid,0
;   onlyRetractWhenCrossingOutline,0
;   retractBetweenLayers,0
;   useRetractionMinTravel,1
;   retractionMinTravel,7
;   retractWhileWiping,1
;   onlyWipeOutlines,1
;   avoidCrossingOutline,0
;   maxMovementDetourFactor,3
;   toolChangeRetractionDistance,12
;   toolChangeExtraRestartDistance,-0.5
;   toolChangeRetractionSpeed,600
;   externalThinWallType,0
;   internalThinWallType,0
;   thinWallAllowedOverlapPercentage,10
;   singleExtrusionMinLength,1
;   singleExtrusionMinPrintingWidthPercentage,50
;   singleExtrusionMaxPrintingWidthPercentage,200
;   singleExtrusionEndpointExtension,0.2
;   horizontalSizeCompensation,0
G90
M83
; **** Replicator 2 start.gcode ****
M73 P0 ; enable build progress
G162 X Y F3000 ; home XY maximum
G161 Z F1200 ; home Z minimum
G92 Z-5 ; set Z to -5
G1 Z0 ; move Z to 0
G161 Z F100 ; home Z slowly
M132 X Y Z A B ; recall home offsets
G1 X-145 Y-75 Z30 F9000 ; move to wait position off table
G130 X20 Y20 Z20 A20 B20 ; lower stepper Vrefs while heating
M127
M140 S60 T0
M134 T0 ; stabilize bed temperature
M104 S230 T0
M133 T0 ; stabilize extruder temperature
G130 X127 Y127 Z40 A127 B127 ; default stepper Vrefs
G92 A0 ; zero extruder
G1 Z0.4 ; position nozzle
G1 E25 F300 ; purge nozzle
G1 X-140 Y-70 Z0.15 F1200 ; slow wipe
G1 X-135 Y-65 Z0.5 F1200 ; lift
G92 A0 ; zero extruder
M73 P1 ;@body (notify GPX body has started)
; **** end of start.gcode ****
; process Process1
; layer 1, Z = 0.200
M135 T0
G1 E-1.0000 F1200
; feature inner perimeter
; tool H0.200 W0.400
G1 Z0.500 F1200
G1 X-3.156 Y1.205 F9000
G1 Z0.200 F1200
G1 E1.0000 F1200
G1 X-3.115 Y0.588 E0.0206 F1800
G1 X-3.123 Y0.882 E0.0098
G1 X-3.156 Y1.205 E0.0108
G1 X-3.284 Y2.442 F9000
G1 X-3.307 Y2.658 E0.0072 F1800
G1 X-3.336 Y2.797 E0.0047
G1 X-3.284 Y2.442 E0.0120
G1 X-3.644 Y4.273 F9000
G1 X-3.670 Y4.399 E0.0043 F1800
G1 X-3.777 Y4.734 E0.0117
G1 X-3.644 Y4.273 E0.0160
G1 X-4.149 Y5.899 F9000
G1 X-4.214 Y6.102 E0.0071 F1800
G1 X-4.422 Y6.620 E0.0186
G1 X-4.149 Y5.899 E0.0257
G1 X-5.786 Y9.246 F9000
G1 X-5.809 Y9.285 E0.0015 F1800
G1 X-5.931 Y9.456 E0.0070
G1 X-5.786 Y9.246 E0.0085
G1 X-7.751 Y11.775 F9000
G1 X-8.016 Y12.068 E0.0131 F1800
G1 X-8.423 Y12.445 E0.0184
G1 X-7.751 Y11.775 E0.0315
G1 X-9.102 Y13.073 F9000
G1 X-9.318 Y13.272 E0.0098 F1800
G1 X-9.632 Y13.527 E0.0135
G1 X-9.968 Y13.773 E0.0139
G1 X-9.102 Y13.073 E0.0371
G1 X-10.351 Y14.053 F9000
G1 X-10.728 Y14.330 E0.0156 F1800
G1 X-11.378 Y14.720 E0.0252
G1 X-11.543 Y14.053 E0.0228
G1 X-10.351 Y14.053 E0.0397
G1 X-12.090 Y15.147 F9000
G1 X-12.256 Y15.247 E0.0064 F1800
G1 X-12.443 Y15.334 E0.0068
G1 X-12.090 Y15.147 E0.0133
G1 X-13.416 Y15.790 F9000
G1 X-13.867 Y16.001 E0.0165 F1800
G1 X-14.127 Y16.091 E0.0092
G1 X-13.416 Y15.790 E0.0257
G1 X-15.061 Y16.416 F9000
G1 X-15.547 Y16.585 E0.0171 F1800
G1 X-15.793 Y16.644 E0.0084
G1 X-15.061 Y16.416 E0.0255
G1 X-16.760 Y16.872 F9000
G1 X-17.278 Y16.994 E0.0177 F1800
G1 X-17.508 Y17.024 E0.0077
G1 X-16.760 Y16.872 E0.0254
G1 X-18.498 Y17.152 F9000
G1 X-19.041 Y17.222 E0.0182 F1800
G1 X-19.251 Y17.228 E0.0070
G1 X-18.498 Y17.152 E0.0252
G1 X-20.259 Y17.254 F9000
G1 X-20.819 Y17.268 E0.0186 F1800
G1 X-21.006 Y17.254 E0.0062
G1 X-20.259 Y17.254 E0.0248
G1 X-22.023 Y17.175 F9000
G1 X-22.593 Y17.131 E0.0190 F1800
G1 X-22.755 Y17.101 E0.0055
G1 X-22.023 Y17.175 E0.0245
G1 X-23.772 Y16.916 F9000
G1 X-24.342 Y16.812 E0.0193 F1800
G1 X-24.479 Y16.772 E0.0047
G1 X-23.772 Y16.916 E0.0240
G1 X-25.492 Y16.477 F9000
G1 X-26.050 Y16.315 E0.0193 F1800
G1 X-26.160 Y16.270 E0.0040
G1 X-25.492 Y16.477 E0.0233
G1 X-27.164 Y15.862 F9000
G1 X-27.697 Y15.645 E0.0191 F1800
G1 X-27.783 Y15.599 E0.0032
G1 X-27.164 Y15.862 E0.0224
G1 X-29.376 Y14.736 F9000
G1 X-30.390 Y14.053 E0.0407 F1800
G1 X-29.206 Y14.053 E0.0394
G1 X-29.376 Y14.736 E0.0234
G1 X-30.657 Y13.874 F9000
G1 X-30.751 Y13.811 E0.0037 F1800
G1 X-31.132 Y13.513 E0.0161
G1 X-31.629 Y13.088 E0.0217
G1 X-30.657 Y13.874 E0.0416
G1 X-32.004 Y12.766 F9000
G1 X-32.117 Y12.669 E0.0049 F1800
G1 X-32.634 Y12.138 E0.0246
G1 X-32.004 Y12.766 E0.0296
G1 X-33.341 Y11.412 F9000
G1 X-33.356 Y11.396 E0.0007 F1800
G1 X-33.396 Y11.350 E0.0020
G1 X-33.341 Y11.412 E0.0028
G1 X-34.335 Y10.163 F9000
G1 X-34.451 Y10.012 E0.0063 F1800
G1 X-34.621 Y9.744 E0.0106
G1 X-34.335 Y10.163 E0.0169
G1 X-35.229 Y8.789 F9000
G1 X-35.408 Y8.508 E0.0111 F1800
G1 X-35.584 Y8.156 E0.0131
G1 X-35.229 Y8.789 E0.0242
G1 X-36.795 Y5.348 F9000
G1 X-36.830 Y5.253 E0.0034 F1800
G1 X-36.916 Y4.928 E0.0112
G1 X-36.795 Y5.348 E0.0145
G1 X-37.554 Y1.797 F9000
G1 X-37.557 Y1.776 E0.0007 F1800
G1 X-37.563 Y1.650 E0.0042
G1 X-37.554 Y1.797 E0.0049
G1 X-36.883 Y-5.053 F9000
G1 X-36.830 Y-5.253 E0.0069 F1800
G1 X-36.807 Y-5.314 E0.0022
G1 X-36.883 Y-5.053 E0.0090
G1 X-35.545 Y-8.234 F9000
G1 X-35.408 Y-8.508 E0.0102 F1800
G1 X-35.263 Y-8.736 E0.0090
G1 X-35.545 Y-8.234 E0.0192
G1 X-34.683 Y-9.648 F9000
G1 X-34.451 Y-10.012 E0.0144 F1800
G1 X-34.284 Y-10.229 E0.0091
G1 X-34.683 Y-9.648 E0.0235
G1 X-32.183 Y-12.600 F9000
G1 X-32.106 Y-12.680 E0.0037 F1800
G1 X-31.447 Y-13.243 E0.0288
G1 X-32.183 Y-12.600 E0.0325
G1 X-31.096 Y-13.543 F9000
G1 X-31.077 Y-13.559 E0.0008 F1800
G1 X-30.752 Y-13.810 E0.0137
G1 X-30.660 Y-13.872 E0.0037
G1 X-31.096 Y-13.543 E0.0182
G1 X-30.252 Y-14.147 F9000
G1 X-29.267 Y-14.809 E0.0395 F1800
G1 X-29.208 Y-14.841 E0.0022
G1 X-29.043 Y-14.147 E0.0237
G1 X-30.252 Y-14.147 E0.0402
G1 X-28.122 Y-15.419 F9000
G1 X-27.697 Y-15.645 E0.0160 F1800
G1 X-27.565 Y-15.699 E0.0048
G1 X-28.122 Y-15.419 E0.0207
G1 X-26.651 Y-16.070 F9000
G1 X-26.050 Y-16.315 E0.0216 F1800
G1 X-25.900 Y-16.359 E0.0052
G1 X-26.651 Y-16.070 E0.0268
G1 X-25.018 Y-16.615 F9000
G1 X-24.342 Y-16.812 E0.0234 F1800
G1 X-24.165 Y-16.844 E0.0060
G1 X-25.018 Y-16.615 E0.0294
G1 X-23.229 Y-17.015 F9000
G1 X-22.593 Y-17.131 E0.0215 F1800
G1 X-22.402 Y-17.146 E0.0064
G1 X-23.229 Y-17.015 E0.0278
G1 X-21.454 Y-17.219 F9000
G1 X-20.819 Y-17.268 E0.0212 F1800
G1 X-20.615 Y-17.263 E0.0068
G1 X-21.454 Y-17.219 E0.0279
G1 X-19.667 Y-17.238 F9000
G1 X-19.041 Y-17.222 E0.0208 F1800
G1 X-18.826 Y-17.194 E0.0072
G1 X-19.667 Y-17.238 E0.0280
G1 X-17.887 Y-17.073 F9000
G1 X-17.278 Y-16.994 E0.0204 F1800
G1 X-17.054 Y-16.941 E0.0076
G1 X-17.887 Y-17.073 E0.0280
G1 X-16.153 Y-16.728 F9000
G1 X-15.547 Y-16.585 E0.0207 F1800
G1 X-15.299 Y-16.499 E0.0087
G1 X-16.153 Y-16.728 E0.0294
G1 X-14.409 Y-16.190 F9000
G1 X-13.867 Y-16.001 E0.0191 F1800
G1 X-13.637 Y-15.894 E0.0084
G1 X-14.409 Y-16.190 E0.0275
G1 X-12.687 Y-15.449 F9000
G1 X-12.256 Y-15.247 E0.0158 F1800
G1 X-12.104 Y-15.156 E0.0059
G1 X-12.687 Y-15.449 E0.0217
G1 X-11.546 Y-14.821 F9000
G1 X-10.728 Y-14.330 E0.0317 F1800
G1 X-10.478 Y-14.147 E0.0103
G1 X-11.706 Y-14.147 E0.0408
G1 X-11.546 Y-14.821 E0.0230
G1 X-9.650 Y-13.541 F9000
G1 X-9.632 Y-13.527 E0.0008 F1800
G1 X-9.625 Y-13.522 E0.0003
G1 X-9.650 Y-13.541 E0.0011
G1 X-9.576 Y-13.482 F9000
G1 X-9.318 Y-13.272 E0.0111 F1800
G1 X-9.016 Y-12.993 E0.0137
G1 X-9.576 Y-13.482 E0.0248
G1 X-8.179 Y-12.218 F9000
G1 X-8.004 Y-12.056 E0.0079 F1800
G1 X-7.794 Y-11.818 E0.0106
G1 X-8.179 Y-12.218 E0.0184
G1 X-6.026 Y-9.589 F9000
G1 X-5.799 Y-9.271 E0.0130 F1800
G1 X-5.762 Y-9.204 E0.0025
G1 X-6.026 Y-9.589 E0.0155
G1 X-4.479 Y-6.760 F9000
G1 X-4.471 Y-6.744 E0.0006 F1800
G1 X-4.214 Y-6.102 E0.0230
G1 X-4.131 Y-5.843 E0.0091
G1 X-4.479 Y-6.760 E0.0326
G1 X-3.740 Y-4.616 F9000
G1 X-3.670 Y-4.399 E0.0076 F1800
G1 X-3.654 Y-4.320 E0.0027
G1 X-3.740 Y-4.616 E0.0103
G1 X-3.347 Y-2.850 F9000
G1 X-3.307 Y-2.658 E0.0065 F1800
G1 X-3.277 Y-2.368 E0.0097
G1 X-3.347 Y-2.850 E0.0162
G1 X-3.148 Y-1.122 F9000
G1 X-3.123 Y-0.882 E0.0080 F1800
G1 X-3.117 Y-0.670 E0.0070
G1 X-3.148 Y-1.122 E0.0151
; feature outer perimeter
G1 X-2.723 Y-0.907 F9000
G1 X-2.700 Y0.000 E0.0302 F1200
G1 X-2.723 Y0.907 E0.0302
G1 X-2.911 Y2.720 E0.0606
G1 X-3.283 Y4.501 E0.0605
G1 X-3.837 Y6.238 E0.0606
G1 X-4.104 Y6.902 E0.0238
G1 X-4.564 Y7.900 E0.0366
G1 X-5.471 Y9.500 E0.0612
G1 X-6.518 Y10.971 E0.0601
G1 X-6.838 Y11.361 E0.0168
G1 X-7.731 Y12.350 E0.0443
G1 X-9.055 Y13.574 E0.0600
G1 X-9.387 Y13.844 E0.0142
G1 X-10.507 Y14.663 E0.0461
G1 X-12.068 Y15.601 E0.0606
G1 X-13.716 Y16.372 E0.0605
G1 X-15.435 Y16.970 E0.0605
G1 X-17.206 Y17.388 E0.0605
G1 X-19.011 Y17.622 E0.0605
G1 X-20.830 Y17.668 E0.0605
G1 X-22.644 Y17.528 E0.0605
G1 X-24.434 Y17.202 E0.0605
G1 X-26.181 Y16.693 E0.0605
G1 X-27.867 Y16.008 E0.0605
G1 X-29.473 Y15.152 E0.0605
G1 X-30.986 Y14.135 E0.0606
G1 X-31.386 Y13.823 E0.0169
G1 X-32.391 Y12.961 E0.0440
G1 X-33.653 Y11.665 E0.0602
G1 X-33.979 Y11.280 E0.0168
G1 X-34.779 Y10.242 E0.0436
G1 X-35.756 Y8.705 E0.0606
G1 X-36.570 Y7.078 E0.0605
G1 X-37.212 Y5.375 E0.0605
G1 X-37.675 Y3.615 E0.0605
G1 X-37.955 Y1.817 E0.0605
G1 X-38.049 Y0.000 E0.0605
G1 X-37.955 Y-1.817 E0.0605
G1 X-37.675 Y-3.615 E0.0605
G1 X-37.212 Y-5.375 E0.0605
G1 X-36.570 Y-7.078 E0.0605
G1 X-35.756 Y-8.706 E0.0605
G1 X-34.779 Y-10.242 E0.0606
G1 X-33.938 Y-11.332 E0.0458
G1 X-33.653 Y-11.665 E0.0146
G1 X-32.379 Y-12.972 E0.0607
G1 X-31.330 Y-13.870 E0.0459
G1 X-30.986 Y-14.134 E0.0144
G1 X-29.473 Y-15.152 E0.0607
G1 X-27.867 Y-16.008 E0.0605
G1 X-26.181 Y-16.693 E0.0605
G1 X-24.434 Y-17.202 E0.0605
G1 X-22.644 Y-17.528 E0.0605
G1 X-20.830 Y-17.668 E0.0605
G1 X-19.011 Y-17.622 E0.0605
G1 X-17.206 Y-17.388 E0.0605
G1 X-15.435 Y-16.970 E0.0605
G1 X-13.716 Y-16.372 E0.0605
G1 X-12.068 Y-15.601 E0.0605
G1 X-10.507 Y-14.663 E0.0606
G1 X-9.387 Y-13.844 E0.0461
G1 X-9.055 Y-13.574 E0.0142
G1 X-7.717 Y-12.336 E0.0607
G1 X-6.516 Y-10.969 E0.0605
G1 X-5.461 Y-9.486 E0.0605
G1 X-4.564 Y-7.900 E0.0606
G1 X-4.104 Y-6.902 E0.0366
G1 X-3.837 Y-6.238 E0.0238
G1 X-3.283 Y-4.501 E0.0606
G1 X-2.911 Y-2.720 E0.0605
G1 X-2.723 Y-0.907 E0.0606
G1 X-3.497 Y-0.347 F9000
G1 X-3.591 Y-1.747 E0.0467 F1200
G1 X-3.808 Y-3.247 E0.0504
G1 X-36.941 Y-3.247 E1.1020
G1 X-37.159 Y-1.747 E0.0504
G1 X-37.253 Y-0.347 E0.0467
G1 X-3.497 Y-0.347 E1.1227
G1 X-3.494 Y0.253 F9000
G1 X-37.255 Y0.253 E1.1229 F1200
G1 X-37.152 Y1.814 E0.0520
G1 X-36.958 Y3.153 E0.0450
G1 X-3.791 Y3.153 E1.1031
G1 X-3.598 Y1.815 E0.0450
G1 X-3.494 Y0.253 E0.0521
G1 X-3.910 Y3.753 F9000
