; G-Code generated by Simplify3D(R) Version 4.1.2
; Apr 6, 2020 at 12:34:13 PM
; Settings Summary
;   processName,Process1
;   applyToModels,Grate,Grate(2),Grate(3),Grate(2)(2)
;   profileName,MakerBot Replicator 2 HBP (modified)
;   profileVersion,2019-08-23 15:32:08
;   baseProfile,MakerBot Replicator 2(2)
;   printMaterial,PLA
;   printQuality,Medium
;   printExtruders,
;   extruderName,Primary Extruder
;   extruderToolheadNumber,0
;   extruderDiameter,0.4
;   extruderAutoWidth,0
;   extruderWidth,0.4
;   extrusionMultiplier,1
;   extruderUseRetract,1
;   extruderRetractionDistance,1
;   extruderExtraRestartDistance,0
;   extruderRetractionZLift,0.5
;   extruderRetractionSpeed,1200
;   extruderUseCoasting,0
;   extruderCoastingDistance,0.2
;   extruderUseWipe,0
;   extruderWipeDistance,5
;   primaryExtruder,0
;   layerHeight,0.2
;   topSolidLayers,3
;   bottomSolidLayers,3
;   perimeterOutlines,2
;   printPerimetersInsideOut,1
;   startPointOption,3
;   startPointOriginX,0
;   startPointOriginY,150
;   sequentialIslands,0
;   spiralVaseMode,0
;   firstLayerHeightPercentage,100
;   firstLayerWidthPercentage,100
;   firstLayerUnderspeed,0.5
;   useRaft,0
;   raftExtruder,0
;   raftTopLayers,2
;   raftBaseLayers,1
;   raftOffset,1
;   raftSeparationDistance,0.14
;   raftTopInfill,90
;   aboveRaftSpeedMultiplier,0.3
;   useSkirt,0
;   skirtExtruder,0
;   skirtLayers,1
;   skirtOutlines,5
;   skirtOffset,0
;   usePrimePillar,0
;   primePillarExtruder,999
;   primePillarWidth,12
;   primePillarLocation,7
;   primePillarSpeedMultiplier,1
;   useOozeShield,0
;   oozeShieldExtruder,999
;   oozeShieldOffset,2
;   oozeShieldOutlines,1
;   oozeShieldSidewallShape,1
;   oozeShieldSidewallAngle,30
;   oozeShieldSpeedMultiplier,1
;   infillExtruder,0
;   internalInfillPattern,Rectilinear
;   externalInfillPattern,Rectilinear
;   infillPercentage,15
;   outlineOverlapPercentage,20
;   infillExtrusionWidthPercentage,100
;   minInfillLength,5
;   infillLayerInterval,1
;   internalInfillAngles,45,-45
;   overlapInternalInfillAngles,0
;   externalInfillAngles,45,-45
;   generateSupport,0
;   supportExtruder,0
;   supportInfillPercentage,10
;   supportExtraInflation,0.5
;   supportBaseLayers,0
;   denseSupportExtruder,0
;   denseSupportLayers,2
;   denseSupportInfillPercentage,70
;   supportLayerInterval,1
;   supportHorizontalPartOffset,0.3
;   supportUpperSeparationLayers,1
;   supportLowerSeparationLayers,1
;   supportType,0
;   supportGridSpacing,2
;   maxOverhangAngle,45
;   supportAngles,0
;   temperatureName,Primary Extruder,Heated Build Platform
;   temperatureNumber,0,0
;   temperatureSetpointCount,1,1
;   temperatureSetpointLayers,1,1
;   temperatureSetpointTemperatures,230,60
;   temperatureStabilizeAtStartup,1,1
;   temperatureHeatedBed,0,1
;   fanLayers,1,2
;   fanSpeeds,0,100
;   blipFanToFullPower,1
;   adjustSpeedForCooling,1
;   minSpeedLayerTime,15
;   minCoolingSpeedSlowdown,20
;   increaseFanForCooling,1
;   minFanLayerTime,45
;   maxCoolingFanSpeed,100
;   increaseFanForBridging,1
;   bridgingFanSpeed,100
;   use5D,1
;   relativeEdistances,1
;   allowEaxisZeroing,0
;   independentExtruderAxes,1
;   includeM10123,0
;   stickySupport,1
;   applyToolheadOffsets,0
;   gcodeXoffset,0
;   gcodeYoffset,0
;   gcodeZoffset,0
;   overrideMachineDefinition,1
;   machineTypeOverride,0
;   strokeXoverride,280
;   strokeYoverride,150
;   strokeZoverride,150
;   originOffsetXoverride,140
;   originOffsetYoverride,75
;   originOffsetZoverride,0
;   homeXdirOverride,1
;   homeYdirOverride,1
;   homeZdirOverride,-1
;   flipXoverride,1
;   flipYoverride,-1
;   flipZoverride,1
;   toolheadOffsets,0,0|0,0|0,0|0,0|0,0|0,0
;   overrideFirmwareConfiguration,1
;   firmwareTypeOverride,MakerBot/Sailfish Firmware
;   GPXconfigOverride,r2h
;   baudRateOverride,115200
;   overridePrinterModels,1
;   printerModelsOverride,MakerBot_Replicator2.stl
;   startingGcode,; **** Replicator 2 start.gcode ****,M73 P0 ; enable build progress,G162 X Y F3000 ; home XY maximum,G161 Z F1200 ; home Z minimum,G92 Z-5 ; set Z to -5,G1 Z0 ; move Z to 0,G161 Z F100 ; home Z slowly,M132 X Y Z A B ; recall home offsets,G1 X-145 Y-75 Z30 F9000 ; move to wait position off table,G130 X20 Y20 Z20 A20 B20 ; lower stepper Vrefs while heating,M126 S[fan_speed_pwm],M140 S[bed0_temperature] T0,M134 T0 ; stabilize bed temperature,M104 S[extruder0_temperature] T0,M133 T0 ; stabilize extruder temperature,G130 X127 Y127 Z40 A127 B127 ; default stepper Vrefs,G92 A0 ; zero extruder,G1 Z0.4 ; position nozzle,G1 E25 F300 ; purge nozzle,G1 X-140 Y-70 Z0.15 F1200 ; slow wipe,G1 X-135 Y-65 Z0.5 F1200 ; lift,G92 A0 ; zero extruder,M73 P1 ;@body (notify GPX body has started),; **** end of start.gcode ****
;   layerChangeGcode,
;   retractionGcode,
;   toolChangeGcode,
;   endingGcode,; **** Replicator 2 end.gcode ****,M73 P100 ; end build progress,G1 Z155 F1000 ; send Z axis to bottom of machine,M104 S0 T0 ; cool down extruder,M140 S0 T0 ; cool down HBP,M127 ; stop blower fan,G162 X Y F3000 ; home XY maximum,M18 ; disable stepper,M0 ; stop codes,M72 P1 ; play Ta-Da song,; **** end of end.gcode ****
;   exportFileFormat,gcode
;   celebration,0
;   celebrationSong,Random Song
;   postProcessing,
;   defaultSpeed,4800
;   outlineUnderspeed,0.5
;   solidInfillUnderspeed,1
;   supportUnderspeed,1
;   rapidXYspeed,9000
;   rapidZspeed,1200
;   minBridgingArea,50
;   bridgingExtraInflation,0
;   bridgingExtrusionMultiplier,1
;   bridgingSpeedMultiplier,0.8
;   useFixedBridgingAngle,0
;   fixedBridgingAngle,0
;   applyBridgingToPerimeters,0
;   filamentDiameters,1.75|1.75|1.75|1.75|1.75|1.75
;   filamentPricesPerKg,46|46|46|46|46|46
;   filamentDensities,1.25|1.25|1.25|1.25|1.25|1.25
;   useMinPrintHeight,0
;   minPrintHeight,0
;   useMaxPrintHeight,0
;   maxPrintHeight,4.84
;   useDiaphragm,0
;   diaphragmLayerInterval,20
;   robustSlicing,1
;   mergeAllIntoSolid,0
;   onlyRetractWhenCrossingOutline,0
;   retractBetweenLayers,0
;   useRetractionMinTravel,1
;   retractionMinTravel,7
;   retractWhileWiping,1
;   onlyWipeOutlines,1
;   avoidCrossingOutline,0
;   maxMovementDetourFactor,3
;   toolChangeRetractionDistance,12
;   toolChangeExtraRestartDistance,-0.5
;   toolChangeRetractionSpeed,600
;   externalThinWallType,0
;   internalThinWallType,0
;   thinWallAllowedOverlapPercentage,10
;   singleExtrusionMinLength,1
;   singleExtrusionMinPrintingWidthPercentage,50
;   singleExtrusionMaxPrintingWidthPercentage,200
;   singleExtrusionEndpointExtension,0.2
;   horizontalSizeCompensation,0
G90
M83
; **** Replicator 2 start.gcode ****
M73 P0 ; enable build progress
G162 X Y F3000 ; home XY maximum
G161 Z F1200 ; home Z minimum
G92 Z-5 ; set Z to -5
G1 Z0 ; move Z to 0
G161 Z F100 ; home Z slowly
M132 X Y Z A B ; recall home offsets
G1 X-145 Y-75 Z30 F9000 ; move to wait position off table
G130 X20 Y20 Z20 A20 B20 ; lower stepper Vrefs while heating
M127
M140 S60 T0
M134 T0 ; stabilize bed temperature
M104 S230 T0
M133 T0 ; stabilize extruder temperature
G130 X127 Y127 Z40 A127 B127 ; default stepper Vrefs
G92 A0 ; zero extruder
G1 Z0.4 ; position nozzle
G1 E25 F300 ; purge nozzle
G1 X-140 Y-70 Z0.15 F1200 ; slow wipe
G1 X-135 Y-65 Z0.5 F1200 ; lift
G92 A0 ; zero extruder
M73 P1 ;@body (notify GPX body has started)
; **** end of start.gcode ****
; process Process1
; layer 1, Z = 0.200
M135 T0
G1 E-1.0000 F1200
; feature inner perimeter
; tool H0.200 W0.400
G1 Z0.500 F1200
G1 X-0.445 Y-3.101 F9000
G1 Z0.200 F1200
G1 E1.0000 F1200
G1 X-0.631 Y-3.115 E0.0062 F1800
G1 X0.116 Y-3.115 E0.0248
G1 X-0.445 Y-3.101 E0.0186
G1 X-1.648 Y-3.194 F9000
G1 X-2.218 Y-3.238 E0.0190 F1800
G1 X-2.380 Y-3.267 E0.0055
G1 X-1.648 Y-3.194 E0.0245
G1 X-3.398 Y-3.453 F9000
G1 X-3.968 Y-3.557 E0.0193 F1800
G1 X-4.104 Y-3.596 E0.0047
G1 X-3.398 Y-3.453 E0.0240
G1 X-5.117 Y-3.891 F9000
G1 X-5.675 Y-4.054 E0.0193 F1800
G1 X-5.786 Y-4.099 E0.0040
G1 X-5.117 Y-3.891 E0.0233
G1 X-6.789 Y-4.507 F9000
G1 X-7.323 Y-4.724 E0.0192 F1800
G1 X-7.408 Y-4.769 E0.0032
G1 X-6.789 Y-4.507 E0.0224
G1 X-9.001 Y-5.633 F9000
G1 X-10.016 Y-6.315 E0.0407 F1800
G1 X-8.831 Y-6.315 E0.0394
G1 X-9.001 Y-5.633 E0.0234
G1 X-10.283 Y-6.495 F9000
G1 X-10.376 Y-6.558 E0.0037 F1800
G1 X-10.758 Y-6.855 E0.0161
G1 X-11.254 Y-7.281 E0.0218
G1 X-10.283 Y-6.495 E0.0416
G1 X-11.630 Y-7.603 F9000
G1 X-11.742 Y-7.700 E0.0049 F1800
G1 X-12.259 Y-8.230 E0.0246
G1 X-11.630 Y-7.603 E0.0296
G1 X-12.966 Y-8.956 F9000
G1 X-12.982 Y-8.972 E0.0007 F1800
G1 X-13.021 Y-9.019 E0.0020
G1 X-12.966 Y-8.956 E0.0028
G1 X-13.961 Y-10.206 F9000
G1 X-14.076 Y-10.357 E0.0063 F1800
G1 X-14.247 Y-10.624 E0.0106
G1 X-13.961 Y-10.206 E0.0169
G1 X-14.854 Y-11.579 F9000
G1 X-15.033 Y-11.860 E0.0111 F1800
G1 X-15.209 Y-12.213 E0.0131
G1 X-14.854 Y-11.579 E0.0242
G1 X-16.420 Y-15.021 F9000
G1 X-16.456 Y-15.115 E0.0034 F1800
G1 X-16.541 Y-15.441 E0.0112
G1 X-16.420 Y-15.021 E0.0145
G1 X-17.179 Y-18.572 F9000
G1 X-17.182 Y-18.593 E0.0007 F1800
G1 X-17.189 Y-18.719 E0.0042
G1 X-17.179 Y-18.572 E0.0049
G1 X-16.508 Y-25.421 F9000
G1 X-16.456 Y-25.622 E0.0069 F1800
G1 X-16.433 Y-25.683 E0.0022
G1 X-16.508 Y-25.421 E0.0090
G1 X-15.170 Y-28.602 F9000
G1 X-15.033 Y-28.877 E0.0102 F1800
G1 X-14.888 Y-29.105 E0.0090
G1 X-15.170 Y-28.602 E0.0192
G1 X-14.308 Y-30.017 F9000
G1 X-14.077 Y-30.381 E0.0144 F1800
G1 X-13.909 Y-30.598 E0.0091
G1 X-14.308 Y-30.017 E0.0235
G1 X-11.808 Y-32.969 F9000
G1 X-11.731 Y-33.048 E0.0037 F1800
G1 X-11.073 Y-33.611 E0.0288
G1 X-11.808 Y-32.969 E0.0325
G1 X-10.722 Y-33.912 F9000
G1 X-10.703 Y-33.928 E0.0008 F1800
G1 X-10.378 Y-34.178 E0.0137
G1 X-10.285 Y-34.241 E0.0037
G1 X-10.722 Y-33.912 E0.0182
G1 X-9.877 Y-34.515 F9000
G1 X-8.892 Y-35.178 E0.0395 F1800
G1 X-8.833 Y-35.209 E0.0022
G1 X-8.668 Y-34.515 E0.0237
G1 X-9.877 Y-34.515 E0.0402
G1 X-7.747 Y-35.787 F9000
G1 X-7.323 Y-36.014 E0.0160 F1800
G1 X-7.190 Y-36.067 E0.0048
G1 X-7.747 Y-35.787 E0.0207
G1 X-6.277 Y-36.439 F9000
G1 X-5.675 Y-36.684 E0.0216 F1800
G1 X-5.525 Y-36.727 E0.0052
G1 X-6.277 Y-36.439 E0.0268
G1 X-4.644 Y-36.984 F9000
G1 X-3.968 Y-37.181 E0.0234 F1800
G1 X-3.790 Y-37.213 E0.0060
G1 X-4.644 Y-36.984 E0.0294
G1 X-2.855 Y-37.383 F9000
G1 X-2.218 Y-37.499 E0.0215 F1800
G1 X-2.027 Y-37.514 E0.0064
G1 X-2.855 Y-37.383 E0.0279
G1 X-1.079 Y-37.588 F9000
G1 X-0.445 Y-37.637 E0.0212 F1800
G1 X-0.241 Y-37.631 E0.0068
G1 X-1.079 Y-37.588 E0.0279
G1 X0.707 Y-37.607 F9000
G1 X1.333 Y-37.591 E0.0208 F1800
G1 X1.548 Y-37.563 E0.0072
G1 X0.707 Y-37.607 E0.0280
G1 X2.487 Y-37.441 F9000
G1 X3.097 Y-37.363 E0.0204 F1800
G1 X3.321 Y-37.310 E0.0076
G1 X2.487 Y-37.441 E0.0281
G1 X4.221 Y-37.097 F9000
G1 X4.828 Y-36.954 E0.0207 F1800
G1 X5.076 Y-36.868 E0.0087
G1 X4.221 Y-37.097 E0.0294
G1 X5.965 Y-36.558 F9000
G1 X6.508 Y-36.370 E0.0191 F1800
G1 X6.737 Y-36.262 E0.0084
G1 X5.965 Y-36.558 E0.0275
G1 X7.688 Y-35.817 F9000
G1 X8.118 Y-35.616 E0.0158 F1800
G1 X8.270 Y-35.525 E0.0059
G1 X7.688 Y-35.817 E0.0217
G1 X8.828 Y-35.190 F9000
G1 X9.646 Y-34.698 E0.0317 F1800
G1 X9.897 Y-34.515 E0.0103
G1 X8.668 Y-34.515 E0.0409
G1 X8.828 Y-35.190 E0.0230
G1 X10.675 Y-33.947 F9000
G1 X10.685 Y-33.939 E0.0004 F1800
G1 X10.690 Y-33.935 E0.0002
G1 X10.675 Y-33.947 E0.0006
G1 X10.834 Y-33.820 F9000
G1 X11.058 Y-33.640 E0.0096 F1800
G1 X11.359 Y-33.361 E0.0136
G1 X10.834 Y-33.820 E0.0232
G1 X12.196 Y-32.586 F9000
G1 X12.371 Y-32.425 E0.0079 F1800
G1 X12.580 Y-32.187 E0.0105
G1 X12.196 Y-32.586 E0.0184
G1 X14.349 Y-29.957 F9000
G1 X14.575 Y-29.639 E0.0130 F1800
G1 X14.613 Y-29.573 E0.0025
G1 X14.349 Y-29.957 E0.0155
G1 X15.895 Y-27.129 F9000
G1 X15.903 Y-27.112 E0.0006 F1800
G1 X16.161 Y-26.471 E0.0230
G1 X16.243 Y-26.212 E0.0091
G1 X15.895 Y-27.129 E0.0326
G1 X16.635 Y-24.985 F9000
G1 X16.704 Y-24.768 E0.0076 F1800
G1 X16.721 Y-24.689 E0.0027
G1 X16.635 Y-24.985 E0.0103
G1 X17.028 Y-23.218 F9000
G1 X17.068 Y-23.027 E0.0065 F1800
G1 X17.098 Y-22.737 E0.0097
G1 X17.028 Y-23.218 E0.0162
G1 X17.227 Y-21.491 F9000
G1 X17.252 Y-21.250 E0.0080 F1800
G1 X17.257 Y-21.038 E0.0070
G1 X17.227 Y-21.491 E0.0151
G1 X17.259 Y-19.781 F9000
G1 X17.252 Y-19.487 E0.0098 F1800
G1 X17.218 Y-19.163 E0.0108
G1 X17.259 Y-19.781 E0.0206
G1 X17.090 Y-17.928 F9000
G1 X17.068 Y-17.710 E0.0073 F1800
G1 X17.039 Y-17.571 E0.0047
G1 X17.090 Y-17.928 E0.0120
G1 X16.731 Y-16.096 F9000
G1 X16.704 Y-15.970 E0.0043 F1800
G1 X16.597 Y-15.635 E0.0117
G1 X16.731 Y-16.096 E0.0160
G1 X16.226 Y-14.470 F9000
G1 X16.161 Y-14.267 E0.0071 F1800
G1 X15.953 Y-13.749 E0.0186
G1 X16.226 Y-14.470 E0.0256
G1 X14.588 Y-11.123 F9000
G1 X14.566 Y-11.084 E0.0015 F1800
G1 X14.444 Y-10.912 E0.0070
G1 X14.588 Y-11.123 E0.0085
G1 X12.623 Y-8.593 F9000
G1 X12.359 Y-8.300 E0.0131 F1800
G1 X11.952 Y-7.924 E0.0184
G1 X12.623 Y-8.593 E0.0315
G1 X11.273 Y-7.296 F9000
G1 X11.058 Y-7.098 E0.0097 F1800
G1 X10.685 Y-6.798 E0.0159
G1 X10.396 Y-6.587 E0.0119
G1 X11.273 Y-7.296 E0.0375
G1 X10.025 Y-6.315 F9000
G1 X9.646 Y-6.039 E0.0156 F1800
G1 X8.997 Y-5.649 E0.0252
G1 X8.831 Y-6.315 E0.0228
G1 X10.025 Y-6.315 E0.0397
G1 X8.285 Y-5.221 F9000
G1 X8.118 Y-5.121 E0.0065 F1800
G1 X7.932 Y-5.034 E0.0068
G1 X8.285 Y-5.221 E0.0133
G1 X6.958 Y-4.579 F9000
G1 X6.508 Y-4.368 E0.0166 F1800
G1 X6.248 Y-4.277 E0.0092
G1 X6.958 Y-4.579 E0.0257
G1 X5.314 Y-3.952 F9000
G1 X4.828 Y-3.783 E0.0171 F1800
G1 X4.581 Y-3.725 E0.0084
G1 X5.314 Y-3.952 E0.0255
G1 X3.615 Y-3.497 F9000
G1 X3.097 Y-3.375 E0.0177 F1800
G1 X2.867 Y-3.345 E0.0077
G1 X3.615 Y-3.497 E0.0254
G1 X1.876 Y-3.217 F9000
G1 X1.333 Y-3.146 E0.0182 F1800
G1 X1.124 Y-3.141 E0.0070
G1 X1.876 Y-3.217 E0.0251
; feature outer perimeter
G1 X1.364 Y-2.747 F9000
G1 X-0.455 Y-2.700 E0.0605 F1200
G1 X-2.269 Y-2.841 E0.0605
G1 X-4.060 Y-3.167 E0.0605
G1 X-5.807 Y-3.675 E0.0605
G1 X-7.492 Y-4.361 E0.0605
G1 X-9.099 Y-5.216 E0.0605
G1 X-10.611 Y-6.234 E0.0606
G1 X-11.011 Y-6.546 E0.0169
G1 X-12.016 Y-7.408 E0.0440
G1 X-13.278 Y-8.703 E0.0602
G1 X-13.604 Y-9.088 E0.0168
G1 X-14.404 Y-10.127 E0.0436
G1 X-15.382 Y-11.663 E0.0606
G1 X-16.195 Y-13.291 E0.0605
G1 X-16.837 Y-14.994 E0.0605
G1 X-17.301 Y-16.753 E0.0605
G1 X-17.581 Y-18.551 E0.0605
G1 X-17.674 Y-20.369 E0.0605
G1 X-17.581 Y-22.186 E0.0605
G1 X-17.301 Y-23.984 E0.0605
G1 X-16.837 Y-25.744 E0.0605
G1 X-16.195 Y-27.446 E0.0605
G1 X-15.382 Y-29.074 E0.0605
G1 X-14.404 Y-30.611 E0.0606
G1 X-13.563 Y-31.701 E0.0458
G1 X-13.278 Y-32.034 E0.0146
G1 X-12.005 Y-33.340 E0.0607
G1 X-10.955 Y-34.238 E0.0459
G1 X-10.612 Y-34.503 E0.0144
G1 X-9.099 Y-35.521 E0.0607
G1 X-7.492 Y-36.376 E0.0605
G1 X-5.807 Y-37.062 E0.0605
G1 X-4.060 Y-37.570 E0.0605
G1 X-2.269 Y-37.897 E0.0605
G1 X-0.455 Y-38.037 E0.0605
G1 X1.364 Y-37.990 E0.0605
G1 X3.169 Y-37.757 E0.0605
G1 X4.940 Y-37.339 E0.0605
G1 X6.658 Y-36.741 E0.0605
G1 X8.307 Y-35.969 E0.0605
G1 X9.868 Y-35.032 E0.0606
G1 X10.929 Y-34.257 E0.0437
G1 X11.320 Y-33.943 E0.0167
G1 X12.657 Y-32.704 E0.0606
G1 X13.859 Y-31.338 E0.0605
G1 X14.913 Y-29.854 E0.0605
G1 X15.810 Y-28.269 E0.0606
G1 X16.271 Y-27.270 E0.0366
G1 X16.537 Y-26.606 E0.0238
G1 X17.092 Y-24.870 E0.0606
G1 X17.464 Y-23.089 E0.0605
G1 X17.651 Y-21.276 E0.0606
G1 X17.675 Y-20.369 E0.0302
G1 X17.651 Y-19.461 E0.0302
G1 X17.464 Y-17.649 E0.0606
G1 X17.092 Y-15.868 E0.0605
G1 X16.537 Y-14.131 E0.0606
G1 X16.271 Y-13.467 E0.0238
G1 X15.810 Y-12.468 E0.0366
G1 X14.904 Y-10.869 E0.0612
G1 X13.857 Y-9.397 E0.0601
G1 X13.537 Y-9.008 E0.0168
G1 X12.644 Y-8.019 E0.0443
G1 X11.320 Y-6.795 E0.0600
G1 X10.929 Y-6.481 E0.0167
G1 X9.868 Y-5.705 E0.0437
G1 X8.307 Y-4.768 E0.0606
G1 X6.658 Y-3.997 E0.0605
G1 X4.940 Y-3.399 E0.0605
G1 X3.169 Y-2.981 E0.0605
G1 X1.364 Y-2.747 E0.0605
G1 X0.846 Y-3.515 F9000
G1 X2.529 Y-3.684 E0.0563 F1200
G1 X4.186 Y-4.021 E0.0563
G1 X5.801 Y-4.522 E0.0563
G1 X7.357 Y-5.182 E0.0562
G1 X8.544 Y-5.812 E0.0447
G1 X8.469 Y-6.115 E0.0104
G1 X-8.469 Y-6.115 E0.5633
G1 X-8.544 Y-5.812 E0.0104
G1 X-7.357 Y-5.182 E0.0447
G1 X-5.801 Y-4.522 E0.0562
G1 X-4.186 Y-4.021 E0.0563
G1 X-2.529 Y-3.684 E0.0563
G1 X-0.846 Y-3.515 E0.0563
G1 X0.846 Y-3.515 E0.0563
G1 E-1.0000 F1200
G1 Z0.700 F1200
G1 X9.919 Y-6.715 F9000
