; G-Code generated by Simplify3D(R) Version 4.1.2
; Apr 6, 2020 at 12:30:46 PM
; Settings Summary
;   processName,Process1
;   applyToModels,Gob rampV1R4,Gob rampV1R4(2),Gob rampV1R4(3),Gob rampV1R4(2)(2)
;   profileName,MakerBot Replicator 2 HBP (modified)
;   profileVersion,2019-08-23 15:32:08
;   baseProfile,MakerBot Replicator 2(2)
;   printMaterial,PLA
;   printQuality,Medium
;   printExtruders,
;   extruderName,Primary Extruder
;   extruderToolheadNumber,0
;   extruderDiameter,0.4
;   extruderAutoWidth,0
;   extruderWidth,0.4
;   extrusionMultiplier,1
;   extruderUseRetract,1
;   extruderRetractionDistance,1
;   extruderExtraRestartDistance,0
;   extruderRetractionZLift,0.5
;   extruderRetractionSpeed,1200
;   extruderUseCoasting,0
;   extruderCoastingDistance,0.2
;   extruderUseWipe,0
;   extruderWipeDistance,5
;   primaryExtruder,0
;   layerHeight,0.2
;   topSolidLayers,3
;   bottomSolidLayers,3
;   perimeterOutlines,2
;   printPerimetersInsideOut,1
;   startPointOption,3
;   startPointOriginX,0
;   startPointOriginY,150
;   sequentialIslands,0
;   spiralVaseMode,0
;   firstLayerHeightPercentage,100
;   firstLayerWidthPercentage,100
;   firstLayerUnderspeed,0.5
;   useRaft,0
;   raftExtruder,0
;   raftTopLayers,2
;   raftBaseLayers,1
;   raftOffset,1
;   raftSeparationDistance,0.14
;   raftTopInfill,90
;   aboveRaftSpeedMultiplier,0.3
;   useSkirt,0
;   skirtExtruder,0
;   skirtLayers,1
;   skirtOutlines,5
;   skirtOffset,0
;   usePrimePillar,0
;   primePillarExtruder,999
;   primePillarWidth,12
;   primePillarLocation,7
;   primePillarSpeedMultiplier,1
;   useOozeShield,0
;   oozeShieldExtruder,999
;   oozeShieldOffset,2
;   oozeShieldOutlines,1
;   oozeShieldSidewallShape,1
;   oozeShieldSidewallAngle,30
;   oozeShieldSpeedMultiplier,1
;   infillExtruder,0
;   internalInfillPattern,Rectilinear
;   externalInfillPattern,Rectilinear
;   infillPercentage,15
;   outlineOverlapPercentage,20
;   infillExtrusionWidthPercentage,100
;   minInfillLength,5
;   infillLayerInterval,1
;   internalInfillAngles,45,-45
;   overlapInternalInfillAngles,0
;   externalInfillAngles,45,-45
;   generateSupport,0
;   supportExtruder,0
;   supportInfillPercentage,10
;   supportExtraInflation,0.5
;   supportBaseLayers,0
;   denseSupportExtruder,0
;   denseSupportLayers,2
;   denseSupportInfillPercentage,70
;   supportLayerInterval,1
;   supportHorizontalPartOffset,0.3
;   supportUpperSeparationLayers,1
;   supportLowerSeparationLayers,1
;   supportType,0
;   supportGridSpacing,2
;   maxOverhangAngle,45
;   supportAngles,0
;   temperatureName,Primary Extruder,Heated Build Platform
;   temperatureNumber,0,0
;   temperatureSetpointCount,1,1
;   temperatureSetpointLayers,1,1
;   temperatureSetpointTemperatures,230,60
;   temperatureStabilizeAtStartup,1,1
;   temperatureHeatedBed,0,1
;   fanLayers,1,2
;   fanSpeeds,0,100
;   blipFanToFullPower,1
;   adjustSpeedForCooling,1
;   minSpeedLayerTime,15
;   minCoolingSpeedSlowdown,20
;   increaseFanForCooling,1
;   minFanLayerTime,45
;   maxCoolingFanSpeed,100
;   increaseFanForBridging,1
;   bridgingFanSpeed,100
;   use5D,1
;   relativeEdistances,1
;   allowEaxisZeroing,0
;   independentExtruderAxes,1
;   includeM10123,0
;   stickySupport,1
;   applyToolheadOffsets,0
;   gcodeXoffset,0
;   gcodeYoffset,0
;   gcodeZoffset,0
;   overrideMachineDefinition,1
;   machineTypeOverride,0
;   strokeXoverride,280
;   strokeYoverride,150
;   strokeZoverride,150
;   originOffsetXoverride,140
;   originOffsetYoverride,75
;   originOffsetZoverride,0
;   homeXdirOverride,1
;   homeYdirOverride,1
;   homeZdirOverride,-1
;   flipXoverride,1
;   flipYoverride,-1
;   flipZoverride,1
;   toolheadOffsets,0,0|0,0|0,0|0,0|0,0|0,0
;   overrideFirmwareConfiguration,1
;   firmwareTypeOverride,MakerBot/Sailfish Firmware
;   GPXconfigOverride,r2h
;   baudRateOverride,115200
;   overridePrinterModels,1
;   printerModelsOverride,MakerBot_Replicator2.stl
;   startingGcode,; **** Replicator 2 start.gcode ****,M73 P0 ; enable build progress,G162 X Y F3000 ; home XY maximum,G161 Z F1200 ; home Z minimum,G92 Z-5 ; set Z to -5,G1 Z0 ; move Z to 0,G161 Z F100 ; home Z slowly,M132 X Y Z A B ; recall home offsets,G1 X-145 Y-75 Z30 F9000 ; move to wait position off table,G130 X20 Y20 Z20 A20 B20 ; lower stepper Vrefs while heating,M126 S[fan_speed_pwm],M140 S[bed0_temperature] T0,M134 T0 ; stabilize bed temperature,M104 S[extruder0_temperature] T0,M133 T0 ; stabilize extruder temperature,G130 X127 Y127 Z40 A127 B127 ; default stepper Vrefs,G92 A0 ; zero extruder,G1 Z0.4 ; position nozzle,G1 E25 F300 ; purge nozzle,G1 X-140 Y-70 Z0.15 F1200 ; slow wipe,G1 X-135 Y-65 Z0.5 F1200 ; lift,G92 A0 ; zero extruder,M73 P1 ;@body (notify GPX body has started),; **** end of start.gcode ****
;   layerChangeGcode,
;   retractionGcode,
;   toolChangeGcode,
;   endingGcode,; **** Replicator 2 end.gcode ****,M73 P100 ; end build progress,G1 Z155 F1000 ; send Z axis to bottom of machine,M104 S0 T0 ; cool down extruder,M140 S0 T0 ; cool down HBP,M127 ; stop blower fan,G162 X Y F3000 ; home XY maximum,M18 ; disable stepper,M0 ; stop codes,M72 P1 ; play Ta-Da song,; **** end of end.gcode ****
;   exportFileFormat,gcode
;   celebration,0
;   celebrationSong,Random Song
;   postProcessing,
;   defaultSpeed,4800
;   outlineUnderspeed,0.5
;   solidInfillUnderspeed,1
;   supportUnderspeed,1
;   rapidXYspeed,9000
;   rapidZspeed,1200
;   minBridgingArea,50
;   bridgingExtraInflation,0
;   bridgingExtrusionMultiplier,1
;   bridgingSpeedMultiplier,0.8
;   useFixedBridgingAngle,0
;   fixedBridgingAngle,0
;   applyBridgingToPerimeters,0
;   filamentDiameters,1.75|1.75|1.75|1.75|1.75|1.75
;   filamentPricesPerKg,46|46|46|46|46|46
;   filamentDensities,1.25|1.25|1.25|1.25|1.25|1.25
;   useMinPrintHeight,0
;   minPrintHeight,0
;   useMaxPrintHeight,0
;   maxPrintHeight,4.84
;   useDiaphragm,0
;   diaphragmLayerInterval,20
;   robustSlicing,1
;   mergeAllIntoSolid,0
;   onlyRetractWhenCrossingOutline,0
;   retractBetweenLayers,0
;   useRetractionMinTravel,1
;   retractionMinTravel,7
;   retractWhileWiping,1
;   onlyWipeOutlines,1
;   avoidCrossingOutline,0
;   maxMovementDetourFactor,3
;   toolChangeRetractionDistance,12
;   toolChangeExtraRestartDistance,-0.5
;   toolChangeRetractionSpeed,600
;   externalThinWallType,0
;   internalThinWallType,0
;   thinWallAllowedOverlapPercentage,10
;   singleExtrusionMinLength,1
;   singleExtrusionMinPrintingWidthPercentage,50
;   singleExtrusionMaxPrintingWidthPercentage,200
;   singleExtrusionEndpointExtension,0.2
;   horizontalSizeCompensation,0
G90
M83
; **** Replicator 2 start.gcode ****
M73 P0 ; enable build progress
G162 X Y F3000 ; home XY maximum
G161 Z F1200 ; home Z minimum
G92 Z-5 ; set Z to -5
G1 Z0 ; move Z to 0
G161 Z F100 ; home Z slowly
M132 X Y Z A B ; recall home offsets
G1 X-145 Y-75 Z30 F9000 ; move to wait position off table
G130 X20 Y20 Z20 A20 B20 ; lower stepper Vrefs while heating
M127
M140 S60 T0
M134 T0 ; stabilize bed temperature
M104 S230 T0
M133 T0 ; stabilize extruder temperature
G130 X127 Y127 Z40 A127 B127 ; default stepper Vrefs
G92 A0 ; zero extruder
G1 Z0.4 ; position nozzle
G1 E25 F300 ; purge nozzle
G1 X-140 Y-70 Z0.15 F1200 ; slow wipe
G1 X-135 Y-65 Z0.5 F1200 ; lift
G92 A0 ; zero extruder
M73 P1 ;@body (notify GPX body has started)
; **** end of start.gcode ****
; process Process1
; layer 1, Z = 0.200
M135 T0
G1 E-1.0000 F1200
; feature inner perimeter
; tool H0.200 W0.400
G1 Z0.500 F1200
G1 X-17.071 Y31.819 F9000
G1 Z0.200 F1200
G1 E1.0000 F1200
G1 X-70.871 Y31.819 E1.7894 F1800
G1 X-70.871 Y15.180 E0.5534
G1 X-84.900 Y15.180 E0.4666
G1 X-84.900 Y3.100 E0.4018
G1 X-3.100 Y3.100 E2.7207
G1 X-3.100 Y15.180 E0.4018
G1 X-17.071 Y15.180 E0.4647
G1 X-17.071 Y31.819 E0.5534
; feature outer perimeter
G1 X-16.671 Y32.219 F9000
G1 X-71.271 Y32.219 E1.8160 F1200
G1 X-71.271 Y15.580 E0.5534
G1 X-85.300 Y15.580 E0.4666
G1 X-85.300 Y2.700 E0.4284
G1 X-2.700 Y2.700 E2.7473
G1 X-2.700 Y15.580 E0.4284
G1 X-16.671 Y15.580 E0.4647
G1 X-16.671 Y32.219 E0.5534
G1 E-1.0000 F1200
; feature inner perimeter
G1 Z0.700 F1200
G1 X-10.209 Y11.352 F9000
G1 Z0.200 F1200
G1 E1.0000 F1200
G1 X-9.748 Y11.492 E0.0160 F1800
G1 X-9.268 Y11.539 E0.0160
G1 X-8.789 Y11.492 E0.0160
G1 X-8.328 Y11.352 E0.0160
G1 X-7.903 Y11.125 E0.0160
G1 X-7.531 Y10.819 E0.0160
G1 X-7.225 Y10.447 E0.0160
G1 X-6.998 Y10.022 E0.0160
G1 X-6.858 Y9.561 E0.0160
G1 X-6.811 Y9.082 E0.0160
G1 X-6.858 Y8.602 E0.0160
G1 X-6.998 Y8.141 E0.0160
G1 X-7.225 Y7.716 E0.0160
G1 X-7.531 Y7.344 E0.0160
G1 X-7.903 Y7.038 E0.0160
G1 X-8.328 Y6.811 E0.0160
G1 X-8.789 Y6.671 E0.0160
G1 X-9.268 Y6.624 E0.0160
G1 X-9.748 Y6.671 E0.0160
G1 X-10.209 Y6.811 E0.0160
G1 X-10.634 Y7.038 E0.0160
G1 X-11.006 Y7.344 E0.0160
G1 X-11.312 Y7.716 E0.0160
G1 X-11.539 Y8.141 E0.0160
G1 X-11.679 Y8.602 E0.0160
G1 X-11.726 Y9.082 E0.0160
G1 X-11.679 Y9.561 E0.0160
G1 X-11.539 Y10.022 E0.0160
G1 X-11.312 Y10.447 E0.0160
G1 X-11.006 Y10.819 E0.0160
G1 X-10.634 Y11.125 E0.0160
G1 X-10.209 Y11.352 E0.0160
; feature outer perimeter
G1 X-10.055 Y10.981 F9000
G1 X-9.670 Y11.098 E0.0134 F1200
G1 X-9.268 Y11.137 E0.0134
G1 X-8.867 Y11.098 E0.0134
G1 X-8.482 Y10.981 E0.0134
G1 X-8.126 Y10.791 E0.0134
G1 X-7.815 Y10.535 E0.0134
G1 X-7.559 Y10.224 E0.0134
G1 X-7.369 Y9.868 E0.0134
G1 X-7.252 Y9.483 E0.0134
G1 X-7.213 Y9.082 E0.0134
G1 X-7.252 Y8.681 E0.0134
G1 X-7.369 Y8.295 E0.0134
G1 X-7.559 Y7.940 E0.0134
G1 X-7.815 Y7.628 E0.0134
G1 X-8.126 Y7.372 E0.0134
G1 X-8.482 Y7.182 E0.0134
G1 X-8.867 Y7.065 E0.0134
G1 X-9.268 Y7.026 E0.0134
G1 X-9.670 Y7.065 E0.0134
G1 X-10.055 Y7.182 E0.0134
G1 X-10.411 Y7.372 E0.0134
G1 X-10.722 Y7.628 E0.0134
G1 X-10.978 Y7.940 E0.0134
G1 X-11.168 Y8.295 E0.0134
G1 X-11.285 Y8.681 E0.0134
G1 X-11.324 Y9.082 E0.0134
G1 X-11.285 Y9.483 E0.0134
G1 X-11.168 Y9.868 E0.0134
G1 X-10.978 Y10.224 E0.0134
G1 X-10.722 Y10.535 E0.0134
G1 X-10.411 Y10.791 E0.0134
G1 X-10.055 Y10.981 E0.0134
; feature solid layer
G1 X-9.675 Y11.821 F9000
G1 X-6.636 Y14.860 E0.1430 F2400
G1 X-6.070 Y14.860 E0.0188
G1 X-9.087 Y11.843 E0.1419
G1 X-8.726 Y11.807 E0.0121
G1 X-8.597 Y11.768 E0.0045
G1 X-5.505 Y14.860 E0.1454
G1 X-4.939 Y14.860 E0.0188
G1 X-8.169 Y11.630 E0.1519
G1 X-7.800 Y11.433 E0.0139
G1 X-4.373 Y14.860 E0.1612
G1 X-3.807 Y14.860 E0.0188
G1 X-7.478 Y11.190 E0.1726
G1 X-7.303 Y11.047 E0.0075
G1 X-7.191 Y10.910 E0.0059
G1 X-3.420 Y14.682 E0.1774
G1 X-3.420 Y14.116 E0.0188
G1 X-6.941 Y10.595 E0.1656
G1 X-6.744 Y10.226 E0.0139
G1 X-3.420 Y13.551 E0.1564
G1 X-3.420 Y12.985 E0.0188
G1 X-6.598 Y9.807 E0.1495
G1 X-6.543 Y9.624 E0.0064
G1 X-6.513 Y9.326 E0.0100
G1 X-3.420 Y12.419 E0.1455
G1 X-3.420 Y11.853 E0.0188
G1 X-6.522 Y8.752 E0.1459
G1 X-3.934 Y3.420 F9000
G1 X-3.420 Y3.934 E0.0242 F2400
G1 X-3.420 Y4.500 E0.0188
G1 X-4.500 Y3.420 E0.0508
G1 X-5.065 Y3.420 E0.0188
G1 X-3.420 Y5.065 E0.0774
G1 X-3.420 Y5.631 E0.0188
G1 X-5.631 Y3.420 E0.1040
G1 X-6.197 Y3.420 E0.0188
G1 X-3.420 Y6.197 E0.1306
G1 X-3.420 Y6.762 E0.0188
G1 X-6.762 Y3.420 E0.1572
G1 X-7.328 Y3.420 E0.0188
G1 X-3.420 Y7.328 E0.1838
G1 X-3.420 Y7.894 E0.0188
G1 X-7.894 Y3.420 E0.2104
G1 X-8.459 Y3.420 E0.0188
G1 X-3.420 Y8.459 E0.2370
G1 X-3.420 Y9.025 E0.0188
G1 X-9.025 Y3.420 E0.2636
G1 X-9.591 Y3.420 E0.0188
G1 X-3.420 Y9.591 E0.2903
G1 X-3.420 Y10.156 E0.0188
G1 X-10.156 Y3.420 E0.3169
G1 X-10.722 Y3.420 E0.0188
G1 X-3.420 Y10.722 E0.3435
G1 X-3.420 Y11.288 E0.0188
G1 X-6.714 Y7.994 E0.1549
G1 X-6.958 Y7.538 E0.0172
G1 X-7.303 Y7.116 E0.0181
G1 X-7.724 Y6.771 E0.0181
G1 X-8.181 Y6.527 E0.0172
G1 X-11.288 Y3.420 E0.1461
G1 X-11.853 Y3.420 E0.0188
G1 X-8.939 Y6.335 E0.1371
G1 X-9.268 Y6.302 E0.0110
G1 X-9.513 Y6.327 E0.0082
G1 X-12.419 Y3.420 E0.1367
G1 X-12.985 Y3.420 E0.0188
G1 X-9.994 Y6.411 E0.1407
G1 X-10.332 Y6.514 E0.0118
G1 X-10.413 Y6.557 E0.0031
G1 X-13.551 Y3.420 E0.1476
G1 X-14.116 Y3.420 E0.0188
G1 X-10.782 Y6.754 E0.1568
G1 X-10.812 Y6.771 E0.0012
G1 X-11.097 Y7.005 E0.0123
G1 X-14.682 Y3.420 E0.1686
G1 X-15.248 Y3.420 E0.0188
G1 X-11.377 Y7.291 E0.1821
G1 X-11.579 Y7.538 E0.0106
G1 X-11.620 Y7.613 E0.0029
G1 X-15.813 Y3.420 E0.1972
G1 X-16.379 Y3.420 E0.0188
G1 X-11.817 Y7.982 E0.2146
G1 X-11.836 Y8.018 E0.0014
G1 X-11.955 Y8.410 E0.0136
G1 X-16.945 Y3.420 E0.2347
G1 X-17.510 Y3.420 E0.0188
G1 X-12.030 Y8.901 E0.2578
G1 X-12.048 Y9.082 E0.0061
G1 X-12.008 Y9.488 E0.0136
G1 X-18.076 Y3.420 E0.2854
G1 X-18.642 Y3.420 E0.0188
G1 X-11.744 Y10.318 E0.3245
G1 X-11.579 Y10.626 E0.0116
G1 X-11.234 Y11.047 E0.0181
G1 X-10.812 Y11.392 E0.0181
G1 X-10.505 Y11.557 E0.0116
G1 X-7.202 Y14.860 E0.1554
G1 X-7.767 Y14.860 E0.0188
G1 X-19.207 Y3.420 E0.5381
G1 X-19.773 Y3.420 E0.0188
G1 X-8.333 Y14.860 E0.5381
G1 X-8.899 Y14.860 E0.0188
G1 X-20.339 Y3.420 E0.5381
G1 X-20.904 Y3.420 E0.0188
G1 X-9.464 Y14.860 E0.5381
G1 X-10.030 Y14.860 E0.0188
G1 X-21.470 Y3.420 E0.5381
G1 X-22.036 Y3.420 E0.0188
G1 X-10.596 Y14.860 E0.5381
G1 X-11.161 Y14.860 E0.0188
G1 X-22.602 Y3.420 E0.5381
G1 X-23.167 Y3.420 E0.0188
G1 X-11.727 Y14.860 E0.5381
G1 X-12.293 Y14.860 E0.0188
G1 X-23.733 Y3.420 E0.5381
G1 X-24.299 Y3.420 E0.0188
G1 X-12.858 Y14.860 E0.5381
G1 X-13.424 Y14.860 E0.0188
G1 X-24.864 Y3.420 E0.5381
G1 X-25.430 Y3.420 E0.0188
G1 X-13.990 Y14.860 E0.5381
G1 X-14.555 Y14.860 E0.0188
G1 X-25.996 Y3.420 E0.5381
G1 X-26.561 Y3.420 E0.0188
G1 X-15.121 Y14.860 E0.5381
G1 X-15.687 Y14.860 E0.0188
G1 X-27.127 Y3.420 E0.5381
G1 X-27.693 Y3.420 E0.0188
G1 X-16.253 Y14.860 E0.5381
G1 X-16.818 Y14.860 E0.0188
G1 X-28.258 Y3.420 E0.5381
G1 X-28.824 Y3.420 E0.0188
G1 X-17.384 Y14.860 E0.5381
G1 X-17.391 Y14.860 E0.0002
G1 X-17.391 Y15.419 E0.0186
G1 X-29.390 Y3.420 E0.5644
G1 X-29.955 Y3.420 E0.0188
G1 X-17.391 Y15.984 E0.5910
G1 X-17.391 Y16.550 E0.0188
G1 X-30.521 Y3.420 E0.6176
G1 X-31.087 Y3.420 E0.0188
G1 X-17.391 Y17.116 E0.6442
G1 X-17.391 Y17.681 E0.0188
G1 X-31.652 Y3.420 E0.6708
G1 X-32.218 Y3.420 E0.0188
G1 X-17.391 Y18.247 E0.6974
G1 X-17.391 Y18.813 E0.0188
G1 X-32.784 Y3.420 E0.7240
G1 X-33.350 Y3.420 E0.0188
G1 X-17.391 Y19.378 E0.7506
G1 X-17.391 Y19.944 E0.0188
G1 X-33.915 Y3.420 E0.7772
G1 X-34.481 Y3.420 E0.0188
G1 X-17.391 Y20.510 E0.8038
G1 X-17.391 Y21.075 E0.0188
G1 X-35.047 Y3.420 E0.8305
G1 X-35.612 Y3.420 E0.0188
G1 X-17.391 Y21.641 E0.8571
G1 X-17.391 Y22.207 E0.0188
G1 X-36.178 Y3.420 E0.8837
G1 X-36.744 Y3.420 E0.0188
G1 X-17.391 Y22.772 E0.9103
G1 X-17.391 Y23.338 E0.0188
G1 X-37.309 Y3.420 E0.9369
G1 X-37.875 Y3.420 E0.0188
G1 X-17.391 Y23.904 E0.9635
G1 X-17.391 Y24.469 E0.0188
G1 X-38.441 Y3.420 E0.9901
G1 X-39.006 Y3.420 E0.0188
G1 X-17.391 Y25.035 E1.0167
G1 X-17.391 Y25.601 E0.0188
G1 X-39.572 Y3.420 E1.0433
G1 X-40.138 Y3.420 E0.0188
G1 X-17.391 Y26.167 E1.0699
G1 X-17.391 Y26.732 E0.0188
G1 X-40.703 Y3.420 E1.0965
G1 X-41.269 Y3.420 E0.0188
G1 X-17.391 Y27.298 E1.1231
G1 X-17.391 Y27.864 E0.0188
G1 X-41.835 Y3.420 E1.1498
G1 X-42.401 Y3.420 E0.0188
G1 X-17.391 Y28.429 E1.1764
G1 X-17.391 Y28.995 E0.0188
G1 X-42.966 Y3.420 E1.2030
G1 X-43.532 Y3.420 E0.0188
G1 X-17.391 Y29.561 E1.2296
G1 X-17.391 Y30.126 E0.0188
G1 X-44.098 Y3.420 E1.2562
G1 X-44.663 Y3.420 E0.0188
G1 X-17.391 Y30.692 E1.2828
G1 X-17.391 Y31.258 E0.0188
G1 X-45.229 Y3.420 E1.3094
G1 X-45.795 Y3.420 E0.0188
G1 X-17.715 Y31.499 E1.3208
G1 X-18.281 Y31.499 E0.0188
G1 X-46.360 Y3.420 E1.3208
G1 X-46.926 Y3.420 E0.0188
G1 X-18.847 Y31.499 E1.3208
G1 X-19.412 Y31.499 E0.0188
G1 X-47.492 Y3.420 E1.3208
G1 X-48.057 Y3.420 E0.0188
G1 X-19.978 Y31.499 E1.3208
G1 X-20.544 Y31.499 E0.0188
G1 X-48.623 Y3.420 E1.3208
G1 X-49.189 Y3.420 E0.0188
G1 X-21.109 Y31.499 E1.3208
G1 X-21.675 Y31.499 E0.0188
G1 X-49.754 Y3.420 E1.3208
G1 X-50.320 Y3.420 E0.0188
G1 X-22.241 Y31.499 E1.3208
G1 X-22.806 Y31.499 E0.0188
G1 X-50.886 Y3.420 E1.3208
G1 X-51.451 Y3.420 E0.0188
G1 X-23.372 Y31.499 E1.3208
G1 X-23.938 Y31.499 E0.0188
G1 X-52.017 Y3.420 E1.3208
G1 X-52.583 Y3.420 E0.0188
G1 X-24.503 Y31.499 E1.3208
G1 X-25.069 Y31.499 E0.0188
G1 X-53.149 Y3.420 E1.3208
G1 X-53.714 Y3.420 E0.0188
G1 X-25.635 Y31.499 E1.3208
G1 X-26.201 Y31.499 E0.0188
