; G-Code generated by Simplify3D(R) Version 4.1.2
; Apr 6, 2020 at 12:30:34 PM
; Settings Summary
;   processName,Process1
;   applyToModels,Gob rampV1R4,Gob rampV1R4(2)
;   profileName,MakerBot Replicator 2 HBP (modified)
;   profileVersion,2019-08-23 15:32:08
;   baseProfile,MakerBot Replicator 2(2)
;   printMaterial,PLA
;   printQuality,Medium
;   printExtruders,
;   extruderName,Primary Extruder
;   extruderToolheadNumber,0
;   extruderDiameter,0.4
;   extruderAutoWidth,0
;   extruderWidth,0.4
;   extrusionMultiplier,1
;   extruderUseRetract,1
;   extruderRetractionDistance,1
;   extruderExtraRestartDistance,0
;   extruderRetractionZLift,0.5
;   extruderRetractionSpeed,1200
;   extruderUseCoasting,0
;   extruderCoastingDistance,0.2
;   extruderUseWipe,0
;   extruderWipeDistance,5
;   primaryExtruder,0
;   layerHeight,0.2
;   topSolidLayers,3
;   bottomSolidLayers,3
;   perimeterOutlines,2
;   printPerimetersInsideOut,1
;   startPointOption,3
;   startPointOriginX,0
;   startPointOriginY,150
;   sequentialIslands,0
;   spiralVaseMode,0
;   firstLayerHeightPercentage,100
;   firstLayerWidthPercentage,100
;   firstLayerUnderspeed,0.5
;   useRaft,0
;   raftExtruder,0
;   raftTopLayers,2
;   raftBaseLayers,1
;   raftOffset,1
;   raftSeparationDistance,0.14
;   raftTopInfill,90
;   aboveRaftSpeedMultiplier,0.3
;   useSkirt,0
;   skirtExtruder,0
;   skirtLayers,1
;   skirtOutlines,5
;   skirtOffset,0
;   usePrimePillar,0
;   primePillarExtruder,999
;   primePillarWidth,12
;   primePillarLocation,7
;   primePillarSpeedMultiplier,1
;   useOozeShield,0
;   oozeShieldExtruder,999
;   oozeShieldOffset,2
;   oozeShieldOutlines,1
;   oozeShieldSidewallShape,1
;   oozeShieldSidewallAngle,30
;   oozeShieldSpeedMultiplier,1
;   infillExtruder,0
;   internalInfillPattern,Rectilinear
;   externalInfillPattern,Rectilinear
;   infillPercentage,15
;   outlineOverlapPercentage,20
;   infillExtrusionWidthPercentage,100
;   minInfillLength,5
;   infillLayerInterval,1
;   internalInfillAngles,45,-45
;   overlapInternalInfillAngles,0
;   externalInfillAngles,45,-45
;   generateSupport,0
;   supportExtruder,0
;   supportInfillPercentage,10
;   supportExtraInflation,0.5
;   supportBaseLayers,0
;   denseSupportExtruder,0
;   denseSupportLayers,2
;   denseSupportInfillPercentage,70
;   supportLayerInterval,1
;   supportHorizontalPartOffset,0.3
;   supportUpperSeparationLayers,1
;   supportLowerSeparationLayers,1
;   supportType,0
;   supportGridSpacing,2
;   maxOverhangAngle,45
;   supportAngles,0
;   temperatureName,Primary Extruder,Heated Build Platform
;   temperatureNumber,0,0
;   temperatureSetpointCount,1,1
;   temperatureSetpointLayers,1,1
;   temperatureSetpointTemperatures,230,60
;   temperatureStabilizeAtStartup,1,1
;   temperatureHeatedBed,0,1
;   fanLayers,1,2
;   fanSpeeds,0,100
;   blipFanToFullPower,1
;   adjustSpeedForCooling,1
;   minSpeedLayerTime,15
;   minCoolingSpeedSlowdown,20
;   increaseFanForCooling,1
;   minFanLayerTime,45
;   maxCoolingFanSpeed,100
;   increaseFanForBridging,1
;   bridgingFanSpeed,100
;   use5D,1
;   relativeEdistances,1
;   allowEaxisZeroing,0
;   independentExtruderAxes,1
;   includeM10123,0
;   stickySupport,1
;   applyToolheadOffsets,0
;   gcodeXoffset,0
;   gcodeYoffset,0
;   gcodeZoffset,0
;   overrideMachineDefinition,1
;   machineTypeOverride,0
;   strokeXoverride,280
;   strokeYoverride,150
;   strokeZoverride,150
;   originOffsetXoverride,140
;   originOffsetYoverride,75
;   originOffsetZoverride,0
;   homeXdirOverride,1
;   homeYdirOverride,1
;   homeZdirOverride,-1
;   flipXoverride,1
;   flipYoverride,-1
;   flipZoverride,1
;   toolheadOffsets,0,0|0,0|0,0|0,0|0,0|0,0
;   overrideFirmwareConfiguration,1
;   firmwareTypeOverride,MakerBot/Sailfish Firmware
;   GPXconfigOverride,r2h
;   baudRateOverride,115200
;   overridePrinterModels,1
;   printerModelsOverride,MakerBot_Replicator2.stl
;   startingGcode,; **** Replicator 2 start.gcode ****,M73 P0 ; enable build progress,G162 X Y F3000 ; home XY maximum,G161 Z F1200 ; home Z minimum,G92 Z-5 ; set Z to -5,G1 Z0 ; move Z to 0,G161 Z F100 ; home Z slowly,M132 X Y Z A B ; recall home offsets,G1 X-145 Y-75 Z30 F9000 ; move to wait position off table,G130 X20 Y20 Z20 A20 B20 ; lower stepper Vrefs while heating,M126 S[fan_speed_pwm],M140 S[bed0_temperature] T0,M134 T0 ; stabilize bed temperature,M104 S[extruder0_temperature] T0,M133 T0 ; stabilize extruder temperature,G130 X127 Y127 Z40 A127 B127 ; default stepper Vrefs,G92 A0 ; zero extruder,G1 Z0.4 ; position nozzle,G1 E25 F300 ; purge nozzle,G1 X-140 Y-70 Z0.15 F1200 ; slow wipe,G1 X-135 Y-65 Z0.5 F1200 ; lift,G92 A0 ; zero extruder,M73 P1 ;@body (notify GPX body has started),; **** end of start.gcode ****
;   layerChangeGcode,
;   retractionGcode,
;   toolChangeGcode,
;   endingGcode,; **** Replicator 2 end.gcode ****,M73 P100 ; end build progress,G1 Z155 F1000 ; send Z axis to bottom of machine,M104 S0 T0 ; cool down extruder,M140 S0 T0 ; cool down HBP,M127 ; stop blower fan,G162 X Y F3000 ; home XY maximum,M18 ; disable stepper,M0 ; stop codes,M72 P1 ; play Ta-Da song,; **** end of end.gcode ****
;   exportFileFormat,gcode
;   celebration,0
;   celebrationSong,Random Song
;   postProcessing,
;   defaultSpeed,4800
;   outlineUnderspeed,0.5
;   solidInfillUnderspeed,1
;   supportUnderspeed,1
;   rapidXYspeed,9000
;   rapidZspeed,1200
;   minBridgingArea,50
;   bridgingExtraInflation,0
;   bridgingExtrusionMultiplier,1
;   bridgingSpeedMultiplier,0.8
;   useFixedBridgingAngle,0
;   fixedBridgingAngle,0
;   applyBridgingToPerimeters,0
;   filamentDiameters,1.75|1.75|1.75|1.75|1.75|1.75
;   filamentPricesPerKg,46|46|46|46|46|46
;   filamentDensities,1.25|1.25|1.25|1.25|1.25|1.25
;   useMinPrintHeight,0
;   minPrintHeight,0
;   useMaxPrintHeight,0
;   maxPrintHeight,4.84
;   useDiaphragm,0
;   diaphragmLayerInterval,20
;   robustSlicing,1
;   mergeAllIntoSolid,0
;   onlyRetractWhenCrossingOutline,0
;   retractBetweenLayers,0
;   useRetractionMinTravel,1
;   retractionMinTravel,7
;   retractWhileWiping,1
;   onlyWipeOutlines,1
;   avoidCrossingOutline,0
;   maxMovementDetourFactor,3
;   toolChangeRetractionDistance,12
;   toolChangeExtraRestartDistance,-0.5
;   toolChangeRetractionSpeed,600
;   externalThinWallType,0
;   internalThinWallType,0
;   thinWallAllowedOverlapPercentage,10
;   singleExtrusionMinLength,1
;   singleExtrusionMinPrintingWidthPercentage,50
;   singleExtrusionMaxPrintingWidthPercentage,200
;   singleExtrusionEndpointExtension,0.2
;   horizontalSizeCompensation,0
G90
M83
; **** Replicator 2 start.gcode ****
M73 P0 ; enable build progress
G162 X Y F3000 ; home XY maximum
G161 Z F1200 ; home Z minimum
G92 Z-5 ; set Z to -5
G1 Z0 ; move Z to 0
G161 Z F100 ; home Z slowly
M132 X Y Z A B ; recall home offsets
G1 X-145 Y-75 Z30 F9000 ; move to wait position off table
G130 X20 Y20 Z20 A20 B20 ; lower stepper Vrefs while heating
M127
M140 S60 T0
M134 T0 ; stabilize bed temperature
M104 S230 T0
M133 T0 ; stabilize extruder temperature
G130 X127 Y127 Z40 A127 B127 ; default stepper Vrefs
G92 A0 ; zero extruder
G1 Z0.4 ; position nozzle
G1 E25 F300 ; purge nozzle
G1 X-140 Y-70 Z0.15 F1200 ; slow wipe
G1 X-135 Y-65 Z0.5 F1200 ; lift
G92 A0 ; zero extruder
M73 P1 ;@body (notify GPX body has started)
; **** end of start.gcode ****
; process Process1
; layer 1, Z = 0.200
M135 T0
G1 E-1.0000 F1200
; feature inner perimeter
; tool H0.200 W0.400
G1 Z0.500 F1200
G1 X-26.871 Y-3.100 F9000
G1 Z0.200 F1200
G1 E1.0000 F1200
G1 X-26.871 Y-19.739 E0.5534 F1800
G1 X-40.900 Y-19.739 E0.4666
G1 X-40.900 Y-31.819 E0.4018
G1 X40.900 Y-31.819 E2.7207
G1 X40.900 Y-19.739 E0.4018
G1 X26.929 Y-19.739 E0.4647
G1 X26.929 Y-3.100 E0.5534
G1 X-26.871 Y-3.100 E1.7894
; feature outer perimeter
G1 X-27.271 Y-2.700 F9000
G1 X-27.271 Y-19.339 E0.5534 F1200
G1 X-41.300 Y-19.339 E0.4666
G1 X-41.300 Y-32.219 E0.4284
G1 X41.300 Y-32.219 E2.7473
G1 X41.300 Y-19.339 E0.4284
G1 X27.329 Y-19.339 E0.4647
G1 X27.329 Y-2.700 E0.5534
G1 X-27.271 Y-2.700 E1.8160
G1 E-1.0000 F1200
; feature inner perimeter
G1 Z0.700 F1200
G1 X32.461 Y-24.897 F9000
G1 Z0.200 F1200
G1 E1.0000 F1200
G1 X32.688 Y-24.472 E0.0160 F1800
G1 X32.994 Y-24.100 E0.0160
G1 X33.366 Y-23.794 E0.0160
G1 X33.791 Y-23.567 E0.0160
G1 X34.252 Y-23.427 E0.0160
G1 X34.731 Y-23.380 E0.0160
G1 X35.211 Y-23.427 E0.0160
G1 X35.672 Y-23.567 E0.0160
G1 X36.097 Y-23.794 E0.0160
G1 X36.469 Y-24.100 E0.0160
G1 X36.775 Y-24.472 E0.0160
G1 X37.002 Y-24.897 E0.0160
G1 X37.142 Y-25.358 E0.0160
G1 X37.189 Y-25.838 E0.0160
G1 X37.142 Y-26.317 E0.0160
G1 X37.002 Y-26.778 E0.0160
G1 X36.775 Y-27.203 E0.0160
G1 X36.469 Y-27.576 E0.0160
G1 X36.097 Y-27.881 E0.0160
G1 X35.672 Y-28.108 E0.0160
G1 X35.211 Y-28.248 E0.0160
G1 X34.731 Y-28.295 E0.0160
G1 X34.252 Y-28.248 E0.0160
G1 X33.791 Y-28.108 E0.0160
G1 X33.366 Y-27.881 E0.0160
G1 X32.994 Y-27.576 E0.0160
G1 X32.688 Y-27.203 E0.0160
G1 X32.461 Y-26.778 E0.0160
G1 X32.321 Y-26.317 E0.0160
G1 X32.274 Y-25.838 E0.0160
G1 X32.321 Y-25.358 E0.0160
G1 X32.461 Y-24.897 E0.0160
; feature outer perimeter
G1 X32.832 Y-25.051 F9000
G1 X33.022 Y-24.696 E0.0134 F1200
G1 X33.278 Y-24.384 E0.0134
G1 X33.589 Y-24.128 E0.0134
G1 X33.945 Y-23.939 E0.0134
G1 X34.330 Y-23.822 E0.0134
G1 X34.731 Y-23.782 E0.0134
G1 X35.133 Y-23.822 E0.0134
G1 X35.518 Y-23.939 E0.0134
G1 X35.874 Y-24.128 E0.0134
G1 X36.185 Y-24.384 E0.0134
G1 X36.441 Y-24.696 E0.0134
G1 X36.631 Y-25.051 E0.0134
G1 X36.748 Y-25.437 E0.0134
G1 X36.787 Y-25.838 E0.0134
G1 X36.748 Y-26.239 E0.0134
G1 X36.631 Y-26.624 E0.0134
G1 X36.441 Y-26.980 E0.0134
G1 X36.185 Y-27.291 E0.0134
G1 X35.874 Y-27.547 E0.0134
G1 X35.518 Y-27.737 E0.0134
G1 X35.133 Y-27.854 E0.0134
G1 X34.731 Y-27.893 E0.0134
G1 X34.330 Y-27.854 E0.0134
G1 X33.945 Y-27.737 E0.0134
G1 X33.589 Y-27.547 E0.0134
G1 X33.278 Y-27.291 E0.0134
G1 X33.022 Y-26.980 E0.0134
G1 X32.832 Y-26.624 E0.0134
G1 X32.715 Y-26.239 E0.0134
G1 X32.676 Y-25.838 E0.0134
G1 X32.715 Y-25.437 E0.0134
G1 X32.832 Y-25.051 E0.0134
; feature solid layer
G1 X34.632 Y-23.068 F9000
G1 X37.641 Y-20.059 E0.1415 F2400
G1 X38.206 Y-20.059 E0.0188
G1 X35.164 Y-23.101 E0.1431
G1 X35.274 Y-23.112 E0.0037
G1 X35.616 Y-23.216 E0.0119
G1 X38.772 Y-20.059 E0.1485
G1 X39.338 Y-20.059 E0.0188
G1 X36.011 Y-23.386 E0.1565
G1 X36.276 Y-23.527 E0.0100
G1 X36.364 Y-23.599 E0.0038
G1 X39.903 Y-20.059 E0.1665
G1 X40.469 Y-20.059 E0.0188
G1 X36.674 Y-23.854 E0.1785
G1 X36.697 Y-23.873 E0.0010
G1 X36.933 Y-24.161 E0.0124
G1 X40.580 Y-20.514 E0.1715
G1 X40.580 Y-21.080 E0.0188
G1 X37.155 Y-24.505 E0.1611
G1 X37.299 Y-24.774 E0.0102
G1 X37.335 Y-24.891 E0.0041
G1 X40.580 Y-21.645 E0.1527
G1 X40.580 Y-22.211 E0.0188
G1 X37.461 Y-25.330 E0.1467
G1 X37.511 Y-25.838 E0.0170
G1 X37.510 Y-25.847 E0.0003
G1 X40.580 Y-22.777 E0.1444
G1 X40.580 Y-23.342 E0.0188
G1 X37.420 Y-26.502 E0.1486
G1 X40.343 Y-31.499 F9000
G1 X40.580 Y-31.262 E0.0112 F2400
G1 X40.580 Y-30.696 E0.0188
G1 X39.777 Y-31.499 E0.0378
G1 X39.211 Y-31.499 E0.0188
G1 X40.580 Y-30.131 E0.0644
G1 X40.580 Y-29.565 E0.0188
G1 X38.646 Y-31.499 E0.0910
G1 X38.080 Y-31.499 E0.0188
G1 X40.580 Y-28.999 E0.1176
G1 X40.580 Y-28.434 E0.0188
G1 X37.514 Y-31.499 E0.1442
G1 X36.949 Y-31.499 E0.0188
G1 X40.580 Y-27.868 E0.1708
G1 X40.580 Y-27.302 E0.0188
G1 X36.383 Y-31.499 E0.1974
G1 X35.817 Y-31.499 E0.0188
G1 X40.580 Y-26.737 E0.2240
G1 X40.580 Y-26.171 E0.0188
G1 X35.252 Y-31.499 E0.2506
G1 X34.686 Y-31.499 E0.0188
G1 X40.580 Y-25.605 E0.2772
G1 X40.580 Y-25.040 E0.0188
G1 X34.120 Y-31.499 E0.3039
G1 X33.554 Y-31.499 E0.0188
G1 X40.580 Y-24.474 E0.3305
G1 X40.580 Y-23.908 E0.0188
G1 X36.749 Y-27.739 E0.1802
G1 X36.697 Y-27.803 E0.0027
G1 X36.633 Y-27.855 E0.0027
G1 X32.989 Y-31.499 E0.1714
G1 X32.423 Y-31.499 E0.0188
G1 X35.396 Y-28.526 E0.1398
G1 X35.274 Y-28.563 E0.0043
G1 X34.741 Y-28.616 E0.0178
G1 X31.857 Y-31.499 E0.1356
G1 X31.292 Y-31.499 E0.0188
G1 X34.224 Y-28.567 E0.1379
G1 X34.189 Y-28.563 E0.0012
G1 X33.785 Y-28.441 E0.0141
G1 X30.726 Y-31.499 E0.1439
G1 X30.160 Y-31.499 E0.0188
G1 X33.398 Y-28.261 E0.1523
G1 X33.187 Y-28.149 E0.0080
G1 X33.055 Y-28.039 E0.0057
G1 X29.595 Y-31.499 E0.1627
G1 X29.029 Y-31.499 E0.0188
G1 X32.748 Y-27.780 E0.1749
G1 X32.493 Y-27.470 E0.0134
G1 X28.463 Y-31.499 E0.1895
G1 X27.898 Y-31.499 E0.0188
G1 X32.279 Y-27.118 E0.2061
G1 X32.164 Y-26.901 E0.0082
G1 X32.109 Y-26.722 E0.0062
G1 X27.332 Y-31.499 E0.2247
G1 X26.766 Y-31.499 E0.0188
G1 X31.995 Y-26.271 E0.2459
G1 X31.952 Y-25.838 E0.0145
G1 X31.962 Y-25.738 E0.0033
G1 X26.201 Y-31.499 E0.2710
G1 X25.635 Y-31.499 E0.0188
G1 X32.078 Y-25.056 E0.3031
G1 X32.164 Y-24.774 E0.0098
G1 X32.421 Y-24.294 E0.0181
G1 X32.766 Y-23.873 E0.0181
G1 X33.187 Y-23.527 E0.0181
G1 X33.668 Y-23.270 E0.0181
G1 X33.950 Y-23.185 E0.0098
G1 X37.075 Y-20.059 E0.1470
G1 X36.509 Y-20.059 E0.0188
G1 X25.069 Y-31.499 E0.5381
G1 X24.504 Y-31.499 E0.0188
G1 X35.944 Y-20.059 E0.5381
G1 X35.378 Y-20.059 E0.0188
G1 X23.938 Y-31.499 E0.5381
G1 X23.372 Y-31.499 E0.0188
G1 X34.812 Y-20.059 E0.5381
G1 X34.247 Y-20.059 E0.0188
G1 X22.806 Y-31.499 E0.5381
G1 X22.241 Y-31.499 E0.0188
G1 X33.681 Y-20.059 E0.5381
G1 X33.115 Y-20.059 E0.0188
G1 X21.675 Y-31.499 E0.5381
G1 X21.109 Y-31.499 E0.0188
G1 X32.550 Y-20.059 E0.5381
G1 X31.984 Y-20.059 E0.0188
G1 X20.544 Y-31.499 E0.5381
G1 X19.978 Y-31.499 E0.0188
G1 X31.418 Y-20.059 E0.5381
G1 X30.853 Y-20.059 E0.0188
G1 X19.412 Y-31.499 E0.5381
G1 X18.847 Y-31.499 E0.0188
G1 X30.287 Y-20.059 E0.5381
G1 X29.721 Y-20.059 E0.0188
G1 X18.281 Y-31.499 E0.5381
G1 X17.715 Y-31.499 E0.0188
G1 X29.155 Y-20.059 E0.5381
G1 X28.590 Y-20.059 E0.0188
G1 X17.150 Y-31.499 E0.5381
G1 X16.584 Y-31.499 E0.0188
G1 X28.024 Y-20.059 E0.5381
G1 X27.458 Y-20.059 E0.0188
G1 X16.018 Y-31.499 E0.5381
G1 X15.453 Y-31.499 E0.0188
G1 X26.893 Y-20.059 E0.5381
G1 X26.609 Y-20.059 E0.0094
G1 X26.609 Y-19.777 E0.0094
G1 X14.887 Y-31.499 E0.5514
G1 X14.321 Y-31.499 E0.0188
G1 X26.609 Y-19.212 E0.5780
G1 X26.609 Y-18.646 E0.0188
G1 X13.755 Y-31.499 E0.6046
G1 X13.190 Y-31.499 E0.0188
G1 X26.609 Y-18.080 E0.6312
G1 X26.609 Y-17.515 E0.0188
G1 X12.624 Y-31.499 E0.6578
G1 X12.058 Y-31.499 E0.0188
G1 X26.609 Y-16.949 E0.6844
G1 X26.609 Y-16.383 E0.0188
G1 X11.493 Y-31.499 E0.7110
G1 X10.927 Y-31.499 E0.0188
G1 X26.609 Y-15.818 E0.7376
G1 X26.609 Y-15.252 E0.0188
G1 X10.361 Y-31.499 E0.7642
G1 X9.796 Y-31.499 E0.0188
G1 X26.609 Y-14.686 E0.7908
G1 X26.609 Y-14.121 E0.0188
G1 X9.230 Y-31.499 E0.8174
G1 X8.664 Y-31.499 E0.0188
G1 X26.609 Y-13.555 E0.8441
G1 X26.609 Y-12.989 E0.0188
G1 X8.099 Y-31.499 E0.8707
G1 X7.533 Y-31.499 E0.0188
G1 X26.609 Y-12.424 E0.8973
G1 X26.609 Y-11.858 E0.0188
G1 X6.967 Y-31.499 E0.9239
G1 X6.402 Y-31.499 E0.0188
G1 X26.609 Y-11.292 E0.9505
G1 X26.609 Y-10.726 E0.0188
G1 X5.836 Y-31.499 E0.9771
G1 X5.270 Y-31.499 E0.0188
G1 X26.609 Y-10.161 E1.0037
G1 X26.609 Y-9.595 E0.0188
G1 X4.705 Y-31.499 E1.0303
G1 X4.139 Y-31.499 E0.0188
G1 X26.609 Y-9.029 E1.0569
G1 X26.609 Y-8.464 E0.0188
G1 X3.573 Y-31.499 E1.0835
G1 X3.007 Y-31.499 E0.0188
G1 X26.609 Y-7.898 E1.1101
G1 X26.609 Y-7.332 E0.0188
G1 X2.442 Y-31.499 E1.1367
G1 X1.876 Y-31.499 E0.0188
G1 X26.609 Y-6.767 E1.1633
G1 X26.609 Y-6.201 E0.0188
G1 X1.310 Y-31.499 E1.1900
G1 X0.745 Y-31.499 E0.0188
G1 X26.609 Y-5.635 E1.2166
G1 X26.609 Y-5.070 E0.0188
G1 X0.179 Y-31.499 E1.2432
G1 X-0.387 Y-31.499 E0.0188
G1 X26.609 Y-4.504 E1.2698
G1 X26.609 Y-3.938 E0.0188
G1 X-0.952 Y-31.499 E1.2964
G1 X-1.518 Y-31.499 E0.0188
G1 X26.561 Y-3.420 E1.3208
G1 X25.996 Y-3.420 E0.0188
G1 X-2.084 Y-31.499 E1.3208
G1 X-2.649 Y-31.499 E0.0188
G1 X25.430 Y-3.420 E1.3208
G1 X24.864 Y-3.420 E0.0188
G1 X-3.215 Y-31.499 E1.3208
G1 X-3.781 Y-31.499 E0.0188
G1 X24.299 Y-3.420 E1.3208
G1 X23.733 Y-3.420 E0.0188
G1 X-4.346 Y-31.499 E1.3208
G1 X-4.912 Y-31.499 E0.0188
G1 X23.167 Y-3.420 E1.3208
G1 X22.602 Y-3.420 E0.0188
G1 X-5.478 Y-31.499 E1.3208
G1 X-6.043 Y-31.499 E0.0188
G1 X22.036 Y-3.420 E1.3208
G1 X21.470 Y-3.420 E0.0188
G1 X-6.609 Y-31.499 E1.3208
G1 X-7.175 Y-31.499 E0.0188
G1 X20.904 Y-3.420 E1.3208
