; G-Code generated by Simplify3D(R) Version 4.1.2
; Apr 6, 2020 at 12:39:23 PM
; Settings Summary
;   processName,Process1
;   applyToModels,hatLED _bracketV1R2,hatLED _bracketV1R2(2)
;   profileName,MakerBot Replicator 2 HBP (modified)
;   profileVersion,2019-08-23 15:32:08
;   baseProfile,MakerBot Replicator 2(2)
;   printMaterial,PLA
;   printQuality,Medium
;   printExtruders,
;   extruderName,Primary Extruder
;   extruderToolheadNumber,0
;   extruderDiameter,0.4
;   extruderAutoWidth,0
;   extruderWidth,0.4
;   extrusionMultiplier,1
;   extruderUseRetract,1
;   extruderRetractionDistance,1
;   extruderExtraRestartDistance,0
;   extruderRetractionZLift,0.5
;   extruderRetractionSpeed,1200
;   extruderUseCoasting,0
;   extruderCoastingDistance,0.2
;   extruderUseWipe,0
;   extruderWipeDistance,5
;   primaryExtruder,0
;   layerHeight,0.2
;   topSolidLayers,3
;   bottomSolidLayers,3
;   perimeterOutlines,2
;   printPerimetersInsideOut,1
;   startPointOption,3
;   startPointOriginX,0
;   startPointOriginY,150
;   sequentialIslands,0
;   spiralVaseMode,0
;   firstLayerHeightPercentage,100
;   firstLayerWidthPercentage,100
;   firstLayerUnderspeed,0.5
;   useRaft,0
;   raftExtruder,0
;   raftTopLayers,2
;   raftBaseLayers,1
;   raftOffset,1
;   raftSeparationDistance,0.14
;   raftTopInfill,90
;   aboveRaftSpeedMultiplier,0.3
;   useSkirt,0
;   skirtExtruder,0
;   skirtLayers,1
;   skirtOutlines,5
;   skirtOffset,0
;   usePrimePillar,0
;   primePillarExtruder,999
;   primePillarWidth,12
;   primePillarLocation,7
;   primePillarSpeedMultiplier,1
;   useOozeShield,0
;   oozeShieldExtruder,999
;   oozeShieldOffset,2
;   oozeShieldOutlines,1
;   oozeShieldSidewallShape,1
;   oozeShieldSidewallAngle,30
;   oozeShieldSpeedMultiplier,1
;   infillExtruder,0
;   internalInfillPattern,Rectilinear
;   externalInfillPattern,Rectilinear
;   infillPercentage,15
;   outlineOverlapPercentage,20
;   infillExtrusionWidthPercentage,100
;   minInfillLength,5
;   infillLayerInterval,1
;   internalInfillAngles,45,-45
;   overlapInternalInfillAngles,0
;   externalInfillAngles,45,-45
;   generateSupport,0
;   supportExtruder,0
;   supportInfillPercentage,10
;   supportExtraInflation,0.5
;   supportBaseLayers,0
;   denseSupportExtruder,0
;   denseSupportLayers,2
;   denseSupportInfillPercentage,70
;   supportLayerInterval,1
;   supportHorizontalPartOffset,0.3
;   supportUpperSeparationLayers,1
;   supportLowerSeparationLayers,1
;   supportType,0
;   supportGridSpacing,2
;   maxOverhangAngle,45
;   supportAngles,0
;   temperatureName,Primary Extruder,Heated Build Platform
;   temperatureNumber,0,0
;   temperatureSetpointCount,1,1
;   temperatureSetpointLayers,1,1
;   temperatureSetpointTemperatures,230,60
;   temperatureStabilizeAtStartup,1,1
;   temperatureHeatedBed,0,1
;   fanLayers,1,2
;   fanSpeeds,0,100
;   blipFanToFullPower,1
;   adjustSpeedForCooling,1
;   minSpeedLayerTime,15
;   minCoolingSpeedSlowdown,20
;   increaseFanForCooling,1
;   minFanLayerTime,45
;   maxCoolingFanSpeed,100
;   increaseFanForBridging,1
;   bridgingFanSpeed,100
;   use5D,1
;   relativeEdistances,1
;   allowEaxisZeroing,0
;   independentExtruderAxes,1
;   includeM10123,0
;   stickySupport,1
;   applyToolheadOffsets,0
;   gcodeXoffset,0
;   gcodeYoffset,0
;   gcodeZoffset,0
;   overrideMachineDefinition,1
;   machineTypeOverride,0
;   strokeXoverride,280
;   strokeYoverride,150
;   strokeZoverride,150
;   originOffsetXoverride,140
;   originOffsetYoverride,75
;   originOffsetZoverride,0
;   homeXdirOverride,1
;   homeYdirOverride,1
;   homeZdirOverride,-1
;   flipXoverride,1
;   flipYoverride,-1
;   flipZoverride,1
;   toolheadOffsets,0,0|0,0|0,0|0,0|0,0|0,0
;   overrideFirmwareConfiguration,1
;   firmwareTypeOverride,MakerBot/Sailfish Firmware
;   GPXconfigOverride,r2h
;   baudRateOverride,115200
;   overridePrinterModels,1
;   printerModelsOverride,MakerBot_Replicator2.stl
;   startingGcode,; **** Replicator 2 start.gcode ****,M73 P0 ; enable build progress,G162 X Y F3000 ; home XY maximum,G161 Z F1200 ; home Z minimum,G92 Z-5 ; set Z to -5,G1 Z0 ; move Z to 0,G161 Z F100 ; home Z slowly,M132 X Y Z A B ; recall home offsets,G1 X-145 Y-75 Z30 F9000 ; move to wait position off table,G130 X20 Y20 Z20 A20 B20 ; lower stepper Vrefs while heating,M126 S[fan_speed_pwm],M140 S[bed0_temperature] T0,M134 T0 ; stabilize bed temperature,M104 S[extruder0_temperature] T0,M133 T0 ; stabilize extruder temperature,G130 X127 Y127 Z40 A127 B127 ; default stepper Vrefs,G92 A0 ; zero extruder,G1 Z0.4 ; position nozzle,G1 E25 F300 ; purge nozzle,G1 X-140 Y-70 Z0.15 F1200 ; slow wipe,G1 X-135 Y-65 Z0.5 F1200 ; lift,G92 A0 ; zero extruder,M73 P1 ;@body (notify GPX body has started),; **** end of start.gcode ****
;   layerChangeGcode,
;   retractionGcode,
;   toolChangeGcode,
;   endingGcode,; **** Replicator 2 end.gcode ****,M73 P100 ; end build progress,G1 Z155 F1000 ; send Z axis to bottom of machine,M104 S0 T0 ; cool down extruder,M140 S0 T0 ; cool down HBP,M127 ; stop blower fan,G162 X Y F3000 ; home XY maximum,M18 ; disable stepper,M0 ; stop codes,M72 P1 ; play Ta-Da song,; **** end of end.gcode ****
;   exportFileFormat,gcode
;   celebration,0
;   celebrationSong,Random Song
;   postProcessing,
;   defaultSpeed,4800
;   outlineUnderspeed,0.5
;   solidInfillUnderspeed,1
;   supportUnderspeed,1
;   rapidXYspeed,9000
;   rapidZspeed,1200
;   minBridgingArea,50
;   bridgingExtraInflation,0
;   bridgingExtrusionMultiplier,1
;   bridgingSpeedMultiplier,0.8
;   useFixedBridgingAngle,0
;   fixedBridgingAngle,0
;   applyBridgingToPerimeters,0
;   filamentDiameters,1.75|1.75|1.75|1.75|1.75|1.75
;   filamentPricesPerKg,46|46|46|46|46|46
;   filamentDensities,1.25|1.25|1.25|1.25|1.25|1.25
;   useMinPrintHeight,0
;   minPrintHeight,0
;   useMaxPrintHeight,0
;   maxPrintHeight,4.84
;   useDiaphragm,0
;   diaphragmLayerInterval,20
;   robustSlicing,1
;   mergeAllIntoSolid,0
;   onlyRetractWhenCrossingOutline,0
;   retractBetweenLayers,0
;   useRetractionMinTravel,1
;   retractionMinTravel,7
;   retractWhileWiping,1
;   onlyWipeOutlines,1
;   avoidCrossingOutline,0
;   maxMovementDetourFactor,3
;   toolChangeRetractionDistance,12
;   toolChangeExtraRestartDistance,-0.5
;   toolChangeRetractionSpeed,600
;   externalThinWallType,0
;   internalThinWallType,0
;   thinWallAllowedOverlapPercentage,10
;   singleExtrusionMinLength,1
;   singleExtrusionMinPrintingWidthPercentage,50
;   singleExtrusionMaxPrintingWidthPercentage,200
;   singleExtrusionEndpointExtension,0.2
;   horizontalSizeCompensation,0
G90
M83
; **** Replicator 2 start.gcode ****
M73 P0 ; enable build progress
G162 X Y F3000 ; home XY maximum
G161 Z F1200 ; home Z minimum
G92 Z-5 ; set Z to -5
G1 Z0 ; move Z to 0
G161 Z F100 ; home Z slowly
M132 X Y Z A B ; recall home offsets
G1 X-145 Y-75 Z30 F9000 ; move to wait position off table
G130 X20 Y20 Z20 A20 B20 ; lower stepper Vrefs while heating
M127
M140 S60 T0
M134 T0 ; stabilize bed temperature
M104 S230 T0
M133 T0 ; stabilize extruder temperature
G130 X127 Y127 Z40 A127 B127 ; default stepper Vrefs
G92 A0 ; zero extruder
G1 Z0.4 ; position nozzle
G1 E25 F300 ; purge nozzle
G1 X-140 Y-70 Z0.15 F1200 ; slow wipe
G1 X-135 Y-65 Z0.5 F1200 ; lift
G92 A0 ; zero extruder
M73 P1 ;@body (notify GPX body has started)
; **** end of start.gcode ****
; process Process1
; layer 1, Z = 0.200
M135 T0
G1 E-1.0000 F1200
; feature inner perimeter
; tool H0.200 W0.400
G1 Z0.500 F1200
G1 X-23.679 Y25.072 F9000
G1 Z0.200 F1200
G1 E1.0000 F1200
G1 X-28.666 Y25.563 E0.1667 F1800
G1 X-33.653 Y25.072 E0.1667
G1 X-38.449 Y23.617 E0.1667
G1 X-42.868 Y21.255 E0.1667
G1 X-46.742 Y18.076 E0.1667
G1 X-49.921 Y14.202 E0.1667
G1 X-52.283 Y9.783 E0.1667
G1 X-53.738 Y4.987 E0.1667
G1 X-54.229 Y0.000 E0.1667
G1 X-53.738 Y-4.987 E0.1667
G1 X-52.283 Y-9.783 E0.1667
G1 X-49.921 Y-14.202 E0.1667
G1 X-46.742 Y-18.076 E0.1667
G1 X-42.868 Y-21.255 E0.1667
G1 X-38.449 Y-23.617 E0.1667
G1 X-33.653 Y-25.072 E0.1667
G1 X-28.666 Y-25.563 E0.1667
G1 X-23.679 Y-25.072 E0.1667
G1 X-18.883 Y-23.617 E0.1667
G1 X-14.464 Y-21.255 E0.1667
G1 X-10.590 Y-18.076 E0.1667
G1 X-7.411 Y-14.202 E0.1667
G1 X-5.049 Y-9.783 E0.1667
G1 X-3.594 Y-4.987 E0.1667
G1 X-3.103 Y0.000 E0.1667
G1 X-3.594 Y4.987 E0.1667
G1 X-5.049 Y9.783 E0.1667
G1 X-7.411 Y14.202 E0.1667
G1 X-10.590 Y18.076 E0.1667
G1 X-14.464 Y21.255 E0.1667
G1 X-18.883 Y23.617 E0.1667
G1 X-23.679 Y25.072 E0.1667
; feature outer perimeter
G1 X-23.600 Y25.466 F9000
G1 X-28.666 Y25.965 E0.1693 F1200
G1 X-33.731 Y25.466 E0.1693
G1 X-38.602 Y23.989 E0.1693
G1 X-43.091 Y21.589 E0.1693
G1 X-47.026 Y18.360 E0.1693
G1 X-50.255 Y14.425 E0.1693
G1 X-52.655 Y9.936 E0.1693
G1 X-54.132 Y5.066 E0.1693
G1 X-54.631 Y0.000 E0.1693
G1 X-54.132 Y-5.066 E0.1693
G1 X-52.655 Y-9.936 E0.1693
G1 X-50.255 Y-14.425 E0.1693
G1 X-47.026 Y-18.360 E0.1693
G1 X-43.091 Y-21.589 E0.1693
G1 X-38.602 Y-23.989 E0.1693
G1 X-33.732 Y-25.466 E0.1693
G1 X-28.666 Y-25.965 E0.1693
G1 X-23.600 Y-25.466 E0.1693
G1 X-18.730 Y-23.989 E0.1693
G1 X-14.241 Y-21.589 E0.1693
G1 X-10.306 Y-18.360 E0.1693
G1 X-7.077 Y-14.425 E0.1693
G1 X-4.677 Y-9.936 E0.1693
G1 X-3.200 Y-5.066 E0.1693
G1 X-2.701 Y0.000 E0.1693
G1 X-3.200 Y5.066 E0.1693
G1 X-4.677 Y9.936 E0.1693
G1 X-7.077 Y14.425 E0.1693
G1 X-10.306 Y18.360 E0.1693
G1 X-14.241 Y21.589 E0.1693
G1 X-18.730 Y23.989 E0.1693
G1 X-23.600 Y25.466 E0.1693
; feature inner perimeter
G1 X-25.849 Y21.812 F9000
G1 X-20.325 Y20.137 E0.1920 F1800
G1 X-16.557 Y18.122 E0.1421
G1 X-13.254 Y15.412 E0.1421
G1 X-10.544 Y12.109 E0.1421
G1 X-8.529 Y8.341 E0.1421
G1 X-7.172 Y3.868 E0.1555
G1 X-7.956 Y3.382 E0.0307
G1 X-18.786 Y13.563 E0.4944
G1 X-20.887 Y13.563 E0.0699
G1 X-25.849 Y21.812 E0.3202
; feature outer perimeter
G1 X-24.971 Y21.128 F9000
G1 X-20.479 Y19.765 E0.1561 F1200
G1 X-16.780 Y17.788 E0.1395
G1 X-13.538 Y15.128 E0.1395
G1 X-10.878 Y11.886 E0.1395
G1 X-8.901 Y8.187 E0.1395
G1 X-7.644 Y4.046 E0.1439
G1 X-7.905 Y3.884 E0.0102
G1 X-18.627 Y13.963 E0.4895
G1 X-20.661 Y13.963 E0.0676
G1 X-24.971 Y21.128 E0.2781
G1 E-1.0000 F1200
; feature inner perimeter
G1 Z0.700 F1200
G1 X-32.167 Y20.678 F9000
G1 Z0.200 F1200
G1 E1.0000 F1200
G1 X-36.355 Y13.563 E0.2746 F1800
G1 X-38.462 Y13.563 E0.0701
G1 X-49.379 Y3.382 E0.4965
G1 X-50.159 Y3.869 E0.0306
G1 X-48.803 Y8.341 E0.1554
G1 X-46.788 Y12.109 E0.1421
G1 X-44.078 Y15.412 E0.1421
G1 X-41.241 Y17.740 E0.1221
G1 X-41.384 Y17.954 E0.0086
G1 X-37.060 Y20.265 E0.1631
G1 X-32.368 Y21.688 E0.1631
G1 X-32.167 Y20.678 E0.0343
; feature outer perimeter
G1 X-32.589 Y20.750 F9000
G1 X-36.584 Y13.963 E0.2619 F1200
G1 X-38.619 Y13.963 E0.0677
G1 X-49.427 Y3.884 E0.4915
G1 X-49.687 Y4.046 E0.0102
G1 X-48.431 Y8.187 E0.1439
G1 X-46.454 Y11.886 E0.1395
G1 X-43.794 Y15.128 E0.1395
G1 X-40.707 Y17.661 E0.1328
G1 X-40.806 Y17.809 E0.0059
G1 X-36.906 Y19.894 E0.1471
G1 X-32.675 Y21.178 E0.1471
G1 X-32.589 Y20.750 E0.0145
G1 E-1.0000 F1200
; feature inner perimeter
G1 Z0.700 F1200
G1 X-36.178 Y7.158 F9000
G1 Z0.200 F1200
G1 E1.0000 F1200
G1 X-32.074 Y-21.633 E0.9673 F1800
G1 X-37.007 Y-20.137 E0.1715
G1 X-40.775 Y-18.122 E0.1421
G1 X-44.078 Y-15.412 E0.1421
G1 X-46.788 Y-12.109 E0.1421
G1 X-48.803 Y-8.341 E0.1421
G1 X-50.130 Y-3.963 E0.1521
G1 X-38.946 Y7.158 E0.5246
G1 X-36.178 Y7.158 E0.0921
; feature outer perimeter
G1 X-36.525 Y6.758 F9000
G1 X-32.558 Y-21.068 E0.9349 F1200
G1 X-36.853 Y-19.765 E0.1493
G1 X-40.552 Y-17.788 E0.1395
G1 X-43.794 Y-15.128 E0.1395
G1 X-46.454 Y-11.886 E0.1395
G1 X-48.431 Y-8.187 E0.1395
G1 X-49.678 Y-4.077 E0.1428
G1 X-38.781 Y6.758 E0.5111
G1 X-36.525 Y6.758 E0.0750
G1 E-1.0000 F1200
; feature inner perimeter
G1 Z0.700 F1200
G1 X-21.067 Y7.158 F9000
G1 Z0.200 F1200
G1 E1.0000 F1200
G1 X-18.299 Y7.158 E0.0921 F1800
G1 X-7.202 Y-3.965 E0.5226
G1 X-8.529 Y-8.341 E0.1521
G1 X-10.544 Y-12.109 E0.1421
G1 X-13.254 Y-15.412 E0.1421
G1 X-16.557 Y-18.122 E0.1421
G1 X-20.325 Y-20.137 E0.1421
G1 X-25.261 Y-21.634 E0.1716
G1 X-21.067 Y7.158 E0.9677
; feature outer perimeter
G1 X-20.721 Y6.758 F9000
G1 X-18.465 Y6.758 E0.0750 F1200
G1 X-7.654 Y-4.078 E0.5091
G1 X-8.901 Y-8.187 E0.1428
G1 X-10.878 Y-11.886 E0.1395
G1 X-13.538 Y-15.128 E0.1395
G1 X-16.780 Y-17.788 E0.1395
G1 X-20.479 Y-19.765 E0.1395
G1 X-24.775 Y-21.068 E0.1493
G1 X-20.721 Y6.758 E0.9353
G1 E-1.0000 F1200
; feature solid layer
G1 Z0.700 F1200
G1 X-6.980 Y4.334 F9000
G1 Z0.200 F1200
G1 E1.0000 F1200
G1 X-4.487 Y6.827 E0.1173 F2400
G1 X-4.618 Y7.261 E0.0151
G1 X-7.111 Y4.768 E0.1173
G1 X-7.243 Y5.202 E0.0151
G1 X-4.750 Y7.695 E0.1173
G1 X-4.882 Y8.129 E0.0151
G1 X-7.375 Y5.636 E0.1173
G1 X-7.506 Y6.070 E0.0151
G1 X-5.013 Y8.563 E0.1173
G1 X-5.145 Y8.997 E0.0151
G1 X-7.638 Y6.504 E0.1173
G1 X-7.770 Y6.938 E0.0151
G1 X-5.277 Y9.431 E0.1173
G1 X-5.346 Y9.660 E0.0079
G1 X-5.439 Y9.834 E0.0066
G1 X-7.901 Y7.372 E0.1158
G1 X-8.033 Y7.806 E0.0151
G1 X-5.636 Y10.203 E0.1127
G1 X-5.833 Y10.572 E0.0139
G1 X-8.164 Y8.240 E0.1097
G1 X-8.232 Y8.464 E0.0078
G1 X-8.328 Y8.643 E0.0067
G1 X-6.030 Y10.940 E0.1081
G1 X-6.227 Y11.309 E0.0139
G1 X-8.525 Y9.011 E0.1081
G1 X-8.722 Y9.380 E0.0139
G1 X-6.424 Y11.677 E0.1081
G1 X-6.621 Y12.046 E0.0139
G1 X-8.919 Y9.749 E0.1081
G1 X-9.116 Y10.117 E0.0139
G1 X-6.819 Y12.415 E0.1081
G1 X-7.016 Y12.783 E0.0139
G1 X-9.313 Y10.486 E0.1081
G1 X-9.510 Y10.855 E0.0139
G1 X-7.213 Y13.152 E0.1081
G1 X-7.410 Y13.521 E0.0139
G1 X-9.707 Y11.223 E0.1081
G1 X-9.904 Y11.592 E0.0139
G1 X-7.607 Y13.889 E0.1081
G1 X-7.678 Y14.023 E0.0051
G1 X-7.841 Y14.221 E0.0085
G1 X-10.101 Y11.960 E0.1063
G1 X-10.276 Y12.288 E0.0123
G1 X-10.305 Y12.323 E0.0015
G1 X-8.096 Y14.532 E0.1039
G1 X-8.351 Y14.843 E0.0134
G1 X-10.560 Y12.633 E0.1039
G1 X-10.815 Y12.944 E0.0134
G1 X-8.606 Y15.153 E0.1039
G1 X-8.861 Y15.464 E0.0134
G1 X-11.070 Y13.255 E0.1039
G1 X-11.325 Y13.565 E0.0134
G1 X-9.116 Y15.775 E0.1039
G1 X-9.371 Y16.085 E0.0134
G1 X-11.580 Y13.876 E0.1039
G1 X-11.835 Y14.187 E0.0134
G1 X-9.626 Y16.396 E0.1039
G1 X-9.881 Y16.707 E0.0134
G1 X-12.090 Y14.498 E0.1039
G1 X-12.345 Y14.808 E0.0134
G1 X-10.135 Y17.017 E0.1039
G1 X-10.390 Y17.328 E0.0134
G1 X-12.600 Y15.119 E0.1039
G1 X-12.855 Y15.430 E0.0134
G1 X-10.645 Y17.639 E0.1039
G1 X-10.818 Y17.848 E0.0090
G1 X-10.919 Y17.931 E0.0043
G1 X-13.128 Y15.722 E0.1039
G1 X-13.438 Y15.977 E0.0134
G1 X-11.229 Y18.186 E0.1039
G1 X-11.540 Y18.441 E0.0134
G1 X-13.749 Y16.232 E0.1039
G1 X-14.060 Y16.487 E0.0134
G1 X-11.851 Y18.696 E0.1039
G1 X-12.161 Y18.951 E0.0134
G1 X-14.371 Y16.742 E0.1039
G1 X-14.681 Y16.997 E0.0134
G1 X-12.472 Y19.206 E0.1039
G1 X-12.783 Y19.461 E0.0134
G1 X-14.992 Y17.252 E0.1039
G1 X-15.303 Y17.507 E0.0134
G1 X-13.093 Y19.716 E0.1039
G1 X-13.404 Y19.971 E0.0134
G1 X-15.613 Y17.762 E0.1039
G1 X-15.924 Y18.017 E0.0134
G1 X-13.715 Y20.226 E0.1039
G1 X-14.026 Y20.481 E0.0134
G1 X-16.235 Y18.272 E0.1039
G1 X-16.378 Y18.390 E0.0062
G1 X-16.577 Y18.496 E0.0075
G1 X-14.336 Y20.736 E0.1054
G1 X-14.643 Y20.988 E0.0132
G1 X-14.648 Y20.990 E0.0002
G1 X-16.945 Y18.693 E0.1081
G1 X-17.314 Y18.890 E0.0139
G1 X-15.016 Y21.187 E0.1081
G1 X-15.385 Y21.384 E0.0139
G1 X-17.683 Y19.087 E0.1081
G1 X-18.051 Y19.284 E0.0139
G1 X-15.754 Y21.582 E0.1081
G1 X-16.122 Y21.779 E0.0139
G1 X-18.420 Y19.481 E0.1081
G1 X-18.788 Y19.678 E0.0139
G1 X-16.491 Y21.976 E0.1081
G1 X-16.860 Y22.173 E0.0139
G1 X-19.157 Y19.875 E0.1081
G1 X-19.526 Y20.072 E0.0139
G1 X-17.228 Y22.370 E0.1081
G1 X-17.597 Y22.567 E0.0139
G1 X-19.894 Y20.269 E0.1081
G1 X-20.202 Y20.434 E0.0116
G1 X-20.274 Y20.455 E0.0025
G1 X-17.966 Y22.764 E0.1086
G1 X-18.334 Y22.961 E0.0139
G1 X-20.708 Y20.587 E0.1117
G1 X-21.142 Y20.719 E0.0151
G1 X-18.703 Y23.158 E0.1147
G1 X-19.006 Y23.320 E0.0114
G1 X-19.083 Y23.343 E0.0027
G1 X-21.576 Y20.850 E0.1173
G1 X-22.010 Y20.982 E0.0151
G1 X-19.517 Y23.475 E0.1173
G1 X-19.951 Y23.607 E0.0151
G1 X-22.444 Y21.114 E0.1173
G1 X-22.878 Y21.245 E0.0151
G1 X-20.385 Y23.738 E0.1173
G1 X-20.819 Y23.870 E0.0151
G1 X-23.312 Y21.377 E0.1173
G1 X-23.746 Y21.509 E0.0151
G1 X-21.253 Y24.002 E0.1173
G1 X-21.687 Y24.133 E0.0151
G1 X-24.180 Y21.640 E0.1173
