; G-Code generated by Simplify3D(R) Version 4.1.2
; Apr 6, 2020 at 12:36:45 PM
; Settings Summary
;   processName,Process1
;   applyToModels,hat band,hat band(2)
;   profileName,MakerBot Replicator 2 HBP (modified)
;   profileVersion,2019-08-23 15:32:08
;   baseProfile,MakerBot Replicator 2(2)
;   printMaterial,PLA
;   printQuality,Medium
;   printExtruders,
;   extruderName,Primary Extruder
;   extruderToolheadNumber,0
;   extruderDiameter,0.4
;   extruderAutoWidth,0
;   extruderWidth,0.4
;   extrusionMultiplier,1
;   extruderUseRetract,1
;   extruderRetractionDistance,1
;   extruderExtraRestartDistance,0
;   extruderRetractionZLift,0.5
;   extruderRetractionSpeed,1200
;   extruderUseCoasting,0
;   extruderCoastingDistance,0.2
;   extruderUseWipe,0
;   extruderWipeDistance,5
;   primaryExtruder,0
;   layerHeight,0.2
;   topSolidLayers,3
;   bottomSolidLayers,3
;   perimeterOutlines,2
;   printPerimetersInsideOut,1
;   startPointOption,3
;   startPointOriginX,0
;   startPointOriginY,150
;   sequentialIslands,0
;   spiralVaseMode,0
;   firstLayerHeightPercentage,100
;   firstLayerWidthPercentage,100
;   firstLayerUnderspeed,0.5
;   useRaft,0
;   raftExtruder,0
;   raftTopLayers,2
;   raftBaseLayers,1
;   raftOffset,1
;   raftSeparationDistance,0.14
;   raftTopInfill,90
;   aboveRaftSpeedMultiplier,0.3
;   useSkirt,0
;   skirtExtruder,0
;   skirtLayers,1
;   skirtOutlines,5
;   skirtOffset,0
;   usePrimePillar,0
;   primePillarExtruder,999
;   primePillarWidth,12
;   primePillarLocation,7
;   primePillarSpeedMultiplier,1
;   useOozeShield,0
;   oozeShieldExtruder,999
;   oozeShieldOffset,2
;   oozeShieldOutlines,1
;   oozeShieldSidewallShape,1
;   oozeShieldSidewallAngle,30
;   oozeShieldSpeedMultiplier,1
;   infillExtruder,0
;   internalInfillPattern,Rectilinear
;   externalInfillPattern,Rectilinear
;   infillPercentage,15
;   outlineOverlapPercentage,20
;   infillExtrusionWidthPercentage,100
;   minInfillLength,5
;   infillLayerInterval,1
;   internalInfillAngles,45,-45
;   overlapInternalInfillAngles,0
;   externalInfillAngles,45,-45
;   generateSupport,0
;   supportExtruder,0
;   supportInfillPercentage,10
;   supportExtraInflation,0.5
;   supportBaseLayers,0
;   denseSupportExtruder,0
;   denseSupportLayers,2
;   denseSupportInfillPercentage,70
;   supportLayerInterval,1
;   supportHorizontalPartOffset,0.3
;   supportUpperSeparationLayers,1
;   supportLowerSeparationLayers,1
;   supportType,0
;   supportGridSpacing,2
;   maxOverhangAngle,45
;   supportAngles,0
;   temperatureName,Primary Extruder,Heated Build Platform
;   temperatureNumber,0,0
;   temperatureSetpointCount,1,1
;   temperatureSetpointLayers,1,1
;   temperatureSetpointTemperatures,230,60
;   temperatureStabilizeAtStartup,1,1
;   temperatureHeatedBed,0,1
;   fanLayers,1,2
;   fanSpeeds,0,100
;   blipFanToFullPower,1
;   adjustSpeedForCooling,1
;   minSpeedLayerTime,15
;   minCoolingSpeedSlowdown,20
;   increaseFanForCooling,1
;   minFanLayerTime,45
;   maxCoolingFanSpeed,100
;   increaseFanForBridging,1
;   bridgingFanSpeed,100
;   use5D,1
;   relativeEdistances,1
;   allowEaxisZeroing,0
;   independentExtruderAxes,1
;   includeM10123,0
;   stickySupport,1
;   applyToolheadOffsets,0
;   gcodeXoffset,0
;   gcodeYoffset,0
;   gcodeZoffset,0
;   overrideMachineDefinition,1
;   machineTypeOverride,0
;   strokeXoverride,280
;   strokeYoverride,150
;   strokeZoverride,150
;   originOffsetXoverride,140
;   originOffsetYoverride,75
;   originOffsetZoverride,0
;   homeXdirOverride,1
;   homeYdirOverride,1
;   homeZdirOverride,-1
;   flipXoverride,1
;   flipYoverride,-1
;   flipZoverride,1
;   toolheadOffsets,0,0|0,0|0,0|0,0|0,0|0,0
;   overrideFirmwareConfiguration,1
;   firmwareTypeOverride,MakerBot/Sailfish Firmware
;   GPXconfigOverride,r2h
;   baudRateOverride,115200
;   overridePrinterModels,1
;   printerModelsOverride,MakerBot_Replicator2.stl
;   startingGcode,; **** Replicator 2 start.gcode ****,M73 P0 ; enable build progress,G162 X Y F3000 ; home XY maximum,G161 Z F1200 ; home Z minimum,G92 Z-5 ; set Z to -5,G1 Z0 ; move Z to 0,G161 Z F100 ; home Z slowly,M132 X Y Z A B ; recall home offsets,G1 X-145 Y-75 Z30 F9000 ; move to wait position off table,G130 X20 Y20 Z20 A20 B20 ; lower stepper Vrefs while heating,M126 S[fan_speed_pwm],M140 S[bed0_temperature] T0,M134 T0 ; stabilize bed temperature,M104 S[extruder0_temperature] T0,M133 T0 ; stabilize extruder temperature,G130 X127 Y127 Z40 A127 B127 ; default stepper Vrefs,G92 A0 ; zero extruder,G1 Z0.4 ; position nozzle,G1 E25 F300 ; purge nozzle,G1 X-140 Y-70 Z0.15 F1200 ; slow wipe,G1 X-135 Y-65 Z0.5 F1200 ; lift,G92 A0 ; zero extruder,M73 P1 ;@body (notify GPX body has started),; **** end of start.gcode ****
;   layerChangeGcode,
;   retractionGcode,
;   toolChangeGcode,
;   endingGcode,; **** Replicator 2 end.gcode ****,M73 P100 ; end build progress,G1 Z155 F1000 ; send Z axis to bottom of machine,M104 S0 T0 ; cool down extruder,M140 S0 T0 ; cool down HBP,M127 ; stop blower fan,G162 X Y F3000 ; home XY maximum,M18 ; disable stepper,M0 ; stop codes,M72 P1 ; play Ta-Da song,; **** end of end.gcode ****
;   exportFileFormat,gcode
;   celebration,0
;   celebrationSong,Random Song
;   postProcessing,
;   defaultSpeed,4800
;   outlineUnderspeed,0.5
;   solidInfillUnderspeed,1
;   supportUnderspeed,1
;   rapidXYspeed,9000
;   rapidZspeed,1200
;   minBridgingArea,50
;   bridgingExtraInflation,0
;   bridgingExtrusionMultiplier,1
;   bridgingSpeedMultiplier,0.8
;   useFixedBridgingAngle,0
;   fixedBridgingAngle,0
;   applyBridgingToPerimeters,0
;   filamentDiameters,1.75|1.75|1.75|1.75|1.75|1.75
;   filamentPricesPerKg,46|46|46|46|46|46
;   filamentDensities,1.25|1.25|1.25|1.25|1.25|1.25
;   useMinPrintHeight,0
;   minPrintHeight,0
;   useMaxPrintHeight,0
;   maxPrintHeight,4.84
;   useDiaphragm,0
;   diaphragmLayerInterval,20
;   robustSlicing,1
;   mergeAllIntoSolid,0
;   onlyRetractWhenCrossingOutline,0
;   retractBetweenLayers,0
;   useRetractionMinTravel,1
;   retractionMinTravel,7
;   retractWhileWiping,1
;   onlyWipeOutlines,1
;   avoidCrossingOutline,0
;   maxMovementDetourFactor,3
;   toolChangeRetractionDistance,12
;   toolChangeExtraRestartDistance,-0.5
;   toolChangeRetractionSpeed,600
;   externalThinWallType,0
;   internalThinWallType,0
;   thinWallAllowedOverlapPercentage,10
;   singleExtrusionMinLength,1
;   singleExtrusionMinPrintingWidthPercentage,50
;   singleExtrusionMaxPrintingWidthPercentage,200
;   singleExtrusionEndpointExtension,0.2
;   horizontalSizeCompensation,0
G90
M83
; **** Replicator 2 start.gcode ****
M73 P0 ; enable build progress
G162 X Y F3000 ; home XY maximum
G161 Z F1200 ; home Z minimum
G92 Z-5 ; set Z to -5
G1 Z0 ; move Z to 0
G161 Z F100 ; home Z slowly
M132 X Y Z A B ; recall home offsets
G1 X-145 Y-75 Z30 F9000 ; move to wait position off table
G130 X20 Y20 Z20 A20 B20 ; lower stepper Vrefs while heating
M127
M140 S60 T0
M134 T0 ; stabilize bed temperature
M104 S230 T0
M133 T0 ; stabilize extruder temperature
G130 X127 Y127 Z40 A127 B127 ; default stepper Vrefs
G92 A0 ; zero extruder
G1 Z0.4 ; position nozzle
G1 E25 F300 ; purge nozzle
G1 X-140 Y-70 Z0.15 F1200 ; slow wipe
G1 X-135 Y-65 Z0.5 F1200 ; lift
G92 A0 ; zero extruder
M73 P1 ;@body (notify GPX body has started)
; **** end of start.gcode ****
; process Process1
; layer 1, Z = 0.200
M135 T0
G1 E-1.0000 F1200
; feature inner perimeter
; tool H0.200 W0.400
G1 Z0.500 F1200
G1 X23.660 Y24.421 F9000
G1 Z0.200 F1200
G1 E1.0000 F1200
G1 X22.467 Y24.184 E0.0405 F1800
G1 X21.287 Y23.888 E0.0405
G1 X20.122 Y23.535 E0.0405
G1 X18.977 Y23.125 E0.0405
G1 X17.853 Y22.660 E0.0405
G1 X16.753 Y22.140 E0.0405
G1 X15.680 Y21.566 E0.0405
G1 X14.637 Y20.941 E0.0405
G1 X13.626 Y20.265 E0.0405
G1 X12.648 Y19.540 E0.0405
G1 X11.708 Y18.768 E0.0405
G1 X10.806 Y17.951 E0.0405
G1 X9.946 Y17.091 E0.0405
G1 X9.129 Y16.190 E0.0405
G1 X8.357 Y15.249 E0.0405
G1 X7.633 Y14.272 E0.0405
G1 X6.957 Y13.261 E0.0405
G1 X6.331 Y12.217 E0.0405
G1 X5.758 Y11.144 E0.0405
G1 X5.238 Y10.044 E0.0405
G1 X4.772 Y8.920 E0.0405
G1 X4.362 Y7.775 E0.0405
G1 X4.009 Y6.611 E0.0405
G1 X3.713 Y5.431 E0.0405
G1 X3.476 Y4.238 E0.0405
G1 X3.298 Y3.034 E0.0405
G1 X3.178 Y1.823 E0.0405
G1 X3.119 Y0.608 E0.0405
G1 X3.119 Y-0.608 E0.0405
G1 X3.178 Y-1.823 E0.0405
G1 X3.298 Y-3.034 E0.0405
G1 X3.476 Y-4.237 E0.0405
G1 X3.714 Y-5.431 E0.0405
G1 X4.009 Y-6.611 E0.0405
G1 X4.362 Y-7.775 E0.0405
G1 X4.772 Y-8.920 E0.0405
G1 X5.238 Y-10.044 E0.0405
G1 X5.758 Y-11.144 E0.0405
G1 X6.331 Y-12.217 E0.0405
G1 X6.957 Y-13.261 E0.0405
G1 X7.633 Y-14.272 E0.0405
G1 X8.357 Y-15.249 E0.0405
G1 X9.129 Y-16.190 E0.0405
G1 X9.946 Y-17.091 E0.0405
G1 X10.806 Y-17.951 E0.0404
G1 X11.708 Y-18.768 E0.0405
G1 X12.648 Y-19.540 E0.0405
G1 X13.625 Y-20.265 E0.0405
G1 X14.637 Y-20.941 E0.0405
G1 X15.680 Y-21.566 E0.0405
G1 X16.753 Y-22.140 E0.0405
G1 X17.853 Y-22.660 E0.0405
G1 X18.977 Y-23.125 E0.0405
G1 X20.122 Y-23.535 E0.0405
G1 X21.287 Y-23.888 E0.0405
G1 X22.467 Y-24.184 E0.0405
G1 X23.660 Y-24.421 E0.0405
G1 X24.863 Y-24.600 E0.0405
G1 X26.074 Y-24.719 E0.0405
G1 X27.289 Y-24.779 E0.0405
G1 X28.506 Y-24.779 E0.0405
G1 X29.721 Y-24.719 E0.0405
G1 X30.932 Y-24.600 E0.0405
G1 X32.135 Y-24.421 E0.0405
G1 X33.328 Y-24.184 E0.0405
G1 X34.508 Y-23.888 E0.0405
G1 X35.673 Y-23.535 E0.0405
G1 X36.818 Y-23.125 E0.0405
G1 X37.942 Y-22.660 E0.0405
G1 X39.042 Y-22.140 E0.0405
G1 X40.114 Y-21.566 E0.0405
G1 X41.158 Y-20.941 E0.0405
G1 X42.169 Y-20.265 E0.0405
G1 X43.147 Y-19.540 E0.0405
G1 X44.087 Y-18.768 E0.0405
G1 X44.989 Y-17.951 E0.0405
G1 X45.849 Y-17.091 E0.0404
G1 X46.666 Y-16.190 E0.0405
G1 X47.437 Y-15.249 E0.0405
G1 X48.162 Y-14.272 E0.0405
G1 X48.838 Y-13.261 E0.0405
G1 X49.464 Y-12.217 E0.0405
G1 X50.037 Y-11.144 E0.0405
G1 X50.557 Y-10.044 E0.0405
G1 X51.023 Y-8.920 E0.0405
G1 X51.432 Y-7.775 E0.0405
G1 X51.786 Y-6.611 E0.0405
G1 X52.081 Y-5.431 E0.0405
G1 X52.319 Y-4.237 E0.0405
G1 X52.497 Y-3.034 E0.0405
G1 X52.616 Y-1.823 E0.0405
G1 X52.676 Y-0.608 E0.0405
G1 X52.676 Y0.608 E0.0405
G1 X52.616 Y1.823 E0.0405
G1 X52.497 Y3.034 E0.0405
G1 X52.319 Y4.238 E0.0405
G1 X52.081 Y5.431 E0.0405
G1 X51.786 Y6.611 E0.0405
G1 X51.432 Y7.775 E0.0405
G1 X51.023 Y8.920 E0.0405
G1 X50.557 Y10.044 E0.0405
G1 X50.037 Y11.144 E0.0405
G1 X49.464 Y12.217 E0.0405
G1 X48.838 Y13.261 E0.0405
G1 X48.162 Y14.272 E0.0405
G1 X47.437 Y15.249 E0.0405
G1 X46.666 Y16.190 E0.0405
G1 X45.849 Y17.091 E0.0405
G1 X44.989 Y17.951 E0.0404
G1 X44.087 Y18.768 E0.0405
G1 X43.147 Y19.540 E0.0405
G1 X42.169 Y20.265 E0.0405
G1 X41.158 Y20.941 E0.0405
G1 X40.115 Y21.566 E0.0405
G1 X39.042 Y22.140 E0.0405
G1 X37.942 Y22.660 E0.0405
G1 X36.818 Y23.125 E0.0405
G1 X35.673 Y23.535 E0.0405
G1 X34.508 Y23.888 E0.0405
G1 X33.328 Y24.184 E0.0405
G1 X32.135 Y24.421 E0.0405
G1 X30.931 Y24.600 E0.0405
G1 X29.721 Y24.719 E0.0405
G1 X28.506 Y24.779 E0.0405
G1 X27.289 Y24.779 E0.0405
G1 X26.074 Y24.719 E0.0405
G1 X24.863 Y24.600 E0.0405
G1 X23.660 Y24.421 E0.0405
; feature outer perimeter
G1 X23.592 Y24.816 F9000
G1 X22.379 Y24.574 E0.0411 F1200
G1 X21.180 Y24.274 E0.0411
G1 X19.997 Y23.915 E0.0411
G1 X18.833 Y23.499 E0.0411
G1 X17.691 Y23.026 E0.0411
G1 X16.573 Y22.497 E0.0411
G1 X15.483 Y21.914 E0.0411
G1 X14.423 Y21.279 E0.0411
G1 X13.395 Y20.592 E0.0411
G1 X12.402 Y19.855 E0.0411
G1 X11.446 Y19.071 E0.0411
G1 X10.530 Y18.241 E0.0411
G1 X9.656 Y17.367 E0.0411
G1 X8.826 Y16.451 E0.0411
G1 X8.042 Y15.495 E0.0411
G1 X7.305 Y14.502 E0.0411
G1 X6.619 Y13.475 E0.0411
G1 X5.983 Y12.414 E0.0411
G1 X5.400 Y11.324 E0.0411
G1 X4.872 Y10.207 E0.0411
G1 X4.399 Y9.064 E0.0411
G1 X3.982 Y7.901 E0.0411
G1 X3.624 Y6.717 E0.0411
G1 X3.323 Y5.518 E0.0411
G1 X3.082 Y4.306 E0.0411
G1 X2.901 Y3.083 E0.0411
G1 X2.779 Y1.853 E0.0411
G1 X2.719 Y0.618 E0.0411
G1 X2.719 Y-0.618 E0.0411
G1 X2.779 Y-1.853 E0.0411
G1 X2.901 Y-3.083 E0.0411
G1 X3.082 Y-4.306 E0.0411
G1 X3.323 Y-5.518 E0.0411
G1 X3.624 Y-6.717 E0.0411
G1 X3.982 Y-7.901 E0.0411
G1 X4.399 Y-9.064 E0.0411
G1 X4.872 Y-10.207 E0.0411
G1 X5.400 Y-11.324 E0.0411
G1 X5.983 Y-12.414 E0.0411
G1 X6.619 Y-13.475 E0.0411
G1 X7.305 Y-14.502 E0.0411
G1 X8.042 Y-15.495 E0.0411
G1 X8.826 Y-16.451 E0.0411
G1 X9.656 Y-17.367 E0.0411
G1 X10.530 Y-18.241 E0.0411
G1 X11.446 Y-19.071 E0.0411
G1 X12.402 Y-19.856 E0.0411
G1 X13.395 Y-20.592 E0.0411
G1 X14.423 Y-21.279 E0.0411
G1 X15.483 Y-21.914 E0.0411
G1 X16.573 Y-22.497 E0.0411
G1 X17.691 Y-23.026 E0.0411
G1 X18.833 Y-23.499 E0.0411
G1 X19.997 Y-23.915 E0.0411
G1 X21.180 Y-24.274 E0.0411
G1 X22.379 Y-24.574 E0.0411
G1 X23.592 Y-24.815 E0.0411
G1 X24.814 Y-24.997 E0.0411
G1 X26.045 Y-25.118 E0.0411
G1 X27.279 Y-25.179 E0.0411
G1 X28.515 Y-25.179 E0.0411
G1 X29.750 Y-25.118 E0.0411
G1 X30.980 Y-24.997 E0.0411
G1 X32.203 Y-24.816 E0.0411
G1 X33.416 Y-24.574 E0.0411
G1 X34.615 Y-24.274 E0.0411
G1 X35.798 Y-23.915 E0.0411
G1 X36.962 Y-23.499 E0.0411
G1 X38.104 Y-23.026 E0.0411
G1 X39.221 Y-22.497 E0.0411
G1 X40.312 Y-21.914 E0.0411
G1 X41.372 Y-21.279 E0.0411
G1 X42.400 Y-20.592 E0.0411
G1 X43.393 Y-19.855 E0.0411
G1 X44.348 Y-19.071 E0.0411
G1 X45.264 Y-18.241 E0.0411
G1 X46.139 Y-17.367 E0.0411
G1 X46.969 Y-16.451 E0.0411
G1 X47.753 Y-15.495 E0.0411
G1 X48.489 Y-14.502 E0.0411
G1 X49.176 Y-13.475 E0.0411
G1 X49.812 Y-12.414 E0.0411
G1 X50.394 Y-11.324 E0.0411
G1 X50.923 Y-10.207 E0.0411
G1 X51.396 Y-9.064 E0.0411
G1 X51.812 Y-7.901 E0.0411
G1 X52.171 Y-6.717 E0.0411
G1 X52.472 Y-5.518 E0.0411
G1 X52.713 Y-4.306 E0.0411
G1 X52.894 Y-3.083 E0.0411
G1 X53.015 Y-1.853 E0.0411
G1 X53.076 Y-0.618 E0.0411
G1 X53.076 Y0.618 E0.0411
G1 X53.015 Y1.853 E0.0411
G1 X52.894 Y3.083 E0.0411
G1 X52.713 Y4.306 E0.0411
G1 X52.472 Y5.518 E0.0411
G1 X52.171 Y6.717 E0.0411
G1 X51.812 Y7.901 E0.0411
G1 X51.396 Y9.064 E0.0411
G1 X50.923 Y10.207 E0.0411
G1 X50.394 Y11.324 E0.0411
G1 X49.812 Y12.414 E0.0411
G1 X49.176 Y13.475 E0.0411
G1 X48.490 Y14.502 E0.0411
G1 X47.753 Y15.495 E0.0411
G1 X46.969 Y16.451 E0.0411
G1 X46.139 Y17.367 E0.0411
G1 X45.264 Y18.241 E0.0411
G1 X44.348 Y19.071 E0.0411
G1 X43.393 Y19.855 E0.0411
G1 X42.400 Y20.592 E0.0411
G1 X41.372 Y21.279 E0.0411
G1 X40.312 Y21.914 E0.0411
G1 X39.221 Y22.497 E0.0411
G1 X38.104 Y23.026 E0.0411
G1 X36.962 Y23.499 E0.0411
G1 X35.798 Y23.915 E0.0411
G1 X34.615 Y24.274 E0.0411
G1 X33.416 Y24.574 E0.0411
G1 X32.203 Y24.816 E0.0411
G1 X30.980 Y24.997 E0.0411
G1 X29.750 Y25.118 E0.0411
G1 X28.516 Y25.179 E0.0411
G1 X27.279 Y25.179 E0.0411
G1 X26.045 Y25.118 E0.0411
G1 X24.814 Y24.997 E0.0411
G1 X23.592 Y24.816 E0.0411
; feature inner perimeter
G1 X23.690 Y24.249 F9000
G1 X24.885 Y24.426 E0.0402 F1800
G1 X26.087 Y24.545 E0.0402
G1 X27.293 Y24.604 E0.0402
G1 X28.501 Y24.604 E0.0402
G1 X29.708 Y24.545 E0.0402
G1 X30.910 Y24.426 E0.0402
G1 X32.105 Y24.249 E0.0402
G1 X33.290 Y24.013 E0.0402
G1 X34.462 Y23.720 E0.0402
G1 X35.618 Y23.369 E0.0402
G1 X36.755 Y22.962 E0.0402
G1 X37.871 Y22.500 E0.0402
G1 X38.963 Y21.983 E0.0402
G1 X40.028 Y21.414 E0.0402
G1 X41.064 Y20.793 E0.0402
G1 X42.069 Y20.122 E0.0402
G1 X43.039 Y19.402 E0.0402
G1 X43.973 Y18.636 E0.0402
G1 X44.868 Y17.825 E0.0402
G1 X45.722 Y16.971 E0.0402
G1 X46.533 Y16.075 E0.0402
G1 X47.300 Y15.142 E0.0402
G1 X48.019 Y14.171 E0.0402
G1 X48.691 Y13.167 E0.0402
G1 X49.311 Y12.131 E0.0402
G1 X49.881 Y11.066 E0.0402
G1 X50.397 Y9.974 E0.0402
G1 X50.860 Y8.858 E0.0402
G1 X51.267 Y7.720 E0.0402
G1 X51.617 Y6.564 E0.0402
G1 X51.911 Y5.392 E0.0402
G1 X52.147 Y4.208 E0.0402
G1 X52.324 Y3.013 E0.0402
G1 X52.442 Y1.811 E0.0402
G1 X52.501 Y0.604 E0.0402
G1 X52.501 Y-0.604 E0.0402
G1 X52.442 Y-1.811 E0.0402
G1 X52.324 Y-3.013 E0.0402
G1 X52.147 Y-4.208 E0.0402
G1 X51.911 Y-5.392 E0.0402
G1 X51.617 Y-6.564 E0.0402
G1 X51.267 Y-7.720 E0.0402
G1 X50.860 Y-8.858 E0.0402
G1 X50.397 Y-9.974 E0.0402
G1 X49.881 Y-11.066 E0.0402
G1 X49.311 Y-12.131 E0.0402
G1 X48.691 Y-13.167 E0.0402
G1 X48.019 Y-14.171 E0.0402
G1 X47.300 Y-15.142 E0.0402
G1 X46.533 Y-16.075 E0.0402
G1 X45.722 Y-16.971 E0.0402
G1 X44.868 Y-17.825 E0.0402
G1 X43.973 Y-18.636 E0.0402
G1 X43.039 Y-19.402 E0.0402
G1 X42.069 Y-20.122 E0.0402
