; G-Code generated by Simplify3D(R) Version 4.1.2
; Apr 6, 2020 at 12:19:13 PM
; Settings Summary
;   processName,Process1
;   applyToModels,Smoke,Smoke(2)
;   profileName,MakerBot Replicator 2 HBP (modified)
;   profileVersion,2020-03-12 10:48:50
;   baseProfile,MakerBot Replicator 2(2)
;   printMaterial,PLA
;   printQuality,Medium
;   printExtruders,
;   extruderName,Primary Extruder
;   extruderToolheadNumber,0
;   extruderDiameter,0.4
;   extruderAutoWidth,0
;   extruderWidth,0.4
;   extrusionMultiplier,1
;   extruderUseRetract,1
;   extruderRetractionDistance,1.9
;   extruderExtraRestartDistance,0
;   extruderRetractionZLift,0.5
;   extruderRetractionSpeed,1200
;   extruderUseCoasting,0
;   extruderCoastingDistance,0.2
;   extruderUseWipe,0
;   extruderWipeDistance,5
;   primaryExtruder,0
;   layerHeight,0.2
;   topSolidLayers,3
;   bottomSolidLayers,3
;   perimeterOutlines,3
;   printPerimetersInsideOut,1
;   startPointOption,3
;   startPointOriginX,0
;   startPointOriginY,150
;   sequentialIslands,0
;   spiralVaseMode,0
;   firstLayerHeightPercentage,100
;   firstLayerWidthPercentage,115
;   firstLayerUnderspeed,0.5
;   useRaft,0
;   raftExtruder,0
;   raftTopLayers,2
;   raftBaseLayers,1
;   raftOffset,1
;   raftSeparationDistance,0.14
;   raftTopInfill,90
;   aboveRaftSpeedMultiplier,0.3
;   useSkirt,0
;   skirtExtruder,0
;   skirtLayers,1
;   skirtOutlines,5
;   skirtOffset,0
;   usePrimePillar,0
;   primePillarExtruder,999
;   primePillarWidth,12
;   primePillarLocation,7
;   primePillarSpeedMultiplier,1
;   useOozeShield,0
;   oozeShieldExtruder,999
;   oozeShieldOffset,2
;   oozeShieldOutlines,1
;   oozeShieldSidewallShape,1
;   oozeShieldSidewallAngle,30
;   oozeShieldSpeedMultiplier,1
;   infillExtruder,0
;   internalInfillPattern,Rectilinear
;   externalInfillPattern,Rectilinear
;   infillPercentage,15
;   outlineOverlapPercentage,25
;   infillExtrusionWidthPercentage,100
;   minInfillLength,5
;   infillLayerInterval,1
;   internalInfillAngles,45,-45
;   overlapInternalInfillAngles,0
;   externalInfillAngles,45,-45
;   generateSupport,1
;   supportExtruder,0
;   supportInfillPercentage,15
;   supportExtraInflation,0.5
;   supportBaseLayers,0
;   denseSupportExtruder,0
;   denseSupportLayers,2
;   denseSupportInfillPercentage,90
;   supportLayerInterval,1
;   supportHorizontalPartOffset,0.3
;   supportUpperSeparationLayers,1
;   supportLowerSeparationLayers,1
;   supportType,1
;   supportGridSpacing,2
;   maxOverhangAngle,45
;   supportAngles,45,-45
;   temperatureName,Primary Extruder,Heated Build Platform
;   temperatureNumber,0,0
;   temperatureSetpointCount,1,1
;   temperatureSetpointLayers,1,1
;   temperatureSetpointTemperatures,230,60
;   temperatureStabilizeAtStartup,1,1
;   temperatureHeatedBed,0,1
;   fanLayers,1,2
;   fanSpeeds,0,100
;   blipFanToFullPower,1
;   adjustSpeedForCooling,1
;   minSpeedLayerTime,15
;   minCoolingSpeedSlowdown,20
;   increaseFanForCooling,1
;   minFanLayerTime,45
;   maxCoolingFanSpeed,100
;   increaseFanForBridging,1
;   bridgingFanSpeed,100
;   use5D,1
;   relativeEdistances,1
;   allowEaxisZeroing,0
;   independentExtruderAxes,1
;   includeM10123,0
;   stickySupport,1
;   applyToolheadOffsets,0
;   gcodeXoffset,0
;   gcodeYoffset,0
;   gcodeZoffset,0
;   overrideMachineDefinition,1
;   machineTypeOverride,0
;   strokeXoverride,280
;   strokeYoverride,150
;   strokeZoverride,150
;   originOffsetXoverride,140
;   originOffsetYoverride,75
;   originOffsetZoverride,0
;   homeXdirOverride,1
;   homeYdirOverride,1
;   homeZdirOverride,-1
;   flipXoverride,1
;   flipYoverride,-1
;   flipZoverride,1
;   toolheadOffsets,0,0|0,0|0,0|0,0|0,0|0,0
;   overrideFirmwareConfiguration,1
;   firmwareTypeOverride,MakerBot/Sailfish Firmware
;   GPXconfigOverride,r2h
;   baudRateOverride,115200
;   overridePrinterModels,1
;   printerModelsOverride,MakerBot_Replicator2.stl
;   startingGcode,; **** Replicator 2 start.gcode ****,M73 P0 ; enable build progress,G162 X Y F3000 ; home XY maximum,G161 Z F1200 ; home Z minimum,G92 Z-5 ; set Z to -5,G1 Z0 ; move Z to 0,G161 Z F100 ; home Z slowly,M132 X Y Z A B ; recall home offsets,G1 X-145 Y-75 Z30 F9000 ; move to wait position off table,G130 X20 Y20 Z20 A20 B20 ; lower stepper Vrefs while heating,M126 S[fan_speed_pwm],M140 S[bed0_temperature] T0,M134 T0 ; stabilize bed temperature,M104 S[extruder0_temperature] T0,M133 T0 ; stabilize extruder temperature,G130 X127 Y127 Z40 A127 B127 ; default stepper Vrefs,G92 A0 ; zero extruder,G1 Z0.4 ; position nozzle,G1 E25 F300 ; purge nozzle,G1 X-140 Y-70 Z0.15 F1200 ; slow wipe,G1 X-135 Y-65 Z0.5 F1200 ; lift,G92 A0 ; zero extruder,M73 P1 ;@body (notify GPX body has started),; **** end of start.gcode ****
;   layerChangeGcode,
;   retractionGcode,
;   toolChangeGcode,
;   endingGcode,; **** Replicator 2 end.gcode ****,M73 P100 ; end build progress,G1 Z155 F1000 ; send Z axis to bottom of machine,M104 S0 T0 ; cool down extruder,M140 S0 T0 ; cool down HBP,M127 ; stop blower fan,G162 X Y F3000 ; home XY maximum,M18 ; disable stepper,M0 ; stop codes,M72 P1 ; play Ta-Da song,; **** end of end.gcode ****
;   exportFileFormat,gcode
;   celebration,0
;   celebrationSong,Random Song
;   postProcessing,
;   defaultSpeed,4800
;   outlineUnderspeed,0.5
;   solidInfillUnderspeed,1
;   supportUnderspeed,1
;   rapidXYspeed,9000
;   rapidZspeed,1200
;   minBridgingArea,50
;   bridgingExtraInflation,0
;   bridgingExtrusionMultiplier,1
;   bridgingSpeedMultiplier,0.8
;   useFixedBridgingAngle,0
;   fixedBridgingAngle,0
;   applyBridgingToPerimeters,0
;   filamentDiameters,1.75|1.75|1.75|1.75|1.75|1.75
;   filamentPricesPerKg,46|46|46|46|46|46
;   filamentDensities,1.25|1.25|1.25|1.25|1.25|1.25
;   useMinPrintHeight,0
;   minPrintHeight,0
;   useMaxPrintHeight,0
;   maxPrintHeight,4.84
;   useDiaphragm,0
;   diaphragmLayerInterval,20
;   robustSlicing,1
;   mergeAllIntoSolid,0
;   onlyRetractWhenCrossingOutline,0
;   retractBetweenLayers,0
;   useRetractionMinTravel,1
;   retractionMinTravel,7
;   retractWhileWiping,1
;   onlyWipeOutlines,1
;   avoidCrossingOutline,0
;   maxMovementDetourFactor,3
;   toolChangeRetractionDistance,12
;   toolChangeExtraRestartDistance,-0.5
;   toolChangeRetractionSpeed,600
;   externalThinWallType,0
;   internalThinWallType,0
;   thinWallAllowedOverlapPercentage,10
;   singleExtrusionMinLength,1
;   singleExtrusionMinPrintingWidthPercentage,50
;   singleExtrusionMaxPrintingWidthPercentage,200
;   singleExtrusionEndpointExtension,0.2
;   horizontalSizeCompensation,0
G90
M83
; **** Replicator 2 start.gcode ****
M73 P0 ; enable build progress
G162 X Y F3000 ; home XY maximum
G161 Z F1200 ; home Z minimum
G92 Z-5 ; set Z to -5
G1 Z0 ; move Z to 0
G161 Z F100 ; home Z slowly
M132 X Y Z A B ; recall home offsets
G1 X-145 Y-75 Z30 F9000 ; move to wait position off table
G130 X20 Y20 Z20 A20 B20 ; lower stepper Vrefs while heating
M126 S140
M140 S60 T0
M134 T0 ; stabilize bed temperature
M104 S230 T0
M133 T0 ; stabilize extruder temperature
G130 X127 Y127 Z40 A127 B127 ; default stepper Vrefs
G92 A0 ; zero extruder
G1 Z0.4 ; position nozzle
G1 E25 F300 ; purge nozzle
G1 X-140 Y-70 Z0.15 F1200 ; slow wipe
G1 X-135 Y-65 Z0.5 F1200 ; lift
G92 A0 ; zero extruder
M73 P1 ;@body (notify GPX body has started)
; **** end of start.gcode ****
; process Process1
; layer 1, Z = 0.200
M135 T0
G1 E-1.9000 F1200
; feature outer perimeter
; tool H0.200 W0.460
G1 Z0.500 F1200
G1 X-3.361 Y-13.957 F9000
G1 Z0.200 F1200
G1 E1.9000 F1200
G1 X-3.381 Y-13.966 E0.0009 F1200
G1 X-3.423 Y-14.011 E0.0024
G1 X-3.491 Y-14.270 E0.0102
G1 X-3.506 Y-14.372 E0.0039
G1 X-3.478 Y-14.758 E0.0148
G1 X-3.357 Y-15.134 E0.0151
G1 X-3.326 Y-15.180 E0.0021
G1 X-3.257 Y-15.240 E0.0035
G1 X-3.249 Y-15.243 E0.0003
G1 X-3.239 Y-15.239 E0.0004
G1 X-3.170 Y-15.164 E0.0039
G1 X-3.150 Y-15.129 E0.0015
G1 X-3.069 Y-14.751 E0.0148
G1 X-3.067 Y-14.685 E0.0025
G1 X-3.102 Y-14.382 E0.0116
G1 X-3.169 Y-14.218 E0.0068
G1 X-3.289 Y-13.994 E0.0097
G1 X-3.346 Y-13.959 E0.0026
G1 X-3.361 Y-13.957 E0.0006
G1 E-1.9000 F1200
G1 Z0.700 F1200
G1 X-3.361 Y17.081 F9000
G1 Z0.200 F1200
G1 E1.9000 F1200
G1 X-3.381 Y17.072 E0.0009 F1200
G1 X-3.423 Y17.026 E0.0024
G1 X-3.491 Y16.768 E0.0102
G1 X-3.506 Y16.666 E0.0039
G1 X-3.478 Y16.279 E0.0148
G1 X-3.357 Y15.904 E0.0151
G1 X-3.326 Y15.857 E0.0021
G1 X-3.257 Y15.798 E0.0035
G1 X-3.249 Y15.795 E0.0003
G1 X-3.239 Y15.799 E0.0004
G1 X-3.170 Y15.874 E0.0039
G1 X-3.150 Y15.909 E0.0015
G1 X-3.069 Y16.287 E0.0148
G1 X-3.067 Y16.353 E0.0025
G1 X-3.102 Y16.655 E0.0116
G1 X-3.169 Y16.820 E0.0068
G1 X-3.289 Y17.044 E0.0097
G1 X-3.345 Y17.078 E0.0025
G1 X-3.361 Y17.081 E0.0006
G1 E-1.9000 F1200
; feature support
G1 Z0.700 F1200
G1 X-21.027 Y28.999 F9000
G1 Z0.200 F1200
G1 E1.9000 F1200
G1 X-22.480 Y27.546 E0.0786 F2400
G1 X-22.480 Y26.999 E0.0209
G1 X-23.027 Y26.999 E0.0209
G1 X-24.480 Y25.546 E0.0786
G1 X-24.480 Y24.999 E0.0209
G1 X-25.027 Y24.999 E0.0209
G1 X-26.480 Y23.546 E0.0786
G1 X-26.480 Y22.999 E0.0209
G1 X-27.027 Y22.999 E0.0209
G1 X-28.480 Y21.546 E0.0786
G1 X-28.480 Y20.999 E0.0209
G1 X-29.027 Y20.999 E0.0209
G1 X-30.480 Y19.546 E0.0786
G1 X-30.480 Y18.999 E0.0209
G1 X-31.027 Y18.999 E0.0209
G1 X-32.480 Y17.546 E0.0786
G1 X-32.480 Y13.775 E0.1442
G1 X-17.520 Y28.735 E0.8092
G1 X-17.520 Y26.999 E0.0664
G1 X-15.485 Y26.999 E0.0779
G1 X-30.480 Y12.004 E0.8111
G1 X-30.480 Y10.039 E0.0751
G1 X-28.673 Y10.039 E0.0691
G1 X-13.520 Y25.192 E0.8197
G1 X-13.520 Y24.999 E0.0074
G1 X-9.942 Y24.999 E0.1368
G1 X-26.902 Y8.039 E0.9174
G1 X-26.480 Y8.039 E0.0161
G1 X-26.480 Y6.039 E0.0765
G1 X-25.131 Y6.039 E0.0516
G1 X-7.520 Y23.650 E0.9526
G1 X-7.520 Y22.999 E0.0249
G1 X-4.400 Y22.999 E0.1193
G1 X-7.360 Y20.039 E0.1601
G1 X-7.520 Y20.039 E0.0061
G1 X-7.520 Y19.879 E0.0061
G1 X-23.360 Y4.039 E0.8568
G1 X-22.480 Y4.039 E0.0336
G1 X-22.480 Y2.039 E0.0765
G1 X-21.588 Y2.039 E0.0341
G1 X-3.520 Y20.107 E0.9774
G1 X-3.520 Y19.138 E0.0371
G1 X-3.777 Y19.107 E0.0099
G1 X-4.035 Y19.012 E0.0105
G1 X-4.268 Y18.847 E0.0109
G1 X-4.452 Y18.640 E0.0106
G1 X-4.597 Y18.401 E0.0107
G1 X-4.726 Y18.074 E0.0134
G1 X-4.815 Y17.527 E0.0212
G1 X-4.820 Y17.038 E0.0187
G1 X-4.755 Y16.171 E0.0333
G1 X-4.655 Y15.328 E0.0324
G1 X-4.634 Y15.222 E0.0041
G1 X-17.817 Y2.039 E0.7131
G1 X-15.520 Y2.039 E0.0879
G1 X-15.520 Y4.039 E0.0765
G1 X-13.520 Y4.039 E0.0765
G1 X-13.520 Y6.039 E0.0765
G1 X-10.046 Y6.039 E0.1329
G1 X-9.520 Y6.565 E0.0285
G1 X-9.520 Y8.039 E0.0564
G1 X-8.046 Y8.039 E0.0564
G1 X0.914 Y16.999 E0.4847
G1 X1.520 Y16.999 E0.0232
G1 X1.520 Y17.605 E0.0232
G1 X2.914 Y18.999 E0.0754
G1 X6.685 Y18.999 E0.1442
G1 X-2.275 Y10.039 E0.4847
G1 E-1.9000 F1200
G1 Z0.700 F1200
G1 X6.480 Y11.251 F9000
G1 Z0.200 F1200
G1 E1.9000 F1200
G1 X5.268 Y10.039 E0.0656 F2400
G1 X1.496 Y10.039 E0.1442
G1 X12.456 Y20.999 E0.5929
G1 X16.228 Y20.999 E0.1442
G1 X7.268 Y12.039 E0.4847
G1 X10.480 Y12.039 E0.1229
G1 X10.480 Y14.039 E0.0765
G1 X13.039 Y14.039 E0.0979
G1 X17.999 Y18.999 E0.2683
G1 X21.770 Y18.999 E0.1442
G1 X15.520 Y12.749 E0.3381
G1 X15.520 Y12.039 E0.0271
G1 X18.581 Y12.039 E0.1171
G1 X23.541 Y16.999 E0.2683
G1 X27.313 Y16.999 E0.1442
G1 X20.353 Y10.039 E0.3765
G1 X24.124 Y10.039 E0.1442
G1 X30.480 Y16.395 E0.3438
G1 X30.480 Y12.624 E0.1442
G1 X29.895 Y12.039 E0.0316
G1 E-1.9000 F1200
G1 Z0.700 F1200
G1 X-21.895 Y-2.039 F9000
G1 Z0.200 F1200
G1 E1.9000 F1200
G1 X-22.480 Y-2.624 E0.0316 F2400
G1 X-22.480 Y-4.039 E0.0541
G1 X-23.895 Y-4.039 E0.0541
G1 X-24.480 Y-4.624 E0.0316
G1 X-24.480 Y-6.039 E0.0541
G1 X-25.895 Y-6.039 E0.0541
G1 X-26.480 Y-6.624 E0.0316
G1 X-26.480 Y-8.039 E0.0541
G1 X-27.895 Y-8.039 E0.0541
G1 X-28.480 Y-8.624 E0.0316
G1 X-28.480 Y-10.039 E0.0541
G1 X-29.895 Y-10.039 E0.0541
G1 X-30.480 Y-10.624 E0.0316
G1 X-30.480 Y-12.039 E0.0541
G1 X-31.895 Y-12.039 E0.0541
G1 X-32.480 Y-12.624 E0.0316
G1 X-32.480 Y-16.395 E0.1442
G1 X-18.124 Y-2.039 E0.7766
G1 X-17.520 Y-2.039 E0.0231
G1 X-17.520 Y-4.039 E0.0765
G1 X-16.353 Y-4.039 E0.0447
G1 X-31.313 Y-18.999 E0.8092
G1 X-30.480 Y-18.999 E0.0318
G1 X-30.480 Y-20.999 E0.0765
G1 X-29.541 Y-20.999 E0.0359
G1 X-13.520 Y-4.978 E0.8666
G1 X-13.520 Y-6.039 E0.0406
G1 X-10.810 Y-6.039 E0.1036
G1 X-27.770 Y-22.999 E0.9174
G1 X-26.480 Y-22.999 E0.0493
G1 X-26.480 Y-24.999 E0.0765
G1 X-25.999 Y-24.999 E0.0184
G1 X-7.520 Y-6.520 E0.9996
G1 X-7.520 Y-8.039 E0.0581
G1 X-5.268 Y-8.039 E0.0861
G1 X-24.228 Y-26.999 E1.0256
G1 X-22.480 Y-26.999 E0.0668
G1 X-22.480 Y-28.999 E0.0765
G1 X-22.456 Y-28.999 E0.0009
G1 X-3.520 Y-10.062 E1.0243
G1 X-3.520 Y-11.900 E0.0703
G1 X-3.777 Y-11.931 E0.0099
G1 X-4.035 Y-12.025 E0.0105
G1 X-4.268 Y-12.191 E0.0109
G1 X-4.452 Y-12.398 E0.0106
G1 X-4.597 Y-12.637 E0.0107
G1 X-4.726 Y-12.964 E0.0134
G1 X-4.815 Y-13.510 E0.0212
G1 X-4.820 Y-13.999 E0.0187
G1 X-4.755 Y-14.867 E0.0333
G1 X-4.734 Y-15.047 E0.0069
G1 X-18.685 Y-28.999 E0.7547
G1 X-15.520 Y-28.999 E0.1211
G1 X-15.520 Y-26.999 E0.0765
G1 X-13.520 Y-26.999 E0.0765
G1 X-13.520 Y-24.999 E0.0765
G1 X-10.914 Y-24.999 E0.0997
G1 X-9.520 Y-23.605 E0.0754
G1 X-9.520 Y-22.999 E0.0232
G1 X-8.914 Y-22.999 E0.0232
G1 X-3.481 Y-17.566 E0.2939
G1 X-3.229 Y-17.598 E0.0097
G1 X-2.799 Y-17.516 E0.0167
G1 X-2.527 Y-17.348 E0.0123
G1 X-2.034 Y-16.922 E0.0249
G1 X-1.963 Y-16.813 E0.0050
G1 X-1.788 Y-16.623 E0.0099
G1 X-1.341 Y-15.947 E0.0310
G1 X-1.261 Y-15.778 E0.0071
G1 X-1.110 Y-15.601 E0.0089
G1 X-0.966 Y-15.371 E0.0104
G1 X-0.799 Y-15.051 E0.0138
G1 X-0.727 Y-14.812 E0.0095
G1 X0.046 Y-14.039 E0.0418
G1 X1.520 Y-14.039 E0.0564
G1 X1.520 Y-12.565 E0.0564
G1 X2.046 Y-12.039 E0.0285
G1 X5.817 Y-12.039 E0.1442
G1 X-2.480 Y-20.336 E0.4488
G1 X-2.480 Y-20.999 E0.0253
G1 X0.629 Y-20.999 E0.1189
G1 X11.589 Y-10.039 E0.5929
G1 X15.360 Y-10.039 E0.1442
G1 X4.400 Y-20.999 E0.5929
G1 X6.480 Y-20.999 E0.0796
G1 X6.480 Y-18.999 E0.0765
G1 X10.171 Y-18.999 E0.1412
G1 X10.480 Y-18.690 E0.0167
G1 X10.480 Y-16.999 E0.0647
G1 X12.171 Y-16.999 E0.0647
G1 X17.131 Y-12.039 E0.2683
G1 X20.902 Y-12.039 E0.1442
G1 X15.520 Y-17.421 E0.2911
G1 X15.520 Y-18.999 E0.0603
G1 X17.713 Y-18.999 E0.0839
G1 X22.673 Y-14.039 E0.2683
G1 X26.445 Y-14.039 E0.1442
G1 X19.520 Y-20.964 E0.3746
G1 X19.520 Y-20.999 E0.0014
G1 X23.256 Y-20.999 E0.1429
G1 X30.216 Y-14.039 E0.3765
G1 X30.480 Y-14.039 E0.0101
G1 X30.480 Y-17.546 E0.1341
G1 X29.027 Y-18.999 E0.0786
G1 E-1.9000 F1200
; feature dense support
G1 Z0.700 F1200
G1 X-1.378 Y-14.039 F9000
G1 Z0.200 F1200
G1 E1.9000 F1200
G1 X-1.803 Y-14.464 E0.0230 F2400
G1 X-3.617 Y-12.375 F9000
G1 X-4.249 Y-13.007 E0.0342 F2400
G1 X-3.832 Y-16.493 F9000
G1 X-3.930 Y-16.592 E0.0053 F2400
G1 X-3.848 Y-16.756 E0.0070
G1 X-3.732 Y-16.901 E0.0071
G1 X-3.657 Y-16.969 E0.0039
G1 X-3.397 Y-16.709 E0.0140
G1 X-3.293 Y-16.739 E0.0041
G1 X-2.950 Y-16.692 E0.0133
G1 X-2.669 Y-16.529 E0.0124
G1 X-2.515 Y-16.375 E0.0083
G1 X-2.274 Y-16.048 E0.0155
G1 X-2.153 Y-15.832 E0.0095
G1 X-2.048 Y-15.596 E0.0099
G1 X-2.025 Y-15.506 E0.0036
G1 X-1.927 Y-15.301 E0.0087
G1 X-1.909 Y-15.221 E0.0031
G1 X-1.162 Y-14.474 E0.0404
G1 X-1.158 Y-14.493 E0.0008
G1 X-1.175 Y-14.704 E0.0081
G1 X-1.227 Y-14.877 E0.0069
G1 X-1.366 Y-15.142 E0.0114
G1 X-1.482 Y-15.328 E0.0084
G1 X-1.651 Y-15.526 E0.0100
G1 X-1.730 Y-15.692 E0.0071
G1 X-3.153 Y-17.115 E0.0770
G1 E-1.9000 F1200
G1 Z0.700 F1200
G1 X-3.926 Y14.639 F9000
G1 Z0.200 F1200
G1 E1.9000 F1200
G1 X-3.988 Y14.577 E0.0034 F2400
G1 X-3.970 Y14.524 E0.0021
G1 X-3.848 Y14.282 E0.0104
G1 X-3.752 Y14.162 E0.0059
G1 X-3.543 Y14.371 E0.0113
G1 X-3.293 Y14.299 E0.0099
G1 X-2.950 Y14.346 E0.0133
G1 X-2.873 Y14.390 E0.0034
G1 X-3.345 Y13.918 E0.0255
G1 X-2.276 Y14.987 F9000
G1 X-1.364 Y15.899 E0.0493 F2400
G1 X-1.227 Y16.161 E0.0113
G1 X-1.175 Y16.334 E0.0069
G1 X-1.158 Y16.545 E0.0081
G1 X-1.190 Y16.691 E0.0057
G1 X-1.200 Y16.714 E0.0010
G1 X-1.854 Y16.060 E0.0354
G1 X-1.811 Y16.251 E0.0075
G1 X-1.799 Y16.539 E0.0110
G1 X-1.823 Y16.741 E0.0078
G1 X-1.566 Y16.999 E0.0139
; layer 2, Z = 0.400
M126 S255
; feature inner perimeter
; tool H0.200 W0.400
G1 Z0.400 F1200
G1 X-3.370 Y17.205 F9000
G1 X-3.373 Y17.197 E0.0003 F2451
