; G-Code generated by Simplify3D(R) Version 4.1.2
; Apr 6, 2020 at 12:32:58 PM
; Settings Summary
;   processName,Process1
;   applyToModels,wonka rampV1R4,wonka ramp LED bracket,wonka rampV1R4(2),wonka ramp LED bracket(2),wonka rampV1R4(3),wonka ramp LED bracket(3),wonka rampV1R4(2)(2),wonka ramp LED bracket(2)(2)
;   profileName,MakerBot Replicator 2 HBP (modified)
;   profileVersion,2019-08-23 15:32:08
;   baseProfile,MakerBot Replicator 2(2)
;   printMaterial,PLA
;   printQuality,Medium
;   printExtruders,
;   extruderName,Primary Extruder
;   extruderToolheadNumber,0
;   extruderDiameter,0.4
;   extruderAutoWidth,0
;   extruderWidth,0.4
;   extrusionMultiplier,1
;   extruderUseRetract,1
;   extruderRetractionDistance,1
;   extruderExtraRestartDistance,0
;   extruderRetractionZLift,0.5
;   extruderRetractionSpeed,1200
;   extruderUseCoasting,0
;   extruderCoastingDistance,0.2
;   extruderUseWipe,0
;   extruderWipeDistance,5
;   primaryExtruder,0
;   layerHeight,0.2
;   topSolidLayers,3
;   bottomSolidLayers,3
;   perimeterOutlines,2
;   printPerimetersInsideOut,1
;   startPointOption,3
;   startPointOriginX,0
;   startPointOriginY,150
;   sequentialIslands,0
;   spiralVaseMode,0
;   firstLayerHeightPercentage,100
;   firstLayerWidthPercentage,100
;   firstLayerUnderspeed,0.5
;   useRaft,0
;   raftExtruder,0
;   raftTopLayers,2
;   raftBaseLayers,1
;   raftOffset,1
;   raftSeparationDistance,0.14
;   raftTopInfill,90
;   aboveRaftSpeedMultiplier,0.3
;   useSkirt,0
;   skirtExtruder,0
;   skirtLayers,1
;   skirtOutlines,5
;   skirtOffset,0
;   usePrimePillar,0
;   primePillarExtruder,999
;   primePillarWidth,12
;   primePillarLocation,7
;   primePillarSpeedMultiplier,1
;   useOozeShield,0
;   oozeShieldExtruder,999
;   oozeShieldOffset,2
;   oozeShieldOutlines,1
;   oozeShieldSidewallShape,1
;   oozeShieldSidewallAngle,30
;   oozeShieldSpeedMultiplier,1
;   infillExtruder,0
;   internalInfillPattern,Rectilinear
;   externalInfillPattern,Rectilinear
;   infillPercentage,15
;   outlineOverlapPercentage,20
;   infillExtrusionWidthPercentage,100
;   minInfillLength,5
;   infillLayerInterval,1
;   internalInfillAngles,45,-45
;   overlapInternalInfillAngles,0
;   externalInfillAngles,45,-45
;   generateSupport,0
;   supportExtruder,0
;   supportInfillPercentage,10
;   supportExtraInflation,0.5
;   supportBaseLayers,0
;   denseSupportExtruder,0
;   denseSupportLayers,2
;   denseSupportInfillPercentage,70
;   supportLayerInterval,1
;   supportHorizontalPartOffset,0.3
;   supportUpperSeparationLayers,1
;   supportLowerSeparationLayers,1
;   supportType,0
;   supportGridSpacing,2
;   maxOverhangAngle,45
;   supportAngles,0
;   temperatureName,Primary Extruder,Heated Build Platform
;   temperatureNumber,0,0
;   temperatureSetpointCount,1,1
;   temperatureSetpointLayers,1,1
;   temperatureSetpointTemperatures,230,60
;   temperatureStabilizeAtStartup,1,1
;   temperatureHeatedBed,0,1
;   fanLayers,1,2
;   fanSpeeds,0,100
;   blipFanToFullPower,1
;   adjustSpeedForCooling,1
;   minSpeedLayerTime,15
;   minCoolingSpeedSlowdown,20
;   increaseFanForCooling,1
;   minFanLayerTime,45
;   maxCoolingFanSpeed,100
;   increaseFanForBridging,1
;   bridgingFanSpeed,100
;   use5D,1
;   relativeEdistances,1
;   allowEaxisZeroing,0
;   independentExtruderAxes,1
;   includeM10123,0
;   stickySupport,1
;   applyToolheadOffsets,0
;   gcodeXoffset,0
;   gcodeYoffset,0
;   gcodeZoffset,0
;   overrideMachineDefinition,1
;   machineTypeOverride,0
;   strokeXoverride,280
;   strokeYoverride,150
;   strokeZoverride,150
;   originOffsetXoverride,140
;   originOffsetYoverride,75
;   originOffsetZoverride,0
;   homeXdirOverride,1
;   homeYdirOverride,1
;   homeZdirOverride,-1
;   flipXoverride,1
;   flipYoverride,-1
;   flipZoverride,1
;   toolheadOffsets,0,0|0,0|0,0|0,0|0,0|0,0
;   overrideFirmwareConfiguration,1
;   firmwareTypeOverride,MakerBot/Sailfish Firmware
;   GPXconfigOverride,r2h
;   baudRateOverride,115200
;   overridePrinterModels,1
;   printerModelsOverride,MakerBot_Replicator2.stl
;   startingGcode,; **** Replicator 2 start.gcode ****,M73 P0 ; enable build progress,G162 X Y F3000 ; home XY maximum,G161 Z F1200 ; home Z minimum,G92 Z-5 ; set Z to -5,G1 Z0 ; move Z to 0,G161 Z F100 ; home Z slowly,M132 X Y Z A B ; recall home offsets,G1 X-145 Y-75 Z30 F9000 ; move to wait position off table,G130 X20 Y20 Z20 A20 B20 ; lower stepper Vrefs while heating,M126 S[fan_speed_pwm],M140 S[bed0_temperature] T0,M134 T0 ; stabilize bed temperature,M104 S[extruder0_temperature] T0,M133 T0 ; stabilize extruder temperature,G130 X127 Y127 Z40 A127 B127 ; default stepper Vrefs,G92 A0 ; zero extruder,G1 Z0.4 ; position nozzle,G1 E25 F300 ; purge nozzle,G1 X-140 Y-70 Z0.15 F1200 ; slow wipe,G1 X-135 Y-65 Z0.5 F1200 ; lift,G92 A0 ; zero extruder,M73 P1 ;@body (notify GPX body has started),; **** end of start.gcode ****
;   layerChangeGcode,
;   retractionGcode,
;   toolChangeGcode,
;   endingGcode,; **** Replicator 2 end.gcode ****,M73 P100 ; end build progress,G1 Z155 F1000 ; send Z axis to bottom of machine,M104 S0 T0 ; cool down extruder,M140 S0 T0 ; cool down HBP,M127 ; stop blower fan,G162 X Y F3000 ; home XY maximum,M18 ; disable stepper,M0 ; stop codes,M72 P1 ; play Ta-Da song,; **** end of end.gcode ****
;   exportFileFormat,gcode
;   celebration,0
;   celebrationSong,Random Song
;   postProcessing,
;   defaultSpeed,4800
;   outlineUnderspeed,0.5
;   solidInfillUnderspeed,1
;   supportUnderspeed,1
;   rapidXYspeed,9000
;   rapidZspeed,1200
;   minBridgingArea,50
;   bridgingExtraInflation,0
;   bridgingExtrusionMultiplier,1
;   bridgingSpeedMultiplier,0.8
;   useFixedBridgingAngle,0
;   fixedBridgingAngle,0
;   applyBridgingToPerimeters,0
;   filamentDiameters,1.75|1.75|1.75|1.75|1.75|1.75
;   filamentPricesPerKg,46|46|46|46|46|46
;   filamentDensities,1.25|1.25|1.25|1.25|1.25|1.25
;   useMinPrintHeight,0
;   minPrintHeight,0
;   useMaxPrintHeight,0
;   maxPrintHeight,4.84
;   useDiaphragm,0
;   diaphragmLayerInterval,20
;   robustSlicing,1
;   mergeAllIntoSolid,0
;   onlyRetractWhenCrossingOutline,0
;   retractBetweenLayers,0
;   useRetractionMinTravel,1
;   retractionMinTravel,7
;   retractWhileWiping,1
;   onlyWipeOutlines,1
;   avoidCrossingOutline,0
;   maxMovementDetourFactor,3
;   toolChangeRetractionDistance,12
;   toolChangeExtraRestartDistance,-0.5
;   toolChangeRetractionSpeed,600
;   externalThinWallType,0
;   internalThinWallType,0
;   thinWallAllowedOverlapPercentage,10
;   singleExtrusionMinLength,1
;   singleExtrusionMinPrintingWidthPercentage,50
;   singleExtrusionMaxPrintingWidthPercentage,200
;   singleExtrusionEndpointExtension,0.2
;   horizontalSizeCompensation,0
G90
M83
; **** Replicator 2 start.gcode ****
M73 P0 ; enable build progress
G162 X Y F3000 ; home XY maximum
G161 Z F1200 ; home Z minimum
G92 Z-5 ; set Z to -5
G1 Z0 ; move Z to 0
G161 Z F100 ; home Z slowly
M132 X Y Z A B ; recall home offsets
G1 X-145 Y-75 Z30 F9000 ; move to wait position off table
G130 X20 Y20 Z20 A20 B20 ; lower stepper Vrefs while heating
M127
M140 S60 T0
M134 T0 ; stabilize bed temperature
M104 S230 T0
M133 T0 ; stabilize extruder temperature
G130 X127 Y127 Z40 A127 B127 ; default stepper Vrefs
G92 A0 ; zero extruder
G1 Z0.4 ; position nozzle
G1 E25 F300 ; purge nozzle
G1 X-140 Y-70 Z0.15 F1200 ; slow wipe
G1 X-135 Y-65 Z0.5 F1200 ; lift
G92 A0 ; zero extruder
M73 P1 ;@body (notify GPX body has started)
; **** end of start.gcode ****
; process Process1
; layer 1, Z = 0.200
M135 T0
G1 E-1.0000 F1200
; feature inner perimeter
; tool H0.200 W0.400
G1 Z0.500 F1200
G1 X-14.248 Y-3.996 F9000
G1 Z0.200 F1200
G1 E1.0000 F1200
G1 X-43.724 Y-18.849 E1.0978 F1800
G1 X-43.724 Y-36.378 E0.5830
G1 X-41.924 Y-36.378 E0.0599
G1 X-41.924 Y-18.615 E0.5908
G1 X-14.248 Y-4.660 E1.0309
G1 X-14.248 Y-3.996 E0.0221
; feature outer perimeter
G1 X-13.848 Y-3.347 F9000
G1 X-44.124 Y-18.602 E1.1276 F1200
G1 X-44.124 Y-36.778 E0.6045
G1 X-41.524 Y-36.778 E0.0865
G1 X-41.524 Y-18.861 E0.5959
G1 X-13.848 Y-4.906 E1.0309
G1 X-13.848 Y-3.347 E0.0518
G1 E-1.0000 F1200
; feature solid layer
G1 Z0.700 F1200
G1 X-43.336 Y-19.012 F9000
G1 Z0.200 F1200
G1 E1.0000 F1200
G1 X-43.404 Y-19.080 E0.0032 F2400
G1 X-43.404 Y-19.645 E0.0188
G1 X-42.244 Y-18.485 E0.0546
G1 X-42.244 Y-19.051 E0.0188
G1 X-43.404 Y-20.211 E0.0546
G1 X-43.404 Y-20.777 E0.0188
G1 X-42.244 Y-19.617 E0.0546
G1 X-42.244 Y-20.182 E0.0188
G1 X-43.404 Y-21.342 E0.0546
G1 X-43.404 Y-21.908 E0.0188
G1 X-42.244 Y-20.748 E0.0546
G1 X-42.244 Y-21.314 E0.0188
G1 X-43.404 Y-22.474 E0.0546
G1 X-43.404 Y-23.039 E0.0188
G1 X-42.244 Y-21.879 E0.0546
G1 X-42.244 Y-22.445 E0.0188
G1 X-43.404 Y-23.605 E0.0546
G1 X-43.404 Y-24.171 E0.0188
G1 X-42.244 Y-23.011 E0.0546
G1 X-42.244 Y-23.576 E0.0188
G1 X-43.404 Y-24.736 E0.0546
G1 X-43.404 Y-25.302 E0.0188
G1 X-42.244 Y-24.142 E0.0546
G1 X-42.244 Y-24.708 E0.0188
G1 X-43.404 Y-25.868 E0.0546
G1 X-43.404 Y-26.433 E0.0188
G1 X-42.244 Y-25.273 E0.0546
G1 X-42.244 Y-25.839 E0.0188
G1 X-43.404 Y-26.999 E0.0546
G1 X-43.404 Y-27.565 E0.0188
G1 X-42.244 Y-26.405 E0.0546
G1 X-42.244 Y-26.971 E0.0188
G1 X-43.404 Y-28.131 E0.0546
G1 X-43.404 Y-28.696 E0.0188
G1 X-42.244 Y-27.536 E0.0546
G1 X-42.244 Y-28.102 E0.0188
G1 X-43.404 Y-29.262 E0.0546
G1 X-43.404 Y-29.828 E0.0188
G1 X-42.244 Y-28.668 E0.0546
G1 X-42.244 Y-29.233 E0.0188
G1 X-43.404 Y-30.393 E0.0546
G1 X-43.404 Y-30.959 E0.0188
G1 X-42.244 Y-29.799 E0.0546
G1 X-42.244 Y-30.365 E0.0188
G1 X-43.404 Y-31.525 E0.0546
G1 X-43.404 Y-32.090 E0.0188
G1 X-42.244 Y-30.930 E0.0546
G1 X-42.244 Y-31.496 E0.0188
G1 X-43.404 Y-32.656 E0.0546
G1 X-43.404 Y-33.222 E0.0188
G1 X-42.244 Y-32.062 E0.0546
G1 X-42.244 Y-32.627 E0.0188
G1 X-43.404 Y-33.787 E0.0546
G1 X-43.404 Y-34.353 E0.0188
G1 X-42.244 Y-33.193 E0.0546
G1 X-42.244 Y-33.759 E0.0188
G1 X-43.404 Y-34.919 E0.0546
G1 X-43.404 Y-35.484 E0.0188
G1 X-42.244 Y-34.324 E0.0546
G1 X-42.244 Y-34.890 E0.0188
G1 X-43.404 Y-36.050 E0.0546
G1 X-43.404 Y-36.058 E0.0003
G1 X-42.846 Y-36.058 E0.0186
G1 X-42.244 Y-35.456 E0.0283
G1 X-42.244 Y-36.021 E0.0188
G1 X-42.280 Y-36.058 E0.0017
G1 E-1.0000 F1200
; feature inner perimeter
G1 Z0.700 F1200
G1 X-49.924 Y-3.996 F9000
G1 Z0.200 F1200
G1 E1.0000 F1200
G1 X-79.400 Y-18.849 E1.0978 F1800
G1 X-79.400 Y-36.378 E0.5830
G1 X-77.600 Y-36.378 E0.0599
G1 X-77.600 Y-18.615 E0.5908
G1 X-49.924 Y-4.660 E1.0309
G1 X-49.924 Y-3.996 E0.0221
; feature outer perimeter
G1 X-49.524 Y-3.347 F9000
G1 X-79.800 Y-18.602 E1.1276 F1200
G1 X-79.800 Y-36.778 E0.6045
G1 X-77.200 Y-36.778 E0.0865
G1 X-77.200 Y-18.861 E0.5959
G1 X-49.524 Y-4.906 E1.0309
G1 X-49.524 Y-3.347 E0.0518
G1 E-1.0000 F1200
; feature solid layer
G1 Z0.700 F1200
G1 X-79.080 Y-19.117 F9000
G1 Z0.200 F1200
G1 E1.0000 F1200
G1 X-78.936 Y-18.973 E0.0068 F2400
G1 X-77.920 Y-18.461 E0.0378
G1 X-77.920 Y-18.523 E0.0021
G1 X-79.080 Y-19.683 E0.0546
G1 X-79.080 Y-20.249 E0.0188
G1 X-77.920 Y-19.089 E0.0546
G1 X-77.920 Y-19.654 E0.0188
G1 X-79.080 Y-20.814 E0.0546
G1 X-79.080 Y-21.380 E0.0188
G1 X-77.920 Y-20.220 E0.0546
G1 X-77.920 Y-20.786 E0.0188
G1 X-79.080 Y-21.946 E0.0546
G1 X-79.080 Y-22.511 E0.0188
G1 X-77.920 Y-21.351 E0.0546
G1 X-77.920 Y-21.917 E0.0188
G1 X-79.080 Y-23.077 E0.0546
G1 X-79.080 Y-23.643 E0.0188
G1 X-77.920 Y-22.483 E0.0546
G1 X-77.920 Y-23.049 E0.0188
G1 X-79.080 Y-24.209 E0.0546
G1 X-79.080 Y-24.774 E0.0188
G1 X-77.920 Y-23.614 E0.0546
G1 X-77.920 Y-24.180 E0.0188
G1 X-79.080 Y-25.340 E0.0546
G1 X-79.080 Y-25.906 E0.0188
G1 X-77.920 Y-24.746 E0.0546
G1 X-77.920 Y-25.311 E0.0188
G1 X-79.080 Y-26.471 E0.0546
G1 X-79.080 Y-27.037 E0.0188
G1 X-77.920 Y-25.877 E0.0546
G1 X-77.920 Y-26.443 E0.0188
G1 X-79.080 Y-27.603 E0.0546
G1 X-79.080 Y-28.168 E0.0188
G1 X-77.920 Y-27.008 E0.0546
G1 X-77.920 Y-27.574 E0.0188
G1 X-79.080 Y-28.734 E0.0546
G1 X-79.080 Y-29.300 E0.0188
G1 X-77.920 Y-28.140 E0.0546
G1 X-77.920 Y-28.705 E0.0188
G1 X-79.080 Y-29.865 E0.0546
G1 X-79.080 Y-30.431 E0.0188
G1 X-77.920 Y-29.271 E0.0546
G1 X-77.920 Y-29.837 E0.0188
G1 X-79.080 Y-30.997 E0.0546
G1 X-79.080 Y-31.562 E0.0188
G1 X-77.920 Y-30.402 E0.0546
G1 X-77.920 Y-30.968 E0.0188
G1 X-79.080 Y-32.128 E0.0546
G1 X-79.080 Y-32.694 E0.0188
G1 X-77.920 Y-31.534 E0.0546
G1 X-77.920 Y-32.099 E0.0188
G1 X-79.080 Y-33.259 E0.0546
G1 X-79.080 Y-33.825 E0.0188
G1 X-77.920 Y-32.665 E0.0546
G1 X-77.920 Y-33.231 E0.0188
G1 X-79.080 Y-34.391 E0.0546
G1 X-79.080 Y-34.957 E0.0188
G1 X-77.920 Y-33.797 E0.0546
G1 X-77.920 Y-34.362 E0.0188
G1 X-79.080 Y-35.522 E0.0546
G1 X-79.080 Y-36.058 E0.0178
G1 X-79.050 Y-36.058 E0.0010
G1 X-77.920 Y-34.928 E0.0531
G1 X-77.920 Y-35.494 E0.0188
G1 X-78.484 Y-36.058 E0.0265
G1 E-1.0000 F1200
; feature inner perimeter
G1 Z0.700 F1200
G1 X-30.600 Y16.378 F9000
G1 Z0.200 F1200
G1 E1.0000 F1200
G1 X-79.400 Y16.378 E1.6231 F1800
G1 X-79.400 Y2.578 E0.4590
G1 X-30.600 Y2.578 E1.6231
G1 X-30.600 Y16.378 E0.4590
; feature outer perimeter
G1 X-30.200 Y16.778 F9000
G1 X-79.800 Y16.778 E1.6497 F1200
G1 X-79.800 Y2.178 E0.4856
G1 X-30.200 Y2.178 E1.6497
G1 X-30.200 Y16.778 E0.4856
G1 E-1.0000 F1200
; feature solid layer
G1 Z0.700 F1200
G1 X-31.043 Y2.898 F9000
G1 Z0.200 F1200
G1 E1.0000 F1200
G1 X-30.920 Y3.021 E0.0058 F2400
G1 X-30.920 Y3.587 E0.0188
G1 X-31.609 Y2.898 E0.0324
G1 X-32.175 Y2.898 E0.0188
G1 X-30.920 Y4.152 E0.0590
G1 X-30.920 Y4.718 E0.0188
G1 X-32.740 Y2.898 E0.0856
G1 X-33.306 Y2.898 E0.0188
G1 X-30.920 Y5.284 E0.1122
G1 X-30.920 Y5.850 E0.0188
G1 X-33.872 Y2.898 E0.1388
G1 X-34.437 Y2.898 E0.0188
G1 X-30.920 Y6.415 E0.1654
G1 X-30.920 Y6.981 E0.0188
G1 X-35.003 Y2.898 E0.1921
G1 X-35.569 Y2.898 E0.0188
G1 X-30.920 Y7.547 E0.2187
G1 X-30.920 Y8.112 E0.0188
G1 X-36.134 Y2.898 E0.2453
G1 X-36.700 Y2.898 E0.0188
G1 X-30.920 Y8.678 E0.2719
G1 X-30.920 Y9.244 E0.0188
G1 X-37.266 Y2.898 E0.2985
G1 X-37.832 Y2.898 E0.0188
G1 X-30.920 Y9.809 E0.3251
G1 X-30.920 Y10.375 E0.0188
G1 X-38.397 Y2.898 E0.3517
G1 X-38.963 Y2.898 E0.0188
G1 X-30.920 Y10.941 E0.3783
G1 X-30.920 Y11.506 E0.0188
G1 X-39.529 Y2.898 E0.4049
G1 X-40.094 Y2.898 E0.0188
G1 X-30.920 Y12.072 E0.4315
G1 X-30.920 Y12.638 E0.0188
G1 X-40.660 Y2.898 E0.4581
G1 X-41.226 Y2.898 E0.0188
G1 X-30.920 Y13.203 E0.4847
G1 X-30.920 Y13.769 E0.0188
G1 X-41.791 Y2.898 E0.5114
G1 X-42.357 Y2.898 E0.0188
G1 X-30.920 Y14.335 E0.5380
G1 X-30.920 Y14.901 E0.0188
G1 X-42.923 Y2.898 E0.5646
G1 X-43.488 Y2.898 E0.0188
G1 X-30.920 Y15.466 E0.5912
G1 X-30.920 Y16.032 E0.0188
G1 X-44.054 Y2.898 E0.6178
G1 X-44.620 Y2.898 E0.0188
G1 X-31.460 Y16.058 E0.6190
G1 X-32.025 Y16.058 E0.0188
G1 X-45.185 Y2.898 E0.6190
G1 X-45.751 Y2.898 E0.0188
G1 X-32.591 Y16.058 E0.6190
G1 X-33.157 Y16.058 E0.0188
G1 X-46.317 Y2.898 E0.6190
G1 X-46.882 Y2.898 E0.0188
G1 X-33.722 Y16.058 E0.6190
G1 X-34.288 Y16.058 E0.0188
G1 X-47.448 Y2.898 E0.6190
G1 X-48.014 Y2.898 E0.0188
G1 X-34.854 Y16.058 E0.6190
G1 X-35.420 Y16.058 E0.0188
G1 X-48.580 Y2.898 E0.6190
G1 X-49.145 Y2.898 E0.0188
G1 X-35.985 Y16.058 E0.6190
G1 X-36.551 Y16.058 E0.0188
G1 X-49.711 Y2.898 E0.6190
G1 X-50.277 Y2.898 E0.0188
G1 X-37.117 Y16.058 E0.6190
G1 X-37.682 Y16.058 E0.0188
G1 X-50.842 Y2.898 E0.6190
G1 X-51.408 Y2.898 E0.0188
G1 X-38.248 Y16.058 E0.6190
G1 X-38.814 Y16.058 E0.0188
G1 X-51.974 Y2.898 E0.6190
G1 X-52.539 Y2.898 E0.0188
G1 X-39.379 Y16.058 E0.6190
G1 X-39.945 Y16.058 E0.0188
G1 X-53.105 Y2.898 E0.6190
G1 X-53.671 Y2.898 E0.0188
G1 X-40.511 Y16.058 E0.6190
G1 X-41.076 Y16.058 E0.0188
G1 X-54.236 Y2.898 E0.6190
G1 X-54.802 Y2.898 E0.0188
G1 X-41.642 Y16.058 E0.6190
G1 X-42.208 Y16.058 E0.0188
G1 X-55.368 Y2.898 E0.6190
G1 X-55.933 Y2.898 E0.0188
G1 X-42.773 Y16.058 E0.6190
G1 X-43.339 Y16.058 E0.0188
G1 X-56.499 Y2.898 E0.6190
G1 X-57.065 Y2.898 E0.0188
G1 X-43.905 Y16.058 E0.6190
G1 X-44.471 Y16.058 E0.0188
G1 X-57.631 Y2.898 E0.6190
G1 X-58.196 Y2.898 E0.0188
G1 X-45.036 Y16.058 E0.6190
G1 X-45.602 Y16.058 E0.0188
G1 X-58.762 Y2.898 E0.6190
G1 X-59.328 Y2.898 E0.0188
G1 X-46.168 Y16.058 E0.6190
G1 X-46.733 Y16.058 E0.0188
G1 X-59.893 Y2.898 E0.6190
G1 X-60.459 Y2.898 E0.0188
