; G-Code generated by Simplify3D(R) Version 4.1.2
; Apr 6, 2020 at 12:32:46 PM
; Settings Summary
;   processName,Process1
;   applyToModels,wonka rampV1R4,wonka ramp LED bracket,wonka rampV1R4(2),wonka ramp LED bracket(2)
;   profileName,MakerBot Replicator 2 HBP (modified)
;   profileVersion,2019-08-23 15:32:08
;   baseProfile,MakerBot Replicator 2(2)
;   printMaterial,PLA
;   printQuality,Medium
;   printExtruders,
;   extruderName,Primary Extruder
;   extruderToolheadNumber,0
;   extruderDiameter,0.4
;   extruderAutoWidth,0
;   extruderWidth,0.4
;   extrusionMultiplier,1
;   extruderUseRetract,1
;   extruderRetractionDistance,1
;   extruderExtraRestartDistance,0
;   extruderRetractionZLift,0.5
;   extruderRetractionSpeed,1200
;   extruderUseCoasting,0
;   extruderCoastingDistance,0.2
;   extruderUseWipe,0
;   extruderWipeDistance,5
;   primaryExtruder,0
;   layerHeight,0.2
;   topSolidLayers,3
;   bottomSolidLayers,3
;   perimeterOutlines,2
;   printPerimetersInsideOut,1
;   startPointOption,3
;   startPointOriginX,0
;   startPointOriginY,150
;   sequentialIslands,0
;   spiralVaseMode,0
;   firstLayerHeightPercentage,100
;   firstLayerWidthPercentage,100
;   firstLayerUnderspeed,0.5
;   useRaft,0
;   raftExtruder,0
;   raftTopLayers,2
;   raftBaseLayers,1
;   raftOffset,1
;   raftSeparationDistance,0.14
;   raftTopInfill,90
;   aboveRaftSpeedMultiplier,0.3
;   useSkirt,0
;   skirtExtruder,0
;   skirtLayers,1
;   skirtOutlines,5
;   skirtOffset,0
;   usePrimePillar,0
;   primePillarExtruder,999
;   primePillarWidth,12
;   primePillarLocation,7
;   primePillarSpeedMultiplier,1
;   useOozeShield,0
;   oozeShieldExtruder,999
;   oozeShieldOffset,2
;   oozeShieldOutlines,1
;   oozeShieldSidewallShape,1
;   oozeShieldSidewallAngle,30
;   oozeShieldSpeedMultiplier,1
;   infillExtruder,0
;   internalInfillPattern,Rectilinear
;   externalInfillPattern,Rectilinear
;   infillPercentage,15
;   outlineOverlapPercentage,20
;   infillExtrusionWidthPercentage,100
;   minInfillLength,5
;   infillLayerInterval,1
;   internalInfillAngles,45,-45
;   overlapInternalInfillAngles,0
;   externalInfillAngles,45,-45
;   generateSupport,0
;   supportExtruder,0
;   supportInfillPercentage,10
;   supportExtraInflation,0.5
;   supportBaseLayers,0
;   denseSupportExtruder,0
;   denseSupportLayers,2
;   denseSupportInfillPercentage,70
;   supportLayerInterval,1
;   supportHorizontalPartOffset,0.3
;   supportUpperSeparationLayers,1
;   supportLowerSeparationLayers,1
;   supportType,0
;   supportGridSpacing,2
;   maxOverhangAngle,45
;   supportAngles,0
;   temperatureName,Primary Extruder,Heated Build Platform
;   temperatureNumber,0,0
;   temperatureSetpointCount,1,1
;   temperatureSetpointLayers,1,1
;   temperatureSetpointTemperatures,230,60
;   temperatureStabilizeAtStartup,1,1
;   temperatureHeatedBed,0,1
;   fanLayers,1,2
;   fanSpeeds,0,100
;   blipFanToFullPower,1
;   adjustSpeedForCooling,1
;   minSpeedLayerTime,15
;   minCoolingSpeedSlowdown,20
;   increaseFanForCooling,1
;   minFanLayerTime,45
;   maxCoolingFanSpeed,100
;   increaseFanForBridging,1
;   bridgingFanSpeed,100
;   use5D,1
;   relativeEdistances,1
;   allowEaxisZeroing,0
;   independentExtruderAxes,1
;   includeM10123,0
;   stickySupport,1
;   applyToolheadOffsets,0
;   gcodeXoffset,0
;   gcodeYoffset,0
;   gcodeZoffset,0
;   overrideMachineDefinition,1
;   machineTypeOverride,0
;   strokeXoverride,280
;   strokeYoverride,150
;   strokeZoverride,150
;   originOffsetXoverride,140
;   originOffsetYoverride,75
;   originOffsetZoverride,0
;   homeXdirOverride,1
;   homeYdirOverride,1
;   homeZdirOverride,-1
;   flipXoverride,1
;   flipYoverride,-1
;   flipZoverride,1
;   toolheadOffsets,0,0|0,0|0,0|0,0|0,0|0,0
;   overrideFirmwareConfiguration,1
;   firmwareTypeOverride,MakerBot/Sailfish Firmware
;   GPXconfigOverride,r2h
;   baudRateOverride,115200
;   overridePrinterModels,1
;   printerModelsOverride,MakerBot_Replicator2.stl
;   startingGcode,; **** Replicator 2 start.gcode ****,M73 P0 ; enable build progress,G162 X Y F3000 ; home XY maximum,G161 Z F1200 ; home Z minimum,G92 Z-5 ; set Z to -5,G1 Z0 ; move Z to 0,G161 Z F100 ; home Z slowly,M132 X Y Z A B ; recall home offsets,G1 X-145 Y-75 Z30 F9000 ; move to wait position off table,G130 X20 Y20 Z20 A20 B20 ; lower stepper Vrefs while heating,M126 S[fan_speed_pwm],M140 S[bed0_temperature] T0,M134 T0 ; stabilize bed temperature,M104 S[extruder0_temperature] T0,M133 T0 ; stabilize extruder temperature,G130 X127 Y127 Z40 A127 B127 ; default stepper Vrefs,G92 A0 ; zero extruder,G1 Z0.4 ; position nozzle,G1 E25 F300 ; purge nozzle,G1 X-140 Y-70 Z0.15 F1200 ; slow wipe,G1 X-135 Y-65 Z0.5 F1200 ; lift,G92 A0 ; zero extruder,M73 P1 ;@body (notify GPX body has started),; **** end of start.gcode ****
;   layerChangeGcode,
;   retractionGcode,
;   toolChangeGcode,
;   endingGcode,; **** Replicator 2 end.gcode ****,M73 P100 ; end build progress,G1 Z155 F1000 ; send Z axis to bottom of machine,M104 S0 T0 ; cool down extruder,M140 S0 T0 ; cool down HBP,M127 ; stop blower fan,G162 X Y F3000 ; home XY maximum,M18 ; disable stepper,M0 ; stop codes,M72 P1 ; play Ta-Da song,; **** end of end.gcode ****
;   exportFileFormat,gcode
;   celebration,0
;   celebrationSong,Random Song
;   postProcessing,
;   defaultSpeed,4800
;   outlineUnderspeed,0.5
;   solidInfillUnderspeed,1
;   supportUnderspeed,1
;   rapidXYspeed,9000
;   rapidZspeed,1200
;   minBridgingArea,50
;   bridgingExtraInflation,0
;   bridgingExtrusionMultiplier,1
;   bridgingSpeedMultiplier,0.8
;   useFixedBridgingAngle,0
;   fixedBridgingAngle,0
;   applyBridgingToPerimeters,0
;   filamentDiameters,1.75|1.75|1.75|1.75|1.75|1.75
;   filamentPricesPerKg,46|46|46|46|46|46
;   filamentDensities,1.25|1.25|1.25|1.25|1.25|1.25
;   useMinPrintHeight,0
;   minPrintHeight,0
;   useMaxPrintHeight,0
;   maxPrintHeight,4.84
;   useDiaphragm,0
;   diaphragmLayerInterval,20
;   robustSlicing,1
;   mergeAllIntoSolid,0
;   onlyRetractWhenCrossingOutline,0
;   retractBetweenLayers,0
;   useRetractionMinTravel,1
;   retractionMinTravel,7
;   retractWhileWiping,1
;   onlyWipeOutlines,1
;   avoidCrossingOutline,0
;   maxMovementDetourFactor,3
;   toolChangeRetractionDistance,12
;   toolChangeExtraRestartDistance,-0.5
;   toolChangeRetractionSpeed,600
;   externalThinWallType,0
;   internalThinWallType,0
;   thinWallAllowedOverlapPercentage,10
;   singleExtrusionMinLength,1
;   singleExtrusionMinPrintingWidthPercentage,50
;   singleExtrusionMaxPrintingWidthPercentage,200
;   singleExtrusionEndpointExtension,0.2
;   horizontalSizeCompensation,0
G90
M83
; **** Replicator 2 start.gcode ****
M73 P0 ; enable build progress
G162 X Y F3000 ; home XY maximum
G161 Z F1200 ; home Z minimum
G92 Z-5 ; set Z to -5
G1 Z0 ; move Z to 0
G161 Z F100 ; home Z slowly
M132 X Y Z A B ; recall home offsets
G1 X-145 Y-75 Z30 F9000 ; move to wait position off table
G130 X20 Y20 Z20 A20 B20 ; lower stepper Vrefs while heating
M127
M140 S60 T0
M134 T0 ; stabilize bed temperature
M104 S230 T0
M133 T0 ; stabilize extruder temperature
G130 X127 Y127 Z40 A127 B127 ; default stepper Vrefs
G92 A0 ; zero extruder
G1 Z0.4 ; position nozzle
G1 E25 F300 ; purge nozzle
G1 X-140 Y-70 Z0.15 F1200 ; slow wipe
G1 X-135 Y-65 Z0.5 F1200 ; lift
G92 A0 ; zero extruder
M73 P1 ;@body (notify GPX body has started)
; **** end of start.gcode ****
; process Process1
; layer 1, Z = 0.200
M135 T0
G1 E-1.0000 F1200
; feature inner perimeter
; tool H0.200 W0.400
G1 Z0.500 F1200
G1 X3.100 Y26.378 F9000
G1 Z0.200 F1200
G1 E1.0000 F1200
G1 X3.100 Y12.578 E0.4590 F1800
G1 X51.900 Y12.578 E1.6231
G1 X51.900 Y26.378 E0.4590
G1 X3.100 Y26.378 E1.6231
; feature outer perimeter
G1 X2.700 Y26.778 F9000
G1 X2.700 Y12.178 E0.4856 F1200
G1 X52.300 Y12.178 E1.6497
G1 X52.300 Y26.778 E0.4856
G1 X2.700 Y26.778 E1.6497
; feature solid layer
G1 X3.430 Y26.058 F9000
G1 X3.420 Y26.047 E0.0005 F2400
G1 X3.420 Y25.482 E0.0188
G1 X3.996 Y26.058 E0.0271
G1 X4.562 Y26.058 E0.0188
G1 X3.420 Y24.916 E0.0537
G1 X3.420 Y24.350 E0.0188
G1 X5.127 Y26.058 E0.0803
G1 X5.693 Y26.058 E0.0188
G1 X3.420 Y23.785 E0.1069
G1 X3.420 Y23.219 E0.0188
G1 X6.259 Y26.058 E0.1335
G1 X6.825 Y26.058 E0.0188
G1 X3.420 Y22.653 E0.1601
G1 X3.420 Y22.088 E0.0188
G1 X7.390 Y26.058 E0.1867
G1 X7.956 Y26.058 E0.0188
G1 X3.420 Y21.522 E0.2134
G1 X3.420 Y20.956 E0.0188
G1 X8.522 Y26.058 E0.2400
G1 X9.087 Y26.058 E0.0188
G1 X3.420 Y20.391 E0.2666
G1 X3.420 Y19.825 E0.0188
G1 X9.653 Y26.058 E0.2932
G1 X10.219 Y26.058 E0.0188
G1 X3.420 Y19.259 E0.3198
G1 X3.420 Y18.693 E0.0188
G1 X10.784 Y26.058 E0.3464
G1 X11.350 Y26.058 E0.0188
G1 X3.420 Y18.128 E0.3730
G1 X3.420 Y17.562 E0.0188
G1 X11.916 Y26.058 E0.3996
G1 X12.481 Y26.058 E0.0188
G1 X3.420 Y16.996 E0.4262
G1 X3.420 Y16.431 E0.0188
G1 X13.047 Y26.058 E0.4528
G1 X13.613 Y26.058 E0.0188
G1 X3.420 Y15.865 E0.4794
G1 X3.420 Y15.299 E0.0188
G1 X14.178 Y26.058 E0.5060
G1 X14.744 Y26.058 E0.0188
G1 X3.420 Y14.734 E0.5327
G1 X3.420 Y14.168 E0.0188
G1 X15.310 Y26.058 E0.5593
G1 X15.875 Y26.058 E0.0188
G1 X3.420 Y13.602 E0.5859
G1 X3.420 Y13.037 E0.0188
G1 X16.441 Y26.058 E0.6125
G1 X17.007 Y26.058 E0.0188
G1 X3.847 Y12.898 E0.6190
G1 X4.413 Y12.898 E0.0188
G1 X17.573 Y26.058 E0.6190
G1 X18.138 Y26.058 E0.0188
G1 X4.978 Y12.898 E0.6190
G1 X5.544 Y12.898 E0.0188
G1 X18.704 Y26.058 E0.6190
G1 X19.270 Y26.058 E0.0188
G1 X6.110 Y12.898 E0.6190
G1 X6.675 Y12.898 E0.0188
G1 X19.835 Y26.058 E0.6190
G1 X20.401 Y26.058 E0.0188
G1 X7.241 Y12.898 E0.6190
G1 X7.807 Y12.898 E0.0188
G1 X20.967 Y26.058 E0.6190
G1 X21.532 Y26.058 E0.0188
G1 X8.372 Y12.898 E0.6190
G1 X8.938 Y12.898 E0.0188
G1 X22.098 Y26.058 E0.6190
G1 X22.664 Y26.058 E0.0188
G1 X9.504 Y12.898 E0.6190
G1 X10.069 Y12.898 E0.0188
G1 X23.229 Y26.058 E0.6190
G1 X23.795 Y26.058 E0.0188
G1 X10.635 Y12.898 E0.6190
G1 X11.201 Y12.898 E0.0188
G1 X24.361 Y26.058 E0.6190
G1 X24.926 Y26.058 E0.0188
G1 X11.766 Y12.898 E0.6190
G1 X12.332 Y12.898 E0.0188
G1 X25.492 Y26.058 E0.6190
G1 X26.058 Y26.058 E0.0188
G1 X12.898 Y12.898 E0.6190
G1 X13.464 Y12.898 E0.0188
G1 X26.624 Y26.058 E0.6190
G1 X27.189 Y26.058 E0.0188
G1 X14.029 Y12.898 E0.6190
G1 X14.595 Y12.898 E0.0188
G1 X27.755 Y26.058 E0.6190
G1 X28.321 Y26.058 E0.0188
G1 X15.161 Y12.898 E0.6190
G1 X15.726 Y12.898 E0.0188
G1 X28.886 Y26.058 E0.6190
G1 X29.452 Y26.058 E0.0188
G1 X16.292 Y12.898 E0.6190
G1 X16.858 Y12.898 E0.0188
G1 X30.018 Y26.058 E0.6190
G1 X30.583 Y26.058 E0.0188
G1 X17.423 Y12.898 E0.6190
G1 X17.989 Y12.898 E0.0188
G1 X31.149 Y26.058 E0.6190
G1 X31.715 Y26.058 E0.0188
G1 X18.555 Y12.898 E0.6190
G1 X19.120 Y12.898 E0.0188
G1 X32.280 Y26.058 E0.6190
G1 X32.846 Y26.058 E0.0188
G1 X19.686 Y12.898 E0.6190
G1 X20.252 Y12.898 E0.0188
G1 X33.412 Y26.058 E0.6190
G1 X33.977 Y26.058 E0.0188
G1 X20.817 Y12.898 E0.6190
G1 X21.383 Y12.898 E0.0188
G1 X34.543 Y26.058 E0.6190
G1 X35.109 Y26.058 E0.0188
G1 X21.949 Y12.898 E0.6190
G1 X22.514 Y12.898 E0.0188
G1 X35.674 Y26.058 E0.6190
G1 X36.240 Y26.058 E0.0188
G1 X23.080 Y12.898 E0.6190
G1 X23.646 Y12.898 E0.0188
G1 X36.806 Y26.058 E0.6190
G1 X37.372 Y26.058 E0.0188
G1 X24.212 Y12.898 E0.6190
G1 X24.777 Y12.898 E0.0188
G1 X37.937 Y26.058 E0.6190
G1 X38.503 Y26.058 E0.0188
G1 X25.343 Y12.898 E0.6190
G1 X25.909 Y12.898 E0.0188
G1 X39.069 Y26.058 E0.6190
G1 X39.634 Y26.058 E0.0188
G1 X26.474 Y12.898 E0.6190
G1 X27.040 Y12.898 E0.0188
G1 X40.200 Y26.058 E0.6190
G1 X40.766 Y26.058 E0.0188
G1 X27.606 Y12.898 E0.6190
G1 X28.171 Y12.898 E0.0188
G1 X41.331 Y26.058 E0.6190
G1 X41.897 Y26.058 E0.0188
G1 X28.737 Y12.898 E0.6190
G1 X29.303 Y12.898 E0.0188
G1 X42.463 Y26.058 E0.6190
G1 X43.028 Y26.058 E0.0188
G1 X29.868 Y12.898 E0.6190
G1 X30.434 Y12.898 E0.0188
G1 X43.594 Y26.058 E0.6190
G1 X44.160 Y26.058 E0.0188
G1 X31.000 Y12.898 E0.6190
G1 X31.565 Y12.898 E0.0188
G1 X44.725 Y26.058 E0.6190
G1 X45.291 Y26.058 E0.0188
G1 X32.131 Y12.898 E0.6190
G1 X32.697 Y12.898 E0.0188
G1 X45.857 Y26.058 E0.6190
G1 X46.422 Y26.058 E0.0188
G1 X33.262 Y12.898 E0.6190
G1 X33.828 Y12.898 E0.0188
G1 X46.988 Y26.058 E0.6190
G1 X47.554 Y26.058 E0.0188
G1 X34.394 Y12.898 E0.6190
G1 X34.960 Y12.898 E0.0188
G1 X48.120 Y26.058 E0.6190
G1 X48.685 Y26.058 E0.0188
G1 X35.525 Y12.898 E0.6190
G1 X36.091 Y12.898 E0.0188
G1 X49.251 Y26.058 E0.6190
G1 X49.817 Y26.058 E0.0188
G1 X36.657 Y12.898 E0.6190
G1 X37.222 Y12.898 E0.0188
G1 X50.382 Y26.058 E0.6190
G1 X50.948 Y26.058 E0.0188
G1 X37.788 Y12.898 E0.6190
G1 X38.354 Y12.898 E0.0188
G1 X51.514 Y26.058 E0.6190
G1 X51.580 Y26.058 E0.0022
G1 X51.580 Y25.558 E0.0166
G1 X38.919 Y12.898 E0.5955
G1 X39.485 Y12.898 E0.0188
G1 X51.580 Y24.993 E0.5689
G1 X51.580 Y24.427 E0.0188
G1 X40.051 Y12.898 E0.5423
G1 X40.616 Y12.898 E0.0188
G1 X51.580 Y23.861 E0.5157
G1 X51.580 Y23.296 E0.0188
G1 X41.182 Y12.898 E0.4891
G1 X41.748 Y12.898 E0.0188
G1 X51.580 Y22.730 E0.4625
G1 X51.580 Y22.164 E0.0188
G1 X42.313 Y12.898 E0.4359
G1 X42.879 Y12.898 E0.0188
G1 X51.580 Y21.599 E0.4093
G1 X51.580 Y21.033 E0.0188
G1 X43.445 Y12.898 E0.3827
G1 X44.011 Y12.898 E0.0188
G1 X51.580 Y20.467 E0.3560
G1 X51.580 Y19.902 E0.0188
G1 X44.576 Y12.898 E0.3294
G1 X45.142 Y12.898 E0.0188
G1 X51.580 Y19.336 E0.3028
G1 X51.580 Y18.770 E0.0188
G1 X45.708 Y12.898 E0.2762
G1 X46.273 Y12.898 E0.0188
G1 X51.580 Y18.205 E0.2496
G1 X51.580 Y17.639 E0.0188
G1 X46.839 Y12.898 E0.2230
G1 X47.405 Y12.898 E0.0188
G1 X51.580 Y17.073 E0.1964
G1 X51.580 Y16.507 E0.0188
G1 X47.970 Y12.898 E0.1698
G1 X48.536 Y12.898 E0.0188
G1 X51.580 Y15.942 E0.1432
G1 X51.580 Y15.376 E0.0188
G1 X49.102 Y12.898 E0.1166
G1 X49.667 Y12.898 E0.0188
G1 X51.580 Y14.810 E0.0900
G1 X51.580 Y14.245 E0.0188
G1 X50.233 Y12.898 E0.0634
G1 X50.799 Y12.898 E0.0188
G1 X51.580 Y13.679 E0.0367
G1 X51.580 Y13.113 E0.0188
G1 X51.364 Y12.898 E0.0101
G1 E-1.0000 F1200
; feature inner perimeter
G1 Z0.700 F1200
G1 X13.252 Y6.004 F9000
G1 Z0.200 F1200
G1 E1.0000 F1200
G1 X-16.224 Y-8.849 E1.0978 F1800
G1 X-16.224 Y-26.378 E0.5830
G1 X-14.424 Y-26.378 E0.0599
G1 X-14.424 Y-8.615 E0.5908
G1 X13.252 Y5.340 E1.0309
G1 X13.252 Y6.004 E0.0221
; feature outer perimeter
G1 X13.652 Y6.653 F9000
G1 X-16.624 Y-8.602 E1.1276 F1200
G1 X-16.624 Y-26.778 E0.6045
G1 X-14.024 Y-26.778 E0.0865
G1 X-14.024 Y-8.861 E0.5959
G1 X13.652 Y5.094 E1.0309
G1 X13.652 Y6.653 E0.0518
G1 E-1.0000 F1200
; feature solid layer
G1 Z0.700 F1200
G1 X-15.763 Y-8.975 F9000
G1 Z0.200 F1200
G1 E1.0000 F1200
G1 X-15.904 Y-9.116 E0.0066 F2400
G1 X-15.904 Y-9.681 E0.0188
G1 X-14.744 Y-8.521 E0.0546
G1 X-14.744 Y-9.087 E0.0188
G1 X-15.904 Y-10.247 E0.0546
G1 X-15.904 Y-10.813 E0.0188
G1 X-14.744 Y-9.653 E0.0546
G1 X-14.744 Y-10.219 E0.0188
G1 X-15.904 Y-11.379 E0.0546
G1 X-15.904 Y-11.944 E0.0188
G1 X-14.744 Y-10.784 E0.0546
G1 X-14.744 Y-11.350 E0.0188
G1 X-15.904 Y-12.510 E0.0546
G1 X-15.904 Y-13.076 E0.0188
G1 X-14.744 Y-11.916 E0.0546
G1 X-14.744 Y-12.481 E0.0188
G1 X-15.904 Y-13.641 E0.0546
G1 X-15.904 Y-14.207 E0.0188
G1 X-14.744 Y-13.047 E0.0546
G1 X-14.744 Y-13.613 E0.0188
G1 X-15.904 Y-14.773 E0.0546
G1 X-15.904 Y-15.338 E0.0188
G1 X-14.744 Y-14.178 E0.0546
G1 X-14.744 Y-14.744 E0.0188
G1 X-15.904 Y-15.904 E0.0546
G1 X-15.904 Y-16.470 E0.0188
G1 X-14.744 Y-15.310 E0.0546
G1 X-14.744 Y-15.875 E0.0188
G1 X-15.904 Y-17.035 E0.0546
G1 X-15.904 Y-17.601 E0.0188
G1 X-14.744 Y-16.441 E0.0546
G1 X-14.744 Y-17.007 E0.0188
G1 X-15.904 Y-18.167 E0.0546
G1 X-15.904 Y-18.732 E0.0188
G1 X-14.744 Y-17.572 E0.0546
G1 X-14.744 Y-18.138 E0.0188
G1 X-15.904 Y-19.298 E0.0546
G1 X-15.904 Y-19.864 E0.0188
G1 X-14.744 Y-18.704 E0.0546
G1 X-14.744 Y-19.269 E0.0188
G1 X-15.904 Y-20.429 E0.0546
G1 X-15.904 Y-20.995 E0.0188
G1 X-14.744 Y-19.835 E0.0546
G1 X-14.744 Y-20.401 E0.0188
G1 X-15.904 Y-21.561 E0.0546
G1 X-15.904 Y-22.127 E0.0188
G1 X-14.744 Y-20.967 E0.0546
G1 X-14.744 Y-21.532 E0.0188
G1 X-15.904 Y-22.692 E0.0546
G1 X-15.904 Y-23.258 E0.0188
G1 X-14.744 Y-22.098 E0.0546
G1 X-14.744 Y-22.664 E0.0188
G1 X-15.904 Y-23.824 E0.0546
G1 X-15.904 Y-24.389 E0.0188
G1 X-14.744 Y-23.229 E0.0546
G1 X-14.744 Y-23.795 E0.0188
G1 X-15.904 Y-24.955 E0.0546
