; G-Code generated by Simplify3D(R) Version 4.1.2
; Apr 6, 2020 at 11:17:26 AM
; Settings Summary
;   processName,Process1
;   applyToModels,Eiffel Tower bracket
;   profileName,MakerBot Replicator 2 HBP (modified)
;   profileVersion,2020-03-12 10:48:50
;   baseProfile,MakerBot Replicator 2(2)
;   printMaterial,PLA
;   printQuality,Medium
;   printExtruders,
;   extruderName,Primary Extruder
;   extruderToolheadNumber,0
;   extruderDiameter,0.4
;   extruderAutoWidth,0
;   extruderWidth,0.4
;   extrusionMultiplier,1
;   extruderUseRetract,1
;   extruderRetractionDistance,1.9
;   extruderExtraRestartDistance,0
;   extruderRetractionZLift,0.5
;   extruderRetractionSpeed,1200
;   extruderUseCoasting,0
;   extruderCoastingDistance,0.2
;   extruderUseWipe,0
;   extruderWipeDistance,5
;   primaryExtruder,0
;   layerHeight,0.2
;   topSolidLayers,3
;   bottomSolidLayers,3
;   perimeterOutlines,2
;   printPerimetersInsideOut,1
;   startPointOption,3
;   startPointOriginX,0
;   startPointOriginY,150
;   sequentialIslands,0
;   spiralVaseMode,0
;   firstLayerHeightPercentage,100
;   firstLayerWidthPercentage,115
;   firstLayerUnderspeed,0.5
;   useRaft,0
;   raftExtruder,0
;   raftTopLayers,2
;   raftBaseLayers,1
;   raftOffset,1
;   raftSeparationDistance,0.14
;   raftTopInfill,90
;   aboveRaftSpeedMultiplier,0.3
;   useSkirt,0
;   skirtExtruder,0
;   skirtLayers,1
;   skirtOutlines,5
;   skirtOffset,0
;   usePrimePillar,0
;   primePillarExtruder,999
;   primePillarWidth,12
;   primePillarLocation,7
;   primePillarSpeedMultiplier,1
;   useOozeShield,0
;   oozeShieldExtruder,999
;   oozeShieldOffset,2
;   oozeShieldOutlines,1
;   oozeShieldSidewallShape,1
;   oozeShieldSidewallAngle,30
;   oozeShieldSpeedMultiplier,1
;   infillExtruder,0
;   internalInfillPattern,Rectilinear
;   externalInfillPattern,Rectilinear
;   infillPercentage,15
;   outlineOverlapPercentage,25
;   infillExtrusionWidthPercentage,100
;   minInfillLength,5
;   infillLayerInterval,1
;   internalInfillAngles,45,-45
;   overlapInternalInfillAngles,0
;   externalInfillAngles,45,-45
;   generateSupport,0
;   supportExtruder,0
;   supportInfillPercentage,5
;   supportExtraInflation,0.5
;   supportBaseLayers,0
;   denseSupportExtruder,0
;   denseSupportLayers,2
;   denseSupportInfillPercentage,90
;   supportLayerInterval,1
;   supportHorizontalPartOffset,0.3
;   supportUpperSeparationLayers,1
;   supportLowerSeparationLayers,1
;   supportType,1
;   supportGridSpacing,2
;   maxOverhangAngle,45
;   supportAngles,45,-45
;   temperatureName,Primary Extruder,Heated Build Platform
;   temperatureNumber,0,0
;   temperatureSetpointCount,1,1
;   temperatureSetpointLayers,1,1
;   temperatureSetpointTemperatures,230,60
;   temperatureStabilizeAtStartup,1,1
;   temperatureHeatedBed,0,1
;   fanLayers,1,2
;   fanSpeeds,0,100
;   blipFanToFullPower,1
;   adjustSpeedForCooling,1
;   minSpeedLayerTime,15
;   minCoolingSpeedSlowdown,20
;   increaseFanForCooling,1
;   minFanLayerTime,45
;   maxCoolingFanSpeed,100
;   increaseFanForBridging,1
;   bridgingFanSpeed,100
;   use5D,1
;   relativeEdistances,1
;   allowEaxisZeroing,0
;   independentExtruderAxes,1
;   includeM10123,0
;   stickySupport,1
;   applyToolheadOffsets,0
;   gcodeXoffset,0
;   gcodeYoffset,0
;   gcodeZoffset,0
;   overrideMachineDefinition,1
;   machineTypeOverride,0
;   strokeXoverride,280
;   strokeYoverride,150
;   strokeZoverride,150
;   originOffsetXoverride,140
;   originOffsetYoverride,75
;   originOffsetZoverride,0
;   homeXdirOverride,1
;   homeYdirOverride,1
;   homeZdirOverride,-1
;   flipXoverride,1
;   flipYoverride,-1
;   flipZoverride,1
;   toolheadOffsets,0,0|0,0|0,0|0,0|0,0|0,0
;   overrideFirmwareConfiguration,1
;   firmwareTypeOverride,MakerBot/Sailfish Firmware
;   GPXconfigOverride,r2h
;   baudRateOverride,115200
;   overridePrinterModels,1
;   printerModelsOverride,MakerBot_Replicator2.stl
;   startingGcode,; **** Replicator 2 start.gcode ****,M73 P0 ; enable build progress,G162 X Y F3000 ; home XY maximum,G161 Z F1200 ; home Z minimum,G92 Z-5 ; set Z to -5,G1 Z0 ; move Z to 0,G161 Z F100 ; home Z slowly,M132 X Y Z A B ; recall home offsets,G1 X-145 Y-75 Z30 F9000 ; move to wait position off table,G130 X20 Y20 Z20 A20 B20 ; lower stepper Vrefs while heating,M126 S[fan_speed_pwm],M140 S[bed0_temperature] T0,M134 T0 ; stabilize bed temperature,M104 S[extruder0_temperature] T0,M133 T0 ; stabilize extruder temperature,G130 X127 Y127 Z40 A127 B127 ; default stepper Vrefs,G92 A0 ; zero extruder,G1 Z0.4 ; position nozzle,G1 E25 F300 ; purge nozzle,G1 X-140 Y-70 Z0.15 F1200 ; slow wipe,G1 X-135 Y-65 Z0.5 F1200 ; lift,G92 A0 ; zero extruder,M73 P1 ;@body (notify GPX body has started),; **** end of start.gcode ****
;   layerChangeGcode,
;   retractionGcode,
;   toolChangeGcode,
;   endingGcode,; **** Replicator 2 end.gcode ****,M73 P100 ; end build progress,G1 Z155 F1000 ; send Z axis to bottom of machine,M104 S0 T0 ; cool down extruder,M140 S0 T0 ; cool down HBP,M127 ; stop blower fan,G162 X Y F3000 ; home XY maximum,M18 ; disable stepper,M0 ; stop codes,M72 P1 ; play Ta-Da song,; **** end of end.gcode ****
;   exportFileFormat,gcode
;   celebration,0
;   celebrationSong,Random Song
;   postProcessing,
;   defaultSpeed,4800
;   outlineUnderspeed,0.5
;   solidInfillUnderspeed,1
;   supportUnderspeed,1
;   rapidXYspeed,9000
;   rapidZspeed,1200
;   minBridgingArea,50
;   bridgingExtraInflation,0
;   bridgingExtrusionMultiplier,1
;   bridgingSpeedMultiplier,0.8
;   useFixedBridgingAngle,0
;   fixedBridgingAngle,0
;   applyBridgingToPerimeters,0
;   filamentDiameters,1.75|1.75|1.75|1.75|1.75|1.75
;   filamentPricesPerKg,46|46|46|46|46|46
;   filamentDensities,1.25|1.25|1.25|1.25|1.25|1.25
;   useMinPrintHeight,0
;   minPrintHeight,0
;   useMaxPrintHeight,0
;   maxPrintHeight,4.84
;   useDiaphragm,0
;   diaphragmLayerInterval,20
;   robustSlicing,1
;   mergeAllIntoSolid,0
;   onlyRetractWhenCrossingOutline,0
;   retractBetweenLayers,0
;   useRetractionMinTravel,1
;   retractionMinTravel,7
;   retractWhileWiping,1
;   onlyWipeOutlines,1
;   avoidCrossingOutline,0
;   maxMovementDetourFactor,3
;   toolChangeRetractionDistance,12
;   toolChangeExtraRestartDistance,-0.5
;   toolChangeRetractionSpeed,600
;   externalThinWallType,0
;   internalThinWallType,0
;   thinWallAllowedOverlapPercentage,10
;   singleExtrusionMinLength,1
;   singleExtrusionMinPrintingWidthPercentage,50
;   singleExtrusionMaxPrintingWidthPercentage,200
;   singleExtrusionEndpointExtension,0.2
;   horizontalSizeCompensation,0
G90
M83
; **** Replicator 2 start.gcode ****
M73 P0 ; enable build progress
G162 X Y F3000 ; home XY maximum
G161 Z F1200 ; home Z minimum
G92 Z-5 ; set Z to -5
G1 Z0 ; move Z to 0
G161 Z F100 ; home Z slowly
M132 X Y Z A B ; recall home offsets
G1 X-145 Y-75 Z30 F9000 ; move to wait position off table
G130 X20 Y20 Z20 A20 B20 ; lower stepper Vrefs while heating
M127
M140 S60 T0
M134 T0 ; stabilize bed temperature
M104 S230 T0
M133 T0 ; stabilize extruder temperature
G130 X127 Y127 Z40 A127 B127 ; default stepper Vrefs
G92 A0 ; zero extruder
G1 Z0.4 ; position nozzle
G1 E25 F300 ; purge nozzle
G1 X-140 Y-70 Z0.15 F1200 ; slow wipe
G1 X-135 Y-65 Z0.5 F1200 ; lift
G92 A0 ; zero extruder
M73 P1 ;@body (notify GPX body has started)
; **** end of start.gcode ****
; process Process1
; layer 1, Z = 0.200
M135 T0
G1 E-1.9000 F1200
; feature inner perimeter
; tool H0.200 W0.460
G1 Z0.500 F1200
G1 X-0.672 Y47.660 F9000
G1 Z0.200 F1200
G1 E1.9000 F1200
G1 X-12.235 Y47.660 E0.4423 F1800
G1 X-12.235 Y-8.012 E2.1294
G1 X-11.634 Y-14.031 E0.2314
G1 X-8.591 Y-22.391 E0.3403
G1 X2.914 Y-18.202 E0.4683
G1 X-0.163 Y-9.748 E0.3441
G1 X-0.672 Y-8.154 E0.0640
G1 X-0.672 Y47.660 E2.1348
; feature outer perimeter
G1 X-0.212 Y48.120 F9000
G1 X-12.695 Y48.120 E0.4775 F1200
G1 X-12.695 Y-8.035 E2.1479
G1 X-12.086 Y-14.134 E0.2344
G1 X-8.866 Y-22.981 E0.3601
G1 X3.504 Y-18.477 E0.5035
G1 X0.273 Y-9.599 E0.3614
G1 X-0.212 Y-8.082 E0.0609
G1 X-0.212 Y48.120 E2.1497
G1 E-1.9000 F1200
; feature inner perimeter
G1 Z0.700 F1200
G1 X-4.949 Y-9.716 F9000
G1 Z0.200 F1200
G1 E1.9000 F1200
G1 X-4.357 Y-9.775 E0.0227 F1800
G1 X-3.771 Y-9.952 E0.0234
G1 X-3.231 Y-10.241 E0.0234
G1 X-2.757 Y-10.630 E0.0234
G1 X-2.368 Y-11.104 E0.0234
G1 X-2.079 Y-11.644 E0.0234
G1 X-1.901 Y-12.231 E0.0234
G1 X-1.841 Y-12.841 E0.0234
G1 X-1.901 Y-13.451 E0.0234
G1 X-2.079 Y-14.037 E0.0234
G1 X-2.368 Y-14.578 E0.0234
G1 X-2.757 Y-15.051 E0.0234
G1 X-3.231 Y-15.440 E0.0234
G1 X-3.771 Y-15.729 E0.0234
G1 X-4.357 Y-15.907 E0.0234
G1 X-4.959 Y-15.966 E0.0231
G1 X-5.582 Y-15.921 E0.0239
G1 X-6.172 Y-15.725 E0.0238
G1 X-6.704 Y-15.440 E0.0231
G1 X-7.178 Y-15.051 E0.0234
G1 X-7.567 Y-14.578 E0.0234
G1 X-7.856 Y-14.037 E0.0234
G1 X-8.031 Y-13.459 E0.0231
G1 X-8.107 Y-12.839 E0.0239
G1 X-8.031 Y-12.222 E0.0238
G1 X-7.856 Y-11.644 E0.0231
G1 X-7.567 Y-11.104 E0.0234
G1 X-7.178 Y-10.630 E0.0234
G1 X-6.704 Y-10.241 E0.0234
G1 X-6.180 Y-9.961 E0.0227
G1 X-5.588 Y-9.746 E0.0241
G1 X-4.949 Y-9.716 E0.0245
; feature outer perimeter
G1 X-4.961 Y-10.177 F9000
G1 X-4.448 Y-10.228 E0.0197 F1200
G1 X-3.948 Y-10.380 E0.0200
G1 X-3.487 Y-10.626 E0.0200
G1 X-3.084 Y-10.957 E0.0200
G1 X-2.752 Y-11.361 E0.0200
G1 X-2.506 Y-11.821 E0.0200
G1 X-2.355 Y-12.321 E0.0200
G1 X-2.303 Y-12.841 E0.0200
G1 X-2.355 Y-13.360 E0.0200
G1 X-2.506 Y-13.860 E0.0200
G1 X-2.752 Y-14.321 E0.0200
G1 X-3.084 Y-14.724 E0.0200
G1 X-3.487 Y-15.056 E0.0200
G1 X-3.948 Y-15.302 E0.0200
G1 X-4.448 Y-15.454 E0.0200
G1 X-4.964 Y-15.504 E0.0199
G1 X-5.491 Y-15.466 E0.0202
G1 X-5.990 Y-15.301 E0.0201
G1 X-6.447 Y-15.056 E0.0199
G1 X-6.851 Y-14.724 E0.0200
G1 X-7.182 Y-14.321 E0.0200
G1 X-7.429 Y-13.860 E0.0200
G1 X-7.579 Y-13.363 E0.0199
G1 X-7.644 Y-12.839 E0.0202
G1 X-7.579 Y-12.318 E0.0201
G1 X-7.429 Y-11.821 E0.0199
G1 X-7.182 Y-11.361 E0.0200
G1 X-6.851 Y-10.957 E0.0200
G1 X-6.447 Y-10.626 E0.0200
G1 X-5.992 Y-10.383 E0.0197
G1 X-5.497 Y-10.202 E0.0202
G1 X-4.961 Y-10.177 E0.0205
; feature solid layer
G1 X-5.493 Y-9.396 F9000
G1 X-1.017 Y-4.920 E0.2421 F2400
G1 X-1.017 Y-5.571 E0.0249
G1 X-4.828 Y-9.382 E0.2061
G1 X-4.290 Y-9.435 E0.0207
G1 X-4.244 Y-9.448 E0.0018
G1 X-1.017 Y-6.221 E0.1746
G1 X-1.017 Y-6.872 E0.0249
G1 X-3.745 Y-9.600 E0.1476
G1 X-3.638 Y-9.632 E0.0043
G1 X-3.305 Y-9.810 E0.0145
G1 X-1.017 Y-7.523 E0.1238
G1 X-1.017 Y-8.173 E0.0249
G1 X-2.906 Y-10.062 E0.1022
G1 X-2.548 Y-10.355 E0.0177
G1 X-0.868 Y-8.674 E0.0909
G1 X-0.710 Y-9.168 E0.0198
G1 X-2.249 Y-10.706 E0.0832
G1 X-2.080 Y-10.911 E0.0102
G1 X-1.984 Y-11.091 E0.0078
G1 X-0.553 Y-9.661 E0.0774
G1 X-0.489 Y-9.859 E0.0080
G1 X-0.386 Y-10.144 E0.0116
G1 X-1.758 Y-11.516 E0.0742
G1 X-1.606 Y-12.015 E0.0200
G1 X-0.212 Y-10.621 E0.0754
G1 X-0.039 Y-11.098 E0.0194
G1 X-1.520 Y-12.579 E0.0801
G1 X-1.494 Y-12.841 E0.0100
G1 X-1.534 Y-13.244 E0.0155
G1 X0.135 Y-11.575 E0.0903
G1 X0.308 Y-12.052 E0.0194
G1 X-1.737 Y-14.097 E0.1106
G1 X1.998 Y-18.169 F9000
G1 X2.392 Y-17.775 E0.0213 F2400
G1 X2.218 Y-17.298 E0.0194
G1 X0.975 Y-18.541 E0.0673
G1 X-0.048 Y-18.914 E0.0416
G1 X2.044 Y-16.821 E0.1132
G1 X1.871 Y-16.344 E0.0194
G1 X-1.071 Y-19.286 E0.1591
G1 X-2.094 Y-19.659 E0.0416
G1 X1.697 Y-15.867 E0.2051
G1 X1.524 Y-15.390 E0.0194
G1 X-3.117 Y-20.031 E0.2510
G1 X-4.140 Y-20.404 E0.0416
G1 X1.350 Y-14.913 E0.2970
G1 X1.176 Y-14.436 E0.0194
G1 X-5.163 Y-20.776 E0.3429
G1 X-6.186 Y-21.148 E0.0416
G1 X1.003 Y-13.960 E0.3889
G1 X0.829 Y-13.483 E0.0194
G1 X-7.209 Y-21.521 E0.4348
G1 X-8.232 Y-21.893 E0.0416
G1 X0.656 Y-13.006 E0.4807
G1 X0.482 Y-12.529 E0.0194
G1 X-8.533 Y-21.543 E0.4876
G1 X-8.706 Y-21.066 E0.0194
G1 X-3.711 Y-16.071 E0.2702
G1 X-4.290 Y-16.247 E0.0231
G1 X-4.564 Y-16.274 E0.0105
G1 X-8.880 Y-20.589 E0.2334
G1 X-9.053 Y-20.112 E0.0194
G1 X-5.233 Y-16.292 E0.2067
G1 X-5.650 Y-16.262 E0.0160
G1 X-5.802 Y-16.211 E0.0061
G1 X-9.227 Y-19.636 E0.1852
G1 X-9.400 Y-19.159 E0.0194
G1 X-6.291 Y-16.049 E0.1682
G1 X-6.309 Y-16.043 E0.0007
G1 X-6.717 Y-15.824 E0.0177
G1 X-9.574 Y-18.682 E0.1545
G1 X-9.748 Y-18.205 E0.0194
G1 X-7.103 Y-15.560 E0.1431
G1 X-7.423 Y-15.296 E0.0159
G1 X-7.453 Y-15.260 E0.0018
G1 X-9.921 Y-17.728 E0.1335
G1 X-10.095 Y-17.251 E0.0194
G1 X-7.746 Y-14.902 E0.1270
G1 X-7.855 Y-14.770 E0.0065
G1 X-7.998 Y-14.503 E0.0116
G1 X-10.268 Y-16.774 E0.1228
G1 X-10.442 Y-16.297 E0.0194
G1 X-8.208 Y-14.063 E0.1208
G1 X-8.360 Y-13.564 E0.0200
G1 X-10.616 Y-15.820 E0.1220
G1 X-10.789 Y-15.343 E0.0194
G1 X-8.436 Y-12.990 E0.1273
G1 X-8.455 Y-12.839 E0.0058
G1 X-8.387 Y-12.290 E0.0211
G1 X-10.963 Y-14.866 E0.1393
G1 X-11.136 Y-14.389 E0.0194
G1 X-8.080 Y-11.333 E0.1653
G1 X-7.855 Y-10.911 E0.0183
G1 X-7.423 Y-10.385 E0.0260
G1 X-6.897 Y-9.953 E0.0260
G1 X-6.475 Y-9.728 E0.0183
G1 X-1.017 Y-4.270 E0.2952
G1 X-1.017 Y-3.619 E0.0249
G1 X-11.300 Y-13.902 E0.5562
G1 X-11.359 Y-13.311 E0.0227
G1 X-1.017 Y-2.969 E0.5594
G1 X-1.017 Y-2.318 E0.0249
G1 X-11.418 Y-12.719 E0.5626
G1 X-11.477 Y-12.128 E0.0227
G1 X-1.017 Y-1.668 E0.5658
G1 X-1.017 Y-1.017 E0.0249
G1 X-11.537 Y-11.537 E0.5690
G1 X-11.596 Y-10.945 E0.0227
G1 X-1.017 Y-0.367 E0.5722
G1 X-1.017 Y0.284 E0.0249
G1 X-11.655 Y-10.354 E0.5754
G1 X-11.714 Y-9.762 E0.0227
G1 X-1.017 Y0.934 E0.5786
G1 X-1.017 Y1.585 E0.0249
G1 X-11.773 Y-9.171 E0.5818
G1 X-11.832 Y-8.579 E0.0227
G1 X-1.017 Y2.236 E0.5850
G1 X-1.017 Y2.886 E0.0249
G1 X-11.890 Y-7.987 E0.5882
G1 X-11.890 Y-7.337 E0.0249
G1 X-1.017 Y3.537 E0.5882
G1 X-1.017 Y4.187 E0.0249
G1 X-11.890 Y-6.686 E0.5882
G1 X-11.890 Y-6.036 E0.0249
G1 X-1.017 Y4.838 E0.5882
G1 X-1.017 Y5.488 E0.0249
G1 X-11.890 Y-5.385 E0.5882
G1 X-11.890 Y-4.735 E0.0249
G1 X-1.017 Y6.139 E0.5882
G1 X-1.017 Y6.789 E0.0249
G1 X-11.890 Y-4.084 E0.5882
G1 X-11.890 Y-3.433 E0.0249
G1 X-1.017 Y7.440 E0.5882
G1 X-1.017 Y8.090 E0.0249
G1 X-11.890 Y-2.783 E0.5882
G1 X-11.890 Y-2.132 E0.0249
G1 X-1.017 Y8.741 E0.5882
G1 X-1.017 Y9.391 E0.0249
G1 X-11.890 Y-1.482 E0.5882
G1 X-11.890 Y-0.831 E0.0249
G1 X-1.017 Y10.042 E0.5882
G1 X-1.017 Y10.693 E0.0249
G1 X-11.890 Y-0.181 E0.5882
G1 X-11.890 Y0.470 E0.0249
G1 X-1.017 Y11.343 E0.5882
G1 X-1.017 Y11.994 E0.0249
G1 X-11.890 Y1.120 E0.5882
G1 X-11.890 Y1.771 E0.0249
G1 X-1.017 Y12.644 E0.5882
G1 X-1.017 Y13.295 E0.0249
G1 X-11.890 Y2.421 E0.5882
G1 X-11.890 Y3.072 E0.0249
G1 X-1.017 Y13.945 E0.5882
G1 X-1.017 Y14.596 E0.0249
G1 X-11.890 Y3.722 E0.5882
G1 X-11.890 Y4.373 E0.0249
G1 X-1.017 Y15.246 E0.5882
G1 X-1.017 Y15.897 E0.0249
G1 X-11.890 Y5.024 E0.5882
G1 X-11.890 Y5.674 E0.0249
G1 X-1.017 Y16.547 E0.5882
G1 X-1.017 Y17.198 E0.0249
G1 X-11.890 Y6.325 E0.5882
G1 X-11.890 Y6.975 E0.0249
G1 X-1.017 Y17.848 E0.5882
G1 X-1.017 Y18.499 E0.0249
G1 X-11.890 Y7.626 E0.5882
G1 X-11.890 Y8.276 E0.0249
G1 X-1.017 Y19.150 E0.5882
G1 X-1.017 Y19.800 E0.0249
G1 X-11.890 Y8.927 E0.5882
G1 X-11.890 Y9.577 E0.0249
G1 X-1.017 Y20.451 E0.5882
G1 X-1.017 Y21.101 E0.0249
G1 X-11.890 Y10.228 E0.5882
G1 X-11.890 Y10.878 E0.0249
G1 X-1.017 Y21.752 E0.5882
G1 X-1.017 Y22.402 E0.0249
G1 X-11.890 Y11.529 E0.5882
G1 X-11.890 Y12.179 E0.0249
G1 X-1.017 Y23.053 E0.5882
G1 X-1.017 Y23.703 E0.0249
G1 X-11.890 Y12.830 E0.5882
G1 X-11.890 Y13.481 E0.0249
G1 X-1.017 Y24.354 E0.5882
G1 X-1.017 Y25.004 E0.0249
G1 X-11.890 Y14.131 E0.5882
G1 X-11.890 Y14.782 E0.0249
G1 X-1.017 Y25.655 E0.5882
G1 X-1.017 Y26.305 E0.0249
G1 X-11.890 Y15.432 E0.5882
G1 X-11.890 Y16.083 E0.0249
G1 X-1.017 Y26.956 E0.5882
G1 X-1.017 Y27.607 E0.0249
G1 X-11.890 Y16.733 E0.5882
G1 X-11.890 Y17.384 E0.0249
G1 X-1.017 Y28.257 E0.5882
G1 X-1.017 Y28.908 E0.0249
G1 X-11.890 Y18.034 E0.5882
G1 X-11.890 Y18.685 E0.0249
G1 X-1.017 Y29.558 E0.5882
G1 X-1.017 Y30.209 E0.0249
G1 X-11.890 Y19.335 E0.5882
G1 X-11.890 Y19.986 E0.0249
G1 X-1.017 Y30.859 E0.5882
G1 X-1.017 Y31.510 E0.0249
G1 X-11.890 Y20.636 E0.5882
G1 X-11.890 Y21.287 E0.0249
G1 X-1.017 Y32.160 E0.5882
G1 X-1.017 Y32.811 E0.0249
G1 X-11.890 Y21.938 E0.5882
G1 X-11.890 Y22.588 E0.0249
G1 X-1.017 Y33.461 E0.5882
G1 X-1.017 Y34.112 E0.0249
G1 X-11.890 Y23.239 E0.5882
G1 X-11.890 Y23.889 E0.0249
G1 X-1.017 Y34.762 E0.5882
