; G-Code generated by Simplify3D(R) Version 4.1.2
; Apr 2, 2020 at 4:52:06 PM
; Settings Summary
;   processName,Process1
;   applyToModels,PlumeV1R1
;   profileName,MakerBot Replicator 2 HBP (modified)
;   profileVersion,2020-03-12 10:48:50
;   baseProfile,MakerBot Replicator 2(2)
;   printMaterial,PLA
;   printQuality,Medium
;   printExtruders,
;   extruderName,Primary Extruder
;   extruderToolheadNumber,0
;   extruderDiameter,0.4
;   extruderAutoWidth,0
;   extruderWidth,0.4
;   extrusionMultiplier,1
;   extruderUseRetract,1
;   extruderRetractionDistance,1.9
;   extruderExtraRestartDistance,0
;   extruderRetractionZLift,0.5
;   extruderRetractionSpeed,1200
;   extruderUseCoasting,0
;   extruderCoastingDistance,0.2
;   extruderUseWipe,0
;   extruderWipeDistance,5
;   primaryExtruder,0
;   layerHeight,0.2
;   topSolidLayers,3
;   bottomSolidLayers,3
;   perimeterOutlines,2
;   printPerimetersInsideOut,1
;   startPointOption,3
;   startPointOriginX,0
;   startPointOriginY,150
;   sequentialIslands,0
;   spiralVaseMode,0
;   firstLayerHeightPercentage,100
;   firstLayerWidthPercentage,115
;   firstLayerUnderspeed,0.5
;   useRaft,0
;   raftExtruder,0
;   raftTopLayers,2
;   raftBaseLayers,1
;   raftOffset,1
;   raftSeparationDistance,0.14
;   raftTopInfill,90
;   aboveRaftSpeedMultiplier,0.3
;   useSkirt,0
;   skirtExtruder,0
;   skirtLayers,1
;   skirtOutlines,10
;   skirtOffset,0
;   usePrimePillar,0
;   primePillarExtruder,999
;   primePillarWidth,12
;   primePillarLocation,7
;   primePillarSpeedMultiplier,1
;   useOozeShield,0
;   oozeShieldExtruder,999
;   oozeShieldOffset,2
;   oozeShieldOutlines,1
;   oozeShieldSidewallShape,1
;   oozeShieldSidewallAngle,30
;   oozeShieldSpeedMultiplier,1
;   infillExtruder,0
;   internalInfillPattern,Rectilinear
;   externalInfillPattern,Rectilinear
;   infillPercentage,15
;   outlineOverlapPercentage,25
;   infillExtrusionWidthPercentage,100
;   minInfillLength,5
;   infillLayerInterval,1
;   internalInfillAngles,45,-45
;   overlapInternalInfillAngles,0
;   externalInfillAngles,45,-45
;   generateSupport,0
;   supportExtruder,0
;   supportInfillPercentage,30
;   supportExtraInflation,0.5
;   supportBaseLayers,0
;   denseSupportExtruder,0
;   denseSupportLayers,2
;   denseSupportInfillPercentage,90
;   supportLayerInterval,1
;   supportHorizontalPartOffset,0.3
;   supportUpperSeparationLayers,1
;   supportLowerSeparationLayers,1
;   supportType,1
;   supportGridSpacing,2
;   maxOverhangAngle,45
;   supportAngles,45,-45
;   temperatureName,Primary Extruder,Heated Build Platform
;   temperatureNumber,0,0
;   temperatureSetpointCount,1,1
;   temperatureSetpointLayers,1,1
;   temperatureSetpointTemperatures,230,60
;   temperatureStabilizeAtStartup,1,1
;   temperatureHeatedBed,0,1
;   fanLayers,1,2
;   fanSpeeds,0,100
;   blipFanToFullPower,1
;   adjustSpeedForCooling,1
;   minSpeedLayerTime,15
;   minCoolingSpeedSlowdown,20
;   increaseFanForCooling,1
;   minFanLayerTime,45
;   maxCoolingFanSpeed,100
;   increaseFanForBridging,1
;   bridgingFanSpeed,100
;   use5D,1
;   relativeEdistances,1
;   allowEaxisZeroing,0
;   independentExtruderAxes,1
;   includeM10123,0
;   stickySupport,1
;   applyToolheadOffsets,0
;   gcodeXoffset,0
;   gcodeYoffset,0
;   gcodeZoffset,0
;   overrideMachineDefinition,1
;   machineTypeOverride,0
;   strokeXoverride,280
;   strokeYoverride,150
;   strokeZoverride,150
;   originOffsetXoverride,140
;   originOffsetYoverride,75
;   originOffsetZoverride,0
;   homeXdirOverride,1
;   homeYdirOverride,1
;   homeZdirOverride,-1
;   flipXoverride,1
;   flipYoverride,-1
;   flipZoverride,1
;   toolheadOffsets,0,0|0,0|0,0|0,0|0,0|0,0
;   overrideFirmwareConfiguration,1
;   firmwareTypeOverride,MakerBot/Sailfish Firmware
;   GPXconfigOverride,r2h
;   baudRateOverride,115200
;   overridePrinterModels,1
;   printerModelsOverride,MakerBot_Replicator2.stl
;   startingGcode,; **** Replicator 2 start.gcode ****,M73 P0 ; enable build progress,G162 X Y F3000 ; home XY maximum,G161 Z F1200 ; home Z minimum,G92 Z-5 ; set Z to -5,G1 Z0 ; move Z to 0,G161 Z F100 ; home Z slowly,M132 X Y Z A B ; recall home offsets,G1 X-145 Y-75 Z30 F9000 ; move to wait position off table,G130 X20 Y20 Z20 A20 B20 ; lower stepper Vrefs while heating,M126 S[fan_speed_pwm],M140 S[bed0_temperature] T0,M134 T0 ; stabilize bed temperature,M104 S[extruder0_temperature] T0,M133 T0 ; stabilize extruder temperature,G130 X127 Y127 Z40 A127 B127 ; default stepper Vrefs,G92 A0 ; zero extruder,G1 Z0.4 ; position nozzle,G1 E25 F300 ; purge nozzle,G1 X-140 Y-70 Z0.15 F1200 ; slow wipe,G1 X-135 Y-65 Z0.5 F1200 ; lift,G92 A0 ; zero extruder,M73 P1 ;@body (notify GPX body has started),; **** end of start.gcode ****
;   layerChangeGcode,
;   retractionGcode,
;   toolChangeGcode,
;   endingGcode,; **** Replicator 2 end.gcode ****,M73 P100 ; end build progress,G1 Z155 F1000 ; send Z axis to bottom of machine,M104 S0 T0 ; cool down extruder,M140 S0 T0 ; cool down HBP,M127 ; stop blower fan,G162 X Y F3000 ; home XY maximum,M18 ; disable stepper,M0 ; stop codes,M72 P1 ; play Ta-Da song,; **** end of end.gcode ****
;   exportFileFormat,gcode
;   celebration,0
;   celebrationSong,Random Song
;   postProcessing,
;   defaultSpeed,4800
;   outlineUnderspeed,0.5
;   solidInfillUnderspeed,1
;   supportUnderspeed,1
;   rapidXYspeed,9000
;   rapidZspeed,1200
;   minBridgingArea,50
;   bridgingExtraInflation,0
;   bridgingExtrusionMultiplier,1
;   bridgingSpeedMultiplier,0.8
;   useFixedBridgingAngle,0
;   fixedBridgingAngle,0
;   applyBridgingToPerimeters,0
;   filamentDiameters,1.75|1.75|1.75|1.75|1.75|1.75
;   filamentPricesPerKg,46|46|46|46|46|46
;   filamentDensities,1.25|1.25|1.25|1.25|1.25|1.25
;   useMinPrintHeight,0
;   minPrintHeight,0
;   useMaxPrintHeight,0
;   maxPrintHeight,4.84
;   useDiaphragm,0
;   diaphragmLayerInterval,20
;   robustSlicing,1
;   mergeAllIntoSolid,0
;   onlyRetractWhenCrossingOutline,0
;   retractBetweenLayers,0
;   useRetractionMinTravel,1
;   retractionMinTravel,7
;   retractWhileWiping,1
;   onlyWipeOutlines,1
;   avoidCrossingOutline,0
;   maxMovementDetourFactor,3
;   toolChangeRetractionDistance,12
;   toolChangeExtraRestartDistance,-0.5
;   toolChangeRetractionSpeed,600
;   externalThinWallType,0
;   internalThinWallType,0
;   thinWallAllowedOverlapPercentage,10
;   singleExtrusionMinLength,1
;   singleExtrusionMinPrintingWidthPercentage,50
;   singleExtrusionMaxPrintingWidthPercentage,200
;   singleExtrusionEndpointExtension,0.2
;   horizontalSizeCompensation,0
G90
M83
; **** Replicator 2 start.gcode ****
M73 P0 ; enable build progress
G162 X Y F3000 ; home XY maximum
G161 Z F1200 ; home Z minimum
G92 Z-5 ; set Z to -5
G1 Z0 ; move Z to 0
G161 Z F100 ; home Z slowly
M132 X Y Z A B ; recall home offsets
G1 X-145 Y-75 Z30 F9000 ; move to wait position off table
G130 X20 Y20 Z20 A20 B20 ; lower stepper Vrefs while heating
M126 S11
M140 S60 T0
M134 T0 ; stabilize bed temperature
M104 S230 T0
M133 T0 ; stabilize extruder temperature
G130 X127 Y127 Z40 A127 B127 ; default stepper Vrefs
G92 A0 ; zero extruder
G1 Z0.4 ; position nozzle
G1 E25 F300 ; purge nozzle
G1 X-140 Y-70 Z0.15 F1200 ; slow wipe
G1 X-135 Y-65 Z0.5 F1200 ; lift
G92 A0 ; zero extruder
M73 P1 ;@body (notify GPX body has started)
; **** end of start.gcode ****
; process Process1
; layer 1, Z = 0.200
M135 T0
G1 E-1.9000 F1200
; feature inner perimeter
; tool H0.200 W0.460
G1 Z0.500 F1200
G1 X-13.509 Y17.169 F9000
G1 Z0.200 F1200
G1 E1.9000 F1200
G1 X-15.497 Y17.172 E0.0760 F1800
G1 X-15.553 Y17.161 E0.0022
G1 X-15.557 Y17.155 E0.0003
G1 X-15.563 Y17.109 E0.0018
G1 X-15.560 Y-14.497 E1.2089
G1 X-15.551 Y-14.527 E0.0012
G1 X-15.547 Y-14.530 E0.0002
G1 X-15.497 Y-14.538 E0.0019
G1 X-13.526 Y-14.538 E0.0754
G1 X-13.482 Y-14.530 E0.0017
G1 X-13.479 Y-14.526 E0.0002
G1 X-13.469 Y-14.466 E0.0023
G1 X-13.469 Y-6.627 E0.2998
G1 X-11.210 Y-6.980 E0.0874
G1 X-10.788 Y-7.081 E0.0166
G1 X-10.122 Y-7.282 E0.0266
G1 X-7.591 Y-8.230 E0.1034
G1 X-5.907 Y-8.795 E0.0680
G1 X-5.589 Y-8.930 E0.0132
G1 X-5.230 Y-9.166 E0.0164
G1 X-5.001 Y-9.384 E0.0121
G1 X-4.796 Y-9.640 E0.0125
G1 X-4.670 Y-9.826 E0.0086
G1 X-4.444 Y-10.233 E0.0178
G1 X-4.151 Y-10.902 E0.0279
G1 X-3.258 Y-13.245 E0.0959
G1 X-2.959 Y-13.925 E0.0284
G1 X-2.687 Y-14.433 E0.0220
G1 X-2.540 Y-14.652 E0.0101
G1 X-2.414 Y-14.797 E0.0073
G1 X-2.248 Y-14.933 E0.0082
G1 X-2.206 Y-14.957 E0.0018
G1 X-2.109 Y-14.994 E0.0040
G1 X-2.026 Y-15.010 E0.0033
G1 X-1.855 Y-15.012 E0.0065
G1 X-1.638 Y-14.977 E0.0084
G1 X-1.469 Y-14.933 E0.0067
G1 X0.690 Y-14.143 E0.0879
G1 X1.864 Y-13.772 E0.0471
G1 X2.698 Y-13.576 E0.0328
G1 X3.272 Y-13.485 E0.0222
G1 X3.591 Y-13.411 E0.0125
G1 X3.790 Y-13.333 E0.0082
G1 X3.937 Y-13.246 E0.0065
G1 X4.033 Y-13.167 E0.0048
G1 X4.146 Y-13.047 E0.0063
G1 X4.267 Y-12.891 E0.0075
G1 X4.403 Y-12.675 E0.0098
G1 X4.545 Y-12.404 E0.0117
G1 X5.260 Y-10.822 E0.0664
G1 X5.722 Y-9.960 E0.0374
G1 X6.008 Y-9.535 E0.0196
G1 X6.332 Y-9.145 E0.0194
G1 X6.709 Y-8.800 E0.0195
G1 X7.148 Y-8.518 E0.0199
G1 X7.593 Y-8.343 E0.0183
G1 X7.919 Y-8.271 E0.0128
G1 X8.199 Y-8.247 E0.0108
G1 X8.702 Y-8.257 E0.0193
G1 X10.021 Y-8.430 E0.0508
G1 X10.292 Y-8.438 E0.0104
G1 X10.391 Y-8.431 E0.0038
G1 X10.504 Y-8.412 E0.0044
G1 X10.621 Y-8.375 E0.0047
G1 X10.726 Y-8.318 E0.0045
G1 X10.792 Y-8.267 E0.0032
G1 X10.845 Y-8.213 E0.0029
G1 X10.968 Y-8.047 E0.0079
G1 X11.040 Y-7.912 E0.0059
G1 X11.142 Y-7.681 E0.0097
G1 X11.255 Y-7.349 E0.0134
G1 X11.421 Y-6.693 E0.0259
G1 X12.110 Y-3.292 E0.1327
G1 X12.192 Y-2.770 E0.0202
G1 X12.215 Y-2.527 E0.0093
G1 X12.229 Y-2.266 E0.0100
G1 X12.224 Y-1.998 E0.0103
G1 X12.169 Y-1.609 E0.0150
G1 X12.048 Y-1.229 E0.0153
G1 X11.853 Y-0.862 E0.0159
G1 X11.700 Y-0.638 E0.0103
G1 X11.370 Y-0.244 E0.0197
G1 X11.005 Y0.130 E0.0200
G1 X9.333 Y1.616 E0.0856
G1 X8.923 Y2.027 E0.0222
G1 X8.664 Y2.335 E0.0154
G1 X8.408 Y2.711 E0.0174
G1 X8.166 Y3.210 E0.0212
G1 X8.049 Y3.629 E0.0167
G1 X8.015 Y3.887 E0.0099
G1 X8.017 Y4.311 E0.0162
G1 X8.093 Y4.761 E0.0174
G1 X8.234 Y5.234 E0.0189
G1 X8.575 Y6.105 E0.0358
G1 X8.831 Y6.840 E0.0298
G1 X8.977 Y7.379 E0.0214
G1 X9.149 Y8.146 E0.0300
G1 X9.465 Y10.040 E0.0735
G1 X9.773 Y12.214 E0.0840
G1 X9.904 Y13.351 E0.0438
G1 X9.927 Y13.890 E0.0206
G1 X9.910 Y14.201 E0.0119
G1 X9.875 Y14.462 E0.0101
G1 X9.819 Y14.682 E0.0087
G1 X9.783 Y14.780 E0.0040
G1 X9.733 Y14.898 E0.0049
G1 X9.586 Y15.170 E0.0118
G1 X9.426 Y15.403 E0.0108
G1 X9.214 Y15.663 E0.0128
G1 X8.990 Y15.888 E0.0121
G1 X8.845 Y15.998 E0.0069
G1 X8.783 Y16.035 E0.0028
G1 X8.683 Y16.078 E0.0042
G1 X8.596 Y16.101 E0.0035
G1 X8.493 Y16.110 E0.0040
G1 X8.336 Y16.101 E0.0060
G1 X8.160 Y16.069 E0.0068
G1 X7.936 Y16.004 E0.0089
G1 X7.656 Y15.898 E0.0115
G1 X7.324 Y15.751 E0.0139
G1 X6.292 Y15.219 E0.0444
G1 X4.482 Y14.173 E0.0800
G1 X3.546 Y13.643 E0.0411
G1 X2.995 Y13.352 E0.0238
G1 X2.401 Y13.069 E0.0252
G1 X1.865 Y12.856 E0.0221
G1 X1.526 Y12.749 E0.0136
G1 X1.156 Y12.659 E0.0146
G1 X0.566 Y12.570 E0.0228
G1 X-0.055 Y12.560 E0.0238
G1 X-0.525 Y12.605 E0.0180
G1 X-1.187 Y12.743 E0.0259
G1 X-1.938 Y12.969 E0.0300
G1 X-2.314 Y13.062 E0.0148
G1 X-2.532 Y13.082 E0.0084
G1 X-2.645 Y13.072 E0.0043
G1 X-2.764 Y13.044 E0.0047
G1 X-2.880 Y13.003 E0.0047
G1 X-3.015 Y12.938 E0.0057
G1 X-3.201 Y12.819 E0.0084
G1 X-3.484 Y12.593 E0.0139
G1 X-4.454 Y11.629 E0.0523
G1 X-4.659 Y11.450 E0.0104
G1 X-5.108 Y11.132 E0.0210
G1 X-5.477 Y10.952 E0.0157
G1 X-6.752 Y10.553 E0.0511
G1 X-7.263 Y10.372 E0.0207
G1 X-10.146 Y9.252 E0.1183
G1 X-10.884 Y9.027 E0.0295
G1 X-11.210 Y8.951 E0.0128
G1 X-13.469 Y8.580 E0.0876
G1 X-13.469 Y17.100 E0.3259
G1 X-13.480 Y17.161 E0.0024
G1 X-13.509 Y17.169 E0.0011
; feature outer perimeter
G1 X-13.447 Y17.629 F9000
G1 X-15.534 Y17.632 E0.0798 F1200
G1 X-15.705 Y17.604 E0.0066
G1 X-15.763 Y17.579 E0.0024
G1 X-15.893 Y17.480 E0.0062
G1 X-15.980 Y17.350 E0.0060
G1 X-16.003 Y17.287 E0.0026
G1 X-16.023 Y17.141 E0.0056
G1 X-16.020 Y-14.559 E1.2125
G1 X-15.974 Y-14.724 E0.0066
G1 X-15.887 Y-14.855 E0.0060
G1 X-15.848 Y-14.891 E0.0020
G1 X-15.695 Y-14.971 E0.0066
G1 X-15.534 Y-14.998 E0.0062
G1 X-13.495 Y-14.998 E0.0780
G1 X-13.355 Y-14.979 E0.0054
G1 X-13.293 Y-14.956 E0.0025
G1 X-13.163 Y-14.870 E0.0060
G1 X-13.063 Y-14.739 E0.0063
G1 X-13.038 Y-14.680 E0.0025
G1 X-13.009 Y-14.504 E0.0068
G1 X-13.009 Y-7.165 E0.2807
G1 X-11.300 Y-7.431 E0.0662
G1 X-10.908 Y-7.525 E0.0154
G1 X-10.270 Y-7.718 E0.0255
G1 X-7.745 Y-8.664 E0.1031
G1 X-6.070 Y-9.226 E0.0676
G1 X-5.807 Y-9.338 E0.0109
G1 X-5.517 Y-9.528 E0.0133
G1 X-5.341 Y-9.696 E0.0093
G1 X-5.167 Y-9.913 E0.0106
G1 X-5.063 Y-10.067 E0.0071
G1 X-4.857 Y-10.438 E0.0162
G1 X-4.577 Y-11.077 E0.0267
G1 X-3.684 Y-13.420 E0.0959
G1 X-3.373 Y-14.127 E0.0295
G1 X-3.082 Y-14.671 E0.0236
G1 X-2.906 Y-14.932 E0.0120
G1 X-2.736 Y-15.128 E0.0099
G1 X-2.509 Y-15.314 E0.0112
G1 X-2.403 Y-15.374 E0.0046
G1 X-2.238 Y-15.437 E0.0068
G1 X-2.072 Y-15.470 E0.0064
G1 X-1.820 Y-15.472 E0.0096
G1 X-1.544 Y-15.428 E0.0107
G1 X-1.332 Y-15.373 E0.0084
G1 X0.839 Y-14.579 E0.0884
G1 X1.986 Y-14.216 E0.0460
G1 X2.787 Y-14.027 E0.0315
G1 X3.360 Y-13.937 E0.0222
G1 X3.728 Y-13.852 E0.0144
G1 X3.993 Y-13.747 E0.0109
G1 X4.202 Y-13.624 E0.0093
G1 X4.347 Y-13.504 E0.0072
G1 X4.496 Y-13.347 E0.0083
G1 X4.644 Y-13.155 E0.0093
G1 X4.801 Y-12.905 E0.0113
G1 X4.959 Y-12.606 E0.0129
G1 X5.673 Y-11.026 E0.0663
G1 X6.117 Y-10.198 E0.0359
G1 X6.377 Y-9.811 E0.0178
G1 X6.666 Y-9.463 E0.0173
G1 X6.991 Y-9.165 E0.0169
G1 X7.358 Y-8.929 E0.0167
G1 X7.727 Y-8.784 E0.0152
G1 X7.988 Y-8.727 E0.0102
G1 X8.214 Y-8.707 E0.0087
G1 X8.668 Y-8.717 E0.0174
G1 X9.984 Y-8.889 E0.0508
G1 X10.301 Y-8.899 E0.0121
G1 X10.446 Y-8.888 E0.0056
G1 X10.613 Y-8.860 E0.0065
G1 X10.801 Y-8.800 E0.0076
G1 X10.977 Y-8.706 E0.0077
G1 X11.100 Y-8.611 E0.0059
G1 X11.197 Y-8.511 E0.0053
G1 X11.357 Y-8.294 E0.0103
G1 X11.454 Y-8.114 E0.0078
G1 X11.571 Y-7.848 E0.0111
G1 X11.697 Y-7.479 E0.0149
G1 X11.869 Y-6.795 E0.0270
G1 X12.562 Y-3.373 E0.1335
G1 X12.649 Y-2.827 E0.0212
G1 X12.673 Y-2.561 E0.0102
G1 X12.689 Y-2.275 E0.0110
G1 X12.683 Y-1.961 E0.0120
G1 X12.619 Y-1.506 E0.0176
G1 X12.473 Y-1.050 E0.0183
G1 X12.247 Y-0.624 E0.0184
G1 X12.068 Y-0.360 E0.0122
G1 X11.712 Y0.065 E0.0212
G1 X11.322 Y0.463 E0.0213
G1 X9.649 Y1.951 E0.0856
G1 X9.263 Y2.338 E0.0209
G1 X9.032 Y2.613 E0.0138
G1 X8.807 Y2.942 E0.0152
G1 X8.598 Y3.373 E0.0183
G1 X8.501 Y3.722 E0.0138
G1 X8.475 Y3.916 E0.0075
G1 X8.477 Y4.271 E0.0136
G1 X8.542 Y4.656 E0.0149
G1 X8.670 Y5.084 E0.0171
G1 X9.006 Y5.946 E0.0354
G1 X9.271 Y6.703 E0.0307
G1 X9.424 Y7.269 E0.0224
G1 X9.600 Y8.058 E0.0309
G1 X9.919 Y9.970 E0.0742
G1 X10.229 Y12.155 E0.0844
G1 X10.363 Y13.315 E0.0447
G1 X10.387 Y13.893 E0.0221
G1 X10.369 Y14.244 E0.0134
G1 X10.327 Y14.550 E0.0118
G1 X10.260 Y14.818 E0.0106
G1 X10.211 Y14.950 E0.0054
G1 X10.148 Y15.098 E0.0062
G1 X9.980 Y15.410 E0.0135
G1 X9.795 Y15.679 E0.0125
G1 X9.556 Y15.972 E0.0145
G1 X9.293 Y16.235 E0.0142
G1 X9.103 Y16.379 E0.0091
G1 X8.993 Y16.445 E0.0049
G1 X8.834 Y16.514 E0.0066
G1 X8.676 Y16.555 E0.0062
G1 X8.501 Y16.572 E0.0068
G1 X8.280 Y16.559 E0.0084
G1 X8.053 Y16.517 E0.0088
G1 X7.791 Y16.441 E0.0104
G1 X7.481 Y16.324 E0.0127
G1 X7.125 Y16.166 E0.0149
G1 X6.072 Y15.623 E0.0453
G1 X4.253 Y14.572 E0.0803
G1 X3.325 Y14.047 E0.0408
G1 X2.789 Y13.764 E0.0232
G1 X2.217 Y13.491 E0.0242
G1 X1.710 Y13.289 E0.0209
G1 X1.402 Y13.192 E0.0124
G1 X1.067 Y13.110 E0.0132
G1 X0.528 Y13.029 E0.0209
G1 X-0.037 Y13.020 E0.0216
G1 X-0.456 Y13.061 E0.0161
G1 X-1.074 Y13.189 E0.0241
G1 X-1.816 Y13.412 E0.0297
G1 X-2.237 Y13.517 E0.0166
G1 X-2.532 Y13.544 E0.0113
G1 X-2.718 Y13.527 E0.0072
G1 X-2.894 Y13.486 E0.0069
G1 X-3.058 Y13.428 E0.0066
G1 X-3.239 Y13.340 E0.0077
G1 X-3.469 Y13.194 E0.0104
G1 X-3.791 Y12.936 E0.0157
G1 X-4.769 Y11.966 E0.0527
G1 X-4.944 Y11.811 E0.0089
G1 X-5.343 Y11.529 E0.0187
G1 X-5.648 Y11.380 E0.0130
G1 X-6.898 Y10.990 E0.0501
G1 X-7.423 Y10.803 E0.0213
G1 X-10.296 Y9.687 E0.1179
G1 X-11.004 Y9.472 E0.0283
G1 X-11.300 Y9.402 E0.0116
G1 X-13.009 Y9.121 E0.0662
G1 X-13.009 Y17.138 E0.3066
