; G-Code generated by Simplify3D(R) Version 4.1.2
; Apr 2, 2020 at 4:51:06 PM
; Settings Summary
;   processName,Process1
;   applyToModels,CannonV3R2
;   profileName,MakerBot Replicator 2 HBP (modified)
;   profileVersion,2020-03-12 10:48:50
;   baseProfile,MakerBot Replicator 2(2)
;   printMaterial,PLA
;   printQuality,Medium
;   printExtruders,
;   extruderName,Primary Extruder
;   extruderToolheadNumber,0
;   extruderDiameter,0.4
;   extruderAutoWidth,0
;   extruderWidth,0.4
;   extrusionMultiplier,1
;   extruderUseRetract,1
;   extruderRetractionDistance,1.9
;   extruderExtraRestartDistance,0
;   extruderRetractionZLift,0.5
;   extruderRetractionSpeed,1200
;   extruderUseCoasting,0
;   extruderCoastingDistance,0.2
;   extruderUseWipe,0
;   extruderWipeDistance,5
;   primaryExtruder,0
;   layerHeight,0.2
;   topSolidLayers,3
;   bottomSolidLayers,3
;   perimeterOutlines,2
;   printPerimetersInsideOut,1
;   startPointOption,3
;   startPointOriginX,0
;   startPointOriginY,150
;   sequentialIslands,0
;   spiralVaseMode,0
;   firstLayerHeightPercentage,100
;   firstLayerWidthPercentage,115
;   firstLayerUnderspeed,0.5
;   useRaft,0
;   raftExtruder,0
;   raftTopLayers,2
;   raftBaseLayers,1
;   raftOffset,1
;   raftSeparationDistance,0.14
;   raftTopInfill,90
;   aboveRaftSpeedMultiplier,0.3
;   useSkirt,0
;   skirtExtruder,0
;   skirtLayers,1
;   skirtOutlines,10
;   skirtOffset,0
;   usePrimePillar,0
;   primePillarExtruder,999
;   primePillarWidth,12
;   primePillarLocation,7
;   primePillarSpeedMultiplier,1
;   useOozeShield,0
;   oozeShieldExtruder,999
;   oozeShieldOffset,2
;   oozeShieldOutlines,1
;   oozeShieldSidewallShape,1
;   oozeShieldSidewallAngle,30
;   oozeShieldSpeedMultiplier,1
;   infillExtruder,0
;   internalInfillPattern,Rectilinear
;   externalInfillPattern,Rectilinear
;   infillPercentage,15
;   outlineOverlapPercentage,25
;   infillExtrusionWidthPercentage,100
;   minInfillLength,5
;   infillLayerInterval,1
;   internalInfillAngles,45,-45
;   overlapInternalInfillAngles,0
;   externalInfillAngles,45,-45
;   generateSupport,1
;   supportExtruder,0
;   supportInfillPercentage,30
;   supportExtraInflation,0.5
;   supportBaseLayers,0
;   denseSupportExtruder,0
;   denseSupportLayers,2
;   denseSupportInfillPercentage,90
;   supportLayerInterval,1
;   supportHorizontalPartOffset,0.3
;   supportUpperSeparationLayers,1
;   supportLowerSeparationLayers,1
;   supportType,1
;   supportGridSpacing,2
;   maxOverhangAngle,45
;   supportAngles,45,-45
;   temperatureName,Primary Extruder,Heated Build Platform
;   temperatureNumber,0,0
;   temperatureSetpointCount,1,1
;   temperatureSetpointLayers,1,1
;   temperatureSetpointTemperatures,230,60
;   temperatureStabilizeAtStartup,1,1
;   temperatureHeatedBed,0,1
;   fanLayers,1,2
;   fanSpeeds,0,100
;   blipFanToFullPower,1
;   adjustSpeedForCooling,1
;   minSpeedLayerTime,15
;   minCoolingSpeedSlowdown,20
;   increaseFanForCooling,1
;   minFanLayerTime,45
;   maxCoolingFanSpeed,100
;   increaseFanForBridging,1
;   bridgingFanSpeed,100
;   use5D,1
;   relativeEdistances,1
;   allowEaxisZeroing,0
;   independentExtruderAxes,1
;   includeM10123,0
;   stickySupport,1
;   applyToolheadOffsets,0
;   gcodeXoffset,0
;   gcodeYoffset,0
;   gcodeZoffset,0
;   overrideMachineDefinition,1
;   machineTypeOverride,0
;   strokeXoverride,280
;   strokeYoverride,150
;   strokeZoverride,150
;   originOffsetXoverride,140
;   originOffsetYoverride,75
;   originOffsetZoverride,0
;   homeXdirOverride,1
;   homeYdirOverride,1
;   homeZdirOverride,-1
;   flipXoverride,1
;   flipYoverride,-1
;   flipZoverride,1
;   toolheadOffsets,0,0|0,0|0,0|0,0|0,0|0,0
;   overrideFirmwareConfiguration,1
;   firmwareTypeOverride,MakerBot/Sailfish Firmware
;   GPXconfigOverride,r2h
;   baudRateOverride,115200
;   overridePrinterModels,1
;   printerModelsOverride,MakerBot_Replicator2.stl
;   startingGcode,; **** Replicator 2 start.gcode ****,M73 P0 ; enable build progress,G162 X Y F3000 ; home XY maximum,G161 Z F1200 ; home Z minimum,G92 Z-5 ; set Z to -5,G1 Z0 ; move Z to 0,G161 Z F100 ; home Z slowly,M132 X Y Z A B ; recall home offsets,G1 X-145 Y-75 Z30 F9000 ; move to wait position off table,G130 X20 Y20 Z20 A20 B20 ; lower stepper Vrefs while heating,M126 S[fan_speed_pwm],M140 S[bed0_temperature] T0,M134 T0 ; stabilize bed temperature,M104 S[extruder0_temperature] T0,M133 T0 ; stabilize extruder temperature,G130 X127 Y127 Z40 A127 B127 ; default stepper Vrefs,G92 A0 ; zero extruder,G1 Z0.4 ; position nozzle,G1 E25 F300 ; purge nozzle,G1 X-140 Y-70 Z0.15 F1200 ; slow wipe,G1 X-135 Y-65 Z0.5 F1200 ; lift,G92 A0 ; zero extruder,M73 P1 ;@body (notify GPX body has started),; **** end of start.gcode ****
;   layerChangeGcode,
;   retractionGcode,
;   toolChangeGcode,
;   endingGcode,; **** Replicator 2 end.gcode ****,M73 P100 ; end build progress,G1 Z155 F1000 ; send Z axis to bottom of machine,M104 S0 T0 ; cool down extruder,M140 S0 T0 ; cool down HBP,M127 ; stop blower fan,G162 X Y F3000 ; home XY maximum,M18 ; disable stepper,M0 ; stop codes,M72 P1 ; play Ta-Da song,; **** end of end.gcode ****
;   exportFileFormat,gcode
;   celebration,0
;   celebrationSong,Random Song
;   postProcessing,
;   defaultSpeed,4800
;   outlineUnderspeed,0.5
;   solidInfillUnderspeed,1
;   supportUnderspeed,1
;   rapidXYspeed,9000
;   rapidZspeed,1200
;   minBridgingArea,50
;   bridgingExtraInflation,0
;   bridgingExtrusionMultiplier,1
;   bridgingSpeedMultiplier,0.8
;   useFixedBridgingAngle,0
;   fixedBridgingAngle,0
;   applyBridgingToPerimeters,0
;   filamentDiameters,1.75|1.75|1.75|1.75|1.75|1.75
;   filamentPricesPerKg,46|46|46|46|46|46
;   filamentDensities,1.25|1.25|1.25|1.25|1.25|1.25
;   useMinPrintHeight,0
;   minPrintHeight,0
;   useMaxPrintHeight,0
;   maxPrintHeight,4.84
;   useDiaphragm,0
;   diaphragmLayerInterval,20
;   robustSlicing,1
;   mergeAllIntoSolid,0
;   onlyRetractWhenCrossingOutline,0
;   retractBetweenLayers,0
;   useRetractionMinTravel,1
;   retractionMinTravel,7
;   retractWhileWiping,1
;   onlyWipeOutlines,1
;   avoidCrossingOutline,0
;   maxMovementDetourFactor,3
;   toolChangeRetractionDistance,12
;   toolChangeExtraRestartDistance,-0.5
;   toolChangeRetractionSpeed,600
;   externalThinWallType,0
;   internalThinWallType,0
;   thinWallAllowedOverlapPercentage,10
;   singleExtrusionMinLength,1
;   singleExtrusionMinPrintingWidthPercentage,50
;   singleExtrusionMaxPrintingWidthPercentage,200
;   singleExtrusionEndpointExtension,0.2
;   horizontalSizeCompensation,0
G90
M83
; **** Replicator 2 start.gcode ****
M73 P0 ; enable build progress
G162 X Y F3000 ; home XY maximum
G161 Z F1200 ; home Z minimum
G92 Z-5 ; set Z to -5
G1 Z0 ; move Z to 0
G161 Z F100 ; home Z slowly
M132 X Y Z A B ; recall home offsets
G1 X-145 Y-75 Z30 F9000 ; move to wait position off table
G130 X20 Y20 Z20 A20 B20 ; lower stepper Vrefs while heating
M126 S10
M140 S60 T0
M134 T0 ; stabilize bed temperature
M104 S230 T0
M133 T0 ; stabilize extruder temperature
G130 X127 Y127 Z40 A127 B127 ; default stepper Vrefs
G92 A0 ; zero extruder
G1 Z0.4 ; position nozzle
G1 E25 F300 ; purge nozzle
G1 X-140 Y-70 Z0.15 F1200 ; slow wipe
G1 X-135 Y-65 Z0.5 F1200 ; lift
G92 A0 ; zero extruder
M73 P1 ;@body (notify GPX body has started)
; **** end of start.gcode ****
; process Process1
; layer 1, Z = 0.200
M135 T0
G1 E-1.9000 F1200
; feature inner perimeter
; tool H0.200 W0.460
G1 Z0.500 F1200
G1 X5.190 Y14.206 F9000
G1 Z0.200 F1200
G1 E1.9000 F1200
G1 X5.189 Y-17.458 E1.2111 F1800
G1 X0.690 Y-17.458 E0.1721
G1 X0.690 Y-18.107 E0.0248
G1 X6.690 Y-18.111 E0.2295
G1 X6.690 Y-20.979 E0.1097
G1 X7.486 Y-20.947 E0.0305
G1 X9.329 Y-20.744 E0.0709
G1 X11.498 Y-20.287 E0.0848
G1 X12.552 Y-19.978 E0.0420
G1 X14.116 Y-19.405 E0.0637
G1 X16.015 Y-18.512 E0.0803
G1 X17.299 Y-17.770 E0.0567
G1 X18.924 Y-16.658 E0.0753
G1 X20.201 Y-15.611 E0.0632
G1 X21.786 Y-14.050 E0.0851
G1 X22.508 Y-13.217 E0.0422
G1 X23.185 Y-12.349 E0.0421
G1 X24.487 Y-10.358 E0.0910
G1 X25.211 Y-9.018 E0.0583
G1 X26.081 Y-6.980 E0.0847
G1 X26.431 Y-5.942 E0.0419
G1 X26.860 Y-4.333 E0.0637
G1 X27.238 Y-2.133 E0.0854
G1 X27.364 Y-0.460 E0.0642
G1 X27.373 Y1.168 E0.0623
G1 X27.247 Y2.826 E0.0636
G1 X26.875 Y5.032 E0.0856
G1 X26.611 Y6.092 E0.0418
G1 X25.910 Y8.193 E0.0847
G1 X25.486 Y9.200 E0.0418
G1 X24.730 Y10.706 E0.0645
G1 X23.803 Y12.219 E0.0678
G1 X23.045 Y13.223 E0.0481
G1 X22.600 Y13.606 E0.0225
G1 X22.273 Y13.807 E0.0147
G1 X21.730 Y14.035 E0.0225
G1 X21.221 Y14.161 E0.0201
G1 X20.672 Y14.206 E0.0211
G1 X5.190 Y14.206 E0.5922
; feature outer perimeter
G1 X4.730 Y14.666 F9000
G1 X4.729 Y-16.998 E1.2111 F1200
G1 X0.230 Y-16.998 E0.1721
G1 X0.230 Y-18.567 E0.0600
G1 X6.230 Y-18.571 E0.2295
G1 X6.230 Y-21.457 E0.1104
G1 X7.520 Y-21.406 E0.0494
G1 X9.402 Y-21.199 E0.0724
G1 X11.610 Y-20.733 E0.0863
G1 X12.696 Y-20.415 E0.0433
G1 X14.293 Y-19.830 E0.0651
G1 X16.229 Y-18.920 E0.0818
G1 X17.545 Y-18.160 E0.0581
G1 X19.200 Y-17.027 E0.0767
G1 X20.509 Y-15.954 E0.0647
G1 X22.121 Y-14.365 E0.0866
G1 X22.863 Y-13.510 E0.0433
G1 X23.560 Y-12.617 E0.0433
G1 X24.882 Y-10.594 E0.0924
G1 X25.626 Y-9.218 E0.0598
G1 X26.511 Y-7.144 E0.0862
G1 X26.872 Y-6.075 E0.0432
G1 X27.310 Y-4.432 E0.0650
G1 X27.696 Y-2.190 E0.0870
G1 X27.824 Y-0.479 E0.0656
G1 X27.834 Y1.184 E0.0636
G1 X27.704 Y2.882 E0.0651
G1 X27.326 Y5.126 E0.0871
G1 X27.053 Y6.221 E0.0431
G1 X26.341 Y8.356 E0.0861
G1 X25.904 Y9.392 E0.0430
G1 X25.132 Y10.930 E0.0658
G1 X24.184 Y12.478 E0.0694
G1 X23.382 Y13.539 E0.0509
G1 X22.872 Y13.979 E0.0257
G1 X22.484 Y14.218 E0.0174
G1 X21.875 Y14.473 E0.0253
G1 X21.295 Y14.617 E0.0229
G1 X20.690 Y14.666 E0.0232
G1 X4.730 Y14.666 E0.6105
G1 E-1.9000 F1200
; feature inner perimeter
G1 Z0.700 F1200
G1 X16.366 Y6.770 F9000
G1 Z0.200 F1200
G1 E1.9000 F1200
G1 X16.702 Y7.198 E0.0208 F1800
G1 X17.012 Y7.518 E0.0171
G1 X17.453 Y7.888 E0.0220
G1 X17.677 Y8.037 E0.0103
G1 X18.089 Y8.254 E0.0178
G1 X18.598 Y8.425 E0.0205
G1 X19.024 Y8.490 E0.0165
G1 X19.263 Y8.500 E0.0092
G1 X19.618 Y8.470 E0.0136
G1 X20.225 Y8.328 E0.0239
G1 X20.686 Y8.116 E0.0194
G1 X21.089 Y7.858 E0.0183
G1 X21.804 Y7.180 E0.0377
G1 X22.115 Y6.792 E0.0190
G1 X22.522 Y6.149 E0.0291
G1 X23.077 Y4.913 E0.0518
G1 X23.366 Y3.934 E0.0390
G1 X23.550 Y3.071 E0.0338
G1 X23.617 Y2.572 E0.0193
G1 X23.725 Y1.279 E0.0496
G1 X23.674 Y0.039 E0.0475
G1 X23.652 Y-0.482 E0.0199
G1 X23.424 Y-1.822 E0.0520
G1 X23.075 Y-3.043 E0.0486
G1 X22.539 Y-4.253 E0.0506
G1 X22.146 Y-4.884 E0.0284
G1 X21.681 Y-5.450 E0.0280
G1 X21.285 Y-5.835 E0.0211
G1 X20.530 Y-6.333 E0.0346
G1 X20.000 Y-6.533 E0.0217
G1 X19.344 Y-6.633 E0.0254
G1 X18.865 Y-6.607 E0.0183
G1 X18.415 Y-6.507 E0.0176
G1 X17.888 Y-6.290 E0.0218
G1 X17.368 Y-5.959 E0.0236
G1 X16.936 Y-5.580 E0.0220
G1 X16.552 Y-5.148 E0.0221
G1 X16.315 Y-4.828 E0.0152
G1 X15.963 Y-4.257 E0.0257
G1 X15.638 Y-3.592 E0.0283
G1 X15.292 Y-2.656 E0.0382
G1 X15.071 Y-1.829 E0.0327
G1 X14.912 Y-0.986 E0.0328
G1 X14.794 Y0.133 E0.0430
G1 X14.770 Y1.038 E0.0347
G1 X14.806 Y1.915 E0.0336
G1 X14.904 Y2.801 E0.0341
G1 X14.960 Y3.149 E0.0135
G1 X15.116 Y3.892 E0.0290
G1 X15.327 Y4.636 E0.0296
G1 X15.571 Y5.302 E0.0271
G1 X15.758 Y5.725 E0.0177
G1 X16.049 Y6.277 E0.0239
G1 X16.366 Y6.770 E0.0224
; feature outer perimeter
G1 X16.741 Y6.503 F9000
G1 X17.049 Y6.895 E0.0191 F1200
G1 X17.327 Y7.181 E0.0153
G1 X17.729 Y7.520 E0.0201
G1 X17.912 Y7.641 E0.0084
G1 X18.271 Y7.830 E0.0155
G1 X18.707 Y7.976 E0.0176
G1 X19.068 Y8.032 E0.0140
G1 X19.253 Y8.039 E0.0071
G1 X19.546 Y8.015 E0.0112
G1 X20.075 Y7.890 E0.0208
G1 X20.465 Y7.711 E0.0164
G1 X20.805 Y7.494 E0.0154
G1 X21.465 Y6.868 E0.0348
G1 X21.740 Y6.524 E0.0168
G1 X22.116 Y5.931 E0.0269
G1 X22.644 Y4.753 E0.0494
G1 X22.920 Y3.821 E0.0372
G1 X23.097 Y2.992 E0.0324
G1 X23.160 Y2.522 E0.0181
G1 X23.264 Y1.269 E0.0481
G1 X23.214 Y0.058 E0.0464
G1 X23.194 Y-0.433 E0.0188
G1 X22.975 Y-1.720 E0.0499
G1 X22.641 Y-2.886 E0.0464
G1 X22.131 Y-4.038 E0.0482
G1 X21.772 Y-4.616 E0.0260
G1 X21.342 Y-5.138 E0.0259
G1 X20.996 Y-5.475 E0.0185
G1 X20.320 Y-5.921 E0.0310
G1 X19.883 Y-6.085 E0.0179
G1 X19.321 Y-6.171 E0.0217
G1 X18.928 Y-6.150 E0.0151
G1 X18.553 Y-6.067 E0.0147
G1 X18.100 Y-5.881 E0.0187
G1 X17.645 Y-5.590 E0.0207
G1 X17.261 Y-5.253 E0.0195
G1 X16.910 Y-4.858 E0.0202
G1 X16.697 Y-4.570 E0.0137
G1 X16.366 Y-4.034 E0.0241
G1 X16.061 Y-3.410 E0.0266
G1 X15.731 Y-2.516 E0.0365
G1 X15.519 Y-1.727 E0.0313
G1 X15.368 Y-0.919 E0.0314
G1 X15.254 Y0.163 E0.0416
G1 X15.230 Y1.035 E0.0334
G1 X15.265 Y1.880 E0.0324
G1 X15.360 Y2.739 E0.0330
G1 X15.413 Y3.065 E0.0127
G1 X15.563 Y3.782 E0.0280
G1 X15.765 Y4.494 E0.0283
G1 X15.998 Y5.130 E0.0259
G1 X16.173 Y5.525 E0.0165
G1 X16.447 Y6.045 E0.0225
G1 X16.741 Y6.503 E0.0208
; feature solid layer
G1 X18.412 Y8.726 F9000
G1 X22.727 Y13.041 E0.2334 F2400
G1 X22.791 Y12.985 E0.0032
G1 X23.020 Y12.683 E0.0145
G1 X19.178 Y8.842 E0.2078
G1 X19.271 Y8.845 E0.0035
G1 X19.672 Y8.812 E0.0154
G1 X19.775 Y8.788 E0.0041
G1 X23.300 Y12.313 E0.1907
G1 X23.518 Y12.024 E0.0138
G1 X23.573 Y11.935 E0.0040
G1 X20.302 Y8.664 E0.1769
G1 X20.338 Y8.656 E0.0014
G1 X20.753 Y8.465 E0.0175
G1 X23.820 Y11.531 E0.1659
G1 X24.067 Y11.128 E0.0181
G1 X21.161 Y8.222 E0.1572
G1 X21.303 Y8.131 E0.0065
G1 X21.517 Y7.928 E0.0113
G1 X24.314 Y10.725 E0.1513
G1 X24.428 Y10.539 E0.0083
G1 X24.545 Y10.305 E0.0100
G1 X21.851 Y7.611 E0.1457
G1 X22.059 Y7.414 E0.0109
G1 X22.168 Y7.278 E0.0067
G1 X24.762 Y9.872 E0.1403
G1 X24.980 Y9.439 E0.0185
G1 X22.450 Y6.909 E0.1369
G1 X22.702 Y6.510 E0.0180
G1 X25.194 Y9.003 E0.1348
G1 X25.387 Y8.545 E0.0190
G1 X22.928 Y6.086 E0.1330
G1 X23.130 Y5.637 E0.0188
G1 X25.581 Y8.088 E0.1326
G1 X25.587 Y8.072 E0.0007
G1 X25.744 Y7.601 E0.0190
G1 X23.331 Y5.188 E0.1305
G1 X23.401 Y5.033 E0.0065
G1 X23.498 Y4.704 E0.0131
G1 X25.907 Y7.113 E0.1303
G1 X26.069 Y6.625 E0.0197
G1 X23.646 Y4.202 E0.1311
G1 X23.700 Y4.019 E0.0073
G1 X23.773 Y3.678 E0.0133
G1 X26.232 Y6.137 E0.1330
G1 X26.279 Y5.996 E0.0057
G1 X26.371 Y5.626 E0.0146
G1 X23.888 Y3.142 E0.1343
G1 X23.891 Y3.130 E0.0005
G1 X23.960 Y2.609 E0.0201
G1 X23.964 Y2.568 E0.0016
G1 X26.501 Y5.105 E0.1372
G1 X26.537 Y4.962 E0.0057
G1 X26.605 Y4.558 E0.0156
G1 X24.014 Y1.967 E0.1402
G1 X24.064 Y1.367 E0.0231
G1 X26.699 Y4.002 E0.1425
G1 X26.793 Y3.445 E0.0216
G1 X24.046 Y0.699 E0.1486
G1 X24.019 Y0.025 E0.0258
G1 X26.886 Y2.888 E0.1553
G1 X26.904 Y2.784 E0.0040
G1 X26.942 Y2.293 E0.0188
G1 X23.969 Y-0.680 E0.1608
G1 X23.835 Y-1.464 E0.0304
G1 X26.988 Y1.688 E0.1705
G1 X27.028 Y1.156 E0.0204
G1 X27.028 Y1.078 E0.0030
G1 X23.645 Y-2.305 E0.1830
G1 X23.400 Y-3.161 E0.0340
G1 X23.369 Y-3.232 E0.0030
G1 X27.024 Y0.424 E0.1977
G1 X27.020 Y-0.230 E0.0250
G1 X22.852 Y-4.399 E0.2255
G1 E-1.9000 F1200
G1 Z0.700 F1200
G1 X18.585 Y-16.473 F9000
G1 Z0.200 F1200
G1 E1.9000 F1200
G1 X22.887 Y-12.170 E0.2327 F2400
G1 X22.904 Y-12.148 E0.0011
G1 X24.124 Y-10.283 E0.0852
G1 X16.673 Y-17.734 E0.4030
G1 X15.855 Y-18.206 E0.0361
G1 X15.279 Y-18.477 E0.0244
G1 X24.909 Y-8.847 E0.5209
G1 X25.394 Y-7.712 E0.0472
G1 X14.051 Y-19.055 E0.6136
G1 X13.983 Y-19.087 E0.0029
G1 X13.014 Y-19.442 E0.0395
G1 X25.840 Y-6.615 E0.6938
G1 X26.101 Y-5.842 E0.0312
G1 X26.151 Y-5.653 E0.0075
G1 X12.034 Y-19.770 E0.7636
G1 X11.414 Y-19.952 E0.0247
G1 X11.145 Y-20.009 E0.0105
G1 X26.388 Y-4.766 E0.8245
G1 X26.523 Y-4.259 E0.0201
G1 X26.581 Y-3.923 E0.0131
G1 X10.321 Y-20.183 E0.8795
G1 X9.497 Y-20.356 E0.0322
G1 X26.716 Y-3.137 E0.9314
G1 X26.851 Y-2.352 E0.0305
G1 X8.740 Y-20.462 E0.9796
G1 X8.009 Y-20.543 E0.0281
G1 X26.931 Y-1.621 E1.0235
G1 X26.984 Y-0.918 E0.0270
G1 X7.292 Y-20.610 E1.0652
G1 X7.035 Y-20.620 E0.0098
G1 X7.035 Y-20.216 E0.0155
G1 X20.560 Y-6.691 E0.7316
G1 X20.088 Y-6.868 E0.0193
G1 X19.668 Y-6.933 E0.0163
G1 X7.035 Y-19.565 E0.6833
G1 X7.035 Y-18.915 E0.0249
G1 X18.990 Y-6.959 E0.6467
G1 X18.818 Y-6.950 E0.0066
G1 X18.434 Y-6.865 E0.0150
G1 X7.035 Y-18.264 E0.6166
G1 X7.035 Y-17.766 E0.0190
G1 X6.882 Y-17.766 E0.0058
G1 X17.957 Y-6.692 E0.5990
G1 X17.728 Y-6.598 E0.0095
G1 X17.528 Y-6.470 E0.0091
