; G-Code generated by Simplify3D(R) Version 4.1.2
; Apr 2, 2020 at 4:49:36 PM
; Settings Summary
;   processName,Process1
;   applyToModels,FlatStandoff_10_V1R2,FlatStandoff_10_V1R2(2),FlatStandoff_10_V1R2(3),FlatStandoff_10_V1R2(4),FlatStandoff_10_V1R2(5),FlatStandoff_10_V1R2(2)(2)
;   profileName,MakerBot Replicator 2 HBP (modified)
;   profileVersion,2020-03-12 10:48:50
;   baseProfile,MakerBot Replicator 2(2)
;   printMaterial,PLA
;   printQuality,Medium
;   printExtruders,
;   extruderName,Primary Extruder
;   extruderToolheadNumber,0
;   extruderDiameter,0.4
;   extruderAutoWidth,0
;   extruderWidth,0.4
;   extrusionMultiplier,1
;   extruderUseRetract,1
;   extruderRetractionDistance,1.9
;   extruderExtraRestartDistance,0
;   extruderRetractionZLift,0.5
;   extruderRetractionSpeed,1200
;   extruderUseCoasting,0
;   extruderCoastingDistance,0.2
;   extruderUseWipe,0
;   extruderWipeDistance,5
;   primaryExtruder,0
;   layerHeight,0.2
;   topSolidLayers,3
;   bottomSolidLayers,3
;   perimeterOutlines,2
;   printPerimetersInsideOut,1
;   startPointOption,3
;   startPointOriginX,0
;   startPointOriginY,150
;   sequentialIslands,0
;   spiralVaseMode,0
;   firstLayerHeightPercentage,100
;   firstLayerWidthPercentage,115
;   firstLayerUnderspeed,0.5
;   useRaft,0
;   raftExtruder,0
;   raftTopLayers,2
;   raftBaseLayers,1
;   raftOffset,1
;   raftSeparationDistance,0.14
;   raftTopInfill,90
;   aboveRaftSpeedMultiplier,0.3
;   useSkirt,0
;   skirtExtruder,0
;   skirtLayers,1
;   skirtOutlines,10
;   skirtOffset,0
;   usePrimePillar,0
;   primePillarExtruder,999
;   primePillarWidth,12
;   primePillarLocation,7
;   primePillarSpeedMultiplier,1
;   useOozeShield,0
;   oozeShieldExtruder,999
;   oozeShieldOffset,2
;   oozeShieldOutlines,1
;   oozeShieldSidewallShape,1
;   oozeShieldSidewallAngle,30
;   oozeShieldSpeedMultiplier,1
;   infillExtruder,0
;   internalInfillPattern,Rectilinear
;   externalInfillPattern,Rectilinear
;   infillPercentage,15
;   outlineOverlapPercentage,25
;   infillExtrusionWidthPercentage,100
;   minInfillLength,5
;   infillLayerInterval,1
;   internalInfillAngles,45,-45
;   overlapInternalInfillAngles,0
;   externalInfillAngles,45,-45
;   generateSupport,1
;   supportExtruder,0
;   supportInfillPercentage,30
;   supportExtraInflation,0.5
;   supportBaseLayers,0
;   denseSupportExtruder,0
;   denseSupportLayers,2
;   denseSupportInfillPercentage,90
;   supportLayerInterval,1
;   supportHorizontalPartOffset,0.3
;   supportUpperSeparationLayers,1
;   supportLowerSeparationLayers,1
;   supportType,1
;   supportGridSpacing,2
;   maxOverhangAngle,45
;   supportAngles,45,-45
;   temperatureName,Primary Extruder,Heated Build Platform
;   temperatureNumber,0,0
;   temperatureSetpointCount,1,1
;   temperatureSetpointLayers,1,1
;   temperatureSetpointTemperatures,230,60
;   temperatureStabilizeAtStartup,1,1
;   temperatureHeatedBed,0,1
;   fanLayers,1,2
;   fanSpeeds,0,100
;   blipFanToFullPower,1
;   adjustSpeedForCooling,1
;   minSpeedLayerTime,15
;   minCoolingSpeedSlowdown,20
;   increaseFanForCooling,1
;   minFanLayerTime,45
;   maxCoolingFanSpeed,100
;   increaseFanForBridging,1
;   bridgingFanSpeed,100
;   use5D,1
;   relativeEdistances,1
;   allowEaxisZeroing,0
;   independentExtruderAxes,1
;   includeM10123,0
;   stickySupport,1
;   applyToolheadOffsets,0
;   gcodeXoffset,0
;   gcodeYoffset,0
;   gcodeZoffset,0
;   overrideMachineDefinition,1
;   machineTypeOverride,0
;   strokeXoverride,280
;   strokeYoverride,150
;   strokeZoverride,150
;   originOffsetXoverride,140
;   originOffsetYoverride,75
;   originOffsetZoverride,0
;   homeXdirOverride,1
;   homeYdirOverride,1
;   homeZdirOverride,-1
;   flipXoverride,1
;   flipYoverride,-1
;   flipZoverride,1
;   toolheadOffsets,0,0|0,0|0,0|0,0|0,0|0,0
;   overrideFirmwareConfiguration,1
;   firmwareTypeOverride,MakerBot/Sailfish Firmware
;   GPXconfigOverride,r2h
;   baudRateOverride,115200
;   overridePrinterModels,1
;   printerModelsOverride,MakerBot_Replicator2.stl
;   startingGcode,; **** Replicator 2 start.gcode ****,M73 P0 ; enable build progress,G162 X Y F3000 ; home XY maximum,G161 Z F1200 ; home Z minimum,G92 Z-5 ; set Z to -5,G1 Z0 ; move Z to 0,G161 Z F100 ; home Z slowly,M132 X Y Z A B ; recall home offsets,G1 X-145 Y-75 Z30 F9000 ; move to wait position off table,G130 X20 Y20 Z20 A20 B20 ; lower stepper Vrefs while heating,M126 S[fan_speed_pwm],M140 S[bed0_temperature] T0,M134 T0 ; stabilize bed temperature,M104 S[extruder0_temperature] T0,M133 T0 ; stabilize extruder temperature,G130 X127 Y127 Z40 A127 B127 ; default stepper Vrefs,G92 A0 ; zero extruder,G1 Z0.4 ; position nozzle,G1 E25 F300 ; purge nozzle,G1 X-140 Y-70 Z0.15 F1200 ; slow wipe,G1 X-135 Y-65 Z0.5 F1200 ; lift,G92 A0 ; zero extruder,M73 P1 ;@body (notify GPX body has started),; **** end of start.gcode ****
;   layerChangeGcode,
;   retractionGcode,
;   toolChangeGcode,
;   endingGcode,; **** Replicator 2 end.gcode ****,M73 P100 ; end build progress,G1 Z155 F1000 ; send Z axis to bottom of machine,M104 S0 T0 ; cool down extruder,M140 S0 T0 ; cool down HBP,M127 ; stop blower fan,G162 X Y F3000 ; home XY maximum,M18 ; disable stepper,M0 ; stop codes,M72 P1 ; play Ta-Da song,; **** end of end.gcode ****
;   exportFileFormat,gcode
;   celebration,0
;   celebrationSong,Random Song
;   postProcessing,
;   defaultSpeed,4800
;   outlineUnderspeed,0.5
;   solidInfillUnderspeed,1
;   supportUnderspeed,1
;   rapidXYspeed,9000
;   rapidZspeed,1200
;   minBridgingArea,50
;   bridgingExtraInflation,0
;   bridgingExtrusionMultiplier,1
;   bridgingSpeedMultiplier,0.8
;   useFixedBridgingAngle,0
;   fixedBridgingAngle,0
;   applyBridgingToPerimeters,0
;   filamentDiameters,1.75|1.75|1.75|1.75|1.75|1.75
;   filamentPricesPerKg,46|46|46|46|46|46
;   filamentDensities,1.25|1.25|1.25|1.25|1.25|1.25
;   useMinPrintHeight,0
;   minPrintHeight,0
;   useMaxPrintHeight,0
;   maxPrintHeight,4.84
;   useDiaphragm,0
;   diaphragmLayerInterval,20
;   robustSlicing,1
;   mergeAllIntoSolid,0
;   onlyRetractWhenCrossingOutline,0
;   retractBetweenLayers,0
;   useRetractionMinTravel,1
;   retractionMinTravel,7
;   retractWhileWiping,1
;   onlyWipeOutlines,1
;   avoidCrossingOutline,0
;   maxMovementDetourFactor,3
;   toolChangeRetractionDistance,12
;   toolChangeExtraRestartDistance,-0.5
;   toolChangeRetractionSpeed,600
;   externalThinWallType,0
;   internalThinWallType,0
;   thinWallAllowedOverlapPercentage,10
;   singleExtrusionMinLength,1
;   singleExtrusionMinPrintingWidthPercentage,50
;   singleExtrusionMaxPrintingWidthPercentage,200
;   singleExtrusionEndpointExtension,0.2
;   horizontalSizeCompensation,0
G90
M83
; **** Replicator 2 start.gcode ****
M73 P0 ; enable build progress
G162 X Y F3000 ; home XY maximum
G161 Z F1200 ; home Z minimum
G92 Z-5 ; set Z to -5
G1 Z0 ; move Z to 0
G161 Z F100 ; home Z slowly
M132 X Y Z A B ; recall home offsets
G1 X-145 Y-75 Z30 F9000 ; move to wait position off table
G130 X20 Y20 Z20 A20 B20 ; lower stepper Vrefs while heating
M127
M140 S60 T0
M134 T0 ; stabilize bed temperature
M104 S230 T0
M133 T0 ; stabilize extruder temperature
G130 X127 Y127 Z40 A127 B127 ; default stepper Vrefs
G92 A0 ; zero extruder
G1 Z0.4 ; position nozzle
G1 E25 F300 ; purge nozzle
G1 X-140 Y-70 Z0.15 F1200 ; slow wipe
G1 X-135 Y-65 Z0.5 F1200 ; lift
G92 A0 ; zero extruder
M73 P1 ;@body (notify GPX body has started)
; **** end of start.gcode ****
; process Process1
; layer 1, Z = 0.200
M135 T0
G1 E-1.9000 F1200
; feature inner perimeter
; tool H0.200 W0.460
G1 Z0.500 F1200
G1 X-3.190 Y15.007 F9000
G1 Z0.200 F1200
G1 E1.9000 F1200
G1 X-11.751 Y15.007 E0.3274 F1800
G1 X-11.751 Y4.865 E0.3879
G1 X-3.190 Y4.865 E0.3274
G1 X-3.190 Y15.007 E0.3879
; feature outer perimeter
G1 X-2.730 Y15.467 F9000
G1 X-12.211 Y15.467 E0.3626 F1200
G1 X-12.211 Y2.730 E0.4872
G1 X-11.416 Y2.730 E0.0304
G1 X-11.416 Y4.405 E0.0641
G1 X-3.187 Y4.405 E0.3148
G1 X-3.187 Y2.730 E0.0641
G1 X-2.730 Y2.730 E0.0175
G1 X-2.730 Y15.467 E0.4872
G1 E-1.9000 F1200
; feature solid layer
G1 Z0.700 F1200
G1 X-11.360 Y14.662 F9000
G1 Z0.200 F1200
G1 E1.9000 F1200
G1 X-11.406 Y14.616 E0.0025 F2400
G1 X-11.406 Y13.965 E0.0249
G1 X-10.709 Y14.662 E0.0377
G1 X-10.059 Y14.662 E0.0249
G1 X-11.406 Y13.315 E0.0729
G1 X-11.406 Y12.664 E0.0249
G1 X-9.408 Y14.662 E0.1081
G1 X-8.758 Y14.662 E0.0249
G1 X-11.406 Y12.013 E0.1433
G1 X-11.406 Y11.363 E0.0249
G1 X-8.107 Y14.662 E0.1784
G1 X-7.456 Y14.662 E0.0249
G1 X-11.406 Y10.712 E0.2136
G1 X-11.406 Y10.062 E0.0249
G1 X-6.806 Y14.662 E0.2488
G1 X-6.155 Y14.662 E0.0249
G1 X-11.406 Y9.411 E0.2840
G1 X-11.406 Y8.761 E0.0249
G1 X-5.505 Y14.662 E0.3192
G1 X-4.854 Y14.662 E0.0249
G1 X-11.406 Y8.110 E0.3544
G1 X-11.406 Y7.460 E0.0249
G1 X-4.204 Y14.662 E0.3896
G1 X-3.553 Y14.662 E0.0249
G1 X-11.406 Y6.809 E0.4248
G1 X-11.406 Y6.159 E0.0249
G1 X-3.535 Y14.030 E0.4258
G1 X-3.535 Y13.379 E0.0249
G1 X-11.406 Y5.508 E0.4258
G1 X-11.406 Y5.210 E0.0114
G1 X-11.053 Y5.210 E0.0135
G1 X-3.535 Y12.728 E0.4067
G1 X-3.535 Y12.078 E0.0249
G1 X-10.403 Y5.210 E0.3715
G1 X-9.752 Y5.210 E0.0249
G1 X-3.535 Y11.427 E0.3363
G1 X-3.535 Y10.777 E0.0249
G1 X-9.102 Y5.210 E0.3011
G1 X-8.451 Y5.210 E0.0249
G1 X-3.535 Y10.126 E0.2659
G1 X-3.535 Y9.476 E0.0249
G1 X-7.801 Y5.210 E0.2307
G1 X-7.150 Y5.210 E0.0249
G1 X-3.535 Y8.825 E0.1956
G1 X-3.535 Y8.175 E0.0249
G1 X-6.500 Y5.210 E0.1604
G1 X-5.849 Y5.210 E0.0249
G1 X-3.535 Y7.524 E0.1252
G1 X-3.535 Y6.874 E0.0249
G1 X-5.199 Y5.210 E0.0900
G1 X-4.548 Y5.210 E0.0249
G1 X-3.535 Y6.223 E0.0548
G1 X-3.535 Y5.573 E0.0249
G1 X-3.897 Y5.210 E0.0196
G1 E-1.9000 F1200
; feature inner perimeter
G1 Z0.700 F1200
G1 X-3.190 Y-3.190 F9000
G1 Z0.200 F1200
G1 E1.9000 F1200
G1 X-11.751 Y-3.190 E0.3274 F1800
G1 X-11.751 Y-13.332 E0.3879
G1 X-3.190 Y-13.332 E0.3274
G1 X-3.190 Y-3.190 E0.3879
; feature outer perimeter
G1 X-2.730 Y-2.730 F9000
G1 X-12.211 Y-2.730 E0.3626 F1200
G1 X-12.211 Y-15.467 E0.4872
G1 X-11.416 Y-15.467 E0.0304
G1 X-11.416 Y-13.792 E0.0641
G1 X-3.187 Y-13.792 E0.3148
G1 X-3.187 Y-15.467 E0.0641
G1 X-2.730 Y-15.467 E0.0175
G1 X-2.730 Y-2.730 E0.4872
G1 E-1.9000 F1200
; feature solid layer
G1 Z0.700 F1200
G1 X-11.341 Y-3.535 F9000
G1 Z0.200 F1200
G1 E1.9000 F1200
G1 X-11.406 Y-3.599 E0.0035 F2400
G1 X-11.406 Y-4.250 E0.0249
G1 X-10.691 Y-3.535 E0.0387
G1 X-10.040 Y-3.535 E0.0249
G1 X-11.406 Y-4.901 E0.0739
G1 X-11.406 Y-5.551 E0.0249
G1 X-9.390 Y-3.535 E0.1091
G1 X-8.739 Y-3.535 E0.0249
G1 X-11.406 Y-6.202 E0.1442
G1 X-11.406 Y-6.852 E0.0249
G1 X-8.089 Y-3.535 E0.1794
G1 X-7.438 Y-3.535 E0.0249
G1 X-11.406 Y-7.503 E0.2146
G1 X-11.406 Y-8.153 E0.0249
G1 X-6.788 Y-3.535 E0.2498
G1 X-6.137 Y-3.535 E0.0249
G1 X-11.406 Y-8.804 E0.2850
G1 X-11.406 Y-9.454 E0.0249
G1 X-5.487 Y-3.535 E0.3202
G1 X-4.836 Y-3.535 E0.0249
G1 X-11.406 Y-10.105 E0.3554
G1 X-11.406 Y-10.755 E0.0249
G1 X-4.186 Y-3.535 E0.3906
G1 X-3.535 Y-3.535 E0.0249
G1 X-11.406 Y-11.406 E0.4258
G1 X-11.406 Y-12.056 E0.0249
G1 X-3.535 Y-4.186 E0.4258
G1 X-3.535 Y-4.836 E0.0249
G1 X-11.406 Y-12.707 E0.4258
G1 X-11.406 Y-12.987 E0.0107
G1 X-11.035 Y-12.987 E0.0142
G1 X-3.535 Y-5.487 E0.4057
G1 X-3.535 Y-6.137 E0.0249
G1 X-10.385 Y-12.987 E0.3705
G1 X-9.734 Y-12.987 E0.0249
G1 X-3.535 Y-6.788 E0.3353
G1 X-3.535 Y-7.438 E0.0249
G1 X-9.083 Y-12.987 E0.3001
G1 X-8.433 Y-12.987 E0.0249
G1 X-3.535 Y-8.089 E0.2649
G1 X-3.535 Y-8.739 E0.0249
G1 X-7.782 Y-12.987 E0.2298
G1 X-7.132 Y-12.987 E0.0249
G1 X-3.535 Y-9.390 E0.1946
G1 X-3.535 Y-10.040 E0.0249
G1 X-6.481 Y-12.987 E0.1594
G1 X-5.831 Y-12.987 E0.0249
G1 X-3.535 Y-10.691 E0.1242
G1 X-3.535 Y-11.341 E0.0249
G1 X-5.180 Y-12.987 E0.0890
G1 X-4.530 Y-12.987 E0.0249
G1 X-3.535 Y-11.992 E0.0538
G1 X-3.535 Y-12.643 E0.0249
G1 X-3.879 Y-12.987 E0.0186
G1 E-1.9000 F1200
; feature inner perimeter
G1 Z0.700 F1200
G1 X3.190 Y-3.190 F9000
G1 Z0.200 F1200
G1 E1.9000 F1200
G1 X3.190 Y-13.332 E0.3879 F1800
G1 X11.751 Y-13.332 E0.3274
G1 X11.751 Y-3.190 E0.3879
G1 X3.190 Y-3.190 E0.3274
; feature outer perimeter
G1 X2.730 Y-2.730 F9000
G1 X2.730 Y-15.467 E0.4872 F1200
G1 X3.524 Y-15.467 E0.0304
G1 X3.524 Y-13.792 E0.0641
G1 X11.754 Y-13.792 E0.3148
G1 X11.754 Y-15.467 E0.0641
G1 X12.211 Y-15.467 E0.0175
G1 X12.211 Y-2.730 E0.4872
G1 X2.730 Y-2.730 E0.3626
; feature solid layer
G1 X3.621 Y-3.535 F9000
G1 X3.535 Y-3.621 E0.0046 F2400
G1 X3.535 Y-4.271 E0.0249
G1 X4.271 Y-3.535 E0.0398
G1 X4.922 Y-3.535 E0.0249
G1 X3.535 Y-4.922 E0.0750
G1 X3.535 Y-5.573 E0.0249
G1 X5.573 Y-3.535 E0.1102
G1 X6.223 Y-3.535 E0.0249
G1 X3.535 Y-6.223 E0.1454
G1 X3.535 Y-6.874 E0.0249
G1 X6.874 Y-3.535 E0.1806
G1 X7.524 Y-3.535 E0.0249
G1 X3.535 Y-7.524 E0.2158
G1 X3.535 Y-8.175 E0.0249
G1 X8.175 Y-3.535 E0.2510
G1 X8.825 Y-3.535 E0.0249
G1 X3.535 Y-8.825 E0.2862
G1 X3.535 Y-9.476 E0.0249
G1 X9.476 Y-3.535 E0.3214
G1 X10.126 Y-3.535 E0.0249
G1 X3.535 Y-10.126 E0.3565
G1 X3.535 Y-10.777 E0.0249
G1 X10.777 Y-3.535 E0.3917
G1 X11.406 Y-3.535 E0.0241
G1 X11.406 Y-3.557 E0.0008
G1 X3.535 Y-11.427 E0.4258
G1 X3.535 Y-12.078 E0.0249
G1 X11.406 Y-4.207 E0.4258
G1 X11.406 Y-4.858 E0.0249
G1 X3.535 Y-12.728 E0.4258
G1 X3.535 Y-12.987 E0.0099
G1 X3.927 Y-12.987 E0.0150
G1 X11.406 Y-5.508 E0.4045
G1 X11.406 Y-6.159 E0.0249
G1 X4.578 Y-12.987 E0.3693
G1 X5.228 Y-12.987 E0.0249
G1 X11.406 Y-6.809 E0.3342
G1 X11.406 Y-7.460 E0.0249
G1 X5.879 Y-12.987 E0.2990
G1 X6.529 Y-12.987 E0.0249
G1 X11.406 Y-8.110 E0.2638
G1 X11.406 Y-8.761 E0.0249
G1 X7.180 Y-12.987 E0.2286
G1 X7.830 Y-12.987 E0.0249
G1 X11.406 Y-9.411 E0.1934
G1 X11.406 Y-10.062 E0.0249
G1 X8.481 Y-12.987 E0.1582
G1 X9.132 Y-12.987 E0.0249
G1 X11.406 Y-10.712 E0.1230
G1 X11.406 Y-11.363 E0.0249
G1 X9.782 Y-12.987 E0.0878
G1 X10.433 Y-12.987 E0.0249
G1 X11.406 Y-12.014 E0.0526
G1 X11.406 Y-12.664 E0.0249
G1 X11.083 Y-12.987 E0.0175
G1 E-1.9000 F1200
; feature inner perimeter
G1 Z0.700 F1200
G1 X18.131 Y-3.190 F9000
G1 Z0.200 F1200
G1 E1.9000 F1200
G1 X18.131 Y-13.332 E0.3879 F1800
G1 X26.692 Y-13.332 E0.3274
G1 X26.692 Y-3.190 E0.3879
G1 X18.131 Y-3.190 E0.3274
; feature outer perimeter
G1 X17.671 Y-2.730 F9000
G1 X17.671 Y-15.467 E0.4872 F1200
G1 X18.465 Y-15.467 E0.0304
G1 X18.465 Y-13.792 E0.0641
G1 X26.695 Y-13.792 E0.3148
G1 X26.695 Y-15.467 E0.0641
G1 X27.152 Y-15.467 E0.0175
G1 X27.152 Y-2.730 E0.4872
G1 X17.671 Y-2.730 E0.3626
; feature solid layer
G1 X18.583 Y-3.535 F9000
G1 X18.476 Y-3.642 E0.0058 F2400
G1 X18.476 Y-4.293 E0.0249
G1 X19.234 Y-3.535 E0.0410
G1 X19.884 Y-3.535 E0.0249
G1 X18.476 Y-4.944 E0.0762
G1 X18.476 Y-5.594 E0.0249
G1 X20.535 Y-3.535 E0.1114
G1 X21.185 Y-3.535 E0.0249
G1 X18.476 Y-6.245 E0.1466
G1 X18.476 Y-6.895 E0.0249
G1 X21.836 Y-3.535 E0.1818
G1 X22.487 Y-3.535 E0.0249
G1 X18.476 Y-7.546 E0.2169
G1 X18.476 Y-8.196 E0.0249
G1 X23.137 Y-3.535 E0.2521
G1 X23.788 Y-3.535 E0.0249
G1 X18.476 Y-8.847 E0.2873
G1 X18.476 Y-9.497 E0.0249
G1 X24.438 Y-3.535 E0.3225
G1 X25.089 Y-3.535 E0.0249
G1 X18.476 Y-10.148 E0.3577
G1 X18.476 Y-10.798 E0.0249
G1 X25.739 Y-3.535 E0.3929
G1 X26.347 Y-3.535 E0.0232
G1 X26.347 Y-3.578 E0.0016
G1 X18.476 Y-11.449 E0.4258
G1 X18.476 Y-12.099 E0.0249
G1 X26.347 Y-4.229 E0.4258
G1 X26.347 Y-4.879 E0.0249
G1 X18.476 Y-12.750 E0.4258
G1 X18.476 Y-12.987 E0.0091
G1 X18.890 Y-12.987 E0.0158
G1 X26.347 Y-5.530 E0.4034
G1 X26.347 Y-6.180 E0.0249
G1 X19.540 Y-12.987 E0.3682
G1 X20.191 Y-12.987 E0.0249
G1 X26.347 Y-6.831 E0.3330
G1 X26.347 Y-7.481 E0.0249
G1 X20.841 Y-12.987 E0.2978
G1 X21.492 Y-12.987 E0.0249
G1 X26.347 Y-8.132 E0.2626
G1 X26.347 Y-8.782 E0.0249
G1 X22.142 Y-12.987 E0.2274
G1 X22.793 Y-12.987 E0.0249
G1 X26.347 Y-9.433 E0.1922
G1 X26.347 Y-10.083 E0.0249
G1 X23.443 Y-12.987 E0.1570
G1 X24.094 Y-12.987 E0.0249
G1 X26.347 Y-10.734 E0.1219
G1 X26.347 Y-11.384 E0.0249
G1 X24.744 Y-12.987 E0.0867
G1 X25.395 Y-12.987 E0.0249
G1 X26.347 Y-12.035 E0.0515
G1 X26.347 Y-12.686 E0.0249
G1 X26.046 Y-12.987 E0.0163
G1 E-1.9000 F1200
; feature inner perimeter
G1 Z0.700 F1200
G1 X-18.131 Y-3.190 F9000
G1 Z0.200 F1200
G1 E1.9000 F1200
G1 X-26.692 Y-3.190 E0.3274 F1800
G1 X-26.692 Y-13.332 E0.3879
