; G-Code generated by Simplify3D(R) Version 4.1.2
; Apr 6, 2020 at 11:54:21 AM
; Settings Summary
;   processName,Process1
;   applyToModels,Barn
;   profileName,MakerBot Replicator 2 HBP (modified)
;   profileVersion,2020-03-12 10:48:50
;   baseProfile,MakerBot Replicator 2(2)
;   printMaterial,PLA
;   printQuality,Medium
;   printExtruders,
;   extruderName,Primary Extruder
;   extruderToolheadNumber,0
;   extruderDiameter,0.4
;   extruderAutoWidth,0
;   extruderWidth,0.4
;   extrusionMultiplier,1
;   extruderUseRetract,1
;   extruderRetractionDistance,1.9
;   extruderExtraRestartDistance,0
;   extruderRetractionZLift,0.5
;   extruderRetractionSpeed,1200
;   extruderUseCoasting,0
;   extruderCoastingDistance,0.2
;   extruderUseWipe,0
;   extruderWipeDistance,5
;   primaryExtruder,0
;   layerHeight,0.2
;   topSolidLayers,3
;   bottomSolidLayers,3
;   perimeterOutlines,3
;   printPerimetersInsideOut,1
;   startPointOption,3
;   startPointOriginX,0
;   startPointOriginY,150
;   sequentialIslands,0
;   spiralVaseMode,0
;   firstLayerHeightPercentage,100
;   firstLayerWidthPercentage,115
;   firstLayerUnderspeed,0.5
;   useRaft,0
;   raftExtruder,0
;   raftTopLayers,2
;   raftBaseLayers,1
;   raftOffset,1
;   raftSeparationDistance,0.14
;   raftTopInfill,90
;   aboveRaftSpeedMultiplier,0.3
;   useSkirt,0
;   skirtExtruder,0
;   skirtLayers,1
;   skirtOutlines,5
;   skirtOffset,0
;   usePrimePillar,0
;   primePillarExtruder,999
;   primePillarWidth,12
;   primePillarLocation,7
;   primePillarSpeedMultiplier,1
;   useOozeShield,0
;   oozeShieldExtruder,999
;   oozeShieldOffset,2
;   oozeShieldOutlines,1
;   oozeShieldSidewallShape,1
;   oozeShieldSidewallAngle,30
;   oozeShieldSpeedMultiplier,1
;   infillExtruder,0
;   internalInfillPattern,Rectilinear
;   externalInfillPattern,Rectilinear
;   infillPercentage,15
;   outlineOverlapPercentage,25
;   infillExtrusionWidthPercentage,100
;   minInfillLength,5
;   infillLayerInterval,1
;   internalInfillAngles,45,-45
;   overlapInternalInfillAngles,0
;   externalInfillAngles,45,-45
;   generateSupport,0
;   supportExtruder,0
;   supportInfillPercentage,5
;   supportExtraInflation,0.5
;   supportBaseLayers,0
;   denseSupportExtruder,0
;   denseSupportLayers,2
;   denseSupportInfillPercentage,90
;   supportLayerInterval,1
;   supportHorizontalPartOffset,0.3
;   supportUpperSeparationLayers,1
;   supportLowerSeparationLayers,1
;   supportType,1
;   supportGridSpacing,2
;   maxOverhangAngle,45
;   supportAngles,45,-45
;   temperatureName,Primary Extruder,Heated Build Platform
;   temperatureNumber,0,0
;   temperatureSetpointCount,1,1
;   temperatureSetpointLayers,1,1
;   temperatureSetpointTemperatures,230,60
;   temperatureStabilizeAtStartup,1,1
;   temperatureHeatedBed,0,1
;   fanLayers,1,2
;   fanSpeeds,0,100
;   blipFanToFullPower,1
;   adjustSpeedForCooling,1
;   minSpeedLayerTime,15
;   minCoolingSpeedSlowdown,20
;   increaseFanForCooling,1
;   minFanLayerTime,45
;   maxCoolingFanSpeed,100
;   increaseFanForBridging,1
;   bridgingFanSpeed,100
;   use5D,1
;   relativeEdistances,1
;   allowEaxisZeroing,0
;   independentExtruderAxes,1
;   includeM10123,0
;   stickySupport,1
;   applyToolheadOffsets,0
;   gcodeXoffset,0
;   gcodeYoffset,0
;   gcodeZoffset,0
;   overrideMachineDefinition,1
;   machineTypeOverride,0
;   strokeXoverride,280
;   strokeYoverride,150
;   strokeZoverride,150
;   originOffsetXoverride,140
;   originOffsetYoverride,75
;   originOffsetZoverride,0
;   homeXdirOverride,1
;   homeYdirOverride,1
;   homeZdirOverride,-1
;   flipXoverride,1
;   flipYoverride,-1
;   flipZoverride,1
;   toolheadOffsets,0,0|0,0|0,0|0,0|0,0|0,0
;   overrideFirmwareConfiguration,1
;   firmwareTypeOverride,MakerBot/Sailfish Firmware
;   GPXconfigOverride,r2h
;   baudRateOverride,115200
;   overridePrinterModels,1
;   printerModelsOverride,MakerBot_Replicator2.stl
;   startingGcode,; **** Replicator 2 start.gcode ****,M73 P0 ; enable build progress,G162 X Y F3000 ; home XY maximum,G161 Z F1200 ; home Z minimum,G92 Z-5 ; set Z to -5,G1 Z0 ; move Z to 0,G161 Z F100 ; home Z slowly,M132 X Y Z A B ; recall home offsets,G1 X-145 Y-75 Z30 F9000 ; move to wait position off table,G130 X20 Y20 Z20 A20 B20 ; lower stepper Vrefs while heating,M126 S[fan_speed_pwm],M140 S[bed0_temperature] T0,M134 T0 ; stabilize bed temperature,M104 S[extruder0_temperature] T0,M133 T0 ; stabilize extruder temperature,G130 X127 Y127 Z40 A127 B127 ; default stepper Vrefs,G92 A0 ; zero extruder,G1 Z0.4 ; position nozzle,G1 E25 F300 ; purge nozzle,G1 X-140 Y-70 Z0.15 F1200 ; slow wipe,G1 X-135 Y-65 Z0.5 F1200 ; lift,G92 A0 ; zero extruder,M73 P1 ;@body (notify GPX body has started),; **** end of start.gcode ****
;   layerChangeGcode,
;   retractionGcode,
;   toolChangeGcode,
;   endingGcode,; **** Replicator 2 end.gcode ****,M73 P100 ; end build progress,G1 Z155 F1000 ; send Z axis to bottom of machine,M104 S0 T0 ; cool down extruder,M140 S0 T0 ; cool down HBP,M127 ; stop blower fan,G162 X Y F3000 ; home XY maximum,M18 ; disable stepper,M0 ; stop codes,M72 P1 ; play Ta-Da song,; **** end of end.gcode ****
;   exportFileFormat,gcode
;   celebration,0
;   celebrationSong,Random Song
;   postProcessing,
;   defaultSpeed,4800
;   outlineUnderspeed,0.5
;   solidInfillUnderspeed,1
;   supportUnderspeed,1
;   rapidXYspeed,9000
;   rapidZspeed,1200
;   minBridgingArea,50
;   bridgingExtraInflation,0
;   bridgingExtrusionMultiplier,1
;   bridgingSpeedMultiplier,0.8
;   useFixedBridgingAngle,0
;   fixedBridgingAngle,0
;   applyBridgingToPerimeters,0
;   filamentDiameters,1.75|1.75|1.75|1.75|1.75|1.75
;   filamentPricesPerKg,46|46|46|46|46|46
;   filamentDensities,1.25|1.25|1.25|1.25|1.25|1.25
;   useMinPrintHeight,0
;   minPrintHeight,0
;   useMaxPrintHeight,0
;   maxPrintHeight,4.84
;   useDiaphragm,0
;   diaphragmLayerInterval,20
;   robustSlicing,1
;   mergeAllIntoSolid,0
;   onlyRetractWhenCrossingOutline,0
;   retractBetweenLayers,0
;   useRetractionMinTravel,1
;   retractionMinTravel,7
;   retractWhileWiping,1
;   onlyWipeOutlines,1
;   avoidCrossingOutline,0
;   maxMovementDetourFactor,3
;   toolChangeRetractionDistance,12
;   toolChangeExtraRestartDistance,-0.5
;   toolChangeRetractionSpeed,600
;   externalThinWallType,0
;   internalThinWallType,0
;   thinWallAllowedOverlapPercentage,10
;   singleExtrusionMinLength,1
;   singleExtrusionMinPrintingWidthPercentage,50
;   singleExtrusionMaxPrintingWidthPercentage,200
;   singleExtrusionEndpointExtension,0.2
;   horizontalSizeCompensation,0
G90
M83
; **** Replicator 2 start.gcode ****
M73 P0 ; enable build progress
G162 X Y F3000 ; home XY maximum
G161 Z F1200 ; home Z minimum
G92 Z-5 ; set Z to -5
G1 Z0 ; move Z to 0
G161 Z F100 ; home Z slowly
M132 X Y Z A B ; recall home offsets
G1 X-145 Y-75 Z30 F9000 ; move to wait position off table
G130 X20 Y20 Z20 A20 B20 ; lower stepper Vrefs while heating
M127
M140 S60 T0
M134 T0 ; stabilize bed temperature
M104 S230 T0
M133 T0 ; stabilize extruder temperature
G130 X127 Y127 Z40 A127 B127 ; default stepper Vrefs
G92 A0 ; zero extruder
G1 Z0.4 ; position nozzle
G1 E25 F300 ; purge nozzle
G1 X-140 Y-70 Z0.15 F1200 ; slow wipe
G1 X-135 Y-65 Z0.5 F1200 ; lift
G92 A0 ; zero extruder
M73 P1 ;@body (notify GPX body has started)
; **** end of start.gcode ****
; process Process1
; layer 1, Z = 0.200
M135 T0
G1 E-1.9000 F1200
; feature inner perimeter
; tool H0.200 W0.460
G1 Z0.500 F1200
G1 X7.249 Y35.633 F9000
G1 Z0.200 F1200
G1 E1.9000 F1200
G1 X26.091 Y35.633 E0.7207 F1800
G1 X26.091 Y-35.634 E2.7259
G1 X9.024 Y-35.634 E0.6528
G1 X9.024 Y-36.357 E0.0277
G1 X26.364 Y-36.357 E0.6633
G1 X26.364 Y36.357 E2.7812
G1 X-26.364 Y36.357 E2.0168
G1 X-26.364 Y-36.357 E2.7812
G1 X-9.024 Y-36.357 E0.6633
G1 X-9.024 Y-35.634 E0.0277
G1 X-26.091 Y-35.634 E0.6528
G1 X-26.091 Y35.633 E2.7259
G1 X-7.447 Y35.633 E0.7131
G1 X-7.447 Y-25.464 E2.3369
G1 X7.249 Y-25.464 E0.5621
G1 X7.249 Y35.633 E2.3369
G1 X7.709 Y35.173 F9000
G1 X25.631 Y35.173 E0.6855 F1800
G1 X25.631 Y-35.174 E2.6907
G1 X8.564 Y-35.174 E0.6528
G1 X8.564 Y-36.817 E0.0629
G1 X26.824 Y-36.817 E0.6985
G1 X26.824 Y36.817 E2.8164
G1 X-26.824 Y36.817 E2.0520
G1 X-26.824 Y-36.817 E2.8164
G1 X-8.564 Y-36.817 E0.6985
G1 X-8.564 Y-35.174 E0.0629
G1 X-25.631 Y-35.174 E0.6528
G1 X-25.631 Y35.173 E2.6907
G1 X-7.907 Y35.173 E0.6780
G1 X-7.907 Y-25.924 E2.3369
G1 X7.709 Y-25.924 E0.5973
G1 X7.709 Y35.173 E2.3369
; feature outer perimeter
G1 X8.169 Y34.713 F9000
G1 X25.171 Y34.713 E0.6503 F1200
G1 X25.171 Y-34.714 E2.6555
G1 X8.104 Y-34.714 E0.6528
G1 X8.104 Y-37.277 E0.0980
G1 X27.284 Y-37.277 E0.7336
G1 X27.284 Y37.277 E2.8516
G1 X-27.284 Y37.277 E2.0872
G1 X-27.284 Y-37.277 E2.8516
G1 X-8.104 Y-37.277 E0.7336
G1 X-8.104 Y-34.714 E0.0980
G1 X-25.171 Y-34.714 E0.6528
G1 X-25.171 Y34.713 E2.6555
G1 X-8.367 Y34.713 E0.6428
G1 X-8.367 Y-26.384 E2.3369
G1 X8.169 Y-26.384 E0.6325
G1 X8.169 Y34.713 E2.3369
G1 E-1.9000 F1200
; feature inner perimeter
G1 Z0.700 F1200
G1 X1.770 Y23.880 F9000
G1 Z0.200 F1200
G1 E1.9000 F1200
G1 X2.475 Y23.301 E0.0349 F1800
G1 X3.054 Y22.595 E0.0349
G1 X3.288 Y22.158 E0.0190
G1 X7.140 Y22.158 E0.1473
G1 X7.140 Y17.918 E0.1622
G1 X3.320 Y17.918 E0.1461
G1 X3.054 Y17.421 E0.0215
G1 X2.475 Y16.716 E0.0349
G1 X1.770 Y16.137 E0.0349
G1 X0.965 Y15.706 E0.0349
G1 X0.091 Y15.442 E0.0349
G1 X-0.817 Y15.352 E0.0349
G1 X-1.726 Y15.442 E0.0349
G1 X-2.599 Y15.706 E0.0349
G1 X-3.404 Y16.137 E0.0349
G1 X-4.110 Y16.716 E0.0349
G1 X-4.689 Y17.421 E0.0349
G1 X-5.119 Y18.226 E0.0349
G1 X-5.384 Y19.100 E0.0349
G1 X-5.473 Y20.008 E0.0349
G1 X-5.384 Y20.917 E0.0349
G1 X-5.119 Y21.790 E0.0349
G1 X-4.689 Y22.595 E0.0349
G1 X-4.110 Y23.301 E0.0349
G1 X-3.404 Y23.880 E0.0349
G1 X-2.599 Y24.310 E0.0349
G1 X-1.726 Y24.575 E0.0349
G1 X-0.817 Y24.664 E0.0349
G1 X0.091 Y24.575 E0.0349
G1 X0.965 Y24.310 E0.0349
G1 X1.770 Y23.880 E0.0349
G1 X1.513 Y23.495 F9000
G1 X2.148 Y22.974 E0.0314 F1800
G1 X2.670 Y22.338 E0.0314
G1 X3.012 Y21.698 E0.0278
G1 X6.680 Y21.698 E0.1403
G1 X6.680 Y18.378 E0.1270
G1 X3.044 Y18.378 E0.1391
G1 X2.670 Y17.678 E0.0304
G1 X2.148 Y17.043 E0.0314
G1 X1.513 Y16.521 E0.0314
G1 X0.788 Y16.134 E0.0314
G1 X0.001 Y15.895 E0.0314
G1 X-0.817 Y15.814 E0.0314
G1 X-1.635 Y15.895 E0.0314
G1 X-2.422 Y16.134 E0.0314
G1 X-3.147 Y16.521 E0.0314
G1 X-3.783 Y17.043 E0.0314
G1 X-4.304 Y17.678 E0.0314
G1 X-4.692 Y18.403 E0.0314
G1 X-4.931 Y19.190 E0.0314
G1 X-5.011 Y20.008 E0.0314
G1 X-4.931 Y20.826 E0.0314
G1 X-4.692 Y21.613 E0.0314
G1 X-4.304 Y22.338 E0.0314
G1 X-3.783 Y22.974 E0.0314
G1 X-3.147 Y23.495 E0.0314
G1 X-2.422 Y23.883 E0.0314
G1 X-1.635 Y24.122 E0.0314
G1 X-0.817 Y24.202 E0.0314
G1 X0.001 Y24.122 E0.0314
G1 X0.788 Y23.883 E0.0314
G1 X1.513 Y23.495 E0.0314
; feature outer perimeter
G1 X1.256 Y23.111 F9000
G1 X1.822 Y22.647 E0.0280 F1200
G1 X2.286 Y22.081 E0.0280
G1 X2.631 Y21.436 E0.0280
G1 X2.691 Y21.238 E0.0079
G1 X6.220 Y21.238 E0.1350
G1 X6.220 Y18.838 E0.0918
G1 X2.709 Y18.838 E0.1343
G1 X2.631 Y18.580 E0.0103
G1 X2.286 Y17.935 E0.0280
G1 X1.822 Y17.369 E0.0280
G1 X1.256 Y16.905 E0.0280
G1 X0.611 Y16.561 E0.0280
G1 X-0.089 Y16.348 E0.0280
G1 X-0.817 Y16.276 E0.0280
G1 X-1.545 Y16.348 E0.0280
G1 X-2.245 Y16.561 E0.0280
G1 X-2.890 Y16.905 E0.0280
G1 X-3.456 Y17.369 E0.0280
G1 X-3.920 Y17.935 E0.0280
G1 X-4.265 Y18.580 E0.0280
G1 X-4.477 Y19.280 E0.0280
G1 X-4.549 Y20.008 E0.0280
G1 X-4.477 Y20.736 E0.0280
G1 X-4.265 Y21.436 E0.0280
G1 X-3.920 Y22.081 E0.0280
G1 X-3.456 Y22.647 E0.0280
G1 X-2.890 Y23.111 E0.0280
G1 X-2.245 Y23.456 E0.0280
G1 X-1.545 Y23.668 E0.0280
G1 X-0.817 Y23.740 E0.0280
G1 X-0.089 Y23.668 E0.0280
G1 X0.611 Y23.456 E0.0280
G1 X1.256 Y23.111 E0.0280
G1 E-1.9000 F1200
; feature inner perimeter
G1 Z0.700 F1200
G1 X2.486 Y4.656 F9000
G1 Z0.200 F1200
G1 E1.9000 F1200
G1 X3.394 Y4.567 E0.0349 F1800
G1 X4.267 Y4.302 E0.0349
G1 X5.072 Y3.871 E0.0349
G1 X5.778 Y3.292 E0.0349
G1 X6.357 Y2.587 E0.0349
G1 X6.787 Y1.782 E0.0349
G1 X7.052 Y0.908 E0.0349
G1 X7.142 Y0.000 E0.0349
G1 X7.052 Y-0.908 E0.0349
G1 X6.787 Y-1.782 E0.0349
G1 X6.357 Y-2.587 E0.0349
G1 X5.778 Y-3.292 E0.0349
G1 X5.072 Y-3.871 E0.0349
G1 X4.267 Y-4.302 E0.0349
G1 X3.394 Y-4.567 E0.0349
G1 X2.486 Y-4.656 E0.0349
G1 X1.577 Y-4.567 E0.0349
G1 X0.704 Y-4.302 E0.0349
G1 X-0.101 Y-3.871 E0.0349
G1 X-0.807 Y-3.292 E0.0349
G1 X-1.386 Y-2.587 E0.0349
G1 X-1.619 Y-2.150 E0.0190
G1 X-5.471 Y-2.150 E0.1473
G1 X-5.471 Y2.090 E0.1622
G1 X-1.651 Y2.090 E0.1461
G1 X-1.386 Y2.587 E0.0215
G1 X-0.807 Y3.292 E0.0349
G1 X-0.101 Y3.871 E0.0349
G1 X0.704 Y4.302 E0.0349
G1 X1.577 Y4.567 E0.0349
G1 X2.486 Y4.656 E0.0349
G1 X2.486 Y4.194 F9000
G1 X3.304 Y4.113 E0.0314 F1800
G1 X4.091 Y3.875 E0.0314
G1 X4.816 Y3.487 E0.0314
G1 X5.451 Y2.966 E0.0314
G1 X5.973 Y2.330 E0.0314
G1 X6.360 Y1.605 E0.0314
G1 X6.599 Y0.818 E0.0314
G1 X6.680 Y0.000 E0.0314
G1 X6.599 Y-0.818 E0.0314
G1 X6.360 Y-1.605 E0.0314
G1 X5.973 Y-2.330 E0.0314
G1 X5.451 Y-2.966 E0.0314
G1 X4.816 Y-3.487 E0.0314
G1 X4.091 Y-3.875 E0.0314
G1 X3.304 Y-4.113 E0.0314
G1 X2.486 Y-4.194 E0.0314
G1 X1.667 Y-4.113 E0.0314
G1 X0.881 Y-3.875 E0.0314
G1 X0.156 Y-3.487 E0.0314
G1 X-0.480 Y-2.966 E0.0314
G1 X-1.002 Y-2.330 E0.0314
G1 X-1.344 Y-1.690 E0.0278
G1 X-5.011 Y-1.690 E0.1403
G1 X-5.011 Y1.630 E0.1270
G1 X-1.376 Y1.630 E0.1391
G1 X-1.002 Y2.330 E0.0304
G1 X-0.480 Y2.966 E0.0314
G1 X0.156 Y3.487 E0.0314
G1 X0.881 Y3.875 E0.0314
G1 X1.667 Y4.113 E0.0314
G1 X2.486 Y4.194 E0.0314
; feature outer perimeter
G1 X2.486 Y3.732 F9000
G1 X3.214 Y3.660 E0.0280 F1200
G1 X3.914 Y3.448 E0.0280
G1 X4.559 Y3.103 E0.0280
G1 X5.124 Y2.639 E0.0280
G1 X5.588 Y2.073 E0.0280
G1 X5.933 Y1.428 E0.0280
G1 X6.146 Y0.728 E0.0280
G1 X6.217 Y0.000 E0.0280
G1 X6.146 Y-0.728 E0.0280
G1 X5.933 Y-1.428 E0.0280
G1 X5.588 Y-2.073 E0.0280
G1 X5.124 Y-2.639 E0.0280
G1 X4.559 Y-3.103 E0.0280
G1 X3.914 Y-3.448 E0.0280
G1 X3.214 Y-3.660 E0.0280
G1 X2.486 Y-3.732 E0.0280
G1 X1.758 Y-3.660 E0.0280
G1 X1.058 Y-3.448 E0.0280
G1 X0.412 Y-3.103 E0.0280
G1 X-0.153 Y-2.639 E0.0280
G1 X-0.617 Y-2.073 E0.0280
G1 X-0.962 Y-1.428 E0.0280
G1 X-1.022 Y-1.230 E0.0079
G1 X-4.551 Y-1.230 E0.1350
G1 X-4.551 Y1.170 E0.0918
G1 X-1.040 Y1.170 E0.1343
G1 X-0.962 Y1.428 E0.0103
G1 X-0.617 Y2.073 E0.0280
G1 X-0.153 Y2.639 E0.0280
G1 X0.412 Y3.103 E0.0280
G1 X1.058 Y3.448 E0.0280
G1 X1.758 Y3.660 E0.0280
G1 X2.486 Y3.732 E0.0280
G1 E-1.9000 F1200
; feature inner perimeter
G1 Z0.700 F1200
G1 X0.091 Y-15.307 F9000
G1 Z0.200 F1200
G1 E1.9000 F1200
G1 X0.965 Y-15.572 E0.0349 F1800
G1 X1.770 Y-16.002 E0.0349
G1 X2.475 Y-16.582 E0.0349
G1 X3.054 Y-17.287 E0.0349
G1 X3.288 Y-17.724 E0.0190
G1 X7.140 Y-17.724 E0.1473
G1 X7.140 Y-21.964 E0.1622
G1 X3.320 Y-21.964 E0.1461
G1 X3.054 Y-22.461 E0.0215
G1 X2.475 Y-23.166 E0.0349
G1 X1.770 Y-23.745 E0.0349
G1 X0.965 Y-24.176 E0.0349
G1 X0.091 Y-24.441 E0.0349
G1 X-0.817 Y-24.530 E0.0349
G1 X-1.726 Y-24.441 E0.0349
G1 X-2.599 Y-24.176 E0.0349
G1 X-3.404 Y-23.745 E0.0349
G1 X-4.110 Y-23.166 E0.0349
G1 X-4.689 Y-22.461 E0.0349
G1 X-5.119 Y-21.656 E0.0349
G1 X-5.384 Y-20.782 E0.0349
G1 X-5.473 Y-19.874 E0.0349
G1 X-5.384 Y-18.966 E0.0349
G1 X-5.119 Y-18.092 E0.0349
G1 X-4.689 Y-17.287 E0.0349
G1 X-4.110 Y-16.582 E0.0349
G1 X-3.404 Y-16.002 E0.0349
G1 X-2.599 Y-15.572 E0.0349
G1 X-1.726 Y-15.307 E0.0349
G1 X-0.817 Y-15.218 E0.0349
G1 X0.091 Y-15.307 E0.0349
G1 X0.001 Y-15.761 F9000
G1 X0.788 Y-15.999 E0.0314 F1800
G1 X1.513 Y-16.387 E0.0314
G1 X2.148 Y-16.908 E0.0314
G1 X2.670 Y-17.544 E0.0314
G1 X3.012 Y-18.184 E0.0278
G1 X6.680 Y-18.184 E0.1403
G1 X6.680 Y-21.504 E0.1270
G1 X3.044 Y-21.504 E0.1391
G1 X2.670 Y-22.204 E0.0304
G1 X2.148 Y-22.840 E0.0314
G1 X1.513 Y-23.361 E0.0314
G1 X0.788 Y-23.749 E0.0314
G1 X0.001 Y-23.987 E0.0314
G1 X-0.817 Y-24.068 E0.0314
G1 X-1.635 Y-23.987 E0.0314
G1 X-2.422 Y-23.749 E0.0314
G1 X-3.147 Y-23.361 E0.0314
G1 X-3.783 Y-22.840 E0.0314
G1 X-4.304 Y-22.204 E0.0314
G1 X-4.692 Y-21.479 E0.0314
G1 X-4.931 Y-20.692 E0.0314
G1 X-5.011 Y-19.874 E0.0314
G1 X-4.931 Y-19.056 E0.0314
G1 X-4.692 Y-18.269 E0.0314
G1 X-4.304 Y-17.544 E0.0314
G1 X-3.783 Y-16.908 E0.0314
