; G-Code generated by Simplify3D(R) Version 4.1.2
; Apr 6, 2020 at 11:52:41 AM
; Settings Summary
;   processName,Process1
;   applyToModels,Barn Bracket
;   profileName,MakerBot Replicator 2 HBP (modified)
;   profileVersion,2020-03-12 10:48:50
;   baseProfile,MakerBot Replicator 2(2)
;   printMaterial,PLA
;   printQuality,Medium
;   printExtruders,
;   extruderName,Primary Extruder
;   extruderToolheadNumber,0
;   extruderDiameter,0.4
;   extruderAutoWidth,0
;   extruderWidth,0.4
;   extrusionMultiplier,1
;   extruderUseRetract,1
;   extruderRetractionDistance,1.9
;   extruderExtraRestartDistance,0
;   extruderRetractionZLift,0.5
;   extruderRetractionSpeed,1200
;   extruderUseCoasting,0
;   extruderCoastingDistance,0.2
;   extruderUseWipe,0
;   extruderWipeDistance,5
;   primaryExtruder,0
;   layerHeight,0.2
;   topSolidLayers,3
;   bottomSolidLayers,3
;   perimeterOutlines,3
;   printPerimetersInsideOut,1
;   startPointOption,3
;   startPointOriginX,0
;   startPointOriginY,150
;   sequentialIslands,0
;   spiralVaseMode,0
;   firstLayerHeightPercentage,100
;   firstLayerWidthPercentage,115
;   firstLayerUnderspeed,0.5
;   useRaft,0
;   raftExtruder,0
;   raftTopLayers,2
;   raftBaseLayers,1
;   raftOffset,1
;   raftSeparationDistance,0.14
;   raftTopInfill,90
;   aboveRaftSpeedMultiplier,0.3
;   useSkirt,0
;   skirtExtruder,0
;   skirtLayers,1
;   skirtOutlines,5
;   skirtOffset,0
;   usePrimePillar,0
;   primePillarExtruder,999
;   primePillarWidth,12
;   primePillarLocation,7
;   primePillarSpeedMultiplier,1
;   useOozeShield,0
;   oozeShieldExtruder,999
;   oozeShieldOffset,2
;   oozeShieldOutlines,1
;   oozeShieldSidewallShape,1
;   oozeShieldSidewallAngle,30
;   oozeShieldSpeedMultiplier,1
;   infillExtruder,0
;   internalInfillPattern,Rectilinear
;   externalInfillPattern,Rectilinear
;   infillPercentage,15
;   outlineOverlapPercentage,25
;   infillExtrusionWidthPercentage,100
;   minInfillLength,5
;   infillLayerInterval,1
;   internalInfillAngles,45,-45
;   overlapInternalInfillAngles,0
;   externalInfillAngles,45,-45
;   generateSupport,1
;   supportExtruder,0
;   supportInfillPercentage,5
;   supportExtraInflation,0.5
;   supportBaseLayers,0
;   denseSupportExtruder,0
;   denseSupportLayers,2
;   denseSupportInfillPercentage,90
;   supportLayerInterval,1
;   supportHorizontalPartOffset,0.3
;   supportUpperSeparationLayers,1
;   supportLowerSeparationLayers,1
;   supportType,1
;   supportGridSpacing,2
;   maxOverhangAngle,45
;   supportAngles,45,-45
;   temperatureName,Primary Extruder,Heated Build Platform
;   temperatureNumber,0,0
;   temperatureSetpointCount,1,1
;   temperatureSetpointLayers,1,1
;   temperatureSetpointTemperatures,230,60
;   temperatureStabilizeAtStartup,1,1
;   temperatureHeatedBed,0,1
;   fanLayers,1,2
;   fanSpeeds,0,100
;   blipFanToFullPower,1
;   adjustSpeedForCooling,1
;   minSpeedLayerTime,15
;   minCoolingSpeedSlowdown,20
;   increaseFanForCooling,1
;   minFanLayerTime,45
;   maxCoolingFanSpeed,100
;   increaseFanForBridging,1
;   bridgingFanSpeed,100
;   use5D,1
;   relativeEdistances,1
;   allowEaxisZeroing,0
;   independentExtruderAxes,1
;   includeM10123,0
;   stickySupport,1
;   applyToolheadOffsets,0
;   gcodeXoffset,0
;   gcodeYoffset,0
;   gcodeZoffset,0
;   overrideMachineDefinition,1
;   machineTypeOverride,0
;   strokeXoverride,280
;   strokeYoverride,150
;   strokeZoverride,150
;   originOffsetXoverride,140
;   originOffsetYoverride,75
;   originOffsetZoverride,0
;   homeXdirOverride,1
;   homeYdirOverride,1
;   homeZdirOverride,-1
;   flipXoverride,1
;   flipYoverride,-1
;   flipZoverride,1
;   toolheadOffsets,0,0|0,0|0,0|0,0|0,0|0,0
;   overrideFirmwareConfiguration,1
;   firmwareTypeOverride,MakerBot/Sailfish Firmware
;   GPXconfigOverride,r2h
;   baudRateOverride,115200
;   overridePrinterModels,1
;   printerModelsOverride,MakerBot_Replicator2.stl
;   startingGcode,; **** Replicator 2 start.gcode ****,M73 P0 ; enable build progress,G162 X Y F3000 ; home XY maximum,G161 Z F1200 ; home Z minimum,G92 Z-5 ; set Z to -5,G1 Z0 ; move Z to 0,G161 Z F100 ; home Z slowly,M132 X Y Z A B ; recall home offsets,G1 X-145 Y-75 Z30 F9000 ; move to wait position off table,G130 X20 Y20 Z20 A20 B20 ; lower stepper Vrefs while heating,M126 S[fan_speed_pwm],M140 S[bed0_temperature] T0,M134 T0 ; stabilize bed temperature,M104 S[extruder0_temperature] T0,M133 T0 ; stabilize extruder temperature,G130 X127 Y127 Z40 A127 B127 ; default stepper Vrefs,G92 A0 ; zero extruder,G1 Z0.4 ; position nozzle,G1 E25 F300 ; purge nozzle,G1 X-140 Y-70 Z0.15 F1200 ; slow wipe,G1 X-135 Y-65 Z0.5 F1200 ; lift,G92 A0 ; zero extruder,M73 P1 ;@body (notify GPX body has started),; **** end of start.gcode ****
;   layerChangeGcode,
;   retractionGcode,
;   toolChangeGcode,
;   endingGcode,; **** Replicator 2 end.gcode ****,M73 P100 ; end build progress,G1 Z155 F1000 ; send Z axis to bottom of machine,M104 S0 T0 ; cool down extruder,M140 S0 T0 ; cool down HBP,M127 ; stop blower fan,G162 X Y F3000 ; home XY maximum,M18 ; disable stepper,M0 ; stop codes,M72 P1 ; play Ta-Da song,; **** end of end.gcode ****
;   exportFileFormat,gcode
;   celebration,0
;   celebrationSong,Random Song
;   postProcessing,
;   defaultSpeed,4800
;   outlineUnderspeed,0.5
;   solidInfillUnderspeed,1
;   supportUnderspeed,1
;   rapidXYspeed,9000
;   rapidZspeed,1200
;   minBridgingArea,50
;   bridgingExtraInflation,0
;   bridgingExtrusionMultiplier,1
;   bridgingSpeedMultiplier,0.8
;   useFixedBridgingAngle,0
;   fixedBridgingAngle,0
;   applyBridgingToPerimeters,0
;   filamentDiameters,1.75|1.75|1.75|1.75|1.75|1.75
;   filamentPricesPerKg,46|46|46|46|46|46
;   filamentDensities,1.25|1.25|1.25|1.25|1.25|1.25
;   useMinPrintHeight,0
;   minPrintHeight,0
;   useMaxPrintHeight,0
;   maxPrintHeight,4.84
;   useDiaphragm,0
;   diaphragmLayerInterval,20
;   robustSlicing,1
;   mergeAllIntoSolid,0
;   onlyRetractWhenCrossingOutline,0
;   retractBetweenLayers,0
;   useRetractionMinTravel,1
;   retractionMinTravel,7
;   retractWhileWiping,1
;   onlyWipeOutlines,1
;   avoidCrossingOutline,0
;   maxMovementDetourFactor,3
;   toolChangeRetractionDistance,12
;   toolChangeExtraRestartDistance,-0.5
;   toolChangeRetractionSpeed,600
;   externalThinWallType,0
;   internalThinWallType,0
;   thinWallAllowedOverlapPercentage,10
;   singleExtrusionMinLength,1
;   singleExtrusionMinPrintingWidthPercentage,50
;   singleExtrusionMaxPrintingWidthPercentage,200
;   singleExtrusionEndpointExtension,0.2
;   horizontalSizeCompensation,0
G90
M83
; **** Replicator 2 start.gcode ****
M73 P0 ; enable build progress
G162 X Y F3000 ; home XY maximum
G161 Z F1200 ; home Z minimum
G92 Z-5 ; set Z to -5
G1 Z0 ; move Z to 0
G161 Z F100 ; home Z slowly
M132 X Y Z A B ; recall home offsets
G1 X-145 Y-75 Z30 F9000 ; move to wait position off table
G130 X20 Y20 Z20 A20 B20 ; lower stepper Vrefs while heating
M126 S132
M140 S60 T0
M134 T0 ; stabilize bed temperature
M104 S230 T0
M133 T0 ; stabilize extruder temperature
G130 X127 Y127 Z40 A127 B127 ; default stepper Vrefs
G92 A0 ; zero extruder
G1 Z0.4 ; position nozzle
G1 E25 F300 ; purge nozzle
G1 X-140 Y-70 Z0.15 F1200 ; slow wipe
G1 X-135 Y-65 Z0.5 F1200 ; lift
G92 A0 ; zero extruder
M73 P1 ;@body (notify GPX body has started)
; **** end of start.gcode ****
; process Process1
; layer 1, Z = 0.200
M135 T0
G1 E-1.9000 F1200
; feature inner perimeter
; tool H0.200 W0.460
G1 Z0.500 F1200
G1 X-28.655 Y11.634 F9000
G1 Z0.200 F1200
G1 E1.9000 F1200
G1 X-29.356 Y11.634 E0.0268 F1800
G1 X-29.356 Y-11.634 E0.8900
G1 X-28.655 Y-11.634 E0.0268
G1 X-28.655 Y-11.624 E0.0004
G1 X29.357 Y-11.624 E2.2189
G1 X29.357 Y-10.923 E0.0268
G1 X-28.655 Y-10.923 E2.2189
G1 X-28.655 Y11.634 E0.8628
G1 X-28.195 Y12.094 F9000
G1 X-29.816 Y12.094 E0.0620 F1800
G1 X-29.816 Y-12.094 E0.9252
G1 X-28.195 Y-12.094 E0.0620
G1 X-28.195 Y-12.084 E0.0004
G1 X29.817 Y-12.084 E2.2189
G1 X29.817 Y-10.463 E0.0620
G1 X-28.195 Y-10.463 E2.2189
G1 X-28.195 Y12.094 E0.8628
; feature outer perimeter
G1 X-27.735 Y12.554 F9000
G1 X-30.276 Y12.554 E0.0972 F1200
G1 X-30.276 Y-12.554 E0.9604
G1 X-27.735 Y-12.554 E0.0972
G1 X-27.735 Y-12.544 E0.0004
G1 X30.277 Y-12.544 E2.2189
G1 X30.277 Y-10.003 E0.0972
G1 X-27.735 Y-10.003 E2.2189
G1 X-27.735 Y12.554 E0.8628
; feature solid layer
G1 X-29.000 Y10.683 F9000
G1 X-29.011 Y10.672 E0.0006 F2400
G1 X-29.011 Y10.021 E0.0249
G1 X-29.000 Y10.032 E0.0006
G1 X-29.000 Y9.381 E0.0249
G1 X-29.011 Y9.371 E0.0006
G1 X-29.011 Y8.720 E0.0249
G1 X-29.000 Y8.731 E0.0006
G1 X-29.000 Y8.080 E0.0249
G1 X-29.011 Y8.070 E0.0006
G1 X-29.011 Y7.419 E0.0249
G1 X-29.000 Y7.430 E0.0006
G1 X-29.000 Y6.779 E0.0249
G1 X-29.011 Y6.769 E0.0006
G1 X-29.011 Y6.118 E0.0249
G1 X-29.000 Y6.129 E0.0006
G1 X-29.000 Y5.478 E0.0249
G1 X-29.011 Y5.468 E0.0006
G1 X-29.011 Y4.817 E0.0249
G1 X-29.000 Y4.828 E0.0006
G1 X-29.000 Y4.177 E0.0249
G1 X-29.011 Y4.166 E0.0006
G1 X-29.011 Y3.516 E0.0249
G1 X-29.000 Y3.527 E0.0006
G1 X-29.000 Y2.876 E0.0249
G1 X-29.011 Y2.865 E0.0006
G1 X-29.011 Y2.215 E0.0249
G1 X-29.000 Y2.226 E0.0006
G1 X-29.000 Y1.575 E0.0249
G1 X-29.011 Y1.564 E0.0006
G1 X-29.011 Y0.914 E0.0249
G1 X-29.000 Y0.924 E0.0006
G1 X-29.000 Y0.274 E0.0249
G1 X-29.011 Y0.263 E0.0006
G1 X-29.011 Y-0.387 E0.0249
G1 X-29.000 Y-0.377 E0.0006
G1 X-29.000 Y-1.027 E0.0249
G1 X-29.011 Y-1.038 E0.0006
G1 X-29.011 Y-1.688 E0.0249
G1 X-29.000 Y-1.678 E0.0006
G1 X-29.000 Y-2.328 E0.0249
G1 X-29.011 Y-2.339 E0.0006
G1 X-29.011 Y-2.989 E0.0249
G1 X-29.000 Y-2.979 E0.0006
G1 X-29.000 Y-3.629 E0.0249
G1 X-29.011 Y-3.640 E0.0006
G1 X-29.011 Y-4.290 E0.0249
G1 X-29.000 Y-4.280 E0.0006
G1 X-29.000 Y-4.930 E0.0249
G1 X-29.011 Y-4.941 E0.0006
G1 X-29.011 Y-5.592 E0.0249
G1 X-29.000 Y-5.581 E0.0006
G1 X-29.000 Y-6.231 E0.0249
G1 X-29.011 Y-6.242 E0.0006
G1 X-29.011 Y-6.893 E0.0249
G1 X-29.000 Y-6.882 E0.0006
G1 X-29.000 Y-7.533 E0.0249
G1 X-29.011 Y-7.543 E0.0006
G1 X-29.011 Y-8.194 E0.0249
G1 X-29.000 Y-8.183 E0.0006
G1 X-29.000 Y-8.834 E0.0249
G1 X-29.011 Y-8.844 E0.0006
G1 X-29.011 Y-9.495 E0.0249
G1 X-29.000 Y-9.484 E0.0006
G1 X-29.000 Y-10.135 E0.0249
G1 X-29.011 Y-10.145 E0.0006
G1 X-29.011 Y-10.796 E0.0249
G1 X-29.000 Y-10.785 E0.0006
G1 X-29.000 Y-11.268 E0.0185
G1 X-28.833 Y-11.268 E0.0064
G1 X-28.843 Y-11.279 E0.0006
G1 X-28.193 Y-11.279 E0.0249
G1 X-28.182 Y-11.268 E0.0006
G1 X-27.532 Y-11.268 E0.0249
G1 X-27.542 Y-11.279 E0.0006
G1 X-26.892 Y-11.279 E0.0249
G1 X-26.881 Y-11.268 E0.0006
G1 X-26.231 Y-11.268 E0.0249
G1 X-26.241 Y-11.279 E0.0006
G1 X-25.591 Y-11.279 E0.0249
G1 X-25.580 Y-11.268 E0.0006
G1 X-24.929 Y-11.268 E0.0249
G1 X-24.940 Y-11.279 E0.0006
G1 X-24.290 Y-11.279 E0.0249
G1 X-24.279 Y-11.268 E0.0006
G1 X-23.628 Y-11.268 E0.0249
G1 X-23.639 Y-11.279 E0.0006
G1 X-22.989 Y-11.279 E0.0249
G1 X-22.978 Y-11.268 E0.0006
G1 X-22.327 Y-11.268 E0.0249
G1 X-22.338 Y-11.279 E0.0006
G1 X-21.687 Y-11.279 E0.0249
G1 X-21.677 Y-11.268 E0.0006
G1 X-21.026 Y-11.268 E0.0249
G1 X-21.037 Y-11.279 E0.0006
G1 X-20.386 Y-11.279 E0.0249
G1 X-20.376 Y-11.268 E0.0006
G1 X-19.725 Y-11.268 E0.0249
G1 X-19.736 Y-11.279 E0.0006
G1 X-19.085 Y-11.279 E0.0249
G1 X-19.075 Y-11.268 E0.0006
G1 X-18.424 Y-11.268 E0.0249
G1 X-18.435 Y-11.279 E0.0006
G1 X-17.784 Y-11.279 E0.0249
G1 X-17.774 Y-11.268 E0.0006
G1 X-17.123 Y-11.268 E0.0249
G1 X-17.134 Y-11.279 E0.0006
G1 X-16.483 Y-11.279 E0.0249
G1 X-16.472 Y-11.268 E0.0006
G1 X-15.822 Y-11.268 E0.0249
G1 X-15.833 Y-11.279 E0.0006
G1 X-15.182 Y-11.279 E0.0249
G1 X-15.171 Y-11.268 E0.0006
G1 X-14.521 Y-11.268 E0.0249
G1 X-14.532 Y-11.279 E0.0006
G1 X-13.881 Y-11.279 E0.0249
G1 X-13.870 Y-11.268 E0.0006
G1 X-13.220 Y-11.268 E0.0249
G1 X-13.230 Y-11.279 E0.0006
G1 X-12.580 Y-11.279 E0.0249
G1 X-12.569 Y-11.268 E0.0006
G1 X-11.919 Y-11.268 E0.0249
G1 X-11.929 Y-11.279 E0.0006
G1 X-11.279 Y-11.279 E0.0249
G1 X-11.268 Y-11.268 E0.0006
G1 X-10.618 Y-11.268 E0.0249
G1 X-10.628 Y-11.279 E0.0006
G1 X-9.978 Y-11.279 E0.0249
G1 X-9.967 Y-11.268 E0.0006
G1 X-9.317 Y-11.268 E0.0249
G1 X-9.327 Y-11.279 E0.0006
G1 X-8.677 Y-11.279 E0.0249
G1 X-8.666 Y-11.268 E0.0006
G1 X-8.015 Y-11.268 E0.0249
G1 X-8.026 Y-11.279 E0.0006
G1 X-7.376 Y-11.279 E0.0249
G1 X-7.365 Y-11.268 E0.0006
G1 X-6.714 Y-11.268 E0.0249
G1 X-6.725 Y-11.279 E0.0006
G1 X-6.075 Y-11.279 E0.0249
G1 X-6.064 Y-11.268 E0.0006
G1 X-5.413 Y-11.268 E0.0249
G1 X-5.424 Y-11.279 E0.0006
G1 X-4.773 Y-11.279 E0.0249
G1 X-4.763 Y-11.268 E0.0006
G1 X-4.112 Y-11.268 E0.0249
G1 X-4.123 Y-11.279 E0.0006
G1 X-3.472 Y-11.279 E0.0249
G1 X-3.462 Y-11.268 E0.0006
G1 X-2.811 Y-11.268 E0.0249
G1 X-2.822 Y-11.279 E0.0006
G1 X-2.171 Y-11.279 E0.0249
G1 X-2.161 Y-11.268 E0.0006
G1 X-1.510 Y-11.268 E0.0249
G1 X-1.521 Y-11.279 E0.0006
G1 X-0.870 Y-11.279 E0.0249
G1 X-0.860 Y-11.268 E0.0006
G1 X-0.209 Y-11.268 E0.0249
G1 X-0.220 Y-11.279 E0.0006
G1 X0.431 Y-11.279 E0.0249
G1 X0.442 Y-11.268 E0.0006
G1 X1.092 Y-11.268 E0.0249
G1 X1.081 Y-11.279 E0.0006
G1 X1.732 Y-11.279 E0.0249
G1 X1.743 Y-11.268 E0.0006
G1 X2.393 Y-11.268 E0.0249
G1 X2.382 Y-11.279 E0.0006
G1 X3.033 Y-11.279 E0.0249
G1 X3.044 Y-11.268 E0.0006
G1 X3.694 Y-11.268 E0.0249
G1 X3.684 Y-11.279 E0.0006
G1 X4.334 Y-11.279 E0.0249
G1 X4.345 Y-11.268 E0.0006
G1 X4.995 Y-11.268 E0.0249
G1 X4.985 Y-11.279 E0.0006
G1 X5.635 Y-11.279 E0.0249
G1 X5.646 Y-11.268 E0.0006
G1 X6.296 Y-11.268 E0.0249
G1 X6.286 Y-11.279 E0.0006
G1 X6.936 Y-11.279 E0.0249
G1 X6.947 Y-11.268 E0.0006
G1 X7.597 Y-11.268 E0.0249
G1 X7.587 Y-11.279 E0.0006
G1 X8.237 Y-11.279 E0.0249
G1 X8.248 Y-11.268 E0.0006
G1 X8.899 Y-11.268 E0.0249
G1 X8.888 Y-11.279 E0.0006
G1 X9.538 Y-11.279 E0.0249
G1 X9.549 Y-11.268 E0.0006
G1 X10.200 Y-11.268 E0.0249
G1 X10.189 Y-11.279 E0.0006
G1 X10.839 Y-11.279 E0.0249
G1 X10.850 Y-11.268 E0.0006
G1 X11.501 Y-11.268 E0.0249
G1 X11.490 Y-11.279 E0.0006
G1 X12.141 Y-11.279 E0.0249
G1 X12.151 Y-11.268 E0.0006
G1 X12.802 Y-11.268 E0.0249
G1 X12.791 Y-11.279 E0.0006
G1 X13.442 Y-11.279 E0.0249
G1 X13.452 Y-11.268 E0.0006
G1 X14.103 Y-11.268 E0.0249
G1 X14.092 Y-11.279 E0.0006
G1 X14.743 Y-11.279 E0.0249
G1 X14.753 Y-11.268 E0.0006
G1 X15.404 Y-11.268 E0.0249
G1 X15.393 Y-11.279 E0.0006
G1 X16.044 Y-11.279 E0.0249
G1 X16.054 Y-11.268 E0.0006
G1 X16.705 Y-11.268 E0.0249
G1 X16.694 Y-11.279 E0.0006
G1 X17.345 Y-11.279 E0.0249
G1 X17.355 Y-11.268 E0.0006
G1 X18.006 Y-11.268 E0.0249
G1 X17.995 Y-11.279 E0.0006
G1 X18.646 Y-11.279 E0.0249
G1 X18.657 Y-11.268 E0.0006
G1 X19.307 Y-11.268 E0.0249
G1 X19.296 Y-11.279 E0.0006
G1 X19.947 Y-11.279 E0.0249
G1 X19.958 Y-11.268 E0.0006
G1 X20.608 Y-11.268 E0.0249
G1 X20.598 Y-11.279 E0.0006
G1 X21.248 Y-11.279 E0.0249
G1 X21.259 Y-11.268 E0.0006
G1 X21.909 Y-11.268 E0.0249
G1 X21.899 Y-11.279 E0.0006
G1 X22.549 Y-11.279 E0.0249
G1 X22.560 Y-11.268 E0.0006
G1 X23.210 Y-11.268 E0.0249
G1 X23.200 Y-11.279 E0.0006
G1 X23.850 Y-11.279 E0.0249
G1 X23.861 Y-11.268 E0.0006
G1 X24.511 Y-11.268 E0.0249
G1 X24.501 Y-11.279 E0.0006
G1 X25.151 Y-11.279 E0.0249
G1 X25.162 Y-11.268 E0.0006
G1 X25.812 Y-11.268 E0.0249
G1 X25.802 Y-11.279 E0.0006
G1 X26.452 Y-11.279 E0.0249
G1 X26.463 Y-11.268 E0.0006
G1 X27.114 Y-11.268 E0.0249
G1 X27.103 Y-11.279 E0.0006
G1 X27.753 Y-11.279 E0.0249
G1 X27.764 Y-11.268 E0.0006
G1 X28.415 Y-11.268 E0.0249
G1 X28.404 Y-11.279 E0.0006
G1 E-1.9000 F1200
; layer 2, Z = 0.400
M126 S255
; feature inner perimeter
; tool H0.200 W0.400
G1 Z0.700 F1200
G1 X-28.505 Y11.784 F9000
G1 Z0.400 F1200
G1 E1.9000 F1200
G1 X-29.506 Y11.784 E0.0333 F2849
G1 X-29.506 Y-11.784 E0.7839
G1 X29.507 Y-11.774 E1.9628
G1 X29.507 Y-10.773 E0.0333
G1 X-28.505 Y-10.773 E1.9295
G1 X-28.505 Y11.784 E0.7503
G1 X-28.105 Y12.184 F9000
G1 X-29.906 Y12.184 E0.0599 F2849
G1 X-29.906 Y-12.184 E0.8105
G1 X29.907 Y-12.174 E1.9894
G1 X29.907 Y-10.373 E0.0599
G1 X-28.105 Y-10.373 E1.9295
G1 X-28.105 Y12.184 E0.7503
; feature outer perimeter
G1 X-27.705 Y12.584 F9000
G1 X-30.306 Y12.584 E0.0865 F1900
G1 X-30.306 Y-12.584 E0.8371
G1 X30.307 Y-12.574 E2.0160
G1 X30.307 Y-9.973 E0.0865
G1 X-27.705 Y-9.973 E1.9295
G1 X-27.705 Y12.584 E0.7503
; feature solid layer
