; G-Code generated by Simplify3D(R) Version 4.1.2
; Apr 6, 2020 at 12:08:45 PM
; Settings Summary
;   processName,Process1
;   applyToModels,CB insert15
;   profileName,MakerBot Replicator 2 HBP (modified)
;   profileVersion,2020-03-12 10:48:50
;   baseProfile,MakerBot Replicator 2(2)
;   printMaterial,PLA
;   printQuality,Medium
;   printExtruders,
;   extruderName,Primary Extruder
;   extruderToolheadNumber,0
;   extruderDiameter,0.4
;   extruderAutoWidth,0
;   extruderWidth,0.4
;   extrusionMultiplier,1
;   extruderUseRetract,1
;   extruderRetractionDistance,1.9
;   extruderExtraRestartDistance,0
;   extruderRetractionZLift,0.5
;   extruderRetractionSpeed,1200
;   extruderUseCoasting,0
;   extruderCoastingDistance,0.2
;   extruderUseWipe,0
;   extruderWipeDistance,5
;   primaryExtruder,0
;   layerHeight,0.2
;   topSolidLayers,3
;   bottomSolidLayers,3
;   perimeterOutlines,3
;   printPerimetersInsideOut,1
;   startPointOption,3
;   startPointOriginX,0
;   startPointOriginY,150
;   sequentialIslands,0
;   spiralVaseMode,0
;   firstLayerHeightPercentage,100
;   firstLayerWidthPercentage,115
;   firstLayerUnderspeed,0.5
;   useRaft,0
;   raftExtruder,0
;   raftTopLayers,2
;   raftBaseLayers,1
;   raftOffset,1
;   raftSeparationDistance,0.14
;   raftTopInfill,90
;   aboveRaftSpeedMultiplier,0.3
;   useSkirt,0
;   skirtExtruder,0
;   skirtLayers,1
;   skirtOutlines,5
;   skirtOffset,0
;   usePrimePillar,0
;   primePillarExtruder,999
;   primePillarWidth,12
;   primePillarLocation,7
;   primePillarSpeedMultiplier,1
;   useOozeShield,0
;   oozeShieldExtruder,999
;   oozeShieldOffset,2
;   oozeShieldOutlines,1
;   oozeShieldSidewallShape,1
;   oozeShieldSidewallAngle,30
;   oozeShieldSpeedMultiplier,1
;   infillExtruder,0
;   internalInfillPattern,Rectilinear
;   externalInfillPattern,Rectilinear
;   infillPercentage,15
;   outlineOverlapPercentage,25
;   infillExtrusionWidthPercentage,100
;   minInfillLength,5
;   infillLayerInterval,1
;   internalInfillAngles,45,-45
;   overlapInternalInfillAngles,0
;   externalInfillAngles,45,-45
;   generateSupport,1
;   supportExtruder,0
;   supportInfillPercentage,15
;   supportExtraInflation,0.5
;   supportBaseLayers,0
;   denseSupportExtruder,0
;   denseSupportLayers,2
;   denseSupportInfillPercentage,90
;   supportLayerInterval,1
;   supportHorizontalPartOffset,0.3
;   supportUpperSeparationLayers,1
;   supportLowerSeparationLayers,1
;   supportType,1
;   supportGridSpacing,2
;   maxOverhangAngle,45
;   supportAngles,45,-45
;   temperatureName,Primary Extruder,Heated Build Platform
;   temperatureNumber,0,0
;   temperatureSetpointCount,1,1
;   temperatureSetpointLayers,1,1
;   temperatureSetpointTemperatures,230,60
;   temperatureStabilizeAtStartup,1,1
;   temperatureHeatedBed,0,1
;   fanLayers,1,2
;   fanSpeeds,0,100
;   blipFanToFullPower,1
;   adjustSpeedForCooling,1
;   minSpeedLayerTime,15
;   minCoolingSpeedSlowdown,20
;   increaseFanForCooling,1
;   minFanLayerTime,45
;   maxCoolingFanSpeed,100
;   increaseFanForBridging,1
;   bridgingFanSpeed,100
;   use5D,1
;   relativeEdistances,1
;   allowEaxisZeroing,0
;   independentExtruderAxes,1
;   includeM10123,0
;   stickySupport,1
;   applyToolheadOffsets,0
;   gcodeXoffset,0
;   gcodeYoffset,0
;   gcodeZoffset,0
;   overrideMachineDefinition,1
;   machineTypeOverride,0
;   strokeXoverride,280
;   strokeYoverride,150
;   strokeZoverride,150
;   originOffsetXoverride,140
;   originOffsetYoverride,75
;   originOffsetZoverride,0
;   homeXdirOverride,1
;   homeYdirOverride,1
;   homeZdirOverride,-1
;   flipXoverride,1
;   flipYoverride,-1
;   flipZoverride,1
;   toolheadOffsets,0,0|0,0|0,0|0,0|0,0|0,0
;   overrideFirmwareConfiguration,1
;   firmwareTypeOverride,MakerBot/Sailfish Firmware
;   GPXconfigOverride,r2h
;   baudRateOverride,115200
;   overridePrinterModels,1
;   printerModelsOverride,MakerBot_Replicator2.stl
;   startingGcode,; **** Replicator 2 start.gcode ****,M73 P0 ; enable build progress,G162 X Y F3000 ; home XY maximum,G161 Z F1200 ; home Z minimum,G92 Z-5 ; set Z to -5,G1 Z0 ; move Z to 0,G161 Z F100 ; home Z slowly,M132 X Y Z A B ; recall home offsets,G1 X-145 Y-75 Z30 F9000 ; move to wait position off table,G130 X20 Y20 Z20 A20 B20 ; lower stepper Vrefs while heating,M126 S[fan_speed_pwm],M140 S[bed0_temperature] T0,M134 T0 ; stabilize bed temperature,M104 S[extruder0_temperature] T0,M133 T0 ; stabilize extruder temperature,G130 X127 Y127 Z40 A127 B127 ; default stepper Vrefs,G92 A0 ; zero extruder,G1 Z0.4 ; position nozzle,G1 E25 F300 ; purge nozzle,G1 X-140 Y-70 Z0.15 F1200 ; slow wipe,G1 X-135 Y-65 Z0.5 F1200 ; lift,G92 A0 ; zero extruder,M73 P1 ;@body (notify GPX body has started),; **** end of start.gcode ****
;   layerChangeGcode,
;   retractionGcode,
;   toolChangeGcode,
;   endingGcode,; **** Replicator 2 end.gcode ****,M73 P100 ; end build progress,G1 Z155 F1000 ; send Z axis to bottom of machine,M104 S0 T0 ; cool down extruder,M140 S0 T0 ; cool down HBP,M127 ; stop blower fan,G162 X Y F3000 ; home XY maximum,M18 ; disable stepper,M0 ; stop codes,M72 P1 ; play Ta-Da song,; **** end of end.gcode ****
;   exportFileFormat,gcode
;   celebration,0
;   celebrationSong,Random Song
;   postProcessing,
;   defaultSpeed,4800
;   outlineUnderspeed,0.5
;   solidInfillUnderspeed,1
;   supportUnderspeed,1
;   rapidXYspeed,9000
;   rapidZspeed,1200
;   minBridgingArea,50
;   bridgingExtraInflation,0
;   bridgingExtrusionMultiplier,1
;   bridgingSpeedMultiplier,0.8
;   useFixedBridgingAngle,0
;   fixedBridgingAngle,0
;   applyBridgingToPerimeters,0
;   filamentDiameters,1.75|1.75|1.75|1.75|1.75|1.75
;   filamentPricesPerKg,46|46|46|46|46|46
;   filamentDensities,1.25|1.25|1.25|1.25|1.25|1.25
;   useMinPrintHeight,0
;   minPrintHeight,0
;   useMaxPrintHeight,0
;   maxPrintHeight,4.84
;   useDiaphragm,0
;   diaphragmLayerInterval,20
;   robustSlicing,1
;   mergeAllIntoSolid,0
;   onlyRetractWhenCrossingOutline,0
;   retractBetweenLayers,0
;   useRetractionMinTravel,1
;   retractionMinTravel,7
;   retractWhileWiping,1
;   onlyWipeOutlines,1
;   avoidCrossingOutline,0
;   maxMovementDetourFactor,3
;   toolChangeRetractionDistance,12
;   toolChangeExtraRestartDistance,-0.5
;   toolChangeRetractionSpeed,600
;   externalThinWallType,0
;   internalThinWallType,0
;   thinWallAllowedOverlapPercentage,10
;   singleExtrusionMinLength,1
;   singleExtrusionMinPrintingWidthPercentage,50
;   singleExtrusionMaxPrintingWidthPercentage,200
;   singleExtrusionEndpointExtension,0.2
;   horizontalSizeCompensation,0
G90
M83
; **** Replicator 2 start.gcode ****
M73 P0 ; enable build progress
G162 X Y F3000 ; home XY maximum
G161 Z F1200 ; home Z minimum
G92 Z-5 ; set Z to -5
G1 Z0 ; move Z to 0
G161 Z F100 ; home Z slowly
M132 X Y Z A B ; recall home offsets
G1 X-145 Y-75 Z30 F9000 ; move to wait position off table
G130 X20 Y20 Z20 A20 B20 ; lower stepper Vrefs while heating
M126 S170
M140 S60 T0
M134 T0 ; stabilize bed temperature
M104 S230 T0
M133 T0 ; stabilize extruder temperature
G130 X127 Y127 Z40 A127 B127 ; default stepper Vrefs
G92 A0 ; zero extruder
G1 Z0.4 ; position nozzle
G1 E25 F300 ; purge nozzle
G1 X-140 Y-70 Z0.15 F1200 ; slow wipe
G1 X-135 Y-65 Z0.5 F1200 ; lift
G92 A0 ; zero extruder
M73 P1 ;@body (notify GPX body has started)
; **** end of start.gcode ****
; process Process1
; layer 1, Z = 0.200
M135 T0
G1 E-1.9000 F1200
; feature inner perimeter
; tool H0.200 W0.460
G1 Z0.500 F1200
G1 X5.371 Y-1.164 F9000
G1 Z0.200 F1200
G1 E1.9000 F1200
G1 X5.359 Y-3.165 E0.0765 F892
G1 X-6.615 Y-3.133 E0.4580
G1 X-6.621 Y-5.142 E0.0769
G1 X-8.621 Y-5.137 E0.0765
G1 X-8.622 Y-5.721 E0.0223
G1 X7.878 Y-5.765 E0.6311
G1 X7.879 Y-5.181 E0.0223
G1 X5.879 Y-5.176 E0.0765
G1 X5.890 Y-1.166 E0.1534
G1 X5.371 Y-1.164 E0.0198
G1 X4.914 Y-0.703 F9000
G1 X4.902 Y-2.704 E0.0765 F892
G1 X-7.074 Y-2.672 E0.4581
G1 X-7.079 Y-4.681 E0.0769
G1 X-9.079 Y-4.676 E0.0765
G1 X-9.083 Y-6.180 E0.0575
G1 X8.336 Y-6.226 E0.6663
G1 X8.341 Y-4.722 E0.0575
G1 X6.341 Y-4.717 E0.0765
G1 X6.350 Y-1.328 E0.1296
G1 X9.195 Y-1.335 E0.1088
G1 X9.197 Y-0.715 E0.0237
G1 X4.914 Y-0.703 E0.1638
; feature outer perimeter
G1 X4.457 Y-0.242 F9000
G1 X4.445 Y-2.242 E0.0765 F595
G1 X-7.533 Y-2.210 E0.4581
G1 X-7.538 Y-4.220 E0.0769
G1 X-9.538 Y-4.214 E0.0765
G1 X-9.545 Y-6.639 E0.0927
G1 X8.795 Y-6.688 E0.7015
G1 X8.802 Y-4.263 E0.0927
G1 X6.802 Y-4.258 E0.0765
G1 X6.808 Y-1.789 E0.0944
G1 X9.654 Y-1.796 E0.1088
G1 X9.658 Y-0.256 E0.0589
G1 X4.457 Y-0.242 E0.1989
; feature solid layer
G1 X5.210 Y-5.413 F9000
G1 X5.535 Y-5.088 E0.0176 F1189
G1 X5.536 Y-4.436 E0.0249
G1 X4.561 Y-5.411 E0.0528
G1 X3.912 Y-5.410 E0.0248
G1 X5.538 Y-3.784 E0.0879
G1 X5.539 Y-3.510 E0.0105
G1 X5.162 Y-3.509 E0.0144
G1 X3.263 Y-5.408 E0.1027
G1 X2.615 Y-5.406 E0.0248
G1 X4.513 Y-3.508 E0.1027
G1 X3.864 Y-3.506 E0.0248
G1 X1.966 Y-5.404 E0.1027
G1 X1.317 Y-5.403 E0.0248
G1 X3.216 Y-3.504 E0.1027
G1 X2.567 Y-3.502 E0.0248
G1 X0.668 Y-5.401 E0.1027
G1 X0.019 Y-5.399 E0.0248
G1 X1.918 Y-3.501 E0.1027
G1 X1.269 Y-3.499 E0.0248
G1 X-0.629 Y-5.397 E0.1027
G1 X-1.278 Y-5.396 E0.0248
G1 X0.620 Y-3.497 E0.1027
G1 X-0.028 Y-3.496 E0.0248
G1 X-1.927 Y-5.394 E0.1027
G1 X-2.576 Y-5.392 E0.0248
G1 X-0.677 Y-3.494 E0.1027
G1 X-1.326 Y-3.492 E0.0248
G1 X-3.225 Y-5.390 E0.1027
G1 X-3.873 Y-5.389 E0.0248
G1 X-1.975 Y-3.490 E0.1027
G1 X-2.624 Y-3.489 E0.0248
G1 X-4.522 Y-5.387 E0.1027
G1 X-5.171 Y-5.385 E0.0248
G1 X-3.272 Y-3.487 E0.1027
G1 X-3.921 Y-3.485 E0.0248
G1 X-5.820 Y-5.384 E0.1027
G1 X-6.276 Y-5.382 E0.0175
G1 X-6.276 Y-5.189 E0.0074
G1 X-4.570 Y-3.483 E0.0923
G1 X-5.219 Y-3.482 E0.0248
G1 X-6.274 Y-4.537 E0.0571
G1 X-6.272 Y-3.885 E0.0249
G1 X-5.868 Y-3.480 E0.0219
G1 E-1.9000 F1200
; layer 2, Z = 0.400
M126 S255
; feature inner perimeter
; tool H0.200 W0.400
G1 Z0.700 F1200
G1 X5.222 Y-1.014 F9000
G1 Z0.400 F1200
G1 E1.9000 F1200
G1 X5.209 Y-3.015 E0.0665 F1017
G1 X-6.765 Y-2.982 E0.3983
G1 X-6.771 Y-4.992 E0.0668
G1 X-8.771 Y-4.986 E0.0665
G1 X-8.773 Y-5.871 E0.0294
G1 X8.027 Y-5.916 E0.5588
G1 X8.029 Y-5.031 E0.0294
G1 X6.029 Y-5.026 E0.0665
G1 X6.040 Y-1.017 E0.1333
G1 X8.886 Y-1.024 E0.0947
G1 X5.222 Y-1.014 E0.1219
G1 X4.824 Y-0.613 F9000
G1 X4.812 Y-2.613 E0.0665 F1017
G1 X-7.164 Y-2.581 E0.3983
G1 X-7.170 Y-4.591 E0.0668
G1 X-9.170 Y-4.585 E0.0665
G1 X-9.174 Y-6.270 E0.0560
G1 X8.426 Y-6.317 E0.5854
G1 X8.430 Y-4.632 E0.0560
G1 X6.430 Y-4.627 E0.0665
G1 X6.439 Y-1.418 E0.1067
G1 X9.284 Y-1.425 E0.0946
G1 X9.287 Y-0.625 E0.0266
G1 X4.824 Y-0.613 E0.1484
; feature outer perimeter
G1 X4.427 Y-0.212 F9000
G1 X4.414 Y-2.212 E0.0665 F678
G1 X-7.563 Y-2.180 E0.3984
G1 X-7.569 Y-4.190 E0.0668
G1 X-9.569 Y-4.184 E0.0665
G1 X-9.575 Y-6.668 E0.0826
G1 X8.825 Y-6.718 E0.6120
G1 X8.831 Y-4.234 E0.0826
G1 X6.831 Y-4.228 E0.0665
G1 X6.838 Y-1.819 E0.0801
G1 X9.683 Y-1.826 E0.0946
G1 X9.688 Y-0.226 E0.0532
G1 X4.427 Y-0.212 E0.1750
; feature solid layer
G1 X5.518 Y-1.626 F9000
G1 X5.738 Y-1.846 E0.0103 F1355
G1 X5.736 Y-2.410 E0.0188
G1 X5.515 Y-2.189 E0.0104
G1 X5.511 Y-2.751 E0.0187
G1 X5.735 Y-2.974 E0.0105
G1 X5.733 Y-3.539 E0.0188
G1 X5.507 Y-3.313 E0.0106
G1 X4.943 Y-3.314 E0.0189
G1 X5.732 Y-4.103 E0.0371
G1 X5.730 Y-4.667 E0.0188
G1 X4.375 Y-3.312 E0.0637
G1 X3.808 Y-3.311 E0.0189
G1 X5.729 Y-5.231 E0.0903
G1 X5.728 Y-5.325 E0.0031
G1 X5.823 Y-5.325 E0.0031
G1 X6.108 Y-5.610 E0.0134
G1 X5.541 Y-5.609 E0.0189
G1 X3.241 Y-3.309 E0.1082
G1 X2.674 Y-3.308 E0.0189
G1 X4.974 Y-5.607 E0.1082
G1 X4.406 Y-5.606 E0.0189
G1 X2.107 Y-3.306 E0.1082
G1 X1.539 Y-3.305 E0.0189
G1 X3.839 Y-5.604 E0.1082
G1 X3.272 Y-5.603 E0.0189
G1 X0.972 Y-3.303 E0.1082
G1 X0.405 Y-3.302 E0.0189
G1 X2.705 Y-5.601 E0.1082
G1 X2.138 Y-5.600 E0.0189
G1 X-0.162 Y-3.300 E0.1082
G1 X-0.729 Y-3.299 E0.0189
G1 X1.570 Y-5.598 E0.1082
G1 X1.003 Y-5.597 E0.0189
G1 X-1.297 Y-3.297 E0.1082
G1 X-1.864 Y-3.296 E0.0189
G1 X0.436 Y-5.595 E0.1082
G1 X-0.131 Y-5.594 E0.0189
G1 X-2.431 Y-3.294 E0.1082
G1 X-2.998 Y-3.293 E0.0189
G1 X-0.698 Y-5.592 E0.1082
G1 X-1.266 Y-5.591 E0.0189
G1 X-3.565 Y-3.291 E0.1082
G1 X-4.133 Y-3.290 E0.0189
G1 X-1.833 Y-5.589 E0.1082
G1 X-2.400 Y-5.588 E0.0189
G1 X-4.700 Y-3.288 E0.1082
G1 X-5.267 Y-3.286 E0.0189
G1 X-2.967 Y-5.586 E0.1082
G1 X-3.534 Y-5.585 E0.0189
G1 X-5.834 Y-3.285 E0.1082
G1 X-6.401 Y-3.283 E0.0189
G1 X-4.102 Y-5.583 E0.1082
G1 X-4.669 Y-5.582 E0.0189
G1 X-6.468 Y-3.783 E0.0846
G1 X-6.469 Y-4.347 E0.0188
G1 X-5.236 Y-5.580 E0.0580
G1 X-5.803 Y-5.579 E0.0189
G1 X-6.471 Y-4.911 E0.0314
G1 X-6.472 Y-5.293 E0.0127
G1 X-6.656 Y-5.292 E0.0061
G1 X-6.371 Y-5.577 E0.0134
G1 X-6.938 Y-5.576 E0.0189
G1 X-7.223 Y-5.291 E0.0134
G1 X-7.790 Y-5.289 E0.0189
G1 X-7.505 Y-5.574 E0.0134
G1 X-8.072 Y-5.573 E0.0189
G1 X-8.357 Y-5.288 E0.0134
G1 E-1.9000 F1200
G1 Z0.900 F1200
G1 X6.390 Y-5.327 F9000
G1 Z0.400 F1200
G1 E1.9000 F1200
G1 X6.675 Y-5.612 E0.0134 F1355
G1 X7.242 Y-5.614 E0.0189
G1 X6.957 Y-5.329 E0.0134
G1 X7.525 Y-5.330 E0.0189
G1 X7.728 Y-5.533 E0.0096
; layer 3, Z = 0.600
; feature inner perimeter
G1 Z0.600 F1200
G1 X5.221 Y-1.014 F9000
G1 X5.209 Y-3.015 E0.0665 F1016
G1 X-6.766 Y-2.982 E0.3983
G1 X-6.771 Y-4.992 E0.0668
G1 X-8.771 Y-4.986 E0.0665
G1 X-8.774 Y-5.871 E0.0294
G1 X8.026 Y-5.916 E0.5588
G1 X8.029 Y-5.031 E0.0294
G1 X6.029 Y-5.026 E0.0665
G1 X6.039 Y-1.017 E0.1333
G1 X8.885 Y-1.024 E0.0947
G1 X5.221 Y-1.014 E0.1219
G1 X4.824 Y-0.613 F9000
G1 X4.811 Y-2.613 E0.0665 F1016
G1 X-7.165 Y-2.581 E0.3983
G1 X-7.170 Y-4.591 E0.0668
G1 X-9.170 Y-4.585 E0.0665
G1 X-9.175 Y-6.270 E0.0560
G1 X8.425 Y-6.317 E0.5854
G1 X8.430 Y-4.632 E0.0560
G1 X6.430 Y-4.627 E0.0665
G1 X6.438 Y-1.418 E0.1067
G1 X9.284 Y-1.425 E0.0946
G1 X9.286 Y-0.625 E0.0266
G1 X4.824 Y-0.613 E0.1484
; feature outer perimeter
G1 X4.426 Y-0.212 F9000
G1 X4.414 Y-2.212 E0.0665 F677
G1 X-7.564 Y-2.180 E0.3984
G1 X-7.569 Y-4.190 E0.0668
G1 X-9.569 Y-4.184 E0.0665
G1 X-9.576 Y-6.668 E0.0826
G1 X8.824 Y-6.718 E0.6120
G1 X8.831 Y-4.234 E0.0826
G1 X6.831 Y-4.228 E0.0665
G1 X6.837 Y-1.819 E0.0801
G1 X9.683 Y-1.826 E0.0946
G1 X9.687 Y-0.226 E0.0532
G1 X4.426 Y-0.212 E0.1750
; feature solid layer
G1 X5.519 Y-1.342 F9000
G1 X5.546 Y-1.315 E0.0013 F1354
G1 X5.739 Y-1.315 E0.0064
G1 X5.738 Y-1.689 E0.0124
G1 X5.516 Y-1.911 E0.0104
G1 X5.512 Y-2.480 E0.0189
G1 X5.736 Y-2.256 E0.0105
G1 X5.735 Y-2.824 E0.0189
G1 X5.509 Y-3.050 E0.0106
G1 X7.470 Y-5.614 F9000
G1 X7.728 Y-5.356 E0.0121 F1354
G1 X7.728 Y-5.331 E0.0008
G1 X7.189 Y-5.329 E0.0179
G1 X6.905 Y-5.613 E0.0133
G1 X6.341 Y-5.611 E0.0188
G1 X6.625 Y-5.328 E0.0133
G1 X6.061 Y-5.326 E0.0188
G1 X5.777 Y-5.610 E0.0133
G1 X5.213 Y-5.608 E0.0188
G1 X5.728 Y-5.092 E0.0243
G1 X5.730 Y-4.525 E0.0189
G1 X4.649 Y-5.607 E0.0509
G1 X4.085 Y-5.605 E0.0188
G1 X5.731 Y-3.958 E0.0775
G1 X5.733 Y-3.391 E0.0189
G1 X3.520 Y-5.604 E0.1041
G1 X2.956 Y-5.602 E0.0188
G1 X5.244 Y-3.315 E0.1076
G1 X4.679 Y-3.313 E0.0188
G1 X2.392 Y-5.601 E0.1076
G1 X1.828 Y-5.599 E0.0188
G1 X4.115 Y-3.312 E0.1076
G1 X3.551 Y-3.310 E0.0188
G1 X1.264 Y-5.598 E0.1076
G1 X0.699 Y-5.596 E0.0188
G1 X2.987 Y-3.309 E0.1076
G1 X2.423 Y-3.307 E0.0188
G1 X0.135 Y-5.594 E0.1076
G1 X-0.429 Y-5.593 E0.0188
G1 X1.859 Y-3.306 E0.1076
G1 X1.294 Y-3.304 E0.0188
G1 X-0.993 Y-5.591 E0.1076
G1 X-1.557 Y-5.590 E0.0188
G1 X0.730 Y-3.303 E0.1076
G1 X0.166 Y-3.301 E0.0188
G1 X-2.121 Y-5.588 E0.1076
G1 X-2.686 Y-5.587 E0.0188
G1 X-0.398 Y-3.300 E0.1076
G1 X-0.962 Y-3.298 E0.0188
G1 X-3.250 Y-5.585 E0.1076
G1 X-3.814 Y-5.584 E0.0188
G1 X-1.527 Y-3.297 E0.1076
G1 X-2.091 Y-3.295 E0.0188
G1 X-4.378 Y-5.582 E0.1076
G1 X-4.942 Y-5.581 E0.0188
G1 X-2.655 Y-3.293 E0.1076
G1 X-3.219 Y-3.292 E0.0188
G1 X-5.506 Y-5.579 E0.1076
G1 X-6.071 Y-5.578 E0.0188
G1 X-3.783 Y-3.290 E0.1076
G1 X-4.347 Y-3.289 E0.0188
G1 X-6.635 Y-5.576 E0.1076
G1 X-7.199 Y-5.575 E0.0188
G1 X-6.915 Y-5.291 E0.0133
G1 X-7.480 Y-5.290 E0.0188
G1 X-7.763 Y-5.573 E0.0133
G1 X-8.327 Y-5.572 E0.0188
G1 X-8.044 Y-5.288 E0.0133
G1 X-6.471 Y-4.847 F9000
G1 X-4.912 Y-3.287 E0.0733 F1354
G1 X-5.476 Y-3.286 E0.0188
G1 X-6.469 Y-4.280 E0.0467
G1 X-6.468 Y-3.712 E0.0189
G1 X-6.040 Y-3.284 E0.0201
G1 E-1.9000 F1200
