; G-Code generated by Simplify3D(R) Version 4.1.2
; Apr 6, 2020 at 12:06:57 PM
; Settings Summary
;   processName,Process1
;   applyToModels,crossbow 3-9-17
;   profileName,MakerBot Replicator 2 HBP (modified)
;   profileVersion,2020-03-12 10:48:50
;   baseProfile,MakerBot Replicator 2(2)
;   printMaterial,PLA
;   printQuality,Medium
;   printExtruders,
;   extruderName,Primary Extruder
;   extruderToolheadNumber,0
;   extruderDiameter,0.4
;   extruderAutoWidth,0
;   extruderWidth,0.4
;   extrusionMultiplier,1
;   extruderUseRetract,1
;   extruderRetractionDistance,1.9
;   extruderExtraRestartDistance,0
;   extruderRetractionZLift,0.5
;   extruderRetractionSpeed,1200
;   extruderUseCoasting,0
;   extruderCoastingDistance,0.2
;   extruderUseWipe,0
;   extruderWipeDistance,5
;   primaryExtruder,0
;   layerHeight,0.2
;   topSolidLayers,3
;   bottomSolidLayers,3
;   perimeterOutlines,3
;   printPerimetersInsideOut,1
;   startPointOption,3
;   startPointOriginX,0
;   startPointOriginY,150
;   sequentialIslands,0
;   spiralVaseMode,0
;   firstLayerHeightPercentage,100
;   firstLayerWidthPercentage,115
;   firstLayerUnderspeed,0.5
;   useRaft,0
;   raftExtruder,0
;   raftTopLayers,2
;   raftBaseLayers,1
;   raftOffset,1
;   raftSeparationDistance,0.14
;   raftTopInfill,90
;   aboveRaftSpeedMultiplier,0.3
;   useSkirt,0
;   skirtExtruder,0
;   skirtLayers,1
;   skirtOutlines,5
;   skirtOffset,0
;   usePrimePillar,0
;   primePillarExtruder,999
;   primePillarWidth,12
;   primePillarLocation,7
;   primePillarSpeedMultiplier,1
;   useOozeShield,0
;   oozeShieldExtruder,999
;   oozeShieldOffset,2
;   oozeShieldOutlines,1
;   oozeShieldSidewallShape,1
;   oozeShieldSidewallAngle,30
;   oozeShieldSpeedMultiplier,1
;   infillExtruder,0
;   internalInfillPattern,Rectilinear
;   externalInfillPattern,Rectilinear
;   infillPercentage,15
;   outlineOverlapPercentage,25
;   infillExtrusionWidthPercentage,100
;   minInfillLength,5
;   infillLayerInterval,1
;   internalInfillAngles,45,-45
;   overlapInternalInfillAngles,0
;   externalInfillAngles,45,-45
;   generateSupport,1
;   supportExtruder,0
;   supportInfillPercentage,15
;   supportExtraInflation,0.5
;   supportBaseLayers,0
;   denseSupportExtruder,0
;   denseSupportLayers,2
;   denseSupportInfillPercentage,90
;   supportLayerInterval,1
;   supportHorizontalPartOffset,0.3
;   supportUpperSeparationLayers,1
;   supportLowerSeparationLayers,1
;   supportType,1
;   supportGridSpacing,2
;   maxOverhangAngle,45
;   supportAngles,45,-45
;   temperatureName,Primary Extruder,Heated Build Platform
;   temperatureNumber,0,0
;   temperatureSetpointCount,1,1
;   temperatureSetpointLayers,1,1
;   temperatureSetpointTemperatures,230,60
;   temperatureStabilizeAtStartup,1,1
;   temperatureHeatedBed,0,1
;   fanLayers,1,2
;   fanSpeeds,0,100
;   blipFanToFullPower,1
;   adjustSpeedForCooling,1
;   minSpeedLayerTime,15
;   minCoolingSpeedSlowdown,20
;   increaseFanForCooling,1
;   minFanLayerTime,45
;   maxCoolingFanSpeed,100
;   increaseFanForBridging,1
;   bridgingFanSpeed,100
;   use5D,1
;   relativeEdistances,1
;   allowEaxisZeroing,0
;   independentExtruderAxes,1
;   includeM10123,0
;   stickySupport,1
;   applyToolheadOffsets,0
;   gcodeXoffset,0
;   gcodeYoffset,0
;   gcodeZoffset,0
;   overrideMachineDefinition,1
;   machineTypeOverride,0
;   strokeXoverride,280
;   strokeYoverride,150
;   strokeZoverride,150
;   originOffsetXoverride,140
;   originOffsetYoverride,75
;   originOffsetZoverride,0
;   homeXdirOverride,1
;   homeYdirOverride,1
;   homeZdirOverride,-1
;   flipXoverride,1
;   flipYoverride,-1
;   flipZoverride,1
;   toolheadOffsets,0,0|0,0|0,0|0,0|0,0|0,0
;   overrideFirmwareConfiguration,1
;   firmwareTypeOverride,MakerBot/Sailfish Firmware
;   GPXconfigOverride,r2h
;   baudRateOverride,115200
;   overridePrinterModels,1
;   printerModelsOverride,MakerBot_Replicator2.stl
;   startingGcode,; **** Replicator 2 start.gcode ****,M73 P0 ; enable build progress,G162 X Y F3000 ; home XY maximum,G161 Z F1200 ; home Z minimum,G92 Z-5 ; set Z to -5,G1 Z0 ; move Z to 0,G161 Z F100 ; home Z slowly,M132 X Y Z A B ; recall home offsets,G1 X-145 Y-75 Z30 F9000 ; move to wait position off table,G130 X20 Y20 Z20 A20 B20 ; lower stepper Vrefs while heating,M126 S[fan_speed_pwm],M140 S[bed0_temperature] T0,M134 T0 ; stabilize bed temperature,M104 S[extruder0_temperature] T0,M133 T0 ; stabilize extruder temperature,G130 X127 Y127 Z40 A127 B127 ; default stepper Vrefs,G92 A0 ; zero extruder,G1 Z0.4 ; position nozzle,G1 E25 F300 ; purge nozzle,G1 X-140 Y-70 Z0.15 F1200 ; slow wipe,G1 X-135 Y-65 Z0.5 F1200 ; lift,G92 A0 ; zero extruder,M73 P1 ;@body (notify GPX body has started),; **** end of start.gcode ****
;   layerChangeGcode,
;   retractionGcode,
;   toolChangeGcode,
;   endingGcode,; **** Replicator 2 end.gcode ****,M73 P100 ; end build progress,G1 Z155 F1000 ; send Z axis to bottom of machine,M104 S0 T0 ; cool down extruder,M140 S0 T0 ; cool down HBP,M127 ; stop blower fan,G162 X Y F3000 ; home XY maximum,M18 ; disable stepper,M0 ; stop codes,M72 P1 ; play Ta-Da song,; **** end of end.gcode ****
;   exportFileFormat,gcode
;   celebration,0
;   celebrationSong,Random Song
;   postProcessing,
;   defaultSpeed,4800
;   outlineUnderspeed,0.5
;   solidInfillUnderspeed,1
;   supportUnderspeed,1
;   rapidXYspeed,9000
;   rapidZspeed,1200
;   minBridgingArea,50
;   bridgingExtraInflation,0
;   bridgingExtrusionMultiplier,1
;   bridgingSpeedMultiplier,0.8
;   useFixedBridgingAngle,0
;   fixedBridgingAngle,0
;   applyBridgingToPerimeters,0
;   filamentDiameters,1.75|1.75|1.75|1.75|1.75|1.75
;   filamentPricesPerKg,46|46|46|46|46|46
;   filamentDensities,1.25|1.25|1.25|1.25|1.25|1.25
;   useMinPrintHeight,0
;   minPrintHeight,0
;   useMaxPrintHeight,0
;   maxPrintHeight,4.84
;   useDiaphragm,0
;   diaphragmLayerInterval,20
;   robustSlicing,1
;   mergeAllIntoSolid,0
;   onlyRetractWhenCrossingOutline,0
;   retractBetweenLayers,0
;   useRetractionMinTravel,1
;   retractionMinTravel,7
;   retractWhileWiping,1
;   onlyWipeOutlines,1
;   avoidCrossingOutline,0
;   maxMovementDetourFactor,3
;   toolChangeRetractionDistance,12
;   toolChangeExtraRestartDistance,-0.5
;   toolChangeRetractionSpeed,600
;   externalThinWallType,0
;   internalThinWallType,0
;   thinWallAllowedOverlapPercentage,10
;   singleExtrusionMinLength,1
;   singleExtrusionMinPrintingWidthPercentage,50
;   singleExtrusionMaxPrintingWidthPercentage,200
;   singleExtrusionEndpointExtension,0.2
;   horizontalSizeCompensation,0
G90
M83
; **** Replicator 2 start.gcode ****
M73 P0 ; enable build progress
G162 X Y F3000 ; home XY maximum
G161 Z F1200 ; home Z minimum
G92 Z-5 ; set Z to -5
G1 Z0 ; move Z to 0
G161 Z F100 ; home Z slowly
M132 X Y Z A B ; recall home offsets
G1 X-145 Y-75 Z30 F9000 ; move to wait position off table
G130 X20 Y20 Z20 A20 B20 ; lower stepper Vrefs while heating
M127
M140 S60 T0
M134 T0 ; stabilize bed temperature
M104 S230 T0
M133 T0 ; stabilize extruder temperature
G130 X127 Y127 Z40 A127 B127 ; default stepper Vrefs
G92 A0 ; zero extruder
G1 Z0.4 ; position nozzle
G1 E25 F300 ; purge nozzle
G1 X-140 Y-70 Z0.15 F1200 ; slow wipe
G1 X-135 Y-65 Z0.5 F1200 ; lift
G92 A0 ; zero extruder
M73 P1 ;@body (notify GPX body has started)
; **** end of start.gcode ****
; process Process1
; layer 1, Z = 0.200
M135 T0
G1 E-1.9000 F1200
; feature inner perimeter
; tool H0.200 W0.460
G1 Z0.500 F1200
G1 X13.467 Y2.344 F9000
G1 Z0.200 F1200
G1 E1.9000 F1200
G1 X13.441 Y2.265 E0.0032 F1800
G1 X13.480 Y2.265 E0.0015
G1 X13.480 Y-2.310 E0.1750
G1 X13.458 Y-2.310 E0.0009
G1 X13.467 Y-2.338 E0.0011
G1 X14.705 Y-1.392 E0.0596
G1 X35.953 Y-1.498 E0.8127
G1 X35.950 Y-1.582 E0.0032
G1 X69.322 Y-1.756 E1.2765
G1 X69.322 Y1.681 E0.1315
G1 X34.767 Y1.492 E1.3217
G1 X14.705 Y1.399 E0.7673
G1 X13.467 Y2.344 E0.0596
G1 E-1.9000 F1200
G1 Z0.700 F1200
G1 X-51.441 Y2.296 F9000
G1 Z0.200 F1200
G1 E1.9000 F1200
G1 X-50.211 Y21.249 E0.7265 F1800
G1 X-51.172 Y9.478 E0.4517
G1 X-53.284 Y9.471 E0.0808
G1 X-54.034 Y17.946 E0.3254
G1 X-52.847 Y3.593 E0.5509
G1 X-54.550 Y3.017 E0.0688
G1 X-55.592 Y4.641 E0.0738
G1 X-57.393 Y7.986 E0.1453
G1 X-58.685 Y10.888 E0.1215
G1 X-58.830 Y9.970 E0.0356
G1 X-58.933 Y9.768 E0.0087
G1 X-59.347 Y8.956 E0.0349
G1 X-60.151 Y8.151 E0.0435
G1 X-61.165 Y7.634 E0.0435
G1 X-62.289 Y7.456 E0.0435
G1 X-63.413 Y7.634 E0.0435
G1 X-64.427 Y8.151 E0.0435
G1 X-65.232 Y8.956 E0.0435
G1 X-65.748 Y9.970 E0.0435
G1 X-65.926 Y11.093 E0.0435
G1 X-65.764 Y12.121 E0.0398
G1 X-65.244 Y13.219 E0.0465
G1 X-64.427 Y14.036 E0.0442
G1 X-64.333 Y14.084 E0.0040
G1 X-64.391 Y14.116 E0.0025
G1 X-64.905 Y14.630 E0.0278
G1 X-65.270 Y15.347 E0.0308
G1 X-65.396 Y16.141 E0.0308
G1 X-65.270 Y16.935 E0.0308
G1 X-64.905 Y17.652 E0.0308
G1 X-64.337 Y18.221 E0.0308
G1 X-64.213 Y18.283 E0.0053
G1 X-64.316 Y18.336 E0.0044
G1 X-64.765 Y18.785 E0.0243
G1 X-65.053 Y19.350 E0.0243
G1 X-65.152 Y19.977 E0.0243
G1 X-65.053 Y20.604 E0.0243
G1 X-64.765 Y21.170 E0.0243
G1 X-64.334 Y21.601 E0.0233
G1 X-63.760 Y21.906 E0.0249
G1 X-63.123 Y22.007 E0.0247
G1 X-62.496 Y21.907 E0.0243
G1 X-62.116 Y21.714 E0.0163
G1 X-62.641 Y24.616 E0.1128
G1 X-62.791 Y25.380 E0.0298
G1 X-63.097 Y25.837 E0.0210
G1 X-63.478 Y26.091 E0.0175
G1 X-64.937 Y26.157 E0.0559
G1 X-62.867 Y33.828 E0.3039
G1 X-61.076 Y38.974 E0.2084
G1 X-58.958 Y44.042 E0.2101
G1 X-57.973 Y45.811 E0.0774
G1 X-56.469 Y45.486 E0.0589
G1 X-56.744 Y48.602 E0.1197
G1 X-59.294 Y44.752 E0.1766
G1 X-61.887 Y39.585 E0.2211
G1 X-64.156 Y34.237 E0.2222
G1 X-66.416 Y27.553 E0.2698
G1 X-67.655 Y23.134 E0.1755
G1 X-68.861 Y17.451 E0.2222
G1 X-69.569 Y11.701 E0.2216
G1 X-69.814 Y7.283 E0.1692
G1 X-64.763 Y7.257 E0.1932
G1 X-64.763 Y2.302 E0.1895
G1 X-51.441 Y2.296 E0.5096
G1 X-51.440 Y-2.298 F9000
G1 X-64.763 Y-2.296 E0.5096 F1800
G1 X-64.763 Y-7.257 E0.1897
G1 X-69.814 Y-7.283 E0.1932
G1 X-69.569 Y-11.701 E0.1692
G1 X-68.861 Y-17.451 E0.2216
G1 X-67.655 Y-23.134 E0.2222
G1 X-66.413 Y-27.566 E0.1760
G1 X-64.156 Y-34.236 E0.2693
G1 X-61.887 Y-39.585 E0.2222
G1 X-59.294 Y-44.751 E0.2211
G1 X-56.855 Y-48.429 E0.1688
G1 X-56.659 Y-46.274 E0.0827
G1 X-57.734 Y-46.486 E0.0419
G1 X-58.968 Y-44.019 E0.1055
G1 X-61.076 Y-38.974 E0.2091
G1 X-62.867 Y-33.828 E0.2084
G1 X-64.926 Y-26.202 E0.3021
G1 X-63.491 Y-26.101 E0.0550
G1 X-63.096 Y-25.838 E0.0182
G1 X-62.790 Y-25.380 E0.0210
G1 X-62.639 Y-24.616 E0.0298
G1 X-62.115 Y-21.713 E0.1129
G1 X-62.521 Y-21.911 E0.0173
G1 X-63.123 Y-22.007 E0.0233
G1 X-63.750 Y-21.907 E0.0243
G1 X-64.316 Y-21.619 E0.0243
G1 X-64.747 Y-21.188 E0.0233
G1 X-65.051 Y-20.614 E0.0249
G1 X-65.152 Y-19.977 E0.0247
G1 X-65.053 Y-19.350 E0.0243
G1 X-64.765 Y-18.785 E0.0243
G1 X-64.316 Y-18.336 E0.0243
G1 X-64.213 Y-18.283 E0.0044
G1 X-64.337 Y-18.221 E0.0053
G1 X-64.905 Y-17.652 E0.0308
G1 X-65.270 Y-16.935 E0.0308
G1 X-65.396 Y-16.141 E0.0308
G1 X-65.270 Y-15.347 E0.0308
G1 X-64.905 Y-14.630 E0.0308
G1 X-64.350 Y-14.076 E0.0300
G1 X-64.428 Y-14.036 E0.0033
G1 X-65.233 Y-13.231 E0.0435
G1 X-65.749 Y-12.217 E0.0435
G1 X-65.927 Y-11.093 E0.0435
G1 X-65.749 Y-9.970 E0.0435
G1 X-65.233 Y-8.956 E0.0435
G1 X-64.428 Y-8.151 E0.0435
G1 X-63.414 Y-7.634 E0.0435
G1 X-62.290 Y-7.456 E0.0435
G1 X-61.390 Y-7.599 E0.0349
G1 X-61.166 Y-7.634 E0.0087
G1 X-60.152 Y-8.151 E0.0435
G1 X-59.347 Y-8.956 E0.0435
G1 X-58.831 Y-9.969 E0.0435
G1 X-58.684 Y-10.899 E0.0360
G1 X-57.387 Y-7.986 E0.1220
G1 X-55.587 Y-4.644 E0.1452
G1 X-54.557 Y-3.022 E0.0735
G1 X-52.854 Y-3.586 E0.0686
G1 X-53.288 Y-9.422 E0.2238
G1 X-51.197 Y-9.431 E0.0800
G1 X-50.378 Y-19.389 E0.3822
G1 X-51.440 Y-2.298 E0.6550
G1 E-1.9000 F1200
G1 Z0.700 F1200
G1 X-59.759 Y-13.643 F9000
G1 Z0.200 F1200
G1 E1.9000 F1200
G1 X-60.152 Y-14.036 E0.0212 F1800
G1 X-60.940 Y-14.437 E0.0338
G1 X-60.746 Y-14.630 E0.0105
G1 X-60.381 Y-15.347 E0.0308
G1 X-60.376 Y-15.381 E0.0013
G1 X-60.144 Y-14.649 E0.0294
G1 X-59.759 Y-13.643 E0.0412
G1 X-61.242 Y-18.147 F9000
G1 X-61.315 Y-18.221 E0.0040 F1800
G1 X-61.799 Y-18.467 E0.0208
G1 X-61.481 Y-18.785 E0.0172
G1 X-61.429 Y-18.888 E0.0044
G1 X-61.242 Y-18.147 E0.0292
G1 E-1.9000 F1200
G1 Z0.700 F1200
G1 X-54.169 Y-48.630 F9000
G1 Z0.200 F1200
G1 E1.9000 F1200
G1 X-54.435 Y-48.693 E0.0105 F1800
G1 X-54.700 Y-48.768 E0.0105
G1 X-56.254 Y-49.336 E0.0633
G1 X-56.243 Y-49.353 E0.0008
G1 X-57.349 Y-50.478 E0.0603
G1 X-57.526 Y-50.687 E0.0105
G1 X-57.692 Y-50.904 E0.0105
G1 X-57.813 Y-51.088 E0.0084
G1 X-57.554 Y-50.978 E0.0108
G1 X-57.059 Y-50.875 E0.0193
G1 X-56.554 Y-50.871 E0.0193
G1 X-56.058 Y-50.965 E0.0193
G1 X-55.590 Y-51.154 E0.0193
G1 X-55.167 Y-51.431 E0.0193
G1 X-54.807 Y-51.786 E0.0193
G1 X-54.523 Y-52.203 E0.0193
G1 X-54.325 Y-52.668 E0.0193
G1 X-54.220 Y-53.177 E0.0199
G1 X-54.229 Y-53.780 E0.0231
G1 X-54.348 Y-54.271 E0.0193
G1 X-54.510 Y-54.644 E0.0156
G1 X-54.779 Y-55.055 E0.0188
G1 X-55.133 Y-55.415 E0.0193
G1 X-55.551 Y-55.699 E0.0193
G1 X-56.016 Y-55.897 E0.0193
G1 X-56.510 Y-56.000 E0.0193
G1 X-57.015 Y-56.004 E0.0193
G1 X-57.512 Y-55.910 E0.0193
G1 X-57.980 Y-55.720 E0.0193
G1 X-58.402 Y-55.443 E0.0193
G1 X-58.763 Y-55.089 E0.0193
G1 X-58.782 Y-55.060 E0.0013
G1 X-58.755 Y-55.263 E0.0078
G1 X-58.636 Y-55.840 E0.0225
G1 X-58.464 Y-56.389 E0.0220
G1 X-58.241 Y-56.915 E0.0218
G1 X-58.114 Y-57.163 E0.0107
G1 X-57.800 Y-57.677 E0.0230
G1 X-57.649 Y-57.888 E0.0099
G1 X-57.271 Y-58.340 E0.0225
G1 X-56.851 Y-58.753 E0.0225
G1 X-56.653 Y-58.921 E0.0099
G1 X-56.251 Y-59.214 E0.0191
G1 X-56.373 Y-58.925 E0.0120
G1 X-56.476 Y-58.430 E0.0193
G1 X-56.481 Y-57.925 E0.0193
G1 X-56.386 Y-57.429 E0.0193
G1 X-56.197 Y-56.960 E0.0193
G1 X-55.920 Y-56.538 E0.0193
G1 X-55.566 Y-56.178 E0.0193
G1 X-55.148 Y-55.893 E0.0193
G1 X-54.683 Y-55.696 E0.0193
G1 X-54.189 Y-55.593 E0.0193
G1 X-53.683 Y-55.589 E0.0193
G1 X-53.187 Y-55.683 E0.0193
G1 X-52.719 Y-55.873 E0.0193
G1 X-52.296 Y-56.150 E0.0193
G1 X-51.936 Y-56.504 E0.0193
G1 X-51.652 Y-56.921 E0.0193
G1 X-51.455 Y-57.386 E0.0193
G1 X-51.352 Y-57.881 E0.0193
G1 X-51.347 Y-58.386 E0.0193
G1 X-51.442 Y-58.882 E0.0193
G1 X-51.631 Y-59.351 E0.0193
G1 X-51.908 Y-59.773 E0.0193
G1 X-52.262 Y-60.133 E0.0193
G1 X-52.354 Y-60.196 E0.0042
G1 X-52.338 Y-60.195 E0.0006
G1 X-51.770 Y-60.105 E0.0220
G1 X-51.213 Y-59.961 E0.0220
G1 X-50.673 Y-59.762 E0.0220
G1 X-50.143 Y-59.506 E0.0225
G1 X-49.918 Y-59.376 E0.0099
G1 X-49.431 Y-59.045 E0.0225
G1 X-48.989 Y-58.676 E0.0220
G1 X-48.576 Y-58.256 E0.0225
G1 X-48.408 Y-58.057 E0.0099
G1 X-48.060 Y-57.581 E0.0226
G1 X-48.052 Y-57.568 E0.0006
G1 X-48.303 Y-57.689 E0.0107
G1 X-48.792 Y-57.816 E0.0193
G1 X-49.297 Y-57.845 E0.0193
G1 X-49.797 Y-57.775 E0.0193
G1 X-50.274 Y-57.609 E0.0193
G1 X-50.710 Y-57.353 E0.0193
G1 X-51.087 Y-57.017 E0.0193
G1 X-51.391 Y-56.614 E0.0193
G1 X-51.611 Y-56.159 E0.0193
G1 X-51.738 Y-55.670 E0.0193
G1 X-51.767 Y-55.166 E0.0193
G1 X-51.697 Y-54.665 E0.0193
G1 X-51.531 Y-54.188 E0.0193
G1 X-51.275 Y-53.753 E0.0193
G1 X-50.939 Y-53.376 E0.0193
G1 X-50.536 Y-53.071 E0.0193
G1 X-50.081 Y-52.851 E0.0193
G1 X-49.592 Y-52.725 E0.0193
G1 X-49.088 Y-52.695 E0.0193
G1 X-48.588 Y-52.765 E0.0193
G1 X-48.110 Y-52.931 E0.0193
G1 X-47.675 Y-53.187 E0.0193
G1 X-47.298 Y-53.523 E0.0193
G1 X-47.143 Y-53.728 E0.0098
G1 X-47.172 Y-53.457 E0.0104
G1 X-47.292 Y-52.880 E0.0226
G1 X-47.363 Y-52.631 E0.0099
G1 X-47.567 Y-52.078 E0.0225
G1 X-47.823 Y-51.547 E0.0225
G1 X-47.954 Y-51.320 E0.0100
G1 X-48.851 Y-49.991 E0.0613
G1 X-49.785 Y-49.443 E0.0414
G1 X-49.768 Y-49.471 E0.0012
G1 X-49.594 Y-49.945 E0.0193
G1 X-49.516 Y-50.444 E0.0193
G1 X-49.536 Y-50.949 E0.0193
G1 X-49.655 Y-51.440 E0.0193
G1 X-49.867 Y-51.898 E0.0193
G1 X-50.164 Y-52.306 E0.0193
G1 X-50.535 Y-52.649 E0.0193
G1 X-50.967 Y-52.912 E0.0193
G1 X-51.441 Y-53.087 E0.0193
G1 X-51.940 Y-53.165 E0.0193
G1 X-52.444 Y-53.144 E0.0193
G1 X-52.936 Y-53.026 E0.0193
G1 X-53.394 Y-52.814 E0.0193
G1 X-53.802 Y-52.516 E0.0193
G1 X-54.145 Y-52.145 E0.0193
G1 X-54.408 Y-51.714 E0.0193
G1 X-54.582 Y-51.240 E0.0193
G1 X-54.661 Y-50.741 E0.0193
G1 X-54.640 Y-50.236 E0.0193
G1 X-54.522 Y-49.745 E0.0193
G1 X-54.310 Y-49.286 E0.0193
