; G-Code generated by Simplify3D(R) Version 4.1.2
; Apr 6, 2020 at 11:58:01 AM
; Settings Summary
;   processName,Process1
;   applyToModels,Prison sign4
;   profileName,MakerBot Replicator 2 HBP (modified)
;   profileVersion,2020-03-12 10:48:50
;   baseProfile,MakerBot Replicator 2(2)
;   printMaterial,PLA
;   printQuality,Medium
;   printExtruders,
;   extruderName,Primary Extruder
;   extruderToolheadNumber,0
;   extruderDiameter,0.4
;   extruderAutoWidth,0
;   extruderWidth,0.4
;   extrusionMultiplier,1
;   extruderUseRetract,1
;   extruderRetractionDistance,1.9
;   extruderExtraRestartDistance,0
;   extruderRetractionZLift,0.5
;   extruderRetractionSpeed,1200
;   extruderUseCoasting,0
;   extruderCoastingDistance,0.2
;   extruderUseWipe,0
;   extruderWipeDistance,5
;   primaryExtruder,0
;   layerHeight,0.2
;   topSolidLayers,3
;   bottomSolidLayers,3
;   perimeterOutlines,3
;   printPerimetersInsideOut,1
;   startPointOption,3
;   startPointOriginX,0
;   startPointOriginY,150
;   sequentialIslands,0
;   spiralVaseMode,0
;   firstLayerHeightPercentage,100
;   firstLayerWidthPercentage,115
;   firstLayerUnderspeed,0.5
;   useRaft,0
;   raftExtruder,0
;   raftTopLayers,2
;   raftBaseLayers,1
;   raftOffset,1
;   raftSeparationDistance,0.14
;   raftTopInfill,90
;   aboveRaftSpeedMultiplier,0.3
;   useSkirt,0
;   skirtExtruder,0
;   skirtLayers,1
;   skirtOutlines,5
;   skirtOffset,0
;   usePrimePillar,0
;   primePillarExtruder,999
;   primePillarWidth,12
;   primePillarLocation,7
;   primePillarSpeedMultiplier,1
;   useOozeShield,0
;   oozeShieldExtruder,999
;   oozeShieldOffset,2
;   oozeShieldOutlines,1
;   oozeShieldSidewallShape,1
;   oozeShieldSidewallAngle,30
;   oozeShieldSpeedMultiplier,1
;   infillExtruder,0
;   internalInfillPattern,Rectilinear
;   externalInfillPattern,Rectilinear
;   infillPercentage,15
;   outlineOverlapPercentage,25
;   infillExtrusionWidthPercentage,100
;   minInfillLength,5
;   infillLayerInterval,1
;   internalInfillAngles,45,-45
;   overlapInternalInfillAngles,0
;   externalInfillAngles,45,-45
;   generateSupport,1
;   supportExtruder,0
;   supportInfillPercentage,30
;   supportExtraInflation,0.5
;   supportBaseLayers,0
;   denseSupportExtruder,0
;   denseSupportLayers,2
;   denseSupportInfillPercentage,90
;   supportLayerInterval,1
;   supportHorizontalPartOffset,0.3
;   supportUpperSeparationLayers,1
;   supportLowerSeparationLayers,1
;   supportType,1
;   supportGridSpacing,2
;   maxOverhangAngle,45
;   supportAngles,45,-45
;   temperatureName,Primary Extruder,Heated Build Platform
;   temperatureNumber,0,0
;   temperatureSetpointCount,1,1
;   temperatureSetpointLayers,1,1
;   temperatureSetpointTemperatures,230,60
;   temperatureStabilizeAtStartup,1,1
;   temperatureHeatedBed,0,1
;   fanLayers,1,2
;   fanSpeeds,0,100
;   blipFanToFullPower,1
;   adjustSpeedForCooling,1
;   minSpeedLayerTime,15
;   minCoolingSpeedSlowdown,20
;   increaseFanForCooling,1
;   minFanLayerTime,45
;   maxCoolingFanSpeed,100
;   increaseFanForBridging,1
;   bridgingFanSpeed,100
;   use5D,1
;   relativeEdistances,1
;   allowEaxisZeroing,0
;   independentExtruderAxes,1
;   includeM10123,0
;   stickySupport,1
;   applyToolheadOffsets,0
;   gcodeXoffset,0
;   gcodeYoffset,0
;   gcodeZoffset,0
;   overrideMachineDefinition,1
;   machineTypeOverride,0
;   strokeXoverride,280
;   strokeYoverride,150
;   strokeZoverride,150
;   originOffsetXoverride,140
;   originOffsetYoverride,75
;   originOffsetZoverride,0
;   homeXdirOverride,1
;   homeYdirOverride,1
;   homeZdirOverride,-1
;   flipXoverride,1
;   flipYoverride,-1
;   flipZoverride,1
;   toolheadOffsets,0,0|0,0|0,0|0,0|0,0|0,0
;   overrideFirmwareConfiguration,1
;   firmwareTypeOverride,MakerBot/Sailfish Firmware
;   GPXconfigOverride,r2h
;   baudRateOverride,115200
;   overridePrinterModels,1
;   printerModelsOverride,MakerBot_Replicator2.stl
;   startingGcode,; **** Replicator 2 start.gcode ****,M73 P0 ; enable build progress,G162 X Y F3000 ; home XY maximum,G161 Z F1200 ; home Z minimum,G92 Z-5 ; set Z to -5,G1 Z0 ; move Z to 0,G161 Z F100 ; home Z slowly,M132 X Y Z A B ; recall home offsets,G1 X-145 Y-75 Z30 F9000 ; move to wait position off table,G130 X20 Y20 Z20 A20 B20 ; lower stepper Vrefs while heating,M126 S[fan_speed_pwm],M140 S[bed0_temperature] T0,M134 T0 ; stabilize bed temperature,M104 S[extruder0_temperature] T0,M133 T0 ; stabilize extruder temperature,G130 X127 Y127 Z40 A127 B127 ; default stepper Vrefs,G92 A0 ; zero extruder,G1 Z0.4 ; position nozzle,G1 E25 F300 ; purge nozzle,G1 X-140 Y-70 Z0.15 F1200 ; slow wipe,G1 X-135 Y-65 Z0.5 F1200 ; lift,G92 A0 ; zero extruder,M73 P1 ;@body (notify GPX body has started),; **** end of start.gcode ****
;   layerChangeGcode,
;   retractionGcode,
;   toolChangeGcode,
;   endingGcode,; **** Replicator 2 end.gcode ****,M73 P100 ; end build progress,G1 Z155 F1000 ; send Z axis to bottom of machine,M104 S0 T0 ; cool down extruder,M140 S0 T0 ; cool down HBP,M127 ; stop blower fan,G162 X Y F3000 ; home XY maximum,M18 ; disable stepper,M0 ; stop codes,M72 P1 ; play Ta-Da song,; **** end of end.gcode ****
;   exportFileFormat,gcode
;   celebration,0
;   celebrationSong,Random Song
;   postProcessing,
;   defaultSpeed,4800
;   outlineUnderspeed,0.5
;   solidInfillUnderspeed,1
;   supportUnderspeed,1
;   rapidXYspeed,9000
;   rapidZspeed,1200
;   minBridgingArea,50
;   bridgingExtraInflation,0
;   bridgingExtrusionMultiplier,1
;   bridgingSpeedMultiplier,0.8
;   useFixedBridgingAngle,0
;   fixedBridgingAngle,0
;   applyBridgingToPerimeters,0
;   filamentDiameters,1.75|1.75|1.75|1.75|1.75|1.75
;   filamentPricesPerKg,46|46|46|46|46|46
;   filamentDensities,1.25|1.25|1.25|1.25|1.25|1.25
;   useMinPrintHeight,0
;   minPrintHeight,0
;   useMaxPrintHeight,0
;   maxPrintHeight,4.84
;   useDiaphragm,0
;   diaphragmLayerInterval,20
;   robustSlicing,1
;   mergeAllIntoSolid,0
;   onlyRetractWhenCrossingOutline,0
;   retractBetweenLayers,0
;   useRetractionMinTravel,1
;   retractionMinTravel,7
;   retractWhileWiping,1
;   onlyWipeOutlines,1
;   avoidCrossingOutline,0
;   maxMovementDetourFactor,3
;   toolChangeRetractionDistance,12
;   toolChangeExtraRestartDistance,-0.5
;   toolChangeRetractionSpeed,600
;   externalThinWallType,0
;   internalThinWallType,0
;   thinWallAllowedOverlapPercentage,10
;   singleExtrusionMinLength,1
;   singleExtrusionMinPrintingWidthPercentage,50
;   singleExtrusionMaxPrintingWidthPercentage,200
;   singleExtrusionEndpointExtension,0.2
;   horizontalSizeCompensation,0
G90
M83
; **** Replicator 2 start.gcode ****
M73 P0 ; enable build progress
G162 X Y F3000 ; home XY maximum
G161 Z F1200 ; home Z minimum
G92 Z-5 ; set Z to -5
G1 Z0 ; move Z to 0
G161 Z F100 ; home Z slowly
M132 X Y Z A B ; recall home offsets
G1 X-145 Y-75 Z30 F9000 ; move to wait position off table
G130 X20 Y20 Z20 A20 B20 ; lower stepper Vrefs while heating
M126 S170
M140 S60 T0
M134 T0 ; stabilize bed temperature
M104 S230 T0
M133 T0 ; stabilize extruder temperature
G130 X127 Y127 Z40 A127 B127 ; default stepper Vrefs
G92 A0 ; zero extruder
G1 Z0.4 ; position nozzle
G1 E25 F300 ; purge nozzle
G1 X-140 Y-70 Z0.15 F1200 ; slow wipe
G1 X-135 Y-65 Z0.5 F1200 ; lift
G92 A0 ; zero extruder
M73 P1 ;@body (notify GPX body has started)
; **** end of start.gcode ****
; process Process1
; layer 1, Z = 0.200
M135 T0
G1 E-1.9000 F1200
; feature inner perimeter
; tool H0.200 W0.460
G1 Z0.500 F1200
G1 X-6.297 Y-1.150 F9000
G1 Z0.200 F1200
G1 E1.9000 F1200
G1 X-12.293 Y-1.150 E0.2294 F1027
G1 X-12.436 Y-2.234 E0.0418
G1 X-6.297 Y-1.150 E0.2385
G1 X-1.043 Y-0.690 F9000
G1 X-12.696 Y-0.690 E0.4457 F1027
G1 X-13.044 Y-3.322 E0.1015
G1 X-12.379 Y-7.492 E0.1615
G1 X-11.785 Y-7.492 E0.0227
G1 X-12.610 Y-2.732 E0.1848
G1 X-1.043 Y-0.690 E0.4492
G1 X-0.581 Y-0.690 F9000
G1 X0.255 Y-5.631 E0.1917 F1027
G1 X0.370 Y-5.610 E0.0045
G1 X0.245 Y-1.277 E0.1658
G1 X13.051 Y-1.277 E0.4898
G1 X13.051 Y-0.690 E0.0224
G1 X-0.581 Y-0.690 E0.5214
; feature outer perimeter
G1 X-0.971 Y-1.145 F9000
G1 X-0.228 Y-5.537 E0.1704 F685
G1 X-2.971 Y-6.021 E0.1065
G1 X-2.890 Y-6.652 E0.0244
G1 X0.841 Y-5.994 E0.1449
G1 X0.718 Y-1.737 E0.1629
G1 X13.511 Y-1.737 E0.4893
G1 X13.511 Y-0.230 E0.0576
G1 X-13.100 Y-0.230 E1.0178
G1 X-13.509 Y-3.328 E0.1195
G1 X-12.771 Y-7.952 E0.1791
G1 X-10.259 Y-7.952 E0.0961
G1 X-8.667 Y-7.671 E0.0618
G1 X-8.736 Y-7.060 E0.0235
G1 X-11.314 Y-7.516 E0.1002
G1 X-12.078 Y-3.105 E0.1712
G1 X-0.971 Y-1.145 E0.4314
G1 E-1.9000 F1200
; feature solid layer
G1 Z0.700 F1200
G1 X-10.241 Y-1.496 F9000
G1 Z0.200 F1200
G1 E1.9000 F1200
G1 X-10.891 Y-1.495 E0.0249 F1370
G1 X-11.031 Y-1.636 E0.0076
G1 X-11.821 Y-1.775 E0.0307
G1 X-11.541 Y-1.495 E0.0151
G1 E-1.9000 F1200
; feature support
G1 Z0.700 F1200
G1 X0.520 Y-8.058 F9000
G1 Z0.200 F1200
G1 E1.9000 F1200
G1 X2.938 Y-5.641 E0.1308 F1370
G1 X3.480 Y-5.641 E0.0207
G1 X3.480 Y-6.984 E0.0514
G1 X0.520 Y-9.944 E0.1601
G1 X0.520 Y-11.830 E0.0721
G1 X3.480 Y-8.870 E0.1601
G1 X3.480 Y-10.755 E0.0721
G1 X0.520 Y-13.715 E0.1601
G1 X0.520 Y-15.601 E0.0721
G1 X3.480 Y-12.641 E0.1601
G1 X3.480 Y-14.526 E0.0721
G1 X0.520 Y-17.486 E0.1601
G1 X0.520 Y-18.601 E0.0426
G1 X1.291 Y-18.601 E0.0295
G1 X3.480 Y-16.412 E0.1184
G1 X3.480 Y-17.641 E0.0470
G1 X4.137 Y-17.641 E0.0251
G1 X2.520 Y-19.258 E0.0875
G1 X2.520 Y-20.601 E0.0514
G1 X3.063 Y-20.601 E0.0208
G1 X5.480 Y-18.183 E0.1308
G1 X5.480 Y-20.069 E0.0721
G1 X4.948 Y-20.601 E0.0288
G1 E-1.9000 F1200
; layer 2, Z = 0.400
M126 S255
; feature inner perimeter
; tool H0.200 W0.400
G1 Z0.700 F1200
G1 X-0.073 Y-1.000 F9000
G1 Z0.400 F1200
G1 E1.9000 F1200
G1 X-0.215 Y-1.000 E0.0047 F1085
G1 X-0.044 Y-2.006 E0.0339
G1 X-0.073 Y-1.000 E0.0335
G1 X-4.584 Y-1.000 F9000
G1 X-12.425 Y-1.000 E0.2608 F1085
G1 X-12.612 Y-2.417 E0.0475
G1 X-4.584 Y-1.000 E0.2711
G1 X-0.669 Y-0.715 F9000
G1 X0.181 Y-5.735 E0.1693 F1085
G1 X0.462 Y-5.686 E0.0095
G1 X0.337 Y-1.367 E0.1437
G1 X13.141 Y-1.367 E0.4259
G1 X13.141 Y-0.600 E0.0255
G1 X-12.775 Y-0.600 E0.8620
G1 X-13.135 Y-3.323 E0.0913
G1 X-12.456 Y-7.582 E0.1434
G1 X-11.678 Y-7.582 E0.0258
G1 X-12.506 Y-2.805 E0.1612
G1 X-0.669 Y-0.715 E0.3998
; feature outer perimeter
G1 X-0.996 Y-1.179 F9000
G1 X-0.262 Y-5.512 E0.1462 F723
G1 X-3.004 Y-5.996 E0.0926
G1 X-2.916 Y-6.687 E0.0232
G1 X0.872 Y-6.020 E0.1279
G1 X0.749 Y-1.767 E0.1415
G1 X13.541 Y-1.767 E0.4255
G1 X13.541 Y-0.200 E0.0521
G1 X-13.126 Y-0.200 E0.8870
G1 X-13.539 Y-3.328 E0.1049
G1 X-12.797 Y-7.982 E0.1567
G1 X-10.256 Y-7.982 E0.0845
G1 X-8.634 Y-7.696 E0.0548
G1 X-8.709 Y-7.025 E0.0224
G1 X-11.290 Y-7.481 E0.0872
G1 X-12.044 Y-3.129 E0.1469
G1 X-0.996 Y-1.179 E0.3731
G1 E-1.9000 F1200
; feature solid layer
G1 Z0.900 F1200
G1 X-8.218 Y-1.337 F9000
G1 Z0.400 F1200
G1 E1.9000 F1200
G1 X-8.255 Y-1.300 E0.0017 F1447
G1 X-8.820 Y-1.300 E0.0188
G1 X-8.699 Y-1.422 E0.0057
G1 X-9.180 Y-1.507 E0.0162
G1 X-9.386 Y-1.300 E0.0097
G1 X-9.952 Y-1.300 E0.0188
G1 X-9.660 Y-1.592 E0.0137
G1 X-10.141 Y-1.677 E0.0162
G1 X-10.517 Y-1.300 E0.0177
G1 X-11.083 Y-1.300 E0.0188
G1 X-10.622 Y-1.761 E0.0217
G1 X-11.103 Y-1.846 E0.0162
G1 X-11.649 Y-1.300 E0.0257
G1 X-12.162 Y-1.300 E0.0171
G1 X-12.168 Y-1.347 E0.0016
G1 X-11.584 Y-1.931 E0.0275
G1 X-12.065 Y-2.016 E0.0162
G1 X-12.234 Y-1.847 E0.0080
G1 E-1.9000 F1200
; feature support
G1 Z0.900 F1200
G1 X3.510 Y-6.088 F9000
G1 Z0.400 F1200
G1 E1.9000 F1200
G1 X3.033 Y-5.611 E0.0225 F1447
G1 X1.570 Y-5.611 E0.0486
G1 X1.583 Y-6.047 E0.0145
G1 X3.510 Y-7.974 E0.0907
G1 X3.510 Y-9.860 E0.0627
G1 X0.490 Y-6.840 E0.1421
G1 X0.490 Y-8.725 E0.0627
G1 X3.510 Y-11.745 E0.1421
G1 X3.510 Y-13.631 E0.0627
G1 X0.490 Y-10.611 E0.1421
G1 X0.490 Y-12.496 E0.0627
G1 X3.510 Y-15.516 E0.1421
G1 X3.510 Y-17.402 E0.0627
G1 X0.490 Y-14.382 E0.1421
G1 X0.490 Y-16.268 E0.0627
G1 X4.853 Y-20.631 E0.2052
G1 X2.968 Y-20.631 E0.0627
G1 X2.490 Y-20.153 E0.0225
G1 X2.490 Y-18.631 E0.0506
G1 X0.968 Y-18.631 E0.0506
G1 X0.490 Y-18.153 E0.0225
G1 X3.719 Y-17.611 F9000
G1 X5.510 Y-19.402 E0.0843 F1447
G1 E-1.9000 F1200
; layer 3, Z = 0.600
; feature inner perimeter
G1 Z0.900 F1200
G1 X-0.073 Y-1.000 F9000
G1 Z0.600 F1200
G1 E1.9000 F1200
G1 X-0.215 Y-1.000 E0.0047 F1082
G1 X-0.044 Y-2.006 E0.0339
G1 X-0.073 Y-1.000 E0.0335
G1 X-4.584 Y-1.000 F9000
G1 X-12.425 Y-1.000 E0.2608 F1082
G1 X-12.612 Y-2.417 E0.0475
G1 X-4.584 Y-1.000 E0.2711
G1 X-0.669 Y-0.715 F9000
G1 X0.181 Y-5.735 E0.1693 F1082
G1 X0.462 Y-5.686 E0.0095
G1 X0.337 Y-1.367 E0.1437
G1 X13.141 Y-1.367 E0.4259
G1 X13.141 Y-0.600 E0.0255
G1 X-12.775 Y-0.600 E0.8620
G1 X-13.135 Y-3.323 E0.0913
G1 X-12.456 Y-7.582 E0.1434
G1 X-11.678 Y-7.582 E0.0258
G1 X-12.506 Y-2.805 E0.1612
G1 X-0.669 Y-0.715 E0.3998
; feature outer perimeter
G1 X-0.996 Y-1.179 F9000
G1 X-0.262 Y-5.512 E0.1462 F721
G1 X-3.004 Y-5.996 E0.0926
G1 X-2.916 Y-6.687 E0.0232
G1 X0.872 Y-6.020 E0.1279
G1 X0.749 Y-1.767 E0.1415
G1 X13.541 Y-1.767 E0.4255
G1 X13.541 Y-0.200 E0.0521
G1 X-13.126 Y-0.200 E0.8870
G1 X-13.539 Y-3.328 E0.1049
G1 X-12.797 Y-7.982 E0.1567
G1 X-10.256 Y-7.982 E0.0845
G1 X-8.634 Y-7.696 E0.0548
G1 X-8.709 Y-7.025 E0.0224
G1 X-11.290 Y-7.481 E0.0872
G1 X-12.044 Y-3.129 E0.1469
G1 X-0.996 Y-1.179 E0.3731
G1 E-1.9000 F1200
; feature solid layer
G1 Z1.100 F1200
G1 X-8.180 Y-1.330 F9000
G1 Z0.600 F1200
G1 E1.9000 F1200
G1 X-8.150 Y-1.300 E0.0014 F1442
G1 X-8.716 Y-1.300 E0.0188
G1 X-8.867 Y-1.452 E0.0071
G1 X-9.554 Y-1.573 E0.0232
G1 X-9.281 Y-1.300 E0.0128
G1 X-9.847 Y-1.300 E0.0188
G1 X-10.241 Y-1.694 E0.0185
G1 X-10.928 Y-1.815 E0.0232
G1 X-10.413 Y-1.300 E0.0242
G1 X-10.979 Y-1.300 E0.0188
G1 X-11.615 Y-1.937 E0.0299
G1 X-12.261 Y-2.051 E0.0218
G1 X-12.256 Y-2.012 E0.0013
G1 X-11.544 Y-1.300 E0.0335
G1 X-12.110 Y-1.300 E0.0188
G1 X-12.170 Y-1.360 E0.0028
G1 E-1.9000 F1200
; feature support
G1 Z1.100 F1200
G1 X0.490 Y-8.088 F9000
G1 Z0.600 F1200
G1 E1.9000 F1200
G1 X2.968 Y-5.611 E0.1165 F1442
G1 X3.510 Y-5.611 E0.0180
G1 X3.510 Y-6.954 E0.0447
G1 X0.490 Y-9.974 E0.1421
G1 X0.490 Y-11.860 E0.0627
G1 X3.510 Y-8.840 E0.1421
G1 X3.510 Y-10.725 E0.0627
G1 X0.490 Y-13.745 E0.1421
G1 X0.490 Y-15.631 E0.0627
G1 X3.510 Y-12.611 E0.1421
G1 X3.510 Y-14.496 E0.0627
G1 X0.490 Y-17.516 E0.1421
G1 X0.490 Y-18.631 E0.0371
G1 X1.261 Y-18.631 E0.0257
G1 X3.510 Y-16.382 E0.1058
G1 X3.510 Y-17.611 E0.0409
G1 X4.167 Y-17.611 E0.0218
G1 X2.490 Y-19.288 E0.0789
G1 X2.490 Y-20.631 E0.0447
G1 X3.033 Y-20.631 E0.0180
G1 X5.510 Y-18.153 E0.1165
G1 X5.510 Y-20.039 E0.0627
G1 X4.918 Y-20.631 E0.0278
G1 E-1.9000 F1200
; layer 4, Z = 0.800
; feature inner perimeter
G1 Z1.100 F1200
G1 X-0.073 Y-1.000 F9000
G1 Z0.800 F1200
G1 E1.9000 F1200
G1 X-0.215 Y-1.000 E0.0047 F1061
G1 X-0.044 Y-2.006 E0.0339
G1 X-0.073 Y-1.000 E0.0335
G1 X-4.584 Y-1.000 F9000
G1 X-12.425 Y-1.000 E0.2608 F1061
G1 X-12.612 Y-2.417 E0.0475
G1 X-4.584 Y-1.000 E0.2711
G1 X-0.669 Y-0.715 F9000
G1 X0.181 Y-5.735 E0.1693 F1061
G1 X0.462 Y-5.686 E0.0095
G1 X0.337 Y-1.367 E0.1437
G1 X13.141 Y-1.367 E0.4259
G1 X13.141 Y-0.600 E0.0255
G1 X-12.775 Y-0.600 E0.8620
G1 X-13.135 Y-3.323 E0.0913
G1 X-12.456 Y-7.582 E0.1434
G1 X-11.678 Y-7.582 E0.0258
G1 X-12.506 Y-2.805 E0.1612
G1 X-0.669 Y-0.715 E0.3998
; feature outer perimeter
G1 X-0.996 Y-1.179 F9000
G1 X-0.262 Y-5.512 E0.1462 F707
G1 X-3.004 Y-5.996 E0.0926
G1 X-2.916 Y-6.687 E0.0232
G1 X0.872 Y-6.020 E0.1279
G1 X0.749 Y-1.767 E0.1415
G1 X13.541 Y-1.767 E0.4255
G1 X13.541 Y-0.200 E0.0521
G1 X-13.126 Y-0.200 E0.8870
G1 X-13.539 Y-3.328 E0.1049
G1 X-12.797 Y-7.982 E0.1567
G1 X-10.256 Y-7.982 E0.0845
G1 X-8.634 Y-7.696 E0.0548
G1 X-8.709 Y-7.025 E0.0224
G1 X-11.290 Y-7.481 E0.0872
G1 X-12.044 Y-3.129 E0.1469
G1 X-0.996 Y-1.179 E0.3731
; feature support
G1 X3.510 Y-6.088 F9000
G1 X3.033 Y-5.611 E0.0225 F1414
G1 X1.570 Y-5.611 E0.0486
G1 X1.583 Y-6.047 E0.0145
G1 X3.510 Y-7.974 E0.0907
G1 X3.510 Y-9.860 E0.0627
G1 X0.490 Y-6.840 E0.1421
G1 X0.490 Y-8.725 E0.0627
G1 X3.510 Y-11.745 E0.1421
G1 X3.510 Y-13.631 E0.0627
G1 X0.490 Y-10.611 E0.1421
G1 X0.490 Y-12.496 E0.0627
G1 X3.510 Y-15.516 E0.1421
G1 X3.510 Y-17.402 E0.0627
G1 X0.490 Y-14.382 E0.1421
