; G-Code generated by Simplify3D(R) Version 4.1.2
; Apr 6, 2020 at 11:59:26 AM
; Settings Summary
;   processName,Process1
;   applyToModels,Prison Door
;   profileName,MakerBot Replicator 2 HBP (modified)
;   profileVersion,2020-03-12 10:48:50
;   baseProfile,MakerBot Replicator 2(2)
;   printMaterial,PLA
;   printQuality,Medium
;   printExtruders,
;   extruderName,Primary Extruder
;   extruderToolheadNumber,0
;   extruderDiameter,0.4
;   extruderAutoWidth,0
;   extruderWidth,0.4
;   extrusionMultiplier,1
;   extruderUseRetract,1
;   extruderRetractionDistance,1.9
;   extruderExtraRestartDistance,0
;   extruderRetractionZLift,0.5
;   extruderRetractionSpeed,1200
;   extruderUseCoasting,0
;   extruderCoastingDistance,0.2
;   extruderUseWipe,0
;   extruderWipeDistance,5
;   primaryExtruder,0
;   layerHeight,0.2
;   topSolidLayers,3
;   bottomSolidLayers,3
;   perimeterOutlines,3
;   printPerimetersInsideOut,1
;   startPointOption,3
;   startPointOriginX,0
;   startPointOriginY,150
;   sequentialIslands,0
;   spiralVaseMode,0
;   firstLayerHeightPercentage,100
;   firstLayerWidthPercentage,115
;   firstLayerUnderspeed,0.5
;   useRaft,0
;   raftExtruder,0
;   raftTopLayers,2
;   raftBaseLayers,1
;   raftOffset,1
;   raftSeparationDistance,0.14
;   raftTopInfill,90
;   aboveRaftSpeedMultiplier,0.3
;   useSkirt,0
;   skirtExtruder,0
;   skirtLayers,1
;   skirtOutlines,5
;   skirtOffset,0
;   usePrimePillar,0
;   primePillarExtruder,999
;   primePillarWidth,12
;   primePillarLocation,7
;   primePillarSpeedMultiplier,1
;   useOozeShield,0
;   oozeShieldExtruder,999
;   oozeShieldOffset,2
;   oozeShieldOutlines,1
;   oozeShieldSidewallShape,1
;   oozeShieldSidewallAngle,30
;   oozeShieldSpeedMultiplier,1
;   infillExtruder,0
;   internalInfillPattern,Rectilinear
;   externalInfillPattern,Rectilinear
;   infillPercentage,15
;   outlineOverlapPercentage,25
;   infillExtrusionWidthPercentage,100
;   minInfillLength,5
;   infillLayerInterval,1
;   internalInfillAngles,45,-45
;   overlapInternalInfillAngles,0
;   externalInfillAngles,45,-45
;   generateSupport,1
;   supportExtruder,0
;   supportInfillPercentage,30
;   supportExtraInflation,0.5
;   supportBaseLayers,0
;   denseSupportExtruder,0
;   denseSupportLayers,2
;   denseSupportInfillPercentage,90
;   supportLayerInterval,1
;   supportHorizontalPartOffset,0.3
;   supportUpperSeparationLayers,1
;   supportLowerSeparationLayers,1
;   supportType,1
;   supportGridSpacing,2
;   maxOverhangAngle,45
;   supportAngles,45,-45
;   temperatureName,Primary Extruder,Heated Build Platform
;   temperatureNumber,0,0
;   temperatureSetpointCount,1,1
;   temperatureSetpointLayers,1,1
;   temperatureSetpointTemperatures,230,60
;   temperatureStabilizeAtStartup,1,1
;   temperatureHeatedBed,0,1
;   fanLayers,1,2
;   fanSpeeds,0,100
;   blipFanToFullPower,1
;   adjustSpeedForCooling,1
;   minSpeedLayerTime,15
;   minCoolingSpeedSlowdown,20
;   increaseFanForCooling,1
;   minFanLayerTime,45
;   maxCoolingFanSpeed,100
;   increaseFanForBridging,1
;   bridgingFanSpeed,100
;   use5D,1
;   relativeEdistances,1
;   allowEaxisZeroing,0
;   independentExtruderAxes,1
;   includeM10123,0
;   stickySupport,1
;   applyToolheadOffsets,0
;   gcodeXoffset,0
;   gcodeYoffset,0
;   gcodeZoffset,0
;   overrideMachineDefinition,1
;   machineTypeOverride,0
;   strokeXoverride,280
;   strokeYoverride,150
;   strokeZoverride,150
;   originOffsetXoverride,140
;   originOffsetYoverride,75
;   originOffsetZoverride,0
;   homeXdirOverride,1
;   homeYdirOverride,1
;   homeZdirOverride,-1
;   flipXoverride,1
;   flipYoverride,-1
;   flipZoverride,1
;   toolheadOffsets,0,0|0,0|0,0|0,0|0,0|0,0
;   overrideFirmwareConfiguration,1
;   firmwareTypeOverride,MakerBot/Sailfish Firmware
;   GPXconfigOverride,r2h
;   baudRateOverride,115200
;   overridePrinterModels,1
;   printerModelsOverride,MakerBot_Replicator2.stl
;   startingGcode,; **** Replicator 2 start.gcode ****,M73 P0 ; enable build progress,G162 X Y F3000 ; home XY maximum,G161 Z F1200 ; home Z minimum,G92 Z-5 ; set Z to -5,G1 Z0 ; move Z to 0,G161 Z F100 ; home Z slowly,M132 X Y Z A B ; recall home offsets,G1 X-145 Y-75 Z30 F9000 ; move to wait position off table,G130 X20 Y20 Z20 A20 B20 ; lower stepper Vrefs while heating,M126 S[fan_speed_pwm],M140 S[bed0_temperature] T0,M134 T0 ; stabilize bed temperature,M104 S[extruder0_temperature] T0,M133 T0 ; stabilize extruder temperature,G130 X127 Y127 Z40 A127 B127 ; default stepper Vrefs,G92 A0 ; zero extruder,G1 Z0.4 ; position nozzle,G1 E25 F300 ; purge nozzle,G1 X-140 Y-70 Z0.15 F1200 ; slow wipe,G1 X-135 Y-65 Z0.5 F1200 ; lift,G92 A0 ; zero extruder,M73 P1 ;@body (notify GPX body has started),; **** end of start.gcode ****
;   layerChangeGcode,
;   retractionGcode,
;   toolChangeGcode,
;   endingGcode,; **** Replicator 2 end.gcode ****,M73 P100 ; end build progress,G1 Z155 F1000 ; send Z axis to bottom of machine,M104 S0 T0 ; cool down extruder,M140 S0 T0 ; cool down HBP,M127 ; stop blower fan,G162 X Y F3000 ; home XY maximum,M18 ; disable stepper,M0 ; stop codes,M72 P1 ; play Ta-Da song,; **** end of end.gcode ****
;   exportFileFormat,gcode
;   celebration,0
;   celebrationSong,Random Song
;   postProcessing,
;   defaultSpeed,4800
;   outlineUnderspeed,0.5
;   solidInfillUnderspeed,1
;   supportUnderspeed,1
;   rapidXYspeed,9000
;   rapidZspeed,1200
;   minBridgingArea,50
;   bridgingExtraInflation,0
;   bridgingExtrusionMultiplier,1
;   bridgingSpeedMultiplier,0.8
;   useFixedBridgingAngle,0
;   fixedBridgingAngle,0
;   applyBridgingToPerimeters,0
;   filamentDiameters,1.75|1.75|1.75|1.75|1.75|1.75
;   filamentPricesPerKg,46|46|46|46|46|46
;   filamentDensities,1.25|1.25|1.25|1.25|1.25|1.25
;   useMinPrintHeight,0
;   minPrintHeight,0
;   useMaxPrintHeight,0
;   maxPrintHeight,4.84
;   useDiaphragm,0
;   diaphragmLayerInterval,20
;   robustSlicing,1
;   mergeAllIntoSolid,0
;   onlyRetractWhenCrossingOutline,0
;   retractBetweenLayers,0
;   useRetractionMinTravel,1
;   retractionMinTravel,7
;   retractWhileWiping,1
;   onlyWipeOutlines,1
;   avoidCrossingOutline,0
;   maxMovementDetourFactor,3
;   toolChangeRetractionDistance,12
;   toolChangeExtraRestartDistance,-0.5
;   toolChangeRetractionSpeed,600
;   externalThinWallType,0
;   internalThinWallType,0
;   thinWallAllowedOverlapPercentage,10
;   singleExtrusionMinLength,1
;   singleExtrusionMinPrintingWidthPercentage,50
;   singleExtrusionMaxPrintingWidthPercentage,200
;   singleExtrusionEndpointExtension,0.2
;   horizontalSizeCompensation,0
G90
M83
; **** Replicator 2 start.gcode ****
M73 P0 ; enable build progress
G162 X Y F3000 ; home XY maximum
G161 Z F1200 ; home Z minimum
G92 Z-5 ; set Z to -5
G1 Z0 ; move Z to 0
G161 Z F100 ; home Z slowly
M132 X Y Z A B ; recall home offsets
G1 X-145 Y-75 Z30 F9000 ; move to wait position off table
G130 X20 Y20 Z20 A20 B20 ; lower stepper Vrefs while heating
M127
M140 S60 T0
M134 T0 ; stabilize bed temperature
M104 S230 T0
M133 T0 ; stabilize extruder temperature
G130 X127 Y127 Z40 A127 B127 ; default stepper Vrefs
G92 A0 ; zero extruder
G1 Z0.4 ; position nozzle
G1 E25 F300 ; purge nozzle
G1 X-140 Y-70 Z0.15 F1200 ; slow wipe
G1 X-135 Y-65 Z0.5 F1200 ; lift
G92 A0 ; zero extruder
M73 P1 ;@body (notify GPX body has started)
; **** end of start.gcode ****
; process Process1
; layer 1, Z = 0.200
M135 T0
G1 E-1.9000 F1200
; feature inner perimeter
; tool H0.200 W0.460
G1 Z0.500 F1200
G1 X1.644 Y8.850 F9000
G1 Z0.200 F1200
G1 E1.9000 F1200
G1 X0.000 Y7.206 E0.0889 F1800
G1 X-1.644 Y8.850 E0.0889
G1 X-8.356 Y8.850 E0.2568
G1 X-10.000 Y7.206 E0.0889
G1 X-11.644 Y8.850 E0.0889
G1 X-18.356 Y8.850 E0.2568
G1 X-20.000 Y7.206 E0.0889
G1 X-21.644 Y8.850 E0.0889
G1 X-28.356 Y8.850 E0.2568
G1 X-30.000 Y7.206 E0.0889
G1 X-31.644 Y8.850 E0.0889
G1 X-36.980 Y8.850 E0.2041
G1 X-37.350 Y8.480 E0.0200
G1 X-37.350 Y1.270 E0.2758
G1 X-36.080 Y0.000 E0.0687
G1 X-37.350 Y-1.270 E0.0687
G1 X-37.350 Y-8.850 E0.2899
G1 X-13.707 Y-8.850 E0.9043
G1 X-13.707 Y2.029 E0.4161
G1 X13.707 Y2.029 E1.0485
G1 X13.707 Y-8.850 E0.4161
G1 X37.350 Y-8.850 E0.9043
G1 X37.350 Y-1.270 E0.2899
G1 X36.080 Y0.000 E0.0687
G1 X37.350 Y1.270 E0.0687
G1 X37.350 Y8.480 E0.2758
G1 X36.980 Y8.850 E0.0200
G1 X31.644 Y8.850 E0.2041
G1 X30.000 Y7.206 E0.0889
G1 X28.356 Y8.850 E0.0889
G1 X21.644 Y8.850 E0.2568
G1 X20.000 Y7.206 E0.0889
G1 X18.356 Y8.850 E0.0889
G1 X11.644 Y8.850 E0.2568
G1 X10.000 Y7.206 E0.0889
G1 X8.356 Y8.850 E0.0889
G1 X1.644 Y8.850 E0.2568
G1 X1.453 Y9.310 F9000
G1 X0.000 Y7.857 E0.0786 F1800
G1 X-1.453 Y9.310 E0.0786
G1 X-8.547 Y9.310 E0.2713
G1 X-10.000 Y7.857 E0.0786
G1 X-11.453 Y9.310 E0.0786
G1 X-18.547 Y9.310 E0.2713
G1 X-20.000 Y7.857 E0.0786
G1 X-21.453 Y9.310 E0.0786
G1 X-28.547 Y9.310 E0.2713
G1 X-30.000 Y7.857 E0.0786
G1 X-31.453 Y9.310 E0.0786
G1 X-37.171 Y9.310 E0.2187
G1 X-37.810 Y8.671 E0.0346
G1 X-37.810 Y1.079 E0.2904
G1 X-36.731 Y0.000 E0.0584
G1 X-37.810 Y-1.079 E0.0584
G1 X-37.810 Y-9.310 E0.3148
G1 X-13.247 Y-9.310 E0.9395
G1 X-13.247 Y1.569 E0.4161
G1 X13.247 Y1.569 E1.0134
G1 X13.247 Y-9.310 E0.4161
G1 X37.810 Y-9.310 E0.9395
G1 X37.810 Y-1.079 E0.3148
G1 X36.731 Y0.000 E0.0584
G1 X37.810 Y1.079 E0.0584
G1 X37.810 Y8.671 E0.2904
G1 X37.171 Y9.310 E0.0346
G1 X31.453 Y9.310 E0.2187
G1 X30.000 Y7.857 E0.0786
G1 X28.547 Y9.310 E0.0786
G1 X21.453 Y9.310 E0.2713
G1 X20.000 Y7.857 E0.0786
G1 X18.547 Y9.310 E0.0786
G1 X11.453 Y9.310 E0.2713
G1 X10.000 Y7.857 E0.0786
G1 X8.547 Y9.310 E0.0786
G1 X1.453 Y9.310 E0.2713
; feature outer perimeter
G1 X1.262 Y9.770 F9000
G1 X0.000 Y8.508 E0.0683 F1200
G1 X-1.262 Y9.770 E0.0683
G1 X-8.738 Y9.770 E0.2859
G1 X-10.000 Y8.508 E0.0683
G1 X-11.262 Y9.770 E0.0683
G1 X-18.738 Y9.770 E0.2859
G1 X-20.000 Y8.508 E0.0683
G1 X-21.262 Y9.770 E0.0683
G1 X-28.738 Y9.770 E0.2859
G1 X-30.000 Y8.508 E0.0683
G1 X-31.262 Y9.770 E0.0683
G1 X-37.361 Y9.770 E0.2333
G1 X-38.270 Y8.861 E0.0492
G1 X-38.270 Y0.889 E0.3049
G1 X-37.381 Y0.000 E0.0481
G1 X-38.270 Y-0.889 E0.0481
G1 X-38.270 Y-9.770 E0.3397
G1 X-12.787 Y-9.770 E0.9747
G1 X-12.787 Y1.109 E0.4161
G1 X12.787 Y1.109 E0.9782
G1 X12.787 Y-9.770 E0.4161
G1 X38.270 Y-9.770 E0.9747
G1 X38.270 Y-0.889 E0.3397
G1 X37.381 Y0.000 E0.0481
G1 X38.270 Y0.889 E0.0481
G1 X38.270 Y8.861 E0.3049
G1 X37.361 Y9.770 E0.0492
G1 X31.262 Y9.770 E0.2333
G1 X30.000 Y8.508 E0.0683
G1 X28.738 Y9.770 E0.0683
G1 X21.262 Y9.770 E0.2859
G1 X20.000 Y8.508 E0.0683
G1 X18.738 Y9.770 E0.0683
G1 X11.262 Y9.770 E0.2859
G1 X10.000 Y8.508 E0.0683
G1 X8.738 Y9.770 E0.0683
G1 X1.262 Y9.770 E0.2859
G1 E-1.9000 F1200
; feature inner perimeter
G1 Z0.700 F1200
G1 X24.794 Y1.935 F9000
G1 Z0.200 F1200
G1 E1.9000 F1200
G1 X24.949 Y2.276 E0.0143 F1800
G1 X25.267 Y2.827 E0.0243
G1 X25.485 Y3.132 E0.0143
G1 X25.904 Y3.610 E0.0243
G1 X26.178 Y3.866 E0.0143
G1 X26.683 Y4.253 E0.0243
G1 X27.001 Y4.451 E0.0143
G1 X27.572 Y4.733 E0.0243
G1 X27.922 Y4.865 E0.0143
G1 X28.537 Y5.029 E0.0243
G1 X28.907 Y5.090 E0.0143
G1 X29.541 Y5.132 E0.0243
G1 X29.916 Y5.120 E0.0143
G1 X30.547 Y5.037 E0.0243
G1 X30.893 Y4.956 E0.0136
G1 X31.234 Y4.853 E0.0136
G1 X31.822 Y4.609 E0.0243
G1 X32.152 Y4.432 E0.0143
G1 X32.681 Y4.079 E0.0243
G1 X32.971 Y3.841 E0.0143
G1 X33.434 Y3.378 E0.0251
G1 X33.833 Y2.858 E0.0251
G1 X34.031 Y2.540 E0.0143
G1 X34.312 Y1.970 E0.0243
G1 X34.444 Y1.619 E0.0143
G1 X34.609 Y1.004 E0.0243
G1 X34.670 Y0.635 E0.0143
G1 X34.713 Y-0.019 E0.0251
G1 X34.670 Y-0.673 E0.0251
G1 X34.609 Y-1.043 E0.0143
G1 X34.444 Y-1.657 E0.0243
G1 X34.319 Y-1.990 E0.0136
G1 X34.172 Y-2.314 E0.0136
G1 X33.844 Y-2.882 E0.0251
G1 X33.446 Y-3.401 E0.0251
G1 X33.189 Y-3.675 E0.0143
G1 X32.711 Y-4.094 E0.0243
G1 X32.422 Y-4.302 E0.0136
G1 X32.120 Y-4.490 E0.0136
G1 X31.549 Y-4.771 E0.0243
G1 X31.198 Y-4.903 E0.0143
G1 X30.584 Y-5.068 E0.0243
G1 X30.214 Y-5.129 E0.0143
G1 X29.579 Y-5.170 E0.0243
G1 X29.204 Y-5.158 E0.0143
G1 X28.574 Y-5.075 E0.0243
G1 X28.209 Y-4.990 E0.0143
G1 X27.588 Y-4.779 E0.0251
G1 X27.001 Y-4.490 E0.0251
G1 X26.699 Y-4.302 E0.0136
G1 X26.409 Y-4.094 E0.0136
G1 X25.917 Y-3.662 E0.0251
G1 X25.485 Y-3.170 E0.0251
G1 X25.267 Y-2.865 E0.0143
G1 X24.949 Y-2.314 E0.0243
G1 X24.802 Y-1.990 E0.0136
G1 X24.676 Y-1.657 E0.0136
G1 X24.507 Y-1.024 E0.0251
G1 X24.419 Y-0.356 E0.0258
G1 X24.419 Y0.299 E0.0251
G1 X24.456 Y0.672 E0.0143
G1 X24.583 Y1.314 E0.0251
G1 X24.794 Y1.935 E0.0251
G1 X25.222 Y1.765 F9000
G1 X25.358 Y2.066 E0.0126 F1800
G1 X25.654 Y2.577 E0.0226
G1 X25.846 Y2.845 E0.0126
G1 X26.235 Y3.290 E0.0226
G1 X26.476 Y3.515 E0.0126
G1 X26.945 Y3.875 E0.0226
G1 X27.225 Y4.049 E0.0126
G1 X27.755 Y4.310 E0.0226
G1 X28.063 Y4.426 E0.0126
G1 X28.634 Y4.579 E0.0226
G1 X28.959 Y4.633 E0.0126
G1 X29.549 Y4.672 E0.0226
G1 X29.878 Y4.661 E0.0126
G1 X30.464 Y4.584 E0.0226
G1 X30.774 Y4.511 E0.0122
G1 X31.079 Y4.419 E0.0122
G1 X31.625 Y4.193 E0.0226
G1 X31.915 Y4.037 E0.0126
G1 X32.407 Y3.709 E0.0226
G1 X32.662 Y3.500 E0.0126
G1 X33.087 Y3.074 E0.0230
G1 X33.454 Y2.596 E0.0230
G1 X33.628 Y2.316 E0.0126
G1 X33.890 Y1.786 E0.0226
G1 X34.006 Y1.478 E0.0126
G1 X34.159 Y0.907 E0.0226
G1 X34.212 Y0.582 E0.0126
G1 X34.252 Y-0.019 E0.0230
G1 X34.212 Y-0.620 E0.0230
G1 X34.159 Y-0.945 E0.0126
G1 X34.006 Y-1.516 E0.0226
G1 X33.894 Y-1.814 E0.0122
G1 X33.762 Y-2.104 E0.0122
G1 X33.461 Y-2.626 E0.0230
G1 X33.094 Y-3.103 E0.0230
G1 X32.869 Y-3.344 E0.0126
G1 X32.425 Y-3.734 E0.0226
G1 X32.166 Y-3.919 E0.0122
G1 X31.896 Y-4.087 E0.0122
G1 X31.366 Y-4.349 E0.0226
G1 X31.057 Y-4.465 E0.0126
G1 X30.486 Y-4.618 E0.0226
G1 X30.161 Y-4.671 E0.0126
G1 X29.572 Y-4.710 E0.0226
G1 X29.242 Y-4.699 E0.0126
G1 X28.656 Y-4.622 E0.0226
G1 X28.335 Y-4.547 E0.0126
G1 X27.765 Y-4.354 E0.0230
G1 X27.225 Y-4.087 E0.0230
G1 X26.954 Y-3.919 E0.0122
G1 X26.696 Y-3.734 E0.0122
G1 X26.243 Y-3.337 E0.0230
G1 X25.846 Y-2.884 E0.0230
G1 X25.654 Y-2.616 E0.0126
G1 X25.358 Y-2.104 E0.0226
G1 X25.227 Y-1.814 E0.0122
G1 X25.115 Y-1.516 E0.0122
G1 X24.959 Y-0.934 E0.0230
G1 X24.879 Y-0.326 E0.0235
G1 X24.879 Y0.276 E0.0230
G1 X24.911 Y0.604 E0.0126
G1 X25.029 Y1.195 E0.0230
G1 X25.222 Y1.765 E0.0230
; feature outer perimeter
G1 X25.651 Y1.596 F9000
G1 X25.768 Y1.855 E0.0109 F1200
G1 X26.041 Y2.328 E0.0209
G1 X26.206 Y2.559 E0.0109
G1 X26.566 Y2.969 E0.0209
G1 X26.774 Y3.164 E0.0109
G1 X27.207 Y3.496 E0.0209
G1 X27.448 Y3.646 E0.0109
G1 X27.938 Y3.888 E0.0209
G1 X28.204 Y3.988 E0.0109
G1 X28.731 Y4.129 E0.0209
G1 X29.012 Y4.175 E0.0109
G1 X29.556 Y4.211 E0.0209
G1 X29.841 Y4.202 E0.0109
G1 X30.382 Y4.130 E0.0209
G1 X30.655 Y4.067 E0.0107
G1 X30.924 Y3.985 E0.0107
G1 X31.428 Y3.776 E0.0209
G1 X31.679 Y3.642 E0.0109
G1 X32.132 Y3.339 E0.0209
G1 X32.352 Y3.159 E0.0109
G1 X32.741 Y2.770 E0.0210
G1 X33.075 Y2.334 E0.0210
G1 X33.226 Y2.093 E0.0109
G1 X33.467 Y1.603 E0.0209
G1 X33.567 Y1.337 E0.0109
G1 X33.708 Y0.810 E0.0209
G1 X33.755 Y0.529 E0.0109
G1 X33.791 Y-0.019 E0.0210
G1 X33.755 Y-0.568 E0.0210
G1 X33.708 Y-0.848 E0.0109
G1 X33.567 Y-1.375 E0.0209
G1 X33.468 Y-1.638 E0.0107
G1 X33.353 Y-1.894 E0.0107
G1 X33.078 Y-2.369 E0.0210
G1 X32.743 Y-2.806 E0.0210
G1 X32.549 Y-3.013 E0.0109
G1 X32.138 Y-3.373 E0.0209
G1 X31.910 Y-3.536 E0.0107
G1 X31.672 Y-3.685 E0.0107
G1 X31.183 Y-3.926 E0.0209
G1 X30.916 Y-4.026 E0.0109
G1 X30.389 Y-4.167 E0.0209
G1 X30.109 Y-4.214 E0.0109
G1 X29.564 Y-4.249 E0.0209
G1 X29.280 Y-4.240 E0.0109
G1 X28.739 Y-4.169 E0.0209
G1 X28.462 Y-4.104 E0.0109
G1 X27.941 Y-3.928 E0.0210
G1 X27.448 Y-3.685 E0.0210
G1 X27.210 Y-3.536 E0.0107
G1 X26.982 Y-3.373 E0.0107
G1 X26.569 Y-3.011 E0.0210
G1 X26.206 Y-2.597 E0.0210
G1 X26.041 Y-2.366 E0.0109
G1 X25.768 Y-1.894 E0.0209
G1 X25.652 Y-1.638 E0.0107
G1 X25.553 Y-1.375 E0.0107
G1 X25.411 Y-0.845 E0.0210
G1 X25.339 Y-0.296 E0.0212
G1 X25.339 Y0.254 E0.0210
G1 X25.367 Y0.537 E0.0109
G1 X25.474 Y1.076 E0.0210
G1 X25.651 Y1.596 E0.0210
G1 E-1.9000 F1200
; feature inner perimeter
G1 Z0.700 F1200
G1 X-24.419 Y0.299 F9000
G1 Z0.200 F1200
G1 E1.9000 F1200
G1 X-24.419 Y-0.356 E0.0251 F1800
G1 X-24.504 Y-1.006 E0.0251
G1 X-24.589 Y-1.371 E0.0143
G1 X-24.794 Y-1.973 E0.0243
G1 X-24.941 Y-2.297 E0.0136
