; G-Code generated by Simplify3D(R) Version 4.1.2
; Apr 6, 2020 at 11:55:35 AM
; Settings Summary
;   processName,Process1
;   applyToModels,TankJV
;   profileName,MakerBot Replicator 2 HBP (modified)
;   profileVersion,2020-03-12 10:48:50
;   baseProfile,MakerBot Replicator 2(2)
;   printMaterial,PLA
;   printQuality,Medium
;   printExtruders,
;   extruderName,Primary Extruder
;   extruderToolheadNumber,0
;   extruderDiameter,0.4
;   extruderAutoWidth,0
;   extruderWidth,0.4
;   extrusionMultiplier,1
;   extruderUseRetract,1
;   extruderRetractionDistance,1.9
;   extruderExtraRestartDistance,0
;   extruderRetractionZLift,0.5
;   extruderRetractionSpeed,1200
;   extruderUseCoasting,0
;   extruderCoastingDistance,0.2
;   extruderUseWipe,0
;   extruderWipeDistance,5
;   primaryExtruder,0
;   layerHeight,0.2
;   topSolidLayers,3
;   bottomSolidLayers,3
;   perimeterOutlines,3
;   printPerimetersInsideOut,1
;   startPointOption,3
;   startPointOriginX,0
;   startPointOriginY,150
;   sequentialIslands,0
;   spiralVaseMode,0
;   firstLayerHeightPercentage,100
;   firstLayerWidthPercentage,115
;   firstLayerUnderspeed,0.5
;   useRaft,0
;   raftExtruder,0
;   raftTopLayers,2
;   raftBaseLayers,1
;   raftOffset,1
;   raftSeparationDistance,0.14
;   raftTopInfill,90
;   aboveRaftSpeedMultiplier,0.3
;   useSkirt,0
;   skirtExtruder,0
;   skirtLayers,1
;   skirtOutlines,5
;   skirtOffset,0
;   usePrimePillar,0
;   primePillarExtruder,999
;   primePillarWidth,12
;   primePillarLocation,7
;   primePillarSpeedMultiplier,1
;   useOozeShield,0
;   oozeShieldExtruder,999
;   oozeShieldOffset,2
;   oozeShieldOutlines,1
;   oozeShieldSidewallShape,1
;   oozeShieldSidewallAngle,30
;   oozeShieldSpeedMultiplier,1
;   infillExtruder,0
;   internalInfillPattern,Rectilinear
;   externalInfillPattern,Rectilinear
;   infillPercentage,15
;   outlineOverlapPercentage,25
;   infillExtrusionWidthPercentage,100
;   minInfillLength,5
;   infillLayerInterval,1
;   internalInfillAngles,45,-45
;   overlapInternalInfillAngles,0
;   externalInfillAngles,45,-45
;   generateSupport,0
;   supportExtruder,0
;   supportInfillPercentage,5
;   supportExtraInflation,0.5
;   supportBaseLayers,0
;   denseSupportExtruder,0
;   denseSupportLayers,2
;   denseSupportInfillPercentage,90
;   supportLayerInterval,1
;   supportHorizontalPartOffset,0.3
;   supportUpperSeparationLayers,1
;   supportLowerSeparationLayers,1
;   supportType,1
;   supportGridSpacing,2
;   maxOverhangAngle,45
;   supportAngles,45,-45
;   temperatureName,Primary Extruder,Heated Build Platform
;   temperatureNumber,0,0
;   temperatureSetpointCount,1,1
;   temperatureSetpointLayers,1,1
;   temperatureSetpointTemperatures,230,60
;   temperatureStabilizeAtStartup,1,1
;   temperatureHeatedBed,0,1
;   fanLayers,1,2
;   fanSpeeds,0,100
;   blipFanToFullPower,1
;   adjustSpeedForCooling,1
;   minSpeedLayerTime,15
;   minCoolingSpeedSlowdown,20
;   increaseFanForCooling,1
;   minFanLayerTime,45
;   maxCoolingFanSpeed,100
;   increaseFanForBridging,1
;   bridgingFanSpeed,100
;   use5D,1
;   relativeEdistances,1
;   allowEaxisZeroing,0
;   independentExtruderAxes,1
;   includeM10123,0
;   stickySupport,1
;   applyToolheadOffsets,0
;   gcodeXoffset,0
;   gcodeYoffset,0
;   gcodeZoffset,0
;   overrideMachineDefinition,1
;   machineTypeOverride,0
;   strokeXoverride,280
;   strokeYoverride,150
;   strokeZoverride,150
;   originOffsetXoverride,140
;   originOffsetYoverride,75
;   originOffsetZoverride,0
;   homeXdirOverride,1
;   homeYdirOverride,1
;   homeZdirOverride,-1
;   flipXoverride,1
;   flipYoverride,-1
;   flipZoverride,1
;   toolheadOffsets,0,0|0,0|0,0|0,0|0,0|0,0
;   overrideFirmwareConfiguration,1
;   firmwareTypeOverride,MakerBot/Sailfish Firmware
;   GPXconfigOverride,r2h
;   baudRateOverride,115200
;   overridePrinterModels,1
;   printerModelsOverride,MakerBot_Replicator2.stl
;   startingGcode,; **** Replicator 2 start.gcode ****,M73 P0 ; enable build progress,G162 X Y F3000 ; home XY maximum,G161 Z F1200 ; home Z minimum,G92 Z-5 ; set Z to -5,G1 Z0 ; move Z to 0,G161 Z F100 ; home Z slowly,M132 X Y Z A B ; recall home offsets,G1 X-145 Y-75 Z30 F9000 ; move to wait position off table,G130 X20 Y20 Z20 A20 B20 ; lower stepper Vrefs while heating,M126 S[fan_speed_pwm],M140 S[bed0_temperature] T0,M134 T0 ; stabilize bed temperature,M104 S[extruder0_temperature] T0,M133 T0 ; stabilize extruder temperature,G130 X127 Y127 Z40 A127 B127 ; default stepper Vrefs,G92 A0 ; zero extruder,G1 Z0.4 ; position nozzle,G1 E25 F300 ; purge nozzle,G1 X-140 Y-70 Z0.15 F1200 ; slow wipe,G1 X-135 Y-65 Z0.5 F1200 ; lift,G92 A0 ; zero extruder,M73 P1 ;@body (notify GPX body has started),; **** end of start.gcode ****
;   layerChangeGcode,
;   retractionGcode,
;   toolChangeGcode,
;   endingGcode,; **** Replicator 2 end.gcode ****,M73 P100 ; end build progress,G1 Z155 F1000 ; send Z axis to bottom of machine,M104 S0 T0 ; cool down extruder,M140 S0 T0 ; cool down HBP,M127 ; stop blower fan,G162 X Y F3000 ; home XY maximum,M18 ; disable stepper,M0 ; stop codes,M72 P1 ; play Ta-Da song,; **** end of end.gcode ****
;   exportFileFormat,gcode
;   celebration,0
;   celebrationSong,Random Song
;   postProcessing,
;   defaultSpeed,4800
;   outlineUnderspeed,0.5
;   solidInfillUnderspeed,1
;   supportUnderspeed,1
;   rapidXYspeed,9000
;   rapidZspeed,1200
;   minBridgingArea,50
;   bridgingExtraInflation,0
;   bridgingExtrusionMultiplier,1
;   bridgingSpeedMultiplier,0.8
;   useFixedBridgingAngle,0
;   fixedBridgingAngle,0
;   applyBridgingToPerimeters,0
;   filamentDiameters,1.75|1.75|1.75|1.75|1.75|1.75
;   filamentPricesPerKg,46|46|46|46|46|46
;   filamentDensities,1.25|1.25|1.25|1.25|1.25|1.25
;   useMinPrintHeight,0
;   minPrintHeight,0
;   useMaxPrintHeight,0
;   maxPrintHeight,4.84
;   useDiaphragm,0
;   diaphragmLayerInterval,20
;   robustSlicing,1
;   mergeAllIntoSolid,0
;   onlyRetractWhenCrossingOutline,0
;   retractBetweenLayers,0
;   useRetractionMinTravel,1
;   retractionMinTravel,7
;   retractWhileWiping,1
;   onlyWipeOutlines,1
;   avoidCrossingOutline,0
;   maxMovementDetourFactor,3
;   toolChangeRetractionDistance,12
;   toolChangeExtraRestartDistance,-0.5
;   toolChangeRetractionSpeed,600
;   externalThinWallType,0
;   internalThinWallType,0
;   thinWallAllowedOverlapPercentage,10
;   singleExtrusionMinLength,1
;   singleExtrusionMinPrintingWidthPercentage,50
;   singleExtrusionMaxPrintingWidthPercentage,200
;   singleExtrusionEndpointExtension,0.2
;   horizontalSizeCompensation,0
G90
M83
; **** Replicator 2 start.gcode ****
M73 P0 ; enable build progress
G162 X Y F3000 ; home XY maximum
G161 Z F1200 ; home Z minimum
G92 Z-5 ; set Z to -5
G1 Z0 ; move Z to 0
G161 Z F100 ; home Z slowly
M132 X Y Z A B ; recall home offsets
G1 X-145 Y-75 Z30 F9000 ; move to wait position off table
G130 X20 Y20 Z20 A20 B20 ; lower stepper Vrefs while heating
M127
M140 S60 T0
M134 T0 ; stabilize bed temperature
M104 S230 T0
M133 T0 ; stabilize extruder temperature
G130 X127 Y127 Z40 A127 B127 ; default stepper Vrefs
G92 A0 ; zero extruder
G1 Z0.4 ; position nozzle
G1 E25 F300 ; purge nozzle
G1 X-140 Y-70 Z0.15 F1200 ; slow wipe
G1 X-135 Y-65 Z0.5 F1200 ; lift
G92 A0 ; zero extruder
M73 P1 ;@body (notify GPX body has started)
; **** end of start.gcode ****
; process Process1
; layer 1, Z = 0.200
M135 T0
G1 E-1.9000 F1200
; feature inner perimeter
; tool H0.200 W0.460
G1 Z0.500 F1200
G1 X19.806 Y7.855 F9000
G1 Z0.200 F1200
G1 E1.9000 F1200
G1 X-53.887 Y7.855 E2.8187 F1800
G1 X-53.887 Y-7.857 E0.6010
G1 X-45.888 Y-7.857 E0.3060
G1 X-46.770 Y-7.590 E0.0352
G1 X-48.007 Y-6.928 E0.0537
G1 X-49.092 Y-6.038 E0.0537
G1 X-49.983 Y-4.953 E0.0537
G1 X-50.646 Y-3.712 E0.0538
G1 X-51.055 Y-2.335 E0.0549
G1 X-51.189 Y-0.975 E0.0523
G1 X-51.052 Y0.422 E0.0537
G1 X-50.644 Y1.765 E0.0537
G1 X-49.983 Y3.002 E0.0537
G1 X-49.092 Y4.087 E0.0537
G1 X-48.007 Y4.978 E0.0537
G1 X-46.770 Y5.639 E0.0537
G1 X-45.426 Y6.047 E0.0537
G1 X-44.030 Y6.184 E0.0537
G1 X-42.633 Y6.047 E0.0537
G1 X-41.290 Y5.639 E0.0537
G1 X-40.052 Y4.978 E0.0537
G1 X-38.967 Y4.087 E0.0537
G1 X-38.077 Y3.002 E0.0537
G1 X-37.415 Y1.765 E0.0537
G1 X-37.388 Y1.676 E0.0036
G1 X-6.642 Y1.676 E1.1760
G1 X-6.615 Y1.765 E0.0036
G1 X-5.953 Y3.002 E0.0537
G1 X-5.063 Y4.087 E0.0537
G1 X-3.978 Y4.978 E0.0537
G1 X-2.740 Y5.639 E0.0537
G1 X-1.397 Y6.047 E0.0537
G1 X0.000 Y6.184 E0.0537
G1 X1.397 Y6.047 E0.0537
G1 X2.740 Y5.639 E0.0537
G1 X3.978 Y4.978 E0.0537
G1 X5.063 Y4.087 E0.0537
G1 X5.953 Y3.002 E0.0537
G1 X6.615 Y1.765 E0.0537
G1 X6.642 Y1.676 E0.0036
G1 X14.025 Y1.676 E0.2824
G1 X14.476 Y3.161 E0.0594
G1 X15.230 Y4.572 E0.0612
G1 X16.245 Y5.809 E0.0612
G1 X17.481 Y6.824 E0.0612
G1 X18.892 Y7.578 E0.0612
G1 X19.806 Y7.855 E0.0365
G1 X24.224 Y7.855 F9000
G1 X25.138 Y7.578 E0.0365 F1800
G1 X26.548 Y6.824 E0.0612
G1 X27.785 Y5.809 E0.0612
G1 X28.800 Y4.572 E0.0612
G1 X29.554 Y3.161 E0.0612
G1 X30.005 Y1.676 E0.0594
G1 X37.388 Y1.676 E0.2824
G1 X37.415 Y1.765 E0.0036
G1 X38.077 Y3.002 E0.0537
G1 X38.967 Y4.087 E0.0537
G1 X40.052 Y4.978 E0.0537
G1 X41.290 Y5.639 E0.0537
G1 X42.633 Y6.047 E0.0537
G1 X44.030 Y6.184 E0.0537
G1 X45.426 Y6.047 E0.0537
G1 X46.770 Y5.639 E0.0537
G1 X48.007 Y4.978 E0.0537
G1 X49.092 Y4.087 E0.0537
G1 X49.983 Y3.002 E0.0537
G1 X50.644 Y1.765 E0.0537
G1 X51.052 Y0.422 E0.0537
G1 X51.189 Y-0.975 E0.0537
G1 X51.052 Y-2.372 E0.0537
G1 X50.644 Y-3.715 E0.0537
G1 X49.983 Y-4.953 E0.0537
G1 X49.092 Y-6.038 E0.0537
G1 X48.007 Y-6.928 E0.0537
G1 X46.770 Y-7.590 E0.0537
G1 X45.888 Y-7.857 E0.0352
G1 X53.887 Y-7.857 E0.3059
G1 X53.887 Y7.855 E0.6010
G1 X24.224 Y7.855 E1.1346
G1 E-1.9000 F1200
G1 Z0.700 F1200
G1 X29.264 Y-3.626 F9000
G1 Z0.200 F1200
G1 E1.9000 F1200
G1 X28.800 Y-4.495 E0.0377 F1800
G1 X27.785 Y-5.732 E0.0612
G1 X26.548 Y-6.747 E0.0612
G1 X25.138 Y-7.501 E0.0612
G1 X23.962 Y-7.857 E0.0470
G1 X42.171 Y-7.857 E0.6965
G1 X41.290 Y-7.590 E0.0352
G1 X40.052 Y-6.928 E0.0537
G1 X38.967 Y-6.038 E0.0537
G1 X38.077 Y-4.953 E0.0537
G1 X37.415 Y-3.715 E0.0537
G1 X37.388 Y-3.626 E0.0036
G1 X29.264 Y-3.626 E0.3107
G1 E-1.9000 F1200
G1 Z0.700 F1200
G1 X20.068 Y-7.857 F9000
G1 Z0.200 F1200
G1 E1.9000 F1200
G1 X18.892 Y-7.501 E0.0470 F1800
G1 X17.481 Y-6.747 E0.0612
G1 X16.245 Y-5.732 E0.0612
G1 X15.230 Y-4.495 E0.0612
G1 X14.766 Y-3.626 E0.0377
G1 X6.642 Y-3.626 E0.3108
G1 X6.615 Y-3.715 E0.0036
G1 X5.953 Y-4.953 E0.0537
G1 X5.063 Y-6.038 E0.0537
G1 X3.978 Y-6.928 E0.0537
G1 X2.740 Y-7.590 E0.0537
G1 X1.859 Y-7.857 E0.0352
G1 X20.068 Y-7.857 E0.6965
G1 E-1.9000 F1200
G1 Z0.700 F1200
G1 X-1.859 Y-7.857 F9000
G1 Z0.200 F1200
G1 E1.9000 F1200
G1 X-2.740 Y-7.590 E0.0352 F1800
G1 X-3.978 Y-6.928 E0.0537
G1 X-5.063 Y-6.038 E0.0537
G1 X-5.953 Y-4.953 E0.0537
G1 X-6.615 Y-3.715 E0.0537
G1 X-6.642 Y-3.626 E0.0036
G1 X-37.388 Y-3.626 E1.1760
G1 X-37.415 Y-3.715 E0.0036
G1 X-38.077 Y-4.953 E0.0537
G1 X-38.967 Y-6.038 E0.0537
G1 X-40.052 Y-6.928 E0.0537
G1 X-41.290 Y-7.590 E0.0537
G1 X-42.171 Y-7.857 E0.0352
G1 X-1.859 Y-7.857 E1.5419
G1 E-1.9000 F1200
G1 Z0.700 F1200
G1 X-54.347 Y-8.317 F9000
G1 Z0.200 F1200
G1 E1.9000 F1200
G1 X54.347 Y-8.317 E4.1575 F1800
G1 X54.347 Y8.315 E0.6362
G1 X-54.347 Y8.315 E4.1575
G1 X-54.347 Y-8.317 E0.6362
; feature outer perimeter
G1 X-54.807 Y-8.777 F9000
G1 X54.807 Y-8.777 E4.1926 F1200
G1 X54.807 Y8.775 E0.6714
G1 X-54.807 Y8.775 E4.1926
G1 X-54.807 Y-8.777 E0.6714
; feature inner perimeter
G1 X-49.598 Y-4.696 F9000
G1 X-50.218 Y-3.537 E0.0503 F1800
G1 X-50.602 Y-2.247 E0.0515
G1 X-50.727 Y-0.975 E0.0489
G1 X-50.598 Y0.331 E0.0502
G1 X-50.217 Y1.588 E0.0502
G1 X-49.598 Y2.746 E0.0502
G1 X-48.765 Y3.760 E0.0502
G1 X-47.751 Y4.593 E0.0502
G1 X-46.593 Y5.212 E0.0502
G1 X-45.336 Y5.593 E0.0502
G1 X-44.030 Y5.722 E0.0502
G1 X-42.723 Y5.593 E0.0502
G1 X-41.467 Y5.212 E0.0502
G1 X-40.309 Y4.593 E0.0502
G1 X-39.294 Y3.760 E0.0502
G1 X-38.461 Y2.746 E0.0502
G1 X-37.842 Y1.588 E0.0502
G1 X-37.729 Y1.216 E0.0149
G1 X-6.300 Y1.216 E1.2021
G1 X-6.188 Y1.588 E0.0149
G1 X-5.569 Y2.746 E0.0502
G1 X-4.736 Y3.760 E0.0502
G1 X-3.721 Y4.593 E0.0502
G1 X-2.563 Y5.212 E0.0502
G1 X-1.307 Y5.593 E0.0502
G1 X0.000 Y5.722 E0.0502
G1 X1.307 Y5.593 E0.0502
G1 X2.563 Y5.212 E0.0502
G1 X3.721 Y4.593 E0.0502
G1 X4.736 Y3.760 E0.0502
G1 X5.569 Y2.746 E0.0502
G1 X6.188 Y1.588 E0.0502
G1 X6.300 Y1.216 E0.0149
G1 X14.433 Y1.216 E0.3111
G1 X14.465 Y1.540 E0.0125
G1 X14.903 Y2.984 E0.0577
G1 X15.614 Y4.315 E0.0577
G1 X16.571 Y5.482 E0.0577
G1 X17.738 Y6.439 E0.0577
G1 X19.069 Y7.151 E0.0577
G1 X20.513 Y7.589 E0.0577
G1 X22.015 Y7.737 E0.0577
G1 X23.517 Y7.589 E0.0577
G1 X24.961 Y7.151 E0.0577
G1 X26.292 Y6.439 E0.0577
G1 X27.458 Y5.482 E0.0577
G1 X28.416 Y4.315 E0.0577
G1 X29.127 Y2.984 E0.0577
G1 X29.565 Y1.540 E0.0577
G1 X29.597 Y1.216 E0.0125
G1 X37.729 Y1.216 E0.3111
G1 X37.842 Y1.588 E0.0149
G1 X38.461 Y2.746 E0.0502
G1 X39.294 Y3.760 E0.0502
G1 X40.309 Y4.593 E0.0502
G1 X41.467 Y5.212 E0.0502
G1 X42.723 Y5.593 E0.0502
G1 X44.030 Y5.722 E0.0502
G1 X45.336 Y5.593 E0.0502
G1 X46.593 Y5.212 E0.0502
G1 X47.751 Y4.593 E0.0502
G1 X48.765 Y3.760 E0.0502
G1 X49.598 Y2.746 E0.0502
G1 X50.217 Y1.588 E0.0502
G1 X50.598 Y0.331 E0.0502
G1 X50.727 Y-0.975 E0.0502
G1 X50.598 Y-2.282 E0.0502
G1 X50.217 Y-3.538 E0.0502
G1 X49.598 Y-4.696 E0.0502
G1 X48.765 Y-5.711 E0.0502
G1 X47.751 Y-6.544 E0.0502
G1 X46.593 Y-7.163 E0.0502
G1 X45.336 Y-7.544 E0.0502
G1 X44.030 Y-7.673 E0.0502
G1 X42.723 Y-7.544 E0.0502
G1 X41.467 Y-7.163 E0.0502
G1 X40.309 Y-6.544 E0.0502
G1 X39.294 Y-5.711 E0.0502
G1 X38.461 Y-4.696 E0.0502
G1 X37.842 Y-3.538 E0.0502
G1 X37.729 Y-3.166 E0.0149
G1 X28.989 Y-3.166 E0.3343
G1 X28.416 Y-4.238 E0.0465
G1 X27.458 Y-5.405 E0.0577
G1 X26.292 Y-6.362 E0.0577
G1 X24.961 Y-7.074 E0.0577
G1 X23.517 Y-7.512 E0.0577
G1 X22.015 Y-7.660 E0.0577
G1 X20.513 Y-7.512 E0.0577
G1 X19.069 Y-7.074 E0.0577
G1 X17.738 Y-6.362 E0.0577
G1 X16.571 Y-5.405 E0.0577
G1 X15.614 Y-4.238 E0.0577
G1 X15.042 Y-3.166 E0.0465
G1 X6.300 Y-3.166 E0.3344
G1 X6.188 Y-3.538 E0.0149
G1 X5.569 Y-4.696 E0.0502
G1 X4.736 Y-5.711 E0.0502
G1 X3.721 Y-6.544 E0.0502
G1 X2.563 Y-7.163 E0.0502
G1 X1.307 Y-7.544 E0.0502
G1 X0.000 Y-7.673 E0.0502
G1 X-1.307 Y-7.544 E0.0502
G1 X-2.563 Y-7.163 E0.0502
G1 X-3.721 Y-6.544 E0.0502
G1 X-4.736 Y-5.711 E0.0502
G1 X-5.569 Y-4.696 E0.0502
G1 X-6.188 Y-3.538 E0.0502
G1 X-6.300 Y-3.166 E0.0149
G1 X-37.729 Y-3.166 E1.2021
G1 X-37.842 Y-3.538 E0.0149
G1 X-38.461 Y-4.696 E0.0502
G1 X-39.294 Y-5.711 E0.0502
G1 X-40.309 Y-6.544 E0.0502
G1 X-41.467 Y-7.163 E0.0502
G1 X-42.723 Y-7.544 E0.0502
G1 X-44.030 Y-7.673 E0.0502
G1 X-45.336 Y-7.544 E0.0502
G1 X-46.593 Y-7.163 E0.0502
G1 X-47.751 Y-6.544 E0.0502
G1 X-48.765 Y-5.711 E0.0502
G1 X-49.598 Y-4.696 E0.0502
; feature outer perimeter
G1 X-49.214 Y-4.439 F9000
G1 X-49.790 Y-3.361 E0.0468 F1200
G1 X-50.148 Y-2.158 E0.0480
G1 X-50.265 Y-0.975 E0.0454
G1 X-50.145 Y0.241 E0.0468
G1 X-49.790 Y1.411 E0.0468
G1 X-49.214 Y2.489 E0.0468
G1 X-48.439 Y3.434 E0.0468
G1 X-47.494 Y4.209 E0.0468
G1 X-46.416 Y4.785 E0.0468
G1 X-45.246 Y5.140 E0.0468
G1 X-44.030 Y5.260 E0.0468
G1 X-42.813 Y5.140 E0.0468
G1 X-41.644 Y4.785 E0.0468
G1 X-40.566 Y4.209 E0.0468
G1 X-39.621 Y3.434 E0.0468
G1 X-38.845 Y2.489 E0.0468
G1 X-38.269 Y1.411 E0.0468
G1 X-38.070 Y0.756 E0.0262
G1 X-5.959 Y0.756 E1.2282
G1 X-5.761 Y1.411 E0.0262
G1 X-5.184 Y2.489 E0.0468
G1 X-4.409 Y3.434 E0.0468
G1 X-3.464 Y4.209 E0.0468
G1 X-2.386 Y4.785 E0.0468
G1 X-1.216 Y5.140 E0.0468
G1 X0.000 Y5.260 E0.0468
G1 X1.216 Y5.140 E0.0468
G1 X2.386 Y4.785 E0.0468
G1 X3.464 Y4.209 E0.0468
G1 X4.409 Y3.434 E0.0468
G1 X5.184 Y2.489 E0.0468
G1 X5.761 Y1.411 E0.0468
G1 X5.959 Y0.756 E0.0262
G1 X14.850 Y0.756 E0.3400
G1 X14.918 Y1.450 E0.0267
G1 X15.330 Y2.808 E0.0543
G1 X15.998 Y4.059 E0.0543
G1 X16.898 Y5.155 E0.0543
G1 X17.995 Y6.055 E0.0543
G1 X19.246 Y6.724 E0.0543
G1 X20.603 Y7.135 E0.0543
G1 X22.015 Y7.274 E0.0543
G1 X23.426 Y7.135 E0.0543
G1 X24.784 Y6.724 E0.0543
G1 X26.035 Y6.055 E0.0543
G1 X27.131 Y5.155 E0.0543
G1 X28.031 Y4.059 E0.0543
G1 X28.700 Y2.808 E0.0543
G1 X29.112 Y1.450 E0.0543
