; G-Code generated by Simplify3D(R) Version 4.1.2
; Apr 6, 2020 at 12:02:16 PM
; Settings Summary
;   processName,Process1
;   applyToModels,LED holderV3R2
;   profileName,MakerBot Replicator 2 HBP (modified)
;   profileVersion,2020-03-12 10:48:50
;   baseProfile,MakerBot Replicator 2(2)
;   printMaterial,PLA
;   printQuality,Medium
;   printExtruders,
;   extruderName,Primary Extruder
;   extruderToolheadNumber,0
;   extruderDiameter,0.4
;   extruderAutoWidth,0
;   extruderWidth,0.4
;   extrusionMultiplier,1
;   extruderUseRetract,1
;   extruderRetractionDistance,1.9
;   extruderExtraRestartDistance,0
;   extruderRetractionZLift,0.5
;   extruderRetractionSpeed,1200
;   extruderUseCoasting,0
;   extruderCoastingDistance,0.2
;   extruderUseWipe,0
;   extruderWipeDistance,5
;   primaryExtruder,0
;   layerHeight,0.2
;   topSolidLayers,3
;   bottomSolidLayers,3
;   perimeterOutlines,3
;   printPerimetersInsideOut,1
;   startPointOption,3
;   startPointOriginX,0
;   startPointOriginY,150
;   sequentialIslands,0
;   spiralVaseMode,0
;   firstLayerHeightPercentage,100
;   firstLayerWidthPercentage,115
;   firstLayerUnderspeed,0.5
;   useRaft,0
;   raftExtruder,0
;   raftTopLayers,2
;   raftBaseLayers,1
;   raftOffset,1
;   raftSeparationDistance,0.14
;   raftTopInfill,90
;   aboveRaftSpeedMultiplier,0.3
;   useSkirt,0
;   skirtExtruder,0
;   skirtLayers,1
;   skirtOutlines,5
;   skirtOffset,0
;   usePrimePillar,0
;   primePillarExtruder,999
;   primePillarWidth,12
;   primePillarLocation,7
;   primePillarSpeedMultiplier,1
;   useOozeShield,0
;   oozeShieldExtruder,999
;   oozeShieldOffset,2
;   oozeShieldOutlines,1
;   oozeShieldSidewallShape,1
;   oozeShieldSidewallAngle,30
;   oozeShieldSpeedMultiplier,1
;   infillExtruder,0
;   internalInfillPattern,Rectilinear
;   externalInfillPattern,Rectilinear
;   infillPercentage,15
;   outlineOverlapPercentage,25
;   infillExtrusionWidthPercentage,100
;   minInfillLength,5
;   infillLayerInterval,1
;   internalInfillAngles,45,-45
;   overlapInternalInfillAngles,0
;   externalInfillAngles,45,-45
;   generateSupport,1
;   supportExtruder,0
;   supportInfillPercentage,30
;   supportExtraInflation,0.5
;   supportBaseLayers,0
;   denseSupportExtruder,0
;   denseSupportLayers,2
;   denseSupportInfillPercentage,90
;   supportLayerInterval,1
;   supportHorizontalPartOffset,0.3
;   supportUpperSeparationLayers,1
;   supportLowerSeparationLayers,1
;   supportType,1
;   supportGridSpacing,2
;   maxOverhangAngle,45
;   supportAngles,45,-45
;   temperatureName,Primary Extruder,Heated Build Platform
;   temperatureNumber,0,0
;   temperatureSetpointCount,1,1
;   temperatureSetpointLayers,1,1
;   temperatureSetpointTemperatures,230,60
;   temperatureStabilizeAtStartup,1,1
;   temperatureHeatedBed,0,1
;   fanLayers,1,2
;   fanSpeeds,0,100
;   blipFanToFullPower,1
;   adjustSpeedForCooling,1
;   minSpeedLayerTime,15
;   minCoolingSpeedSlowdown,20
;   increaseFanForCooling,1
;   minFanLayerTime,45
;   maxCoolingFanSpeed,100
;   increaseFanForBridging,1
;   bridgingFanSpeed,100
;   use5D,1
;   relativeEdistances,1
;   allowEaxisZeroing,0
;   independentExtruderAxes,1
;   includeM10123,0
;   stickySupport,1
;   applyToolheadOffsets,0
;   gcodeXoffset,0
;   gcodeYoffset,0
;   gcodeZoffset,0
;   overrideMachineDefinition,1
;   machineTypeOverride,0
;   strokeXoverride,280
;   strokeYoverride,150
;   strokeZoverride,150
;   originOffsetXoverride,140
;   originOffsetYoverride,75
;   originOffsetZoverride,0
;   homeXdirOverride,1
;   homeYdirOverride,1
;   homeZdirOverride,-1
;   flipXoverride,1
;   flipYoverride,-1
;   flipZoverride,1
;   toolheadOffsets,0,0|0,0|0,0|0,0|0,0|0,0
;   overrideFirmwareConfiguration,1
;   firmwareTypeOverride,MakerBot/Sailfish Firmware
;   GPXconfigOverride,r2h
;   baudRateOverride,115200
;   overridePrinterModels,1
;   printerModelsOverride,MakerBot_Replicator2.stl
;   startingGcode,; **** Replicator 2 start.gcode ****,M73 P0 ; enable build progress,G162 X Y F3000 ; home XY maximum,G161 Z F1200 ; home Z minimum,G92 Z-5 ; set Z to -5,G1 Z0 ; move Z to 0,G161 Z F100 ; home Z slowly,M132 X Y Z A B ; recall home offsets,G1 X-145 Y-75 Z30 F9000 ; move to wait position off table,G130 X20 Y20 Z20 A20 B20 ; lower stepper Vrefs while heating,M126 S[fan_speed_pwm],M140 S[bed0_temperature] T0,M134 T0 ; stabilize bed temperature,M104 S[extruder0_temperature] T0,M133 T0 ; stabilize extruder temperature,G130 X127 Y127 Z40 A127 B127 ; default stepper Vrefs,G92 A0 ; zero extruder,G1 Z0.4 ; position nozzle,G1 E25 F300 ; purge nozzle,G1 X-140 Y-70 Z0.15 F1200 ; slow wipe,G1 X-135 Y-65 Z0.5 F1200 ; lift,G92 A0 ; zero extruder,M73 P1 ;@body (notify GPX body has started),; **** end of start.gcode ****
;   layerChangeGcode,
;   retractionGcode,
;   toolChangeGcode,
;   endingGcode,; **** Replicator 2 end.gcode ****,M73 P100 ; end build progress,G1 Z155 F1000 ; send Z axis to bottom of machine,M104 S0 T0 ; cool down extruder,M140 S0 T0 ; cool down HBP,M127 ; stop blower fan,G162 X Y F3000 ; home XY maximum,M18 ; disable stepper,M0 ; stop codes,M72 P1 ; play Ta-Da song,; **** end of end.gcode ****
;   exportFileFormat,gcode
;   celebration,0
;   celebrationSong,Random Song
;   postProcessing,
;   defaultSpeed,4800
;   outlineUnderspeed,0.5
;   solidInfillUnderspeed,1
;   supportUnderspeed,1
;   rapidXYspeed,9000
;   rapidZspeed,1200
;   minBridgingArea,50
;   bridgingExtraInflation,0
;   bridgingExtrusionMultiplier,1
;   bridgingSpeedMultiplier,0.8
;   useFixedBridgingAngle,0
;   fixedBridgingAngle,0
;   applyBridgingToPerimeters,0
;   filamentDiameters,1.75|1.75|1.75|1.75|1.75|1.75
;   filamentPricesPerKg,46|46|46|46|46|46
;   filamentDensities,1.25|1.25|1.25|1.25|1.25|1.25
;   useMinPrintHeight,0
;   minPrintHeight,0
;   useMaxPrintHeight,0
;   maxPrintHeight,4.84
;   useDiaphragm,0
;   diaphragmLayerInterval,20
;   robustSlicing,1
;   mergeAllIntoSolid,0
;   onlyRetractWhenCrossingOutline,0
;   retractBetweenLayers,0
;   useRetractionMinTravel,1
;   retractionMinTravel,7
;   retractWhileWiping,1
;   onlyWipeOutlines,1
;   avoidCrossingOutline,0
;   maxMovementDetourFactor,3
;   toolChangeRetractionDistance,12
;   toolChangeExtraRestartDistance,-0.5
;   toolChangeRetractionSpeed,600
;   externalThinWallType,0
;   internalThinWallType,0
;   thinWallAllowedOverlapPercentage,10
;   singleExtrusionMinLength,1
;   singleExtrusionMinPrintingWidthPercentage,50
;   singleExtrusionMaxPrintingWidthPercentage,200
;   singleExtrusionEndpointExtension,0.2
;   horizontalSizeCompensation,0
G90
M83
; **** Replicator 2 start.gcode ****
M73 P0 ; enable build progress
G162 X Y F3000 ; home XY maximum
G161 Z F1200 ; home Z minimum
G92 Z-5 ; set Z to -5
G1 Z0 ; move Z to 0
G161 Z F100 ; home Z slowly
M132 X Y Z A B ; recall home offsets
G1 X-145 Y-75 Z30 F9000 ; move to wait position off table
G130 X20 Y20 Z20 A20 B20 ; lower stepper Vrefs while heating
M126 S170
M140 S60 T0
M134 T0 ; stabilize bed temperature
M104 S230 T0
M133 T0 ; stabilize extruder temperature
G130 X127 Y127 Z40 A127 B127 ; default stepper Vrefs
G92 A0 ; zero extruder
G1 Z0.4 ; position nozzle
G1 E25 F300 ; purge nozzle
G1 X-140 Y-70 Z0.15 F1200 ; slow wipe
G1 X-135 Y-65 Z0.5 F1200 ; lift
G92 A0 ; zero extruder
M73 P1 ;@body (notify GPX body has started)
; **** end of start.gcode ****
; process Process1
; layer 1, Z = 0.200
M135 T0
G1 E-1.9000 F1200
; feature inner perimeter
; tool H0.200 W0.460
G1 Z0.500 F1200
G1 X6.650 Y-2.430 F9000
G1 Z0.200 F1200
G1 E1.9000 F1200
G1 X6.650 Y-7.695 E0.2014 F1505
G1 X8.650 Y-7.695 E0.0765
G1 X8.650 Y-2.430 E0.2014
G1 X6.650 Y-2.430 E0.0765
G1 E-1.9000 F1200
G1 Z0.700 F1200
G1 X-6.650 Y-2.430 F9000
G1 Z0.200 F1200
G1 E1.9000 F1200
G1 X-8.650 Y-2.430 E0.0765 F1505
G1 X-8.650 Y-7.695 E0.2014
G1 X-6.650 Y-7.695 E0.0765
G1 X-6.650 Y-2.430 E0.2014
G1 X-9.110 Y-1.970 F9000
G1 X-9.110 Y-8.155 E0.2366 F1505
G1 X9.110 Y-8.155 E0.6969
G1 X9.110 Y-1.970 E0.2366
G1 X-9.110 Y-1.970 E0.6969
; feature outer perimeter
G1 X-9.570 Y-1.510 F9000
G1 X-9.570 Y-8.615 E0.2718 F1003
G1 X9.570 Y-8.615 E0.7321
G1 X9.570 Y-1.510 E0.2718
G1 X-9.570 Y-1.510 E0.7321
; feature inner perimeter
G1 X-6.190 Y-2.119 F9000
G1 X6.190 Y-2.119 E0.4735 F1505
G1 X6.190 Y-8.007 E0.2252
G1 X-6.190 Y-7.997 E0.4735
G1 X-6.190 Y-2.119 E0.2248
; feature outer perimeter
G1 X-5.730 Y-2.579 F9000
G1 X5.730 Y-2.579 E0.4384 F1003
G1 X5.730 Y-7.546 E0.1900
G1 X-5.730 Y-7.537 E0.4384
G1 X-5.730 Y-2.579 E0.1896
; feature solid layer
G1 X-7.979 Y-2.775 F9000
G1 X-8.305 Y-3.101 E0.0176 F2006
G1 X-8.305 Y-3.752 E0.0249
G1 X-7.329 Y-2.775 E0.0528
G1 X-6.995 Y-2.775 E0.0128
G1 X-6.995 Y-3.092 E0.0121
G1 X-8.305 Y-4.402 E0.0709
G1 X-8.305 Y-5.053 E0.0249
G1 X-6.995 Y-3.743 E0.0709
G1 X-6.995 Y-4.393 E0.0249
G1 X-8.305 Y-5.703 E0.0709
G1 X-8.305 Y-6.354 E0.0249
G1 X-6.995 Y-5.044 E0.0709
G1 X-6.995 Y-5.694 E0.0249
G1 X-8.305 Y-7.004 E0.0709
G1 X-8.305 Y-7.350 E0.0132
G1 X-8.001 Y-7.350 E0.0116
G1 X-6.995 Y-6.345 E0.0544
G1 X-6.995 Y-6.995 E0.0249
G1 X-7.350 Y-7.350 E0.0192
G1 E-1.9000 F1200
G1 Z0.700 F1200
G1 X8.263 Y-7.350 F9000
G1 Z0.200 F1200
G1 E1.9000 F1200
G1 X8.305 Y-7.308 E0.0023 F2006
G1 X8.305 Y-6.657 E0.0249
G1 X7.612 Y-7.350 E0.0375
G1 X6.995 Y-7.350 E0.0236
G1 X6.995 Y-7.317 E0.0013
G1 X8.305 Y-6.007 E0.0709
G1 X8.305 Y-5.356 E0.0249
G1 X6.995 Y-6.666 E0.0709
G1 X6.995 Y-6.016 E0.0249
G1 X8.305 Y-4.705 E0.0709
G1 X8.305 Y-4.055 E0.0249
G1 X6.995 Y-5.365 E0.0709
G1 X6.995 Y-4.715 E0.0249
G1 X8.305 Y-3.404 E0.0709
G1 X8.305 Y-2.775 E0.0241
G1 X8.284 Y-2.775 E0.0008
G1 X6.995 Y-4.064 E0.0697
G1 X6.995 Y-3.413 E0.0249
G1 X7.633 Y-2.775 E0.0345
G1 E-1.9000 F1200
; feature support
G1 Z0.700 F1200
G1 X-5.508 Y9.228 F9000
G1 Z0.200 F1200
G1 E1.9000 F1200
G1 X-5.159 Y9.577 E0.0189 F2006
G1 X-3.519 Y9.577 E0.0627
G1 X-3.519 Y10.002 E0.0163
G1 X-2.848 Y10.002 E0.0257
G1 X-7.480 Y5.370 E0.2506
G1 X-7.480 Y3.865 E0.0576
G1 X-8.679 Y3.865 E0.0459
G1 X-8.679 Y2.480 E0.0530
G1 X-9.480 Y2.480 E0.0306
G1 X-9.480 Y1.484 E0.0381
G1 X-0.962 Y10.002 E0.4608
G1 X-0.559 Y10.002 E0.0154
G1 X-0.559 Y9.895 E0.0041
G1 X0.817 Y9.895 E0.0526
G1 X-2.036 Y7.042 E0.1543
G1 X-2.520 Y7.042 E0.0185
G1 X-2.520 Y6.558 E0.0185
G1 X-9.480 Y-0.402 E0.3765
G1 X-9.480 Y-0.740 E0.0129
G1 X-7.933 Y-0.740 E0.0592
G1 X-2.520 Y4.673 E0.2928
G1 X-2.520 Y2.787 E0.0721
G1 X-6.047 Y-0.740 E0.1908
G1 X-4.162 Y-0.740 E0.0721
G1 X-0.942 Y2.480 E0.1742
G1 X0.944 Y2.480 E0.0721
G1 X-2.276 Y-0.740 E0.1742
G1 X-0.390 Y-0.740 E0.0721
G1 X2.830 Y2.480 E0.1742
G1 X4.520 Y2.480 E0.0647
G1 X4.520 Y4.170 E0.0647
G1 X6.830 Y6.480 E0.1249
G1 X7.480 Y6.480 E0.0249
G1 X7.480 Y5.245 E0.0473
G1 X1.495 Y-0.740 E0.3237
G1 X3.381 Y-0.740 E0.0721
G1 X7.931 Y3.810 E0.2461
G1 X8.552 Y3.810 E0.0237
G1 X8.552 Y2.545 E0.0484
G1 X5.266 Y-0.740 E0.1777
G1 X7.152 Y-0.740 E0.0721
G1 X9.480 Y1.588 E0.1259
G1 X9.480 Y1.177 E0.0157
G1 X10.159 Y1.177 E0.0260
G1 X10.159 Y0.381 E0.0305
G1 X9.038 Y-0.740 E0.0606
G1 E-1.9000 F1200
G1 Z0.700 F1200
G1 X3.402 Y4.938 F9000
G1 Z0.200 F1200
G1 E1.9000 F1200
G1 X6.345 Y7.881 E0.1592 F2006
G1 X6.345 Y7.898 E0.0007
G1 X5.651 Y7.898 E0.0266
G1 X5.651 Y9.072 E0.0449
G1 X3.171 Y6.592 E0.1341
G1 X2.691 Y6.592 E0.0184
G1 X2.691 Y6.897 E0.0117
G1 X1.590 Y6.897 E0.0421
G1 X4.245 Y9.552 E0.1436
G1 X3.700 Y9.552 E0.0208
G1 X3.700 Y9.857 E0.0117
G1 X2.664 Y9.857 E0.0396
G1 X-0.258 Y6.935 E0.1581
G1 E-1.9000 F1200
; layer 2, Z = 0.400
M126 S255
; feature inner perimeter
; tool H0.200 W0.400
G1 Z0.700 F1200
G1 X-6.500 Y-2.280 F9000
G1 Z0.400 F1200
G1 E1.9000 F1200
G1 X-8.800 Y-2.280 E0.0765 F1562
G1 X-8.800 Y-7.845 E0.1851
G1 X-6.500 Y-7.845 E0.0765
G1 X-6.500 Y-2.280 E0.1851
G1 E-1.9000 F1200
G1 Z0.900 F1200
G1 X6.500 Y-2.280 F9000
G1 Z0.400 F1200
G1 E1.9000 F1200
G1 X6.500 Y-7.845 E0.1851 F1562
G1 X8.800 Y-7.845 E0.0765
G1 X8.800 Y-2.280 E0.1851
G1 X6.500 Y-2.280 E0.0765
G1 X9.200 Y-1.880 F9000
G1 X-9.200 Y-1.880 E0.6120 F1562
G1 X-9.200 Y-8.245 E0.2117
G1 X9.200 Y-8.245 E0.6120
G1 X9.200 Y-1.880 E0.2117
; feature outer perimeter
G1 X9.600 Y-1.480 F9000
G1 X-9.600 Y-1.480 E0.6386 F1042
G1 X-9.600 Y-8.645 E0.2383
G1 X9.600 Y-8.645 E0.6386
G1 X9.600 Y-1.480 E0.2383
; feature inner perimeter
G1 X6.100 Y-2.209 F9000
G1 X6.100 Y-7.916 E0.1898 F1562
G1 X-6.100 Y-7.916 E0.4058
G1 X-6.100 Y-2.209 E0.1898
G1 X6.100 Y-2.209 E0.4058
; feature outer perimeter
G1 X5.700 Y-2.609 F9000
G1 X5.700 Y-7.516 E0.1632 F1042
G1 X-5.700 Y-7.516 E0.3792
G1 X-5.700 Y-2.609 E0.1632
G1 X5.700 Y-2.609 E0.3792
; feature solid layer
G1 X8.237 Y-2.580 F9000
G1 X8.500 Y-2.843 E0.0124 F2083
G1 X8.500 Y-3.409 E0.0188
G1 X7.671 Y-2.580 E0.0390
G1 X7.106 Y-2.580 E0.0188
G1 X8.500 Y-3.975 E0.0656
G1 X8.500 Y-4.540 E0.0188
G1 X6.800 Y-2.840 E0.0800
G1 X6.800 Y-3.406 E0.0188
G1 X8.500 Y-5.106 E0.0800
G1 X8.500 Y-5.672 E0.0188
G1 X6.800 Y-3.972 E0.0800
G1 X6.800 Y-4.537 E0.0188
G1 X8.500 Y-6.238 E0.0800
G1 X8.500 Y-6.803 E0.0188
G1 X6.800 Y-5.103 E0.0800
G1 X6.800 Y-5.669 E0.0188
G1 X8.500 Y-7.369 E0.0800
G1 X8.500 Y-7.545 E0.0059
G1 X8.111 Y-7.545 E0.0129
G1 X6.800 Y-6.234 E0.0617
G1 X6.800 Y-6.800 E0.0188
G1 X7.545 Y-7.545 E0.0351
G1 X6.980 Y-7.545 E0.0188
G1 X6.800 Y-7.366 E0.0084
G1 E-1.9000 F1200
G1 Z0.900 F1200
G1 X-7.037 Y-2.580 F9000
G1 Z0.400 F1200
G1 E1.9000 F1200
G1 X-6.800 Y-2.816 E0.0111 F2083
G1 X-6.800 Y-3.382 E0.0188
G1 X-7.602 Y-2.580 E0.0377
G1 X-8.168 Y-2.580 E0.0188
G1 X-6.800 Y-3.948 E0.0643
G1 X-6.800 Y-4.513 E0.0188
G1 X-8.500 Y-2.813 E0.0800
G1 X-8.500 Y-3.379 E0.0188
G1 X-6.800 Y-5.079 E0.0800
G1 X-6.800 Y-5.645 E0.0188
G1 X-8.500 Y-3.945 E0.0800
G1 X-8.500 Y-4.510 E0.0188
G1 X-6.800 Y-6.211 E0.0800
G1 X-6.800 Y-6.776 E0.0188
G1 X-8.500 Y-5.076 E0.0800
G1 X-8.500 Y-5.642 E0.0188
G1 X-6.800 Y-7.342 E0.0800
G1 X-6.800 Y-7.545 E0.0068
G1 X-7.162 Y-7.545 E0.0120
G1 X-8.500 Y-6.207 E0.0629
G1 X-8.500 Y-6.773 E0.0188
G1 X-7.728 Y-7.545 E0.0363
G1 X-8.294 Y-7.545 E0.0188
G1 X-8.500 Y-7.339 E0.0097
G1 E-1.9000 F1200
; feature support
G1 Z0.900 F1200
G1 X5.656 Y9.582 F9000
G1 Z0.400 F1200
G1 E1.9000 F1200
G1 X5.681 Y9.558 E0.0012 F2083
G1 X5.681 Y7.928 E0.0542
G1 X6.375 Y7.928 E0.0231
G1 X6.375 Y6.978 E0.0316
G1 X3.770 Y9.582 E0.1225
G1 X3.730 Y9.582 E0.0013
G1 X3.730 Y9.622 E0.0013
G1 X3.465 Y9.887 E0.0125
G1 X1.616 Y9.887 E0.0615
G1 X1.616 Y9.925 E0.0013
G1 X1.542 Y9.925 E0.0025
G1 X7.510 Y3.957 E0.2807
G1 X7.510 Y3.840 E0.0039
G1 X7.627 Y3.840 E0.0039
G1 X8.582 Y2.885 E0.0449
G1 X8.582 Y2.510 E0.0125
G1 X8.957 Y2.510 E0.0125
G1 X9.510 Y1.957 E0.0260
G1 X9.510 Y1.207 E0.0249
G1 X10.189 Y1.207 E0.0226
G1 X10.189 Y-0.608 E0.0604
G1 X3.355 Y6.226 E0.3214
G1 X3.355 Y6.562 E0.0112
G1 X3.019 Y6.562 E0.0112
G1 X-0.344 Y9.925 E0.1582
G1 X-0.529 Y9.925 E0.0062
G1 X-0.529 Y10.032 E0.0036
G1 X-2.336 Y10.032 E0.0601
G1 X0.828 Y6.867 E0.1489
G1 X0.710 Y6.867 E0.0039
G1 X0.710 Y6.905 E0.0013
G1 X-1.095 Y6.905 E0.0600
G1 X-3.796 Y9.607 E0.1271
G1 X-5.538 Y9.607 E0.0579
G1 X-5.538 Y9.462 E0.0048
G1 X-2.490 Y6.414 E0.1434
G1 X-2.490 Y4.529 E0.0627
G1 X-5.720 Y7.759 E0.1519
G1 X-6.774 Y7.759 E0.0351
G1 X-6.774 Y6.927 E0.0277
G1 X-2.490 Y2.643 E0.2015
G1 X-2.490 Y2.510 E0.0044
G1 X-2.357 Y2.510 E0.0044
G1 X0.923 Y-0.770 E0.1543
G1 X-0.962 Y-0.770 E0.0627
G1 X-7.510 Y5.778 E0.3080
G1 X-7.510 Y3.895 E0.0626
G1 X-2.848 Y-0.770 E0.2195
G1 X-4.734 Y-0.770 E0.0627
G1 X-8.709 Y3.206 E0.1870
G1 X-8.709 Y2.510 E0.0231
G1 X-9.510 Y2.510 E0.0266
G1 X-9.510 Y2.121 E0.0129
G1 X-6.619 Y-0.770 E0.1360
G1 X-8.505 Y-0.770 E0.0627
G1 X-9.510 Y0.235 E0.0473
G1 E-1.9000 F1200
G1 Z0.900 F1200
G1 X-0.471 Y2.510 F9000
G1 Z0.400 F1200
G1 E1.9000 F1200
G1 X2.809 Y-0.770 E0.1543 F2083
G1 X4.695 Y-0.770 E0.0627
G1 X1.414 Y2.510 E0.1543
G1 X3.300 Y2.510 E0.0627
G1 X6.580 Y-0.770 E0.1543
G1 X8.466 Y-0.770 E0.0627
G1 X4.490 Y3.206 E0.1870
G1 X7.510 Y5.843 F9000
G1 X6.843 Y6.510 E0.0314 F2083
G1 E-1.9000 F1200
; layer 3, Z = 0.600
; feature inner perimeter
G1 Z0.900 F1200
G1 X6.500 Y-2.280 F9000
G1 Z0.600 F1200
G1 E1.9000 F1200
G1 X6.500 Y-7.845 E0.1851 F1573
G1 X8.800 Y-7.845 E0.0765
G1 X8.800 Y-2.280 E0.1851
G1 X6.500 Y-2.280 E0.0765
G1 E-1.9000 F1200
