; G-Code generated by Simplify3D(R) Version 4.1.2
; Apr 6, 2020 at 12:00:22 PM
; Settings Summary
;   processName,Process1
;   applyToModels,Tower floor
;   profileName,MakerBot Replicator 2 HBP (modified)
;   profileVersion,2020-03-12 10:48:50
;   baseProfile,MakerBot Replicator 2(2)
;   printMaterial,PLA
;   printQuality,Medium
;   printExtruders,
;   extruderName,Primary Extruder
;   extruderToolheadNumber,0
;   extruderDiameter,0.4
;   extruderAutoWidth,0
;   extruderWidth,0.4
;   extrusionMultiplier,1
;   extruderUseRetract,1
;   extruderRetractionDistance,1.9
;   extruderExtraRestartDistance,0
;   extruderRetractionZLift,0.5
;   extruderRetractionSpeed,1200
;   extruderUseCoasting,0
;   extruderCoastingDistance,0.2
;   extruderUseWipe,0
;   extruderWipeDistance,5
;   primaryExtruder,0
;   layerHeight,0.2
;   topSolidLayers,3
;   bottomSolidLayers,3
;   perimeterOutlines,3
;   printPerimetersInsideOut,1
;   startPointOption,3
;   startPointOriginX,0
;   startPointOriginY,150
;   sequentialIslands,0
;   spiralVaseMode,0
;   firstLayerHeightPercentage,100
;   firstLayerWidthPercentage,115
;   firstLayerUnderspeed,0.5
;   useRaft,0
;   raftExtruder,0
;   raftTopLayers,2
;   raftBaseLayers,1
;   raftOffset,1
;   raftSeparationDistance,0.14
;   raftTopInfill,90
;   aboveRaftSpeedMultiplier,0.3
;   useSkirt,0
;   skirtExtruder,0
;   skirtLayers,1
;   skirtOutlines,5
;   skirtOffset,0
;   usePrimePillar,0
;   primePillarExtruder,999
;   primePillarWidth,12
;   primePillarLocation,7
;   primePillarSpeedMultiplier,1
;   useOozeShield,0
;   oozeShieldExtruder,999
;   oozeShieldOffset,2
;   oozeShieldOutlines,1
;   oozeShieldSidewallShape,1
;   oozeShieldSidewallAngle,30
;   oozeShieldSpeedMultiplier,1
;   infillExtruder,0
;   internalInfillPattern,Rectilinear
;   externalInfillPattern,Rectilinear
;   infillPercentage,15
;   outlineOverlapPercentage,25
;   infillExtrusionWidthPercentage,100
;   minInfillLength,5
;   infillLayerInterval,1
;   internalInfillAngles,45,-45
;   overlapInternalInfillAngles,0
;   externalInfillAngles,45,-45
;   generateSupport,1
;   supportExtruder,0
;   supportInfillPercentage,30
;   supportExtraInflation,0.5
;   supportBaseLayers,0
;   denseSupportExtruder,0
;   denseSupportLayers,2
;   denseSupportInfillPercentage,90
;   supportLayerInterval,1
;   supportHorizontalPartOffset,0.3
;   supportUpperSeparationLayers,1
;   supportLowerSeparationLayers,1
;   supportType,1
;   supportGridSpacing,2
;   maxOverhangAngle,45
;   supportAngles,45,-45
;   temperatureName,Primary Extruder,Heated Build Platform
;   temperatureNumber,0,0
;   temperatureSetpointCount,1,1
;   temperatureSetpointLayers,1,1
;   temperatureSetpointTemperatures,230,60
;   temperatureStabilizeAtStartup,1,1
;   temperatureHeatedBed,0,1
;   fanLayers,1,2
;   fanSpeeds,0,100
;   blipFanToFullPower,1
;   adjustSpeedForCooling,1
;   minSpeedLayerTime,15
;   minCoolingSpeedSlowdown,20
;   increaseFanForCooling,1
;   minFanLayerTime,45
;   maxCoolingFanSpeed,100
;   increaseFanForBridging,1
;   bridgingFanSpeed,100
;   use5D,1
;   relativeEdistances,1
;   allowEaxisZeroing,0
;   independentExtruderAxes,1
;   includeM10123,0
;   stickySupport,1
;   applyToolheadOffsets,0
;   gcodeXoffset,0
;   gcodeYoffset,0
;   gcodeZoffset,0
;   overrideMachineDefinition,1
;   machineTypeOverride,0
;   strokeXoverride,280
;   strokeYoverride,150
;   strokeZoverride,150
;   originOffsetXoverride,140
;   originOffsetYoverride,75
;   originOffsetZoverride,0
;   homeXdirOverride,1
;   homeYdirOverride,1
;   homeZdirOverride,-1
;   flipXoverride,1
;   flipYoverride,-1
;   flipZoverride,1
;   toolheadOffsets,0,0|0,0|0,0|0,0|0,0|0,0
;   overrideFirmwareConfiguration,1
;   firmwareTypeOverride,MakerBot/Sailfish Firmware
;   GPXconfigOverride,r2h
;   baudRateOverride,115200
;   overridePrinterModels,1
;   printerModelsOverride,MakerBot_Replicator2.stl
;   startingGcode,; **** Replicator 2 start.gcode ****,M73 P0 ; enable build progress,G162 X Y F3000 ; home XY maximum,G161 Z F1200 ; home Z minimum,G92 Z-5 ; set Z to -5,G1 Z0 ; move Z to 0,G161 Z F100 ; home Z slowly,M132 X Y Z A B ; recall home offsets,G1 X-145 Y-75 Z30 F9000 ; move to wait position off table,G130 X20 Y20 Z20 A20 B20 ; lower stepper Vrefs while heating,M126 S[fan_speed_pwm],M140 S[bed0_temperature] T0,M134 T0 ; stabilize bed temperature,M104 S[extruder0_temperature] T0,M133 T0 ; stabilize extruder temperature,G130 X127 Y127 Z40 A127 B127 ; default stepper Vrefs,G92 A0 ; zero extruder,G1 Z0.4 ; position nozzle,G1 E25 F300 ; purge nozzle,G1 X-140 Y-70 Z0.15 F1200 ; slow wipe,G1 X-135 Y-65 Z0.5 F1200 ; lift,G92 A0 ; zero extruder,M73 P1 ;@body (notify GPX body has started),; **** end of start.gcode ****
;   layerChangeGcode,
;   retractionGcode,
;   toolChangeGcode,
;   endingGcode,; **** Replicator 2 end.gcode ****,M73 P100 ; end build progress,G1 Z155 F1000 ; send Z axis to bottom of machine,M104 S0 T0 ; cool down extruder,M140 S0 T0 ; cool down HBP,M127 ; stop blower fan,G162 X Y F3000 ; home XY maximum,M18 ; disable stepper,M0 ; stop codes,M72 P1 ; play Ta-Da song,; **** end of end.gcode ****
;   exportFileFormat,gcode
;   celebration,0
;   celebrationSong,Random Song
;   postProcessing,
;   defaultSpeed,4800
;   outlineUnderspeed,0.5
;   solidInfillUnderspeed,1
;   supportUnderspeed,1
;   rapidXYspeed,9000
;   rapidZspeed,1200
;   minBridgingArea,50
;   bridgingExtraInflation,0
;   bridgingExtrusionMultiplier,1
;   bridgingSpeedMultiplier,0.8
;   useFixedBridgingAngle,0
;   fixedBridgingAngle,0
;   applyBridgingToPerimeters,0
;   filamentDiameters,1.75|1.75|1.75|1.75|1.75|1.75
;   filamentPricesPerKg,46|46|46|46|46|46
;   filamentDensities,1.25|1.25|1.25|1.25|1.25|1.25
;   useMinPrintHeight,0
;   minPrintHeight,0
;   useMaxPrintHeight,0
;   maxPrintHeight,4.84
;   useDiaphragm,0
;   diaphragmLayerInterval,20
;   robustSlicing,1
;   mergeAllIntoSolid,0
;   onlyRetractWhenCrossingOutline,0
;   retractBetweenLayers,0
;   useRetractionMinTravel,1
;   retractionMinTravel,7
;   retractWhileWiping,1
;   onlyWipeOutlines,1
;   avoidCrossingOutline,0
;   maxMovementDetourFactor,3
;   toolChangeRetractionDistance,12
;   toolChangeExtraRestartDistance,-0.5
;   toolChangeRetractionSpeed,600
;   externalThinWallType,0
;   internalThinWallType,0
;   thinWallAllowedOverlapPercentage,10
;   singleExtrusionMinLength,1
;   singleExtrusionMinPrintingWidthPercentage,50
;   singleExtrusionMaxPrintingWidthPercentage,200
;   singleExtrusionEndpointExtension,0.2
;   horizontalSizeCompensation,0
G90
M83
; **** Replicator 2 start.gcode ****
M73 P0 ; enable build progress
G162 X Y F3000 ; home XY maximum
G161 Z F1200 ; home Z minimum
G92 Z-5 ; set Z to -5
G1 Z0 ; move Z to 0
G161 Z F100 ; home Z slowly
M132 X Y Z A B ; recall home offsets
G1 X-145 Y-75 Z30 F9000 ; move to wait position off table
G130 X20 Y20 Z20 A20 B20 ; lower stepper Vrefs while heating
M127
M140 S60 T0
M134 T0 ; stabilize bed temperature
M104 S230 T0
M133 T0 ; stabilize extruder temperature
G130 X127 Y127 Z40 A127 B127 ; default stepper Vrefs
G92 A0 ; zero extruder
G1 Z0.4 ; position nozzle
G1 E25 F300 ; purge nozzle
G1 X-140 Y-70 Z0.15 F1200 ; slow wipe
G1 X-135 Y-65 Z0.5 F1200 ; lift
G92 A0 ; zero extruder
M73 P1 ;@body (notify GPX body has started)
; **** end of start.gcode ****
; process Process1
; layer 1, Z = 0.200
M135 T0
G1 E-1.9000 F1200
; feature inner perimeter
; tool H0.200 W0.460
G1 Z0.500 F1200
G1 X24.910 Y18.818 F9000
G1 Z0.200 F1200
G1 E1.9000 F1200
G1 X24.910 Y-2.802 E0.8269 F1800
G1 X23.044 Y-4.644 E0.1003
G1 X-23.044 Y-4.644 E1.7628
G1 X-24.910 Y-2.802 E0.1003
G1 X-24.910 Y18.818 E0.8269
G1 X-38.785 Y18.818 E0.5307
G1 X-38.785 Y-18.818 E1.4395
G1 X38.785 Y-18.818 E2.9670
G1 X38.785 Y18.818 E1.4395
G1 X24.910 Y18.818 E0.5307
G1 X24.450 Y19.278 F9000
G1 X24.450 Y-2.610 E0.8372 F1800
G1 X22.855 Y-4.184 E0.0857
G1 X-22.855 Y-4.184 E1.7484
G1 X-24.450 Y-2.610 E0.0857
G1 X-24.450 Y19.278 E0.8372
G1 X-39.245 Y19.278 E0.5659
G1 X-39.245 Y-19.278 E1.4747
G1 X39.245 Y-19.278 E3.0022
G1 X39.245 Y19.278 E1.4747
G1 X24.450 Y19.278 E0.5659
; feature outer perimeter
G1 X23.990 Y19.738 F9000
G1 X23.990 Y-2.417 E0.8474 F1200
G1 X22.666 Y-3.724 E0.0711
G1 X-22.666 Y-3.724 E1.7339
G1 X-23.990 Y-2.417 E0.0711
G1 X-23.990 Y19.738 E0.8474
G1 X-39.705 Y19.738 E0.6011
G1 X-39.705 Y-19.738 E1.5099
G1 X39.705 Y-19.738 E3.0374
G1 X39.705 Y19.738 E1.5099
G1 X23.990 Y19.738 E0.6011
; feature solid layer
G1 X25.629 Y18.473 F9000
G1 X25.255 Y18.099 E0.0202 F2400
G1 X25.255 Y17.448 E0.0249
G1 X26.279 Y18.473 E0.0554
G1 X26.930 Y18.473 E0.0249
G1 X25.255 Y16.798 E0.0906
G1 X25.255 Y16.147 E0.0249
G1 X27.580 Y18.473 E0.1258
G1 X28.231 Y18.473 E0.0249
G1 X25.255 Y15.497 E0.1610
G1 X25.255 Y14.846 E0.0249
G1 X28.881 Y18.473 E0.1962
G1 X29.532 Y18.473 E0.0249
G1 X25.255 Y14.196 E0.2314
G1 X25.255 Y13.545 E0.0249
G1 X30.182 Y18.473 E0.2665
G1 X30.833 Y18.473 E0.0249
G1 X25.255 Y12.895 E0.3017
G1 X25.255 Y12.244 E0.0249
G1 X31.483 Y18.473 E0.3369
G1 X32.134 Y18.473 E0.0249
G1 X25.255 Y11.594 E0.3721
G1 X25.255 Y10.943 E0.0249
G1 X32.785 Y18.473 E0.4073
G1 X33.435 Y18.473 E0.0249
G1 X25.255 Y10.292 E0.4425
G1 X25.255 Y9.642 E0.0249
G1 X34.086 Y18.473 E0.4777
G1 X34.736 Y18.473 E0.0249
G1 X25.255 Y8.991 E0.5129
G1 X25.255 Y8.341 E0.0249
G1 X35.387 Y18.473 E0.5481
G1 X36.037 Y18.473 E0.0249
G1 X25.255 Y7.690 E0.5832
G1 X25.255 Y7.040 E0.0249
G1 X36.688 Y18.473 E0.6184
G1 X37.338 Y18.473 E0.0249
G1 X25.255 Y6.389 E0.6536
G1 X25.255 Y5.739 E0.0249
G1 X37.989 Y18.473 E0.6888
G1 X38.440 Y18.473 E0.0173
G1 X38.440 Y18.274 E0.0076
G1 X25.255 Y5.088 E0.7132
G1 X25.255 Y4.438 E0.0249
G1 X38.440 Y17.623 E0.7132
G1 X38.440 Y16.973 E0.0249
G1 X25.255 Y3.787 E0.7132
G1 X25.255 Y3.137 E0.0249
G1 X38.440 Y16.322 E0.7132
G1 X38.440 Y15.671 E0.0249
G1 X25.255 Y2.486 E0.7132
G1 X25.255 Y1.835 E0.0249
G1 X38.440 Y15.021 E0.7132
G1 X38.440 Y14.370 E0.0249
G1 X25.255 Y1.185 E0.7132
G1 X25.255 Y0.534 E0.0249
G1 X38.440 Y13.720 E0.7132
G1 X38.440 Y13.069 E0.0249
G1 X25.255 Y-0.116 E0.7132
G1 X25.255 Y-0.767 E0.0249
G1 X38.440 Y12.419 E0.7132
G1 X38.440 Y11.768 E0.0249
G1 X25.255 Y-1.417 E0.7132
G1 X25.255 Y-2.068 E0.0249
G1 X38.440 Y11.118 E0.7132
G1 X38.440 Y10.467 E0.0249
G1 X25.255 Y-2.718 E0.7132
G1 E-1.9000 F1200
G1 Z0.700 F1200
G1 X38.124 Y-18.473 F9000
G1 Z0.200 F1200
G1 E1.9000 F1200
G1 X38.440 Y-18.157 E0.0171 F2400
G1 X38.440 Y-17.506 E0.0249
G1 X37.474 Y-18.473 E0.0523
G1 X36.823 Y-18.473 E0.0249
G1 X38.440 Y-16.855 E0.0875
G1 X38.440 Y-16.205 E0.0249
G1 X36.173 Y-18.473 E0.1227
G1 X35.522 Y-18.473 E0.0249
G1 X38.440 Y-15.554 E0.1579
G1 X38.440 Y-14.904 E0.0249
G1 X34.871 Y-18.473 E0.1930
G1 X34.221 Y-18.473 E0.0249
G1 X38.440 Y-14.253 E0.2282
G1 X38.440 Y-13.603 E0.0249
G1 X33.570 Y-18.473 E0.2634
G1 X32.920 Y-18.473 E0.0249
G1 X38.440 Y-12.952 E0.2986
G1 X38.440 Y-12.302 E0.0249
G1 X32.269 Y-18.473 E0.3338
G1 X31.619 Y-18.473 E0.0249
G1 X38.440 Y-11.651 E0.3690
G1 X38.440 Y-11.001 E0.0249
G1 X30.968 Y-18.473 E0.4042
G1 X30.318 Y-18.473 E0.0249
G1 X38.440 Y-10.350 E0.4394
G1 X38.440 Y-9.700 E0.0249
G1 X29.667 Y-18.473 E0.4746
G1 X29.017 Y-18.473 E0.0249
G1 X38.440 Y-9.049 E0.5097
G1 X38.440 Y-8.398 E0.0249
G1 X28.366 Y-18.473 E0.5449
G1 X27.716 Y-18.473 E0.0249
G1 X38.440 Y-7.748 E0.5801
G1 X38.440 Y-7.097 E0.0249
G1 X27.065 Y-18.473 E0.6153
G1 X26.414 Y-18.473 E0.0249
G1 X38.440 Y-6.447 E0.6505
G1 X38.440 Y-5.796 E0.0249
G1 X25.764 Y-18.473 E0.6857
G1 X25.113 Y-18.473 E0.0249
G1 X38.440 Y-5.146 E0.7209
G1 X38.440 Y-4.495 E0.0249
G1 X24.463 Y-18.473 E0.7561
G1 X23.812 Y-18.473 E0.0249
G1 X38.440 Y-3.845 E0.7913
G1 X38.440 Y-3.194 E0.0249
G1 X23.162 Y-18.473 E0.8265
G1 X22.511 Y-18.473 E0.0249
G1 X38.440 Y-2.544 E0.8616
G1 X38.440 Y-1.893 E0.0249
G1 X21.861 Y-18.473 E0.8968
G1 X21.210 Y-18.473 E0.0249
G1 X38.440 Y-1.243 E0.9320
G1 X38.440 Y-0.592 E0.0249
G1 X20.560 Y-18.473 E0.9672
G1 X19.909 Y-18.473 E0.0249
G1 X38.440 Y0.059 E1.0024
G1 X38.440 Y0.709 E0.0249
G1 X19.259 Y-18.473 E1.0376
G1 X18.608 Y-18.473 E0.0249
G1 X38.440 Y1.360 E1.0728
G1 X38.440 Y2.010 E0.0249
G1 X17.957 Y-18.473 E1.1080
G1 X17.307 Y-18.473 E0.0249
G1 X38.440 Y2.661 E1.1432
G1 X38.440 Y3.311 E0.0249
G1 X16.656 Y-18.473 E1.1783
G1 X16.006 Y-18.473 E0.0249
G1 X38.440 Y3.962 E1.2135
G1 X38.440 Y4.612 E0.0249
G1 X15.355 Y-18.473 E1.2487
G1 X14.705 Y-18.473 E0.0249
G1 X38.440 Y5.263 E1.2839
G1 X38.440 Y5.913 E0.0249
G1 X14.054 Y-18.473 E1.3191
G1 X13.404 Y-18.473 E0.0249
G1 X38.440 Y6.564 E1.3543
G1 X38.440 Y7.214 E0.0249
G1 X12.753 Y-18.473 E1.3895
G1 X12.103 Y-18.473 E0.0249
G1 X38.440 Y7.865 E1.4247
G1 X38.440 Y8.516 E0.0249
G1 X11.452 Y-18.473 E1.4599
G1 X10.802 Y-18.473 E0.0249
G1 X38.440 Y9.166 E1.4950
G1 X38.440 Y9.817 E0.0249
G1 X10.151 Y-18.473 E1.5302
G1 X9.500 Y-18.473 E0.0249
G1 X22.984 Y-4.989 E0.7293
G1 X22.333 Y-4.989 E0.0249
G1 X8.850 Y-18.473 E0.7293
G1 X8.199 Y-18.473 E0.0249
G1 X21.683 Y-4.989 E0.7293
G1 X21.032 Y-4.989 E0.0249
G1 X7.549 Y-18.473 E0.7293
G1 X6.898 Y-18.473 E0.0249
G1 X20.382 Y-4.989 E0.7293
G1 X19.731 Y-4.989 E0.0249
G1 X6.248 Y-18.473 E0.7293
G1 X5.597 Y-18.473 E0.0249
G1 X19.081 Y-4.989 E0.7293
G1 X18.430 Y-4.989 E0.0249
G1 X4.947 Y-18.473 E0.7293
G1 X4.296 Y-18.473 E0.0249
G1 X17.780 Y-4.989 E0.7293
G1 X17.129 Y-4.989 E0.0249
G1 X3.646 Y-18.473 E0.7293
G1 X2.995 Y-18.473 E0.0249
G1 X16.478 Y-4.989 E0.7293
G1 X15.828 Y-4.989 E0.0249
G1 X2.345 Y-18.473 E0.7293
G1 X1.694 Y-18.473 E0.0249
G1 X15.177 Y-4.989 E0.7293
G1 X14.527 Y-4.989 E0.0249
G1 X1.043 Y-18.473 E0.7293
G1 X0.393 Y-18.473 E0.0249
G1 X13.876 Y-4.989 E0.7293
G1 X13.226 Y-4.989 E0.0249
G1 X-0.258 Y-18.473 E0.7293
G1 X-0.908 Y-18.473 E0.0249
G1 X12.575 Y-4.989 E0.7293
G1 X11.925 Y-4.989 E0.0249
G1 X-1.559 Y-18.473 E0.7293
G1 X-2.209 Y-18.473 E0.0249
G1 X11.274 Y-4.989 E0.7293
G1 X10.624 Y-4.989 E0.0249
G1 X-2.860 Y-18.473 E0.7293
G1 X-3.510 Y-18.473 E0.0249
G1 X9.973 Y-4.989 E0.7293
G1 X9.323 Y-4.989 E0.0249
G1 X-4.161 Y-18.473 E0.7293
G1 X-4.811 Y-18.473 E0.0249
G1 X8.672 Y-4.989 E0.7293
G1 X8.021 Y-4.989 E0.0249
G1 X-5.462 Y-18.473 E0.7293
G1 X-6.112 Y-18.473 E0.0249
G1 X7.371 Y-4.989 E0.7293
G1 X6.720 Y-4.989 E0.0249
G1 X-6.763 Y-18.473 E0.7293
G1 X-7.413 Y-18.473 E0.0249
G1 X6.070 Y-4.989 E0.7293
G1 X5.419 Y-4.989 E0.0249
G1 X-8.064 Y-18.473 E0.7293
G1 X-8.715 Y-18.473 E0.0249
G1 X4.769 Y-4.989 E0.7293
G1 X4.118 Y-4.989 E0.0249
G1 X-9.365 Y-18.473 E0.7293
G1 X-10.016 Y-18.473 E0.0249
G1 X3.468 Y-4.989 E0.7293
G1 X2.817 Y-4.989 E0.0249
G1 X-10.666 Y-18.473 E0.7293
G1 X-11.317 Y-18.473 E0.0249
G1 X2.167 Y-4.989 E0.7293
G1 X1.516 Y-4.989 E0.0249
G1 X-11.967 Y-18.473 E0.7293
G1 X-12.618 Y-18.473 E0.0249
G1 X0.866 Y-4.989 E0.7293
G1 X0.215 Y-4.989 E0.0249
G1 X-13.268 Y-18.473 E0.7293
G1 X-13.919 Y-18.473 E0.0249
G1 X-0.436 Y-4.989 E0.7293
G1 X-1.086 Y-4.989 E0.0249
G1 X-14.569 Y-18.473 E0.7293
G1 X-15.220 Y-18.473 E0.0249
G1 X-1.737 Y-4.989 E0.7293
G1 X-2.387 Y-4.989 E0.0249
G1 X-15.870 Y-18.473 E0.7293
G1 X-16.521 Y-18.473 E0.0249
G1 X-3.038 Y-4.989 E0.7293
G1 X-3.688 Y-4.989 E0.0249
G1 X-17.172 Y-18.473 E0.7293
G1 X-17.822 Y-18.473 E0.0249
G1 X-4.339 Y-4.989 E0.7293
G1 X-4.989 Y-4.989 E0.0249
G1 X-18.473 Y-18.473 E0.7293
G1 X-19.123 Y-18.473 E0.0249
G1 X-5.640 Y-4.989 E0.7293
G1 X-6.290 Y-4.989 E0.0249
G1 X-19.774 Y-18.473 E0.7293
G1 X-20.424 Y-18.473 E0.0249
G1 X-6.941 Y-4.989 E0.7293
G1 X-7.591 Y-4.989 E0.0249
G1 X-21.075 Y-18.473 E0.7293
G1 X-21.725 Y-18.473 E0.0249
G1 X-8.242 Y-4.989 E0.7293
G1 X-8.893 Y-4.989 E0.0249
G1 X-22.376 Y-18.473 E0.7293
G1 X-23.026 Y-18.473 E0.0249
G1 X-9.543 Y-4.989 E0.7293
G1 X-10.194 Y-4.989 E0.0249
G1 X-23.677 Y-18.473 E0.7293
G1 X-24.327 Y-18.473 E0.0249
G1 X-10.844 Y-4.989 E0.7293
G1 X-11.495 Y-4.989 E0.0249
G1 X-24.978 Y-18.473 E0.7293
G1 X-25.629 Y-18.473 E0.0249
G1 X-12.145 Y-4.989 E0.7293
G1 X-12.796 Y-4.989 E0.0249
G1 X-26.279 Y-18.473 E0.7293
G1 X-26.930 Y-18.473 E0.0249
G1 X-13.446 Y-4.989 E0.7293
G1 X-14.097 Y-4.989 E0.0249
G1 X-27.580 Y-18.473 E0.7293
G1 X-28.231 Y-18.473 E0.0249
G1 X-14.747 Y-4.989 E0.7293
G1 X-15.398 Y-4.989 E0.0249
