; G-Code generated by Simplify3D(R) Version 4.1.2
; Apr 6, 2020 at 12:05:08 PM
; Settings Summary
;   processName,Process1
;   applyToModels,Tower roof
;   profileName,MakerBot Replicator 2 HBP (modified)
;   profileVersion,2020-03-12 10:48:50
;   baseProfile,MakerBot Replicator 2(2)
;   printMaterial,PLA
;   printQuality,Medium
;   printExtruders,
;   extruderName,Primary Extruder
;   extruderToolheadNumber,0
;   extruderDiameter,0.4
;   extruderAutoWidth,0
;   extruderWidth,0.4
;   extrusionMultiplier,1
;   extruderUseRetract,1
;   extruderRetractionDistance,1.9
;   extruderExtraRestartDistance,0
;   extruderRetractionZLift,0.5
;   extruderRetractionSpeed,1200
;   extruderUseCoasting,0
;   extruderCoastingDistance,0.2
;   extruderUseWipe,0
;   extruderWipeDistance,5
;   primaryExtruder,0
;   layerHeight,0.2
;   topSolidLayers,3
;   bottomSolidLayers,3
;   perimeterOutlines,3
;   printPerimetersInsideOut,1
;   startPointOption,3
;   startPointOriginX,0
;   startPointOriginY,150
;   sequentialIslands,0
;   spiralVaseMode,0
;   firstLayerHeightPercentage,100
;   firstLayerWidthPercentage,115
;   firstLayerUnderspeed,0.5
;   useRaft,0
;   raftExtruder,0
;   raftTopLayers,2
;   raftBaseLayers,1
;   raftOffset,1
;   raftSeparationDistance,0.14
;   raftTopInfill,90
;   aboveRaftSpeedMultiplier,0.3
;   useSkirt,0
;   skirtExtruder,0
;   skirtLayers,1
;   skirtOutlines,5
;   skirtOffset,0
;   usePrimePillar,0
;   primePillarExtruder,999
;   primePillarWidth,12
;   primePillarLocation,7
;   primePillarSpeedMultiplier,1
;   useOozeShield,0
;   oozeShieldExtruder,999
;   oozeShieldOffset,2
;   oozeShieldOutlines,1
;   oozeShieldSidewallShape,1
;   oozeShieldSidewallAngle,30
;   oozeShieldSpeedMultiplier,1
;   infillExtruder,0
;   internalInfillPattern,Rectilinear
;   externalInfillPattern,Rectilinear
;   infillPercentage,15
;   outlineOverlapPercentage,25
;   infillExtrusionWidthPercentage,100
;   minInfillLength,5
;   infillLayerInterval,1
;   internalInfillAngles,45,-45
;   overlapInternalInfillAngles,0
;   externalInfillAngles,45,-45
;   generateSupport,1
;   supportExtruder,0
;   supportInfillPercentage,15
;   supportExtraInflation,0.5
;   supportBaseLayers,0
;   denseSupportExtruder,0
;   denseSupportLayers,2
;   denseSupportInfillPercentage,90
;   supportLayerInterval,1
;   supportHorizontalPartOffset,0.3
;   supportUpperSeparationLayers,1
;   supportLowerSeparationLayers,1
;   supportType,1
;   supportGridSpacing,2
;   maxOverhangAngle,45
;   supportAngles,45,-45
;   temperatureName,Primary Extruder,Heated Build Platform
;   temperatureNumber,0,0
;   temperatureSetpointCount,1,1
;   temperatureSetpointLayers,1,1
;   temperatureSetpointTemperatures,230,60
;   temperatureStabilizeAtStartup,1,1
;   temperatureHeatedBed,0,1
;   fanLayers,1,2
;   fanSpeeds,0,100
;   blipFanToFullPower,1
;   adjustSpeedForCooling,1
;   minSpeedLayerTime,15
;   minCoolingSpeedSlowdown,20
;   increaseFanForCooling,1
;   minFanLayerTime,45
;   maxCoolingFanSpeed,100
;   increaseFanForBridging,1
;   bridgingFanSpeed,100
;   use5D,1
;   relativeEdistances,1
;   allowEaxisZeroing,0
;   independentExtruderAxes,1
;   includeM10123,0
;   stickySupport,1
;   applyToolheadOffsets,0
;   gcodeXoffset,0
;   gcodeYoffset,0
;   gcodeZoffset,0
;   overrideMachineDefinition,1
;   machineTypeOverride,0
;   strokeXoverride,280
;   strokeYoverride,150
;   strokeZoverride,150
;   originOffsetXoverride,140
;   originOffsetYoverride,75
;   originOffsetZoverride,0
;   homeXdirOverride,1
;   homeYdirOverride,1
;   homeZdirOverride,-1
;   flipXoverride,1
;   flipYoverride,-1
;   flipZoverride,1
;   toolheadOffsets,0,0|0,0|0,0|0,0|0,0|0,0
;   overrideFirmwareConfiguration,1
;   firmwareTypeOverride,MakerBot/Sailfish Firmware
;   GPXconfigOverride,r2h
;   baudRateOverride,115200
;   overridePrinterModels,1
;   printerModelsOverride,MakerBot_Replicator2.stl
;   startingGcode,; **** Replicator 2 start.gcode ****,M73 P0 ; enable build progress,G162 X Y F3000 ; home XY maximum,G161 Z F1200 ; home Z minimum,G92 Z-5 ; set Z to -5,G1 Z0 ; move Z to 0,G161 Z F100 ; home Z slowly,M132 X Y Z A B ; recall home offsets,G1 X-145 Y-75 Z30 F9000 ; move to wait position off table,G130 X20 Y20 Z20 A20 B20 ; lower stepper Vrefs while heating,M126 S[fan_speed_pwm],M140 S[bed0_temperature] T0,M134 T0 ; stabilize bed temperature,M104 S[extruder0_temperature] T0,M133 T0 ; stabilize extruder temperature,G130 X127 Y127 Z40 A127 B127 ; default stepper Vrefs,G92 A0 ; zero extruder,G1 Z0.4 ; position nozzle,G1 E25 F300 ; purge nozzle,G1 X-140 Y-70 Z0.15 F1200 ; slow wipe,G1 X-135 Y-65 Z0.5 F1200 ; lift,G92 A0 ; zero extruder,M73 P1 ;@body (notify GPX body has started),; **** end of start.gcode ****
;   layerChangeGcode,
;   retractionGcode,
;   toolChangeGcode,
;   endingGcode,; **** Replicator 2 end.gcode ****,M73 P100 ; end build progress,G1 Z155 F1000 ; send Z axis to bottom of machine,M104 S0 T0 ; cool down extruder,M140 S0 T0 ; cool down HBP,M127 ; stop blower fan,G162 X Y F3000 ; home XY maximum,M18 ; disable stepper,M0 ; stop codes,M72 P1 ; play Ta-Da song,; **** end of end.gcode ****
;   exportFileFormat,gcode
;   celebration,0
;   celebrationSong,Random Song
;   postProcessing,
;   defaultSpeed,4800
;   outlineUnderspeed,0.5
;   solidInfillUnderspeed,1
;   supportUnderspeed,1
;   rapidXYspeed,9000
;   rapidZspeed,1200
;   minBridgingArea,50
;   bridgingExtraInflation,0
;   bridgingExtrusionMultiplier,1
;   bridgingSpeedMultiplier,0.8
;   useFixedBridgingAngle,0
;   fixedBridgingAngle,0
;   applyBridgingToPerimeters,0
;   filamentDiameters,1.75|1.75|1.75|1.75|1.75|1.75
;   filamentPricesPerKg,46|46|46|46|46|46
;   filamentDensities,1.25|1.25|1.25|1.25|1.25|1.25
;   useMinPrintHeight,0
;   minPrintHeight,0
;   useMaxPrintHeight,0
;   maxPrintHeight,4.84
;   useDiaphragm,0
;   diaphragmLayerInterval,20
;   robustSlicing,1
;   mergeAllIntoSolid,0
;   onlyRetractWhenCrossingOutline,0
;   retractBetweenLayers,0
;   useRetractionMinTravel,1
;   retractionMinTravel,7
;   retractWhileWiping,1
;   onlyWipeOutlines,1
;   avoidCrossingOutline,0
;   maxMovementDetourFactor,3
;   toolChangeRetractionDistance,12
;   toolChangeExtraRestartDistance,-0.5
;   toolChangeRetractionSpeed,600
;   externalThinWallType,0
;   internalThinWallType,0
;   thinWallAllowedOverlapPercentage,10
;   singleExtrusionMinLength,1
;   singleExtrusionMinPrintingWidthPercentage,50
;   singleExtrusionMaxPrintingWidthPercentage,200
;   singleExtrusionEndpointExtension,0.2
;   horizontalSizeCompensation,0
G90
M83
; **** Replicator 2 start.gcode ****
M73 P0 ; enable build progress
G162 X Y F3000 ; home XY maximum
G161 Z F1200 ; home Z minimum
G92 Z-5 ; set Z to -5
G1 Z0 ; move Z to 0
G161 Z F100 ; home Z slowly
M132 X Y Z A B ; recall home offsets
G1 X-145 Y-75 Z30 F9000 ; move to wait position off table
G130 X20 Y20 Z20 A20 B20 ; lower stepper Vrefs while heating
M127
M140 S60 T0
M134 T0 ; stabilize bed temperature
M104 S230 T0
M133 T0 ; stabilize extruder temperature
G130 X127 Y127 Z40 A127 B127 ; default stepper Vrefs
G92 A0 ; zero extruder
G1 Z0.4 ; position nozzle
G1 E25 F300 ; purge nozzle
G1 X-140 Y-70 Z0.15 F1200 ; slow wipe
G1 X-135 Y-65 Z0.5 F1200 ; lift
G92 A0 ; zero extruder
M73 P1 ;@body (notify GPX body has started)
; **** end of start.gcode ****
; process Process1
; layer 1, Z = 0.200
M135 T0
G1 E-1.9000 F1200
; feature inner perimeter
; tool H0.200 W0.460
G1 Z0.500 F1200
G1 X-24.866 Y19.122 F9000
G1 Z0.200 F1200
G1 E1.9000 F1200
G1 X-39.394 Y19.122 E0.5557 F1800
G1 X-39.394 Y-19.122 E1.4628
G1 X39.394 Y-19.122 E3.0136
G1 X39.394 Y19.122 E1.4628
G1 X24.866 Y19.122 E0.5557
G1 X24.866 Y-2.735 E0.8360
G1 X23.006 Y-4.594 E0.1006
G1 X-23.006 Y-4.594 E1.7599
G1 X-24.866 Y-2.735 E0.1006
G1 X-24.866 Y19.122 E0.8360
G1 X-24.406 Y19.582 F9000
G1 X-39.854 Y19.582 E0.5909 F1800
G1 X-39.854 Y-19.582 E1.4980
G1 X39.854 Y-19.582 E3.0487
G1 X39.854 Y19.582 E1.4980
G1 X24.406 Y19.582 E0.5909
G1 X24.406 Y-2.544 E0.8463
G1 X22.816 Y-4.134 E0.0860
G1 X-22.816 Y-4.134 E1.7454
G1 X-24.406 Y-2.544 E0.0860
G1 X-24.406 Y19.582 E0.8463
; feature outer perimeter
G1 X-23.946 Y20.042 F9000
G1 X-40.314 Y20.042 E0.6261 F1200
G1 X-40.314 Y-20.042 E1.5332
G1 X40.314 Y-20.042 E3.0839
G1 X40.314 Y20.042 E1.5332
G1 X23.946 Y20.042 E0.6261
G1 X23.946 Y-2.353 E0.8566
G1 X22.625 Y-3.674 E0.0714
G1 X-22.625 Y-3.674 E1.7308
G1 X-23.946 Y-2.353 E0.0714
G1 X-23.946 Y20.042 E0.8566
G1 E-1.9000 F1200
; feature solid layer
G1 Z0.700 F1200
G1 X-38.470 Y18.777 F9000
G1 Z0.200 F1200
G1 E1.9000 F1200
G1 X-39.049 Y18.199 E0.0313 F2400
G1 X-39.049 Y17.548 E0.0249
G1 X-37.820 Y18.777 E0.0665
G1 X-37.169 Y18.777 E0.0249
G1 X-39.049 Y16.897 E0.1017
G1 X-39.049 Y16.247 E0.0249
G1 X-36.519 Y18.777 E0.1369
G1 X-35.868 Y18.777 E0.0249
G1 X-39.049 Y15.596 E0.1720
G1 X-39.049 Y14.946 E0.0249
G1 X-35.218 Y18.777 E0.2072
G1 X-34.567 Y18.777 E0.0249
G1 X-39.049 Y14.295 E0.2424
G1 X-39.049 Y13.645 E0.0249
G1 X-33.917 Y18.777 E0.2776
G1 X-33.266 Y18.777 E0.0249
G1 X-39.049 Y12.994 E0.3128
G1 X-39.049 Y12.344 E0.0249
G1 X-32.616 Y18.777 E0.3480
G1 X-31.965 Y18.777 E0.0249
G1 X-39.049 Y11.693 E0.3832
G1 X-39.049 Y11.043 E0.0249
G1 X-31.315 Y18.777 E0.4184
G1 X-30.664 Y18.777 E0.0249
G1 X-39.049 Y10.392 E0.4536
G1 X-39.049 Y9.742 E0.0249
G1 X-30.013 Y18.777 E0.4887
G1 X-29.363 Y18.777 E0.0249
G1 X-39.049 Y9.091 E0.5239
G1 X-39.049 Y8.441 E0.0249
G1 X-28.712 Y18.777 E0.5591
G1 X-28.062 Y18.777 E0.0249
G1 X-39.049 Y7.790 E0.5943
G1 X-39.049 Y7.139 E0.0249
G1 X-27.411 Y18.777 E0.6295
G1 X-26.761 Y18.777 E0.0249
G1 X-39.049 Y6.489 E0.6647
G1 X-39.049 Y5.838 E0.0249
G1 X-26.110 Y18.777 E0.6999
G1 X-25.460 Y18.777 E0.0249
G1 X-39.049 Y5.188 E0.7351
G1 X-39.049 Y4.537 E0.0249
G1 X-25.211 Y18.375 E0.7485
G1 X-25.211 Y17.725 E0.0249
G1 X-39.049 Y3.887 E0.7485
G1 X-39.049 Y3.236 E0.0249
G1 X-25.211 Y17.074 E0.7485
G1 X-25.211 Y16.424 E0.0249
G1 X-39.049 Y2.586 E0.7485
G1 X-39.049 Y1.935 E0.0249
G1 X-25.211 Y15.773 E0.7485
G1 X-25.211 Y15.123 E0.0249
G1 X-39.049 Y1.285 E0.7485
G1 X-39.049 Y0.634 E0.0249
G1 X-25.211 Y14.472 E0.7485
G1 X-25.211 Y13.822 E0.0249
G1 X-39.049 Y-0.016 E0.7485
G1 X-39.049 Y-0.667 E0.0249
G1 X-25.211 Y13.171 E0.7485
G1 X-25.211 Y12.521 E0.0249
G1 X-39.049 Y-1.318 E0.7485
G1 X-39.049 Y-1.968 E0.0249
G1 X-25.211 Y11.870 E0.7485
G1 X-25.211 Y11.220 E0.0249
G1 X-39.049 Y-2.619 E0.7485
G1 X-39.049 Y-3.269 E0.0249
G1 X-25.211 Y10.569 E0.7485
G1 X-25.211 Y9.918 E0.0249
G1 X-39.049 Y-3.920 E0.7485
G1 X-39.049 Y-4.570 E0.0249
G1 X-25.211 Y9.268 E0.7485
G1 X-25.211 Y8.617 E0.0249
G1 X-39.049 Y-5.221 E0.7485
G1 X-39.049 Y-5.871 E0.0249
G1 X-25.211 Y7.967 E0.7485
G1 X-25.211 Y7.316 E0.0249
G1 X-39.049 Y-6.522 E0.7485
G1 X-39.049 Y-7.172 E0.0249
G1 X-25.211 Y6.666 E0.7485
G1 X-25.211 Y6.015 E0.0249
G1 X-39.049 Y-7.823 E0.7485
G1 X-39.049 Y-8.473 E0.0249
G1 X-25.211 Y5.365 E0.7485
G1 X-25.211 Y4.714 E0.0249
G1 X-39.049 Y-9.124 E0.7485
G1 X-39.049 Y-9.775 E0.0249
G1 X-25.211 Y4.064 E0.7485
G1 X-25.211 Y3.413 E0.0249
G1 X-39.049 Y-10.425 E0.7485
G1 X-39.049 Y-11.076 E0.0249
G1 X-25.211 Y2.763 E0.7485
G1 X-25.211 Y2.112 E0.0249
G1 X-39.049 Y-11.726 E0.7485
G1 X-39.049 Y-12.377 E0.0249
G1 X-25.211 Y1.461 E0.7485
G1 X-25.211 Y0.811 E0.0249
G1 X-39.049 Y-13.027 E0.7485
G1 X-39.049 Y-13.678 E0.0249
G1 X-25.211 Y0.160 E0.7485
G1 X-25.211 Y-0.490 E0.0249
G1 X-39.049 Y-14.328 E0.7485
G1 X-39.049 Y-14.979 E0.0249
G1 X-25.211 Y-1.141 E0.7485
G1 X-25.211 Y-1.791 E0.0249
G1 X-39.049 Y-15.629 E0.7485
G1 X-39.049 Y-16.280 E0.0249
G1 X-25.211 Y-2.442 E0.7485
G1 X-25.211 Y-2.877 E0.0167
G1 X-25.103 Y-2.985 E0.0058
G1 X-39.049 Y-16.930 E0.7544
G1 X-39.049 Y-17.581 E0.0249
G1 X-24.778 Y-3.310 E0.7719
G1 X-24.453 Y-3.635 E0.0176
G1 X-39.049 Y-18.232 E0.7895
G1 X-39.049 Y-18.777 E0.0209
G1 X-38.944 Y-18.777 E0.0040
G1 X-24.127 Y-3.961 E0.8014
G1 X-23.802 Y-4.286 E0.0176
G1 X-38.293 Y-18.777 E0.7839
G1 X-37.642 Y-18.777 E0.0249
G1 X-23.477 Y-4.611 E0.7663
G1 X-23.152 Y-4.937 E0.0176
G1 X-36.992 Y-18.777 E0.7487
G1 X-36.341 Y-18.777 E0.0249
G1 X-22.504 Y-4.939 E0.7485
G1 X-21.853 Y-4.939 E0.0249
G1 X-35.691 Y-18.777 E0.7485
G1 X-35.040 Y-18.777 E0.0249
G1 X-21.202 Y-4.939 E0.7485
G1 X-20.552 Y-4.939 E0.0249
G1 X-34.390 Y-18.777 E0.7485
G1 X-33.739 Y-18.777 E0.0249
G1 X-19.901 Y-4.939 E0.7485
G1 X-19.251 Y-4.939 E0.0249
G1 X-33.089 Y-18.777 E0.7485
G1 X-32.438 Y-18.777 E0.0249
G1 X-18.600 Y-4.939 E0.7485
G1 X-17.950 Y-4.939 E0.0249
G1 X-31.788 Y-18.777 E0.7485
G1 X-31.137 Y-18.777 E0.0249
G1 X-17.299 Y-4.939 E0.7485
G1 X-16.649 Y-4.939 E0.0249
G1 X-30.487 Y-18.777 E0.7485
G1 X-29.836 Y-18.777 E0.0249
G1 X-15.998 Y-4.939 E0.7485
G1 X-15.348 Y-4.939 E0.0249
G1 X-29.185 Y-18.777 E0.7485
G1 X-28.535 Y-18.777 E0.0249
G1 X-14.697 Y-4.939 E0.7485
G1 X-14.047 Y-4.939 E0.0249
G1 X-27.884 Y-18.777 E0.7485
G1 X-27.234 Y-18.777 E0.0249
G1 X-13.396 Y-4.939 E0.7485
G1 X-12.745 Y-4.939 E0.0249
G1 X-26.583 Y-18.777 E0.7485
G1 X-25.933 Y-18.777 E0.0249
G1 X-12.095 Y-4.939 E0.7485
G1 X-11.444 Y-4.939 E0.0249
G1 X-25.282 Y-18.777 E0.7485
G1 X-24.632 Y-18.777 E0.0249
G1 X-10.794 Y-4.939 E0.7485
G1 X-10.143 Y-4.939 E0.0249
G1 X-23.981 Y-18.777 E0.7485
G1 X-23.331 Y-18.777 E0.0249
G1 X-9.493 Y-4.939 E0.7485
G1 X-8.842 Y-4.939 E0.0249
G1 X-22.680 Y-18.777 E0.7485
G1 X-22.030 Y-18.777 E0.0249
G1 X-8.192 Y-4.939 E0.7485
G1 X-7.541 Y-4.939 E0.0249
G1 X-21.379 Y-18.777 E0.7485
G1 X-20.728 Y-18.777 E0.0249
G1 X-6.891 Y-4.939 E0.7485
G1 X-6.240 Y-4.939 E0.0249
G1 X-20.078 Y-18.777 E0.7485
G1 X-19.427 Y-18.777 E0.0249
G1 X-5.590 Y-4.939 E0.7485
G1 X-4.939 Y-4.939 E0.0249
G1 X-18.777 Y-18.777 E0.7485
G1 X-18.126 Y-18.777 E0.0249
G1 X-4.288 Y-4.939 E0.7485
G1 X-3.638 Y-4.939 E0.0249
G1 X-17.476 Y-18.777 E0.7485
G1 X-16.825 Y-18.777 E0.0249
G1 X-2.987 Y-4.939 E0.7485
G1 X-2.337 Y-4.939 E0.0249
G1 X-16.175 Y-18.777 E0.7485
G1 X-15.524 Y-18.777 E0.0249
G1 X-1.686 Y-4.939 E0.7485
G1 X-1.036 Y-4.939 E0.0249
G1 X-14.874 Y-18.777 E0.7485
G1 X-14.223 Y-18.777 E0.0249
G1 X-0.385 Y-4.939 E0.7485
G1 X0.265 Y-4.939 E0.0249
G1 X-13.573 Y-18.777 E0.7485
G1 X-12.922 Y-18.777 E0.0249
G1 X0.916 Y-4.939 E0.7485
G1 X1.566 Y-4.939 E0.0249
G1 X-12.271 Y-18.777 E0.7485
G1 X-11.621 Y-18.777 E0.0249
G1 X2.217 Y-4.939 E0.7485
G1 X2.867 Y-4.939 E0.0249
G1 X-10.970 Y-18.777 E0.7485
G1 X-10.320 Y-18.777 E0.0249
G1 X3.518 Y-4.939 E0.7485
G1 X4.169 Y-4.939 E0.0249
G1 X-9.669 Y-18.777 E0.7485
G1 X-9.019 Y-18.777 E0.0249
G1 X4.819 Y-4.939 E0.7485
G1 X5.470 Y-4.939 E0.0249
G1 X-8.368 Y-18.777 E0.7485
G1 X-7.718 Y-18.777 E0.0249
G1 X6.120 Y-4.939 E0.7485
G1 X6.771 Y-4.939 E0.0249
G1 X-7.067 Y-18.777 E0.7485
G1 X-6.417 Y-18.777 E0.0249
G1 X7.421 Y-4.939 E0.7485
G1 X8.072 Y-4.939 E0.0249
G1 X-5.766 Y-18.777 E0.7485
G1 X-5.116 Y-18.777 E0.0249
G1 X8.722 Y-4.939 E0.7485
G1 X9.373 Y-4.939 E0.0249
G1 X-4.465 Y-18.777 E0.7485
G1 X-3.814 Y-18.777 E0.0249
G1 X10.023 Y-4.939 E0.7485
G1 X10.674 Y-4.939 E0.0249
G1 X-3.164 Y-18.777 E0.7485
G1 X-2.513 Y-18.777 E0.0249
G1 X11.324 Y-4.939 E0.7485
G1 X11.975 Y-4.939 E0.0249
G1 X-1.863 Y-18.777 E0.7485
G1 X-1.212 Y-18.777 E0.0249
G1 X12.626 Y-4.939 E0.7485
G1 X13.276 Y-4.939 E0.0249
G1 X-0.562 Y-18.777 E0.7485
G1 X0.089 Y-18.777 E0.0249
G1 X13.927 Y-4.939 E0.7485
G1 X14.577 Y-4.939 E0.0249
G1 X0.739 Y-18.777 E0.7485
G1 X1.390 Y-18.777 E0.0249
G1 X15.228 Y-4.939 E0.7485
G1 X15.878 Y-4.939 E0.0249
G1 X2.040 Y-18.777 E0.7485
G1 X2.691 Y-18.777 E0.0249
G1 X16.529 Y-4.939 E0.7485
G1 X17.179 Y-4.939 E0.0249
G1 X3.341 Y-18.777 E0.7485
G1 X3.992 Y-18.777 E0.0249
G1 X17.830 Y-4.939 E0.7485
G1 X18.480 Y-4.939 E0.0249
G1 X4.643 Y-18.777 E0.7485
G1 X5.293 Y-18.777 E0.0249
G1 X19.131 Y-4.939 E0.7485
G1 X19.781 Y-4.939 E0.0249
G1 X5.944 Y-18.777 E0.7485
G1 X6.594 Y-18.777 E0.0249
G1 X20.432 Y-4.939 E0.7485
G1 X21.083 Y-4.939 E0.0249
G1 X7.245 Y-18.777 E0.7485
G1 X7.895 Y-18.777 E0.0249
G1 X21.733 Y-4.939 E0.7485
G1 X22.384 Y-4.939 E0.0249
G1 X8.546 Y-18.777 E0.7485
G1 X9.196 Y-18.777 E0.0249
G1 X23.034 Y-4.939 E0.7485
G1 X23.149 Y-4.939 E0.0044
G1 X25.211 Y-2.877 E0.1115
G1 X25.211 Y-2.763 E0.0044
G1 X39.049 Y11.076 E0.7485
