; G-Code generated by Simplify3D(R) Version 4.1.2
; Apr 6, 2020 at 12:04:13 PM
; Settings Summary
;   processName,Process1
;   applyToModels,Prison TowerJV
;   profileName,MakerBot Replicator 2 HBP (modified)
;   profileVersion,2020-03-12 10:48:50
;   baseProfile,MakerBot Replicator 2(2)
;   printMaterial,PLA
;   printQuality,Medium
;   printExtruders,
;   extruderName,Primary Extruder
;   extruderToolheadNumber,0
;   extruderDiameter,0.4
;   extruderAutoWidth,0
;   extruderWidth,0.4
;   extrusionMultiplier,1
;   extruderUseRetract,1
;   extruderRetractionDistance,1.9
;   extruderExtraRestartDistance,0
;   extruderRetractionZLift,0.5
;   extruderRetractionSpeed,1200
;   extruderUseCoasting,0
;   extruderCoastingDistance,0.2
;   extruderUseWipe,0
;   extruderWipeDistance,5
;   primaryExtruder,0
;   layerHeight,0.2
;   topSolidLayers,3
;   bottomSolidLayers,3
;   perimeterOutlines,3
;   printPerimetersInsideOut,1
;   startPointOption,3
;   startPointOriginX,0
;   startPointOriginY,150
;   sequentialIslands,0
;   spiralVaseMode,0
;   firstLayerHeightPercentage,100
;   firstLayerWidthPercentage,115
;   firstLayerUnderspeed,0.5
;   useRaft,0
;   raftExtruder,0
;   raftTopLayers,2
;   raftBaseLayers,1
;   raftOffset,1
;   raftSeparationDistance,0.14
;   raftTopInfill,90
;   aboveRaftSpeedMultiplier,0.3
;   useSkirt,0
;   skirtExtruder,0
;   skirtLayers,1
;   skirtOutlines,5
;   skirtOffset,0
;   usePrimePillar,0
;   primePillarExtruder,999
;   primePillarWidth,12
;   primePillarLocation,7
;   primePillarSpeedMultiplier,1
;   useOozeShield,0
;   oozeShieldExtruder,999
;   oozeShieldOffset,2
;   oozeShieldOutlines,1
;   oozeShieldSidewallShape,1
;   oozeShieldSidewallAngle,30
;   oozeShieldSpeedMultiplier,1
;   infillExtruder,0
;   internalInfillPattern,Rectilinear
;   externalInfillPattern,Rectilinear
;   infillPercentage,15
;   outlineOverlapPercentage,25
;   infillExtrusionWidthPercentage,100
;   minInfillLength,5
;   infillLayerInterval,1
;   internalInfillAngles,45,-45
;   overlapInternalInfillAngles,0
;   externalInfillAngles,45,-45
;   generateSupport,1
;   supportExtruder,0
;   supportInfillPercentage,15
;   supportExtraInflation,0.5
;   supportBaseLayers,0
;   denseSupportExtruder,0
;   denseSupportLayers,2
;   denseSupportInfillPercentage,90
;   supportLayerInterval,1
;   supportHorizontalPartOffset,0.3
;   supportUpperSeparationLayers,1
;   supportLowerSeparationLayers,1
;   supportType,1
;   supportGridSpacing,2
;   maxOverhangAngle,45
;   supportAngles,45,-45
;   temperatureName,Primary Extruder,Heated Build Platform
;   temperatureNumber,0,0
;   temperatureSetpointCount,1,1
;   temperatureSetpointLayers,1,1
;   temperatureSetpointTemperatures,230,60
;   temperatureStabilizeAtStartup,1,1
;   temperatureHeatedBed,0,1
;   fanLayers,1,2
;   fanSpeeds,0,100
;   blipFanToFullPower,1
;   adjustSpeedForCooling,1
;   minSpeedLayerTime,15
;   minCoolingSpeedSlowdown,20
;   increaseFanForCooling,1
;   minFanLayerTime,45
;   maxCoolingFanSpeed,100
;   increaseFanForBridging,1
;   bridgingFanSpeed,100
;   use5D,1
;   relativeEdistances,1
;   allowEaxisZeroing,0
;   independentExtruderAxes,1
;   includeM10123,0
;   stickySupport,1
;   applyToolheadOffsets,0
;   gcodeXoffset,0
;   gcodeYoffset,0
;   gcodeZoffset,0
;   overrideMachineDefinition,1
;   machineTypeOverride,0
;   strokeXoverride,280
;   strokeYoverride,150
;   strokeZoverride,150
;   originOffsetXoverride,140
;   originOffsetYoverride,75
;   originOffsetZoverride,0
;   homeXdirOverride,1
;   homeYdirOverride,1
;   homeZdirOverride,-1
;   flipXoverride,1
;   flipYoverride,-1
;   flipZoverride,1
;   toolheadOffsets,0,0|0,0|0,0|0,0|0,0|0,0
;   overrideFirmwareConfiguration,1
;   firmwareTypeOverride,MakerBot/Sailfish Firmware
;   GPXconfigOverride,r2h
;   baudRateOverride,115200
;   overridePrinterModels,1
;   printerModelsOverride,MakerBot_Replicator2.stl
;   startingGcode,; **** Replicator 2 start.gcode ****,M73 P0 ; enable build progress,G162 X Y F3000 ; home XY maximum,G161 Z F1200 ; home Z minimum,G92 Z-5 ; set Z to -5,G1 Z0 ; move Z to 0,G161 Z F100 ; home Z slowly,M132 X Y Z A B ; recall home offsets,G1 X-145 Y-75 Z30 F9000 ; move to wait position off table,G130 X20 Y20 Z20 A20 B20 ; lower stepper Vrefs while heating,M126 S[fan_speed_pwm],M140 S[bed0_temperature] T0,M134 T0 ; stabilize bed temperature,M104 S[extruder0_temperature] T0,M133 T0 ; stabilize extruder temperature,G130 X127 Y127 Z40 A127 B127 ; default stepper Vrefs,G92 A0 ; zero extruder,G1 Z0.4 ; position nozzle,G1 E25 F300 ; purge nozzle,G1 X-140 Y-70 Z0.15 F1200 ; slow wipe,G1 X-135 Y-65 Z0.5 F1200 ; lift,G92 A0 ; zero extruder,M73 P1 ;@body (notify GPX body has started),; **** end of start.gcode ****
;   layerChangeGcode,
;   retractionGcode,
;   toolChangeGcode,
;   endingGcode,; **** Replicator 2 end.gcode ****,M73 P100 ; end build progress,G1 Z155 F1000 ; send Z axis to bottom of machine,M104 S0 T0 ; cool down extruder,M140 S0 T0 ; cool down HBP,M127 ; stop blower fan,G162 X Y F3000 ; home XY maximum,M18 ; disable stepper,M0 ; stop codes,M72 P1 ; play Ta-Da song,; **** end of end.gcode ****
;   exportFileFormat,gcode
;   celebration,0
;   celebrationSong,Random Song
;   postProcessing,
;   defaultSpeed,4800
;   outlineUnderspeed,0.5
;   solidInfillUnderspeed,1
;   supportUnderspeed,1
;   rapidXYspeed,9000
;   rapidZspeed,1200
;   minBridgingArea,50
;   bridgingExtraInflation,0
;   bridgingExtrusionMultiplier,1
;   bridgingSpeedMultiplier,0.8
;   useFixedBridgingAngle,0
;   fixedBridgingAngle,0
;   applyBridgingToPerimeters,0
;   filamentDiameters,1.75|1.75|1.75|1.75|1.75|1.75
;   filamentPricesPerKg,46|46|46|46|46|46
;   filamentDensities,1.25|1.25|1.25|1.25|1.25|1.25
;   useMinPrintHeight,0
;   minPrintHeight,0
;   useMaxPrintHeight,0
;   maxPrintHeight,4.84
;   useDiaphragm,0
;   diaphragmLayerInterval,20
;   robustSlicing,1
;   mergeAllIntoSolid,0
;   onlyRetractWhenCrossingOutline,0
;   retractBetweenLayers,0
;   useRetractionMinTravel,1
;   retractionMinTravel,7
;   retractWhileWiping,1
;   onlyWipeOutlines,1
;   avoidCrossingOutline,0
;   maxMovementDetourFactor,3
;   toolChangeRetractionDistance,12
;   toolChangeExtraRestartDistance,-0.5
;   toolChangeRetractionSpeed,600
;   externalThinWallType,0
;   internalThinWallType,0
;   thinWallAllowedOverlapPercentage,10
;   singleExtrusionMinLength,1
;   singleExtrusionMinPrintingWidthPercentage,50
;   singleExtrusionMaxPrintingWidthPercentage,200
;   singleExtrusionEndpointExtension,0.2
;   horizontalSizeCompensation,0
G90
M83
; **** Replicator 2 start.gcode ****
M73 P0 ; enable build progress
G162 X Y F3000 ; home XY maximum
G161 Z F1200 ; home Z minimum
G92 Z-5 ; set Z to -5
G1 Z0 ; move Z to 0
G161 Z F100 ; home Z slowly
M132 X Y Z A B ; recall home offsets
G1 X-145 Y-75 Z30 F9000 ; move to wait position off table
G130 X20 Y20 Z20 A20 B20 ; lower stepper Vrefs while heating
M127
M140 S60 T0
M134 T0 ; stabilize bed temperature
M104 S230 T0
M133 T0 ; stabilize extruder temperature
G130 X127 Y127 Z40 A127 B127 ; default stepper Vrefs
G92 A0 ; zero extruder
G1 Z0.4 ; position nozzle
G1 E25 F300 ; purge nozzle
G1 X-140 Y-70 Z0.15 F1200 ; slow wipe
G1 X-135 Y-65 Z0.5 F1200 ; lift
G92 A0 ; zero extruder
M73 P1 ;@body (notify GPX body has started)
; **** end of start.gcode ****
; process Process1
; layer 1, Z = 0.200
M135 T0
G1 E-1.9000 F1200
; feature inner perimeter
; tool H0.200 W0.460
G1 Z0.500 F1200
G1 X21.214 Y22.350 F9000
G1 Z0.200 F1200
G1 E1.9000 F1200
G1 X-22.611 Y22.350 E1.6763 F1800
G1 X-22.897 Y22.065 E0.0154
G1 X21.500 Y22.065 E1.6981
G1 X21.214 Y22.350 E0.0154
G1 X24.210 Y22.039 F9000
G1 X44.453 Y21.650 E0.7744 F1800
G1 X68.850 Y21.650 E0.9332
G1 X68.850 Y21.848 E0.0075
G1 X68.347 Y22.350 E0.0272
G1 X24.522 Y22.350 E1.6763
G1 X24.210 Y22.039 E0.0168
G1 E-1.9000 F1200
G1 Z0.700 F1200
G1 X24.209 Y-22.039 F9000
G1 Z0.200 F1200
G1 E1.9000 F1200
G1 X24.522 Y-22.350 E0.0169 F1800
G1 X68.347 Y-22.350 E1.6763
G1 X68.850 Y-21.848 E0.0272
G1 X68.850 Y-21.648 E0.0076
G1 X44.452 Y-21.649 E0.9332
G1 X24.209 Y-22.039 E0.7744
G1 X21.500 Y-22.064 F9000
G1 X-22.897 Y-22.064 E1.6982 F1800
G1 X-22.611 Y-22.350 E0.0155
G1 X21.214 Y-22.350 E1.6763
G1 X21.500 Y-22.064 E0.0155
G1 E-1.9000 F1200
G1 Z0.700 F1200
G1 X-25.632 Y-22.064 F9000
G1 Z0.200 F1200
G1 E1.9000 F1200
G1 X-57.357 Y-22.065 E1.2134 F1800
G1 X-57.357 Y-22.350 E0.0109
G1 X-25.919 Y-22.350 E1.2025
G1 X-25.632 Y-22.064 E0.0155
G1 E-1.9000 F1200
G1 Z0.700 F1200
G1 X-25.633 Y22.065 F9000
G1 Z0.200 F1200
G1 E1.9000 F1200
G1 X-25.919 Y22.350 E0.0154 F1800
G1 X-68.850 Y22.350 E1.6421
G1 X-68.850 Y22.065 E0.0109
G1 X-25.633 Y22.065 E1.6530
G1 X-25.729 Y22.810 F9000
G1 X-69.311 Y22.810 E1.6670 F1800
G1 X-69.311 Y21.605 E0.0461
G1 X-24.519 Y21.605 E1.7132
G1 X-25.729 Y22.810 E0.0653
G1 X-24.009 Y21.605 F9000
G1 X22.612 Y21.605 E1.7832 F1800
G1 X21.404 Y22.810 E0.0653
G1 X-22.801 Y22.810 E1.6908
G1 X-24.009 Y21.605 E0.0653
G1 E-1.9000 F1200
G1 Z0.700 F1200
G1 X-24.010 Y-21.604 F9000
G1 Z0.200 F1200
G1 E1.9000 F1200
G1 X-22.801 Y-22.810 E0.0653 F1800
G1 X21.404 Y-22.810 E1.6908
G1 X22.613 Y-21.604 E0.0653
G1 X-24.010 Y-21.604 E1.7833
G1 X-24.519 Y-21.604 F9000
G1 X-69.311 Y-21.605 E1.7132 F1800
G1 X-69.311 Y-22.057 E0.0173
G1 X-57.817 Y-22.057 E0.4396
G1 X-57.818 Y-22.810 E0.0288
G1 X-25.729 Y-22.810 E1.2274
G1 X-24.519 Y-21.604 E0.0653
G1 E-1.9000 F1200
G1 Z0.700 F1200
G1 X23.117 Y-21.600 F9000
G1 Z0.200 F1200
G1 E1.9000 F1200
G1 X24.332 Y-22.810 E0.0656 F1800
G1 X68.537 Y-22.810 E1.6908
G1 X69.311 Y-22.039 E0.0418
G1 X69.311 Y22.039 E1.6859
G1 X68.537 Y22.810 E0.0418
G1 X24.332 Y22.810 E1.6908
G1 X23.118 Y21.600 E0.0655
G1 X44.449 Y21.190 E0.8160
G1 X68.430 Y21.190 E0.9173
G1 X68.430 Y-21.188 E1.6210
G1 X44.448 Y-21.189 E0.9173
G1 X23.117 Y-21.600 E0.8160
; feature outer perimeter
G1 X22.867 Y-22.000 F9000
G1 X24.142 Y-23.270 E0.0688 F1200
G1 X68.727 Y-23.270 E1.7054
G1 X69.770 Y-22.230 E0.0563
G1 X69.770 Y22.229 E1.7005
G1 X68.727 Y23.270 E0.0564
G1 X24.142 Y23.270 E1.7054
G1 X22.867 Y22.000 E0.0688
G1 X21.594 Y23.270 E0.0688
G1 X-22.991 Y23.270 E1.7054
G1 X-24.264 Y22.000 E0.0688
G1 X-25.539 Y23.270 E0.0688
G1 X-69.770 Y23.270 E1.6918
G1 X-69.770 Y21.145 E0.0813
G1 X22.870 Y21.145 E3.5434
G1 X44.444 Y20.730 E0.8253
G1 X67.971 Y20.730 E0.8999
G1 X67.971 Y-20.728 E1.5858
G1 X44.444 Y-20.729 E0.8999
G1 X22.870 Y-21.144 E0.8253
G1 X-69.770 Y-21.145 E3.5434
G1 X-69.770 Y-22.517 E0.0525
G1 X-58.277 Y-22.517 E0.4396
G1 X-58.278 Y-23.270 E0.0288
G1 X-25.539 Y-23.270 E1.2523
G1 X-24.264 Y-22.000 E0.0688
G1 X-22.991 Y-23.270 E0.0688
G1 X21.594 Y-23.270 E1.7054
G1 X22.867 Y-22.000 E0.0688
G1 E-1.9000 F1200
; feature solid layer
G1 Z0.700 F1200
G1 X44.359 Y-21.995 F9000
G1 Z0.200 F1200
G1 E1.9000 F1200
G1 X44.350 Y-22.005 E0.0005 F2400
G1 X45.001 Y-22.005 E0.0249
G1 X45.012 Y-21.994 E0.0006
G1 X45.662 Y-21.994 E0.0249
G1 X45.651 Y-22.005 E0.0006
G1 X46.302 Y-22.005 E0.0249
G1 X46.313 Y-21.994 E0.0006
G1 X46.963 Y-21.994 E0.0249
G1 X46.952 Y-22.005 E0.0006
G1 X47.603 Y-22.005 E0.0249
G1 X47.614 Y-21.994 E0.0006
G1 X48.265 Y-21.994 E0.0249
G1 X48.253 Y-22.005 E0.0006
G1 X48.904 Y-22.005 E0.0249
G1 X48.915 Y-21.994 E0.0006
G1 X49.566 Y-21.994 E0.0249
G1 X49.554 Y-22.005 E0.0006
G1 X50.205 Y-22.005 E0.0249
G1 X50.216 Y-21.994 E0.0006
G1 X50.867 Y-21.994 E0.0249
G1 X50.855 Y-22.005 E0.0006
G1 X51.506 Y-22.005 E0.0249
G1 X51.517 Y-21.994 E0.0006
G1 X52.168 Y-21.994 E0.0249
G1 X52.156 Y-22.005 E0.0006
G1 X52.807 Y-22.005 E0.0249
G1 X52.818 Y-21.994 E0.0006
G1 X53.469 Y-21.994 E0.0249
G1 X53.458 Y-22.005 E0.0006
G1 X54.108 Y-22.005 E0.0249
G1 X54.119 Y-21.994 E0.0006
G1 X54.770 Y-21.994 E0.0249
G1 X54.759 Y-22.005 E0.0006
G1 X55.409 Y-22.005 E0.0249
G1 X55.421 Y-21.994 E0.0006
G1 X56.071 Y-21.994 E0.0249
G1 X56.060 Y-22.005 E0.0006
G1 X56.710 Y-22.005 E0.0249
G1 X56.722 Y-21.994 E0.0006
G1 X57.372 Y-21.994 E0.0249
G1 X57.361 Y-22.005 E0.0006
G1 X58.011 Y-22.005 E0.0249
G1 X58.023 Y-21.994 E0.0006
G1 X58.673 Y-21.994 E0.0249
G1 X58.662 Y-22.005 E0.0006
G1 X59.312 Y-22.005 E0.0249
G1 X59.324 Y-21.994 E0.0006
G1 X59.974 Y-21.994 E0.0249
G1 X59.963 Y-22.005 E0.0006
G1 X60.613 Y-22.005 E0.0249
G1 X60.625 Y-21.994 E0.0006
G1 X61.275 Y-21.994 E0.0249
G1 X61.264 Y-22.005 E0.0006
G1 X61.915 Y-22.005 E0.0249
G1 X61.926 Y-21.993 E0.0006
G1 X62.576 Y-21.993 E0.0249
G1 X62.565 Y-22.005 E0.0006
G1 X63.216 Y-22.005 E0.0249
G1 X63.227 Y-21.993 E0.0006
G1 X63.878 Y-21.993 E0.0249
G1 X63.866 Y-22.005 E0.0006
G1 X64.517 Y-22.005 E0.0249
G1 X64.528 Y-21.993 E0.0006
G1 X65.179 Y-21.993 E0.0249
G1 X65.167 Y-22.005 E0.0006
G1 X65.818 Y-22.005 E0.0249
G1 X65.829 Y-21.993 E0.0006
G1 X66.480 Y-21.993 E0.0249
G1 X66.468 Y-22.005 E0.0006
G1 X67.119 Y-22.005 E0.0249
G1 X67.130 Y-21.993 E0.0006
G1 X67.781 Y-21.993 E0.0249
G1 X67.769 Y-22.005 E0.0006
G1 E-1.9000 F1200
G1 Z0.700 F1200
G1 X68.184 Y21.995 F9000
G1 Z0.200 F1200
G1 E1.9000 F1200
G1 X68.193 Y22.005 E0.0005 F2400
G1 X67.543 Y22.005 E0.0249
G1 X67.533 Y21.995 E0.0005
G1 X66.883 Y21.995 E0.0249
G1 X66.892 Y22.005 E0.0005
G1 X66.242 Y22.005 E0.0249
G1 X66.232 Y21.995 E0.0005
G1 X65.582 Y21.995 E0.0249
G1 X65.591 Y22.005 E0.0005
G1 X64.940 Y22.005 E0.0249
G1 X64.931 Y21.995 E0.0005
G1 X64.280 Y21.995 E0.0249
G1 X64.290 Y22.005 E0.0005
G1 X63.639 Y22.005 E0.0249
G1 X63.630 Y21.995 E0.0005
G1 X62.979 Y21.995 E0.0249
G1 X62.989 Y22.005 E0.0005
G1 X62.338 Y22.005 E0.0249
G1 X62.329 Y21.995 E0.0005
G1 X61.678 Y21.995 E0.0249
G1 X61.688 Y22.005 E0.0005
G1 X61.037 Y22.005 E0.0249
G1 X61.028 Y21.995 E0.0005
G1 X60.377 Y21.995 E0.0249
G1 X60.387 Y22.005 E0.0005
G1 X59.736 Y22.005 E0.0249
G1 X59.727 Y21.995 E0.0005
G1 X59.076 Y21.995 E0.0249
G1 X59.086 Y22.005 E0.0005
G1 X58.435 Y22.005 E0.0249
G1 X58.426 Y21.995 E0.0005
G1 X57.775 Y21.995 E0.0249
G1 X57.785 Y22.005 E0.0005
G1 X57.134 Y22.005 E0.0249
G1 X57.125 Y21.995 E0.0005
G1 X56.474 Y21.995 E0.0249
G1 X56.483 Y22.005 E0.0005
G1 X55.833 Y22.005 E0.0249
G1 X55.823 Y21.995 E0.0005
G1 X55.173 Y21.995 E0.0249
G1 X55.182 Y22.005 E0.0005
G1 X54.532 Y22.005 E0.0249
G1 X54.522 Y21.995 E0.0005
G1 X53.872 Y21.995 E0.0249
G1 X53.881 Y22.005 E0.0005
G1 X53.231 Y22.005 E0.0249
G1 X53.221 Y21.995 E0.0005
G1 X52.571 Y21.995 E0.0249
G1 X52.580 Y22.005 E0.0005
G1 X51.930 Y22.005 E0.0249
G1 X51.920 Y21.995 E0.0005
G1 X51.270 Y21.995 E0.0249
G1 X51.279 Y22.005 E0.0005
G1 X50.629 Y22.005 E0.0249
G1 X50.619 Y21.995 E0.0005
G1 X49.969 Y21.995 E0.0249
G1 X49.978 Y22.005 E0.0005
G1 X49.328 Y22.005 E0.0249
G1 X49.318 Y21.995 E0.0005
G1 X48.668 Y21.995 E0.0249
G1 X48.677 Y22.005 E0.0005
G1 X48.026 Y22.005 E0.0249
G1 X48.017 Y21.995 E0.0005
G1 X47.366 Y21.995 E0.0249
G1 X47.376 Y22.005 E0.0005
G1 X46.725 Y22.005 E0.0249
G1 X46.716 Y21.995 E0.0005
G1 X46.065 Y21.995 E0.0249
G1 X46.075 Y22.005 E0.0005
G1 X45.424 Y22.005 E0.0249
G1 X45.415 Y21.995 E0.0005
G1 X44.764 Y21.995 E0.0249
G1 X44.774 Y22.005 E0.0005
G1 X44.120 Y22.002 E0.0250
G1 E-1.9000 F1200
; feature support
G1 Z0.700 F1200
G1 X63.612 Y-2.951 F9000
G1 Z0.200 F1200
G1 E1.9000 F1200
G1 X67.201 Y0.638 E0.1941 F2400
G1 X67.201 Y2.782 E0.0820
G1 X65.573 Y2.782 E0.0622
G1 X59.689 Y-3.102 E0.3183
G1 X56.340 Y-3.102 E0.1281
G1 X56.340 Y-2.788 E0.0120
G1 X56.232 Y-2.788 E0.0041
G1 X61.555 Y2.535 E0.2880
G1 X60.195 Y2.535 E0.0520
G1 X60.195 Y2.552 E0.0006
G1 X57.801 Y2.552 E0.0916
G1 X52.503 Y-2.746 E0.2865
G1 X49.495 Y-2.746 E0.1151
G1 X49.495 Y-2.832 E0.0033
G1 X48.646 Y-2.832 E0.0325
G1 X53.692 Y2.214 E0.2729
G1 X51.819 Y2.214 E0.0716
G1 X51.819 Y2.765 E0.0211
G1 X50.471 Y2.765 E0.0515
G1 X27.420 Y-20.286 E1.2469
G1 X31.265 Y-20.212 E0.1471
G1 X45.058 Y-6.419 E0.7461
G1 X45.058 Y-9.348 E0.1120
G1 X45.044 Y-9.348 E0.0005
G1 X45.044 Y-10.204 E0.0327
G1 X35.111 Y-20.138 E0.5373
G1 X38.956 Y-20.064 E0.1471
G1 X44.683 Y-14.337 E0.3098
G1 X44.683 Y-15.172 E0.0319
G1 X44.823 Y-15.172 E0.0054
G1 X44.823 Y-17.968 E0.1069
G1 X42.801 Y-19.990 E0.1094
G1 E-1.9000 F1200
G1 Z0.700 F1200
G1 X23.575 Y-20.361 F9000
G1 Z0.200 F1200
G1 E1.9000 F1200
G1 X46.581 Y2.646 E1.2445 F2400
G1 X45.248 Y2.646 E0.0510
